/* XPM */
static char *xpm____5_1748801244[] = {
/* columns rows colors chars-per-pixel */
"512 512 238 2 ",
"   c #4D4C2D",
".  c #494927",
"X  c #514E2D",
"o  c #53532D",
"O  c #58572D",
"+  c #4D4D33",
"@  c #4D4E38",
"#  c #514D34",
"$  c #514E39",
"%  c #4E5134",
"&  c #4E5139",
"*  c #545434",
"=  c #595634",
"-  c #5B5B35",
";  c #54543A",
":  c #59563A",
">  c #5C5C3B",
",  c #565938",
"<  c #4F502B",
"1  c #605E35",
"2  c #615E3B",
"3  c #615E2D",
"4  c #5E613B",
"5  c #5F6035",
"6  c #5E602F",
"7  c #646335",
"8  c #696635",
"9  c #63633C",
"0  c #69663D",
"q  c #6C6A3D",
"w  c #696938",
"e  c #716E3E",
"r  c #726C36",
"t  c #74723D",
"y  c #78753E",
"u  c #666430",
"i  c #43401F",
"p  c #5D5D42",
"a  c #585642",
"s  c #615E41",
"d  c #615F48",
"f  c #5E6143",
"g  c #646443",
"h  c #696642",
"j  c #676843",
"k  c #6C6B44",
"l  c #656549",
"z  c #6C6C4A",
"x  c #686849",
"c  c #716E44",
"v  c #716E4B",
"b  c #786F48",
"n  c #6F714A",
"m  c #6F7044",
"M  c #747245",
"N  c #797645",
"B  c #7B7A46",
"V  c #74734B",
"C  c #79764C",
"Z  c #77794B",
"A  c #7C7B4C",
"S  c #767947",
"D  c #6D6C51",
"F  c #716E51",
"G  c #747452",
"H  c #797652",
"J  c #777852",
"K  c #7C7C53",
"L  c #7B765A",
"P  c #7D7C5B",
"I  c #76755A",
"U  c #6F7152",
"Y  c #7D7C63",
"T  c #7C7661",
"R  c #413C1C",
"E  c #817F4D",
"W  c #827E46",
"Q  c #817E53",
"!  c #817E5B",
"~  c #847B57",
"^  c #837E62",
"/  c #847F68",
"(  c #7E814E",
")  c #7F8047",
"_  c #7F8153",
"`  c #7F805A",
"'  c #7E8162",
"]  c #84824D",
"[  c #89854D",
"{  c #87874D",
"}  c #848353",
"|  c #898655",
" . c #868856",
".. c #8A8955",
"X. c #84835B",
"o. c #89865B",
"O. c #87895B",
"+. c #8B8A5B",
"@. c #918E5E",
"#. c #908D56",
"$. c #93915D",
"%. c #99945E",
"&. c #8F915F",
"*. c #858363",
"=. c #898564",
"-. c #868962",
";. c #8C8B63",
":. c #85846B",
">. c #8A856B",
",. c #8D8B6B",
"<. c #878A6A",
"1. c #918E63",
"2. c #918E6C",
"3. c #998F6B",
"4. c #8E9165",
"5. c #8F916A",
"6. c #949264",
"7. c #999665",
"8. c #94936B",
"9. c #99966C",
"0. c #97986D",
"q. c #9C9A6D",
"w. c #9B9965",
"e. c #8D8B72",
"r. c #8C8771",
"t. c #938D73",
"y. c #948F79",
"u. c #998E76",
"i. c #8E9174",
"p. c #959373",
"a. c #999674",
"s. c #979871",
"d. c #9C9B74",
"f. c #96937A",
"g. c #9A957B",
"h. c #9D9B7B",
"j. c #97997A",
"k. c #A19D6D",
"l. c #A19B67",
"z. c #A19E74",
"x. c #A19E7C",
"c. c #A1977D",
"v. c #9FA076",
"b. c #9FA079",
"n. c #9EA06F",
"m. c #A5A36D",
"M. c #A2A175",
"N. c #A4A37B",
"B. c #A9A67D",
"V. c #A7A87D",
"C. c #AAAA7E",
"Z. c #AAA776",
"A. c #B3AE7B",
"S. c #9C9681",
"D. c #9E9A82",
"F. c #9D9C86",
"G. c #A29D84",
"H. c #A49E89",
"J. c #A89D87",
"K. c #9FA183",
"L. c #A5A384",
"P. c #A9A684",
"I. c #A7A882",
"U. c #ABAB84",
"Y. c #A6A28A",
"T. c #AAA58C",
"R. c #A7A98A",
"E. c #ADAA8C",
"W. c #B1AE86",
"Q. c #B1AD8D",
"!. c #B0A68E",
"~. c #AFB084",
"^. c #AEB08B",
"/. c #B2B286",
"(. c #B3B28D",
"). c #B9B68E",
"_. c #BAB88E",
"`. c #B8B689",
"'. c #ABA691",
"]. c #AEAA92",
"[. c #AFAD98",
"{. c #A7A590",
"}. c #B2AD94",
"|. c #B3AE99",
" X c #B7AC97",
".X c #AFB193",
"XX c #AFB399",
"oX c #B5B295",
"OX c #B9B496",
"+X c #B6B995",
"@X c #BCBA95",
"#X c #B6B39B",
"$X c #BAB59C",
"%X c #B6B99B",
"&X c #BCB99D",
"*X c #B7B5A0",
"=X c #BBB6A1",
"-X c #B7B9A1",
";X c #BDBAA3",
":X c #BEBDA9",
">X c #C0BE96",
",X c #C0BD9E",
"<X c #C1B79E",
"1X c #C1BCA4",
"2X c #C2BEA9",
"3X c #C0B5A3",
"4X c #BEC19D",
"5X c #BEC1A3",
"6X c #BFC1AB",
"7X c #BFC0B0",
"8X c #C2C19D",
"9X c #C5C49A",
"0X c #C3C2A5",
"qX c #C8C5A7",
"wX c #C4C2AC",
"eX c #C9C6AD",
"rX c #C6C9AB",
"tX c #CAC9AE",
"yX c #C8C9A6",
"uX c #C6C5B1",
"iX c #C9C6B2",
"pX c #C7C9B4",
"aX c #CBCAB4",
"sX c #CDCDB9",
"dX c #C8C8B8",
"fX c #D0CDB6",
"gX c #D0CEBA",
"hX c #CFD1BC",
"jX c #CDD0B2",
"kX c #D2D2B5",
"lX c #D2D2BD",
"zX c #D9D6BC",
"xX c #CFCEAF",
"cX c #CFD2C0",
"vX c #D4D4C1",
"bX c #DAD8C4",
"nX c #D0CFC0",
"mX c #E2DECA",
/* pixels */
"#XoX X}.oX#X$X$X;X$X$X$X$X#X#XOX=X;X=X-X;X-X;X=X$X*X=X-X;X-X;X;X=X$X=X$X=X=X;X=X1X;X1X1X2X1X1X2X;X3X3X;X2X;X1X;X;X=X;X;X=X;X=X=X$X$X$X$X$X$X$X;X;X&X1X&X1X&X1X1X1X$X1X1X$X1X1X1X$X$X1X1X1X&X;X=X&X&X;X&X&X&X$X&X&X&X&X&X;X,X,X1X&X&X1X&X1X,X1X1X&X1X1X1X,X<X&X;X<X,X&X&X&X@X$X,X@X$X&X@XOX}.OX&XOX$X&X&X&X&X&X$X&X&X&X&X$X&X&X&X@XOXoX(.+XOX,X,X$X,X,X,X,X&X,X&X,X,X<X,X&X$XOX@X$X@X$X$X$X@X$X@X&X$X$X$X@XOXOXOX$X<X@X$X@X$X&X,X$X1X<X;X;X$X&X&X$XOXoXoX}.oXoXOXOXOX$XOXOX$X@X$XOXOX$XOX#XOXOXOXOXOXOXoXoXOX(. XOXOXOX X(.Q.!.P.Q.W.P.W.W.B.x.x.).Q.W.!.U.W.W.!. X X X XoX}.}.}.Q. XQ. XoX(. XOX X(.(. X(.OXOXOX@X$X$X$X@X&X&X;X&X$X&X&X&X<X;X1X&X&X$X$XOXoXoXoXOX XOX#XOX$X#XOXoX}.Q.Q.}.}.Q.E.P.E.E.Q.}.oXoXOX$X$X$X$X,X&X,X@XOX$X$X$X&X$X&X&X$X$X$X$XOXOX$XoXOX$X$XOX&X&X;X<X&X&X$X&X$X$X$X$X@X$X$X@X$X$X<X$X$X@X$XOXOXOX$X$X$X$X$X$X&X$X&X&XOX$X$X$XOX$X$X$X;X1X1X1X2X3X1X2X3X1X;X1X3X2X;X;X3X2X:X3X2X3X2X2X1X1X0X1X,X&XOXOX-X-X=X-X-X-X=X-X;X;X;X:X;X;X:X:X:X;X;X;X-X;X-X;X:X:X;X0X2X0X:X:X0X6X6X6X6X6X;X;X0X;X6X;X;X;X:X-X5X;X;X-X-X-X%X%X-X-X;X;X;X*XoXXX",
"#X#X#XOX#X#X$X&X$X$X$X$X$X$X&X$X=X-X;X;X;X-X-X;X$X=X-X-X;X=X=X=X$X=X#X=X$X=X=X3X1X3X;X1X3X;X;X1X3X;X;X1X;X3X;X1X;X;X=X3X3X=X;X;X$X=X=X$X$X;X$X$X$X;X$X1X;X1X1X1X&X1X$X$X=X&X&X1X$X1X1X&X1X&X&X&X&X<X&X&X&X&X&X&X1X&X&X<X&X1X1X,X1X,X,X1X,X1X,X1X,X1X,X1X1X,X,X&X,X&X<X&X&X&X$X,X<X&X$XOX@X$X$X<X$X$X&X&X1X&X<X&X1X,X&X&X$X&X&X&X$X+XOXOXoXOX@X,X&X&X&X<X1X,X,X,X&X,X&X&X$X@X&X$X$X,X<X<X<X@X&X$X,X&X$X$X$X@X$XOX$X$X$X@X$X$X$X&X1X=X&X;X&X;X$X=XOX#XoX XoXoXOXOX#XOXOX$XOXOX$XOXOX$XOXOXOXOXOX#XOXOXOXoXOXoXOXoX XOXOX(.}.Q.Q.!.W.P.W.W.Q.P.U.U.).W.U.B.B.U.W.Q.OX X#XoXoX X}.}.}.(.Q.(.Q. X(.(.OX X XOX@XOXOX<X$X$X$X$X&X&X%X&X%X&X$X&X&X&X&X,X&X$X$X$XOX#XOX#XOXOXoXOXOXOXOXOX}.Q.T.Y.T.E.E.T.Q.Q.Q.}.oXoXOXOX$XOX<X@X,X$X$X,X$XOX$X$X$X$X$X&X$X,X&X$X$X$X$X$X$X$X$X$X&X&X&X&X$X$X&X$X@X$X$X$XOX@XOX$X@XOX@X$X$X@X@X#XOXOXOX>X@XOX$X$X$X&X$X&X&X$XOX$X$X$X@X$X=X3X1X2X2X1X;X2X1X2X2X3X1X1X1X2X;X2X2X3X:X2X2X3X1X1X1X1X;X&X$X$X;X;X;X;X:X;X;X;X;X;X;X;X;X;X:X;X:X;X;X;X-X;X;X;X*X;X:X:X2X6X2X;X;X6X0X6X;X0X6X6X6X0X;X6X-X5X;X:X:X-X;X;X;X%X-X*X=X;X;X-X-X%X*XXX",
"#X#X#X#X$X$X;X;X&X&X&X&X;X&X;X1X;X;X;X;X;X;X;X;X-X;X;X;X;X-X-X=X=X$X$X=X=X3X=X=X1X3X;X3X1X2X2X;X1X1X;X;X3X;X3X2X;X1X3X;X;X;X;X;X=X$X$X$X$X$X$X$X1X$X1X&X&X1X&X1X1X$X$X;X$X$X1X;X;X&X&X;X;X;X&X;X&X&X&X&X&X&X$X<X&X&X&X&X&X1X,X;X0X1X1X1X1X,X;X,X,X,X1X1X1X,X;X&X$X,X$X&X&X$X&X$X<X@XoXoXOX$X@X$X$X@X$X&X&X&X&X&X1X&X&X&X$X$X<X&X$X@X@XOXOX@X$X@X@X,X,X,X,X&X1X,X&X&X,X&X&X,X&X,X&X&X,X,X,X$X&X&X$X,X@X$X$XOX$X$X$X@X$XOX@X$X,X&X;X$X1X$X&X&X&X$X#XOXOXOXoXOXOX#XOXOX#XOX$X#X$X$X$X#X#XOXOXOX#XOXoXOXOXOXOX(.). XOX(.oX XQ.Q.Q.Q.Q.Q.Q.Q.W.P.P.P.J.B.J.B.!.W. XoX X#X#X XoX XoXQ.(. XoX(.}.(.(. X(. X X).OXOXOX$X$XOX@X&X%X%X&X&X@X$X$X$X&X&X<X&X$X$X$XOX#XOX#XoX#XOXOXOXoXoXOXOXOXoXE.P.E.Q.}.Q. XoXoXOXOX$X$X&X@XOX$X$X$X$X,X$X$X$X<X&X$X&X&X&X,X<X&X&X$X$X$X$X&X&X&X&X&X&X&X,X&XOX$X&X$X$X$X$XOX@X#X@X#X@X$X$X&X&X@X$X$X$X$X$X$X@X$X$X&X$X&X$XOX$X$X$X$X$X&X$X=X;X3X1X1X1X;X2X2X;X;X1X;X1X2X1X2X3X2X2X2X3X2X3X1X<X1X1X&X<X&X&X2X;X1X;X:X;X0X;X;X;X;X:X;X;X-X;X:X;X;X;X;X-X;X;X;X-X;X;X0X2X2X2X0X6X6X0X6X;X;X;X6X;X;X6X:X:X;X:X-X;X-X;X;X-X;X%X-X;X-X&X-X-X*X$X",
"$X$X$X$X&X&X;X1X;X;X;X&X1X1X1X1X;X;X:X;X6X;X:X;X;X;X:X;X;X;X-X=X=X=X=X$X=X=X=X3X;X;X;X2X;X1X3X1X2X;X3X2X1X2X;X1X1X3X:X;X3X1X;X3X$X$X$X=X$X$X;X&X$X1X$X1X;X;X<X;X$X;X&X$X&X;X$X1X&X;X<X;X<X;X;X&X&X;X&X<X&X&X&X&X<X;X&X&X<X;X1X,X1X,X1X0X1X,X1X,X1X1X1X,X<X1X&X,X,X$X@X$X@X$X&X>X&X$XOXOX#X@X#XOX$X&X&X<X<X1X&X&X&X<X&X$X&X&X&X,X@X$X>X@X$X@X@X$X@X$X$X<X,X1X,X,X&X,X,X&X&X&X,X&X,X,X&X&X&X,X&X&X@X$XOXOX$XOX@X$X,X$X$XOX$X$X@X<X&X1X&X;X&X<X$X$X$X$XOX#XOXOXOX$X#XOX@X$XOX@X@X$XOX@XOX$X$XOXOXOX$XOXOXOX XOXOXoXOX X(.(.Q.!.Q.Q.Q.Q.Q.Q.W.!.P.P.x.P.!.(.(.>XOXOX X$X$X$X#XOXoXoXOX X(.}.(. X(.(.Q.Q.(. X XOXOXOX@X$X$X$X&X&X%X;X$X$X$X&X$X&X&X&XOX$XoX$X$X#XOX#XOXOX#XOXOXOXoX#X&X$X}.Q.Q.oXOX$XOXoX$XOX$X@X$X&X$X@X&X@X,X@X$X,X<X&X&X&X&X&X;X,X&X$X&X&X&X&X&X&X&X;X&X<X<X&X;X&X&X&X&X$X&X$X$X@X$X$X$X$X$X$X@X<X&X<X$X@X$X$X@X$X$X$X$X$X$X&XOX&X$XOX$XOX@X$X$X&X=X;X1X2X3X;X1X3X1X1X3X2X2X3X;X3X2X2X:X;X;X;X;X;X1X1X$X1X&X&X;X1X;X;X:X;X;X;X:X;X;X:X;X;X;X;X;X;X;X;X;X;X;X;X;X;X;X;X;X;X;X:X:X0X6X;X6X;X6X6X5X6X6X5X6X;X;X5X-X5X5X:X-X5X-X;X-X-X-X-X;X-X-X-X-X-X",
"-X%X&X;X;X;X1X;X;X;X;X;X5X;X;X;X0X:X0X:X:X2X6X1X;X;X;X:X;X;X-X;X3X=X=X=X=X;X;X;X;X;X3X1X;X3X3X2X:X1X:X1X1X2X2X;X1X3X2X1X1X;X1X1X1X$X$X&X;X$X$X$X;X$X&X;X;X&X;X1X$X$X;X$X$X;X&X;X;X1X;X$X1X$X<X;X;X&X&X&X&X&X&X$X;X&X&X,X&X&X1X,X1X,X1X1X0X1X0X1X1X,X,X1X;X,X&X1X&X&X@X@X@X$X@X&X&X,X1X,X<X&XOX#X$X$X&X&X1X&X&X&X&X&X&X&X&X&X&X&X$X@X$X,X@X$X$X@X@X$X&X&X<X1X,X1X,X<X,X<X&X&X&X,X&X&X$X<X&X,X&XOX<X$X$X$X$X$X$X$X$X$X$X@X$X@X@X,X1X$X&X;X$X$X$X$X$X$XOXOX$XOX$X@XOX#XOXOX$XOX@X$X$X@X$XOXOX$X$XOXOXOXOXOXOXOXOX XoXoX(.(.}.Q.Q. X!.!.!.Q.Q.}. XQ.Q. XOXOX<XOX XQ.$X XOX$XOX XOXoXOX}.Q.Q.}.}. X(.). XoXoXOX@X@XOX@X$X$X$X&X&X%X4X$X&X&X$X&X$X$X&X#X$X#X#XOXOX#X#X@XOX$X@X$XOX#X@XOXOXoXoXoXoXOXoXOX@X@X$X@X$X@X&X@X$X$X,X@X&X$X<X&X&X<X&X1X&X1X&X&X1X<X&X&X&X,X$X1X$X<X&X&X<X&X&X&X&X&X$X&X$X&X$X$X$X$X&X,X$X,X$X&X&X@X&X,X$X$X#X$X,X&X$X$X$X$X$X$X$X$X$X$X$X$X&X;X3X2X1X2X;X1X1X3X1X:X1X3X1X;X2X2X2X2X3X;X;X=X3X1X1X=X$X&X;X;X1X;X:X6X;X;X;X;X6X;X;X:X:X6X;X;X;X;X;X;X;X-X;X;X;X;X:X;X;X;X;X:X;X5X;X6X;X5X6X6X;X6X6X;X;X5X;X;X:X:X-X-X;X-X;X;X-X-X;X-X;X;X-X;X;X",
"-X;X;X;X1X;X;X0X0X;X;X6X;X;X;X6X:X:X;X2X0X;X;X2X:X:X0X;X;X;X;X;X=X=X=X=X3X=X;X2X3X;X;X;X1X:X;X;X1X3X1X3X;X3X3X1X;X2X;X1X;X3X;X;X$X;X;X$X$X1X1X$X$X;X&X<X&X1X1X&X1X&X$X$X$X$X;X&X;X&X&X;X&X1X;X&X&X<X&X&X&X$X&X<X<X&X&X&X1X,X;X1X1X,X,X1X1X,X1X0X,X1X1X1X1X&X&X&X&X&X&X$X$X,X$X&X$X<X8X1X&XOXOXOX&X&X&X1X&X1X,X&X&X;X&X$X&X&X<X,X&X,X@X>X@X&X@X@X$X&X,X&X&X,X1X&X,X,X&X,X&X@X&X&X$X@X@X$X,X$X$XOX@X$X@X$X@XOX@X<X@X$X>X$X$X$X$X$X1X$X;X&X&X;X$X#X@X$X$X$XOX$X$X$XOXOX$XOXOXOX$XOX$X$X$X@XOXOXOXOXOXOX<XOXOXOXOX). X).OX X X(.(.(.Q.Q.oXQ. X+X#XOX$XOXOXOXoXOXOXOXOX$X$XOXOXOXOX XOXQ.Q.Q.Q.(.(.Q. X X(.oX XoXOXOX$XOX$X$X%X&X-X&X&X&X$X&X&X&X$X&X$XOXOX@X$X$X@X$X,X$X$X$X$X@X$X$XoXOXOXOXOXOXOXOXOX$X#X@X$X$X@X$X$X<X,X$X,X&X&X$X&X&X$X&X&X&X&X<X&X&X&X&X&X&X<X&X&X1X,X;X;X&X;X&X&X$X&X&X&X&X$X&X@X@X&X<X$X@X$X,X$XOX$X$X$X$X@X@X$X$X$X&X$X&X$X$XOX#XOX$X$X$X&X&X1X1X2X2X1X2X3X2X2X;X1X3X1X:X1X1X2X3X:X;X;X=X;X;X3X1X;X;X&X;X<X1X;X;X;X;X;X:X;X;X:X;X;X;X:X-X;X;X;X;X;X-X;X:X;X2X;X:X2X;X6X;X;X;X;X6X;X5X1X;X;X6X6X;X0X6X:X5X:X-X;X:X:X5X;X-X-X;X5X-X;X-X;X;X;X6X",
";X;X;X;X:X0X;X;X:X:X0X;X;X6X;X;X;X:X1X:X:X0X:X;X:X;X;X2X:X;X;X;X1X=X=X=X;X;X;X3X;X3X;X;X;X;X1X2X1X2X2X1X3X2X2X1X3X1X3X;X;X3X=X3X1X;X$X1X1X1X$X;X$X;X$X;X;X;X$X1X1X$X$X1X1X$X&X1X1X&X;X;X$X;X;X1X&X&X&X&X&X&X&X&X&X&X&X&X&X<X1X,X,X,X1X,X,X1X,X1X1X,X1X,X1X&X,X;X<X&X<X@X<X&X$X<X$X@X$XOXOXOXoX+X$X&X&X&X&X1X;X<X&X&X&X$X&X&X<X,X&X$X,X&X,X@X&X$X&X$X&X,X&X;X&X&X&X&X,X&X&X@X&X&X&X#X@X$X$X,XOX X$X@XOX$X#X@X$X$X@X$X$X$X@X$X$X,X$X;X&X&X$X&X$X@X$XOX@X$X@X$XOXOX$XOX$XOXOX$XOX&XOX$X@X$X$XOX$X$X<XOXOXOXOXOXoXOXoXOXOXOX(. X(. X@XOX$XoXoXOXOXOX$XOX X}.OX$X$X<XOX$XOXOXOXOXOX(. X}.T.!.Q.}.}. X(.Q.Q.Q.Q.Q. X}.$X$X#X&X&X&X%X&X&X&X&X&X$X&X&X&X$X<X$X$X$X$X#XOX$X$X$X$X<X@X@X$XOXOX$X$XOX#X$X$X$X$X$X$X@X$X$X,X@X$X>X$X$X$X@XOX$X$X&X$X&X&X&X$X&X&X&X;X&X<X&X&X&X&X&X&X&X&X&X<X&X&X&X<X$X$X&X$X$X@X$X$X$X$X@X$X X$X@X$X<X@X@X$X&X&X$X$X$X&X$X$X#X$X$X$X$X$X&X&X3X1X1X2X2X;X3X;X1X3X1X2X3X1X1X;X;X;X3X;X=X=X=X3X;X=X=X1X1X;X1X1X;X;X;X;X;X;X;X;X;X;X;X;X;X;X;X;X;X;X;X-X;X;X;X;X:X:X;X;X;X:X:X:X;X:X;X6X;X5X5X;X;X5X6X6X:X-X5X-X;X:X-X-X;X-X-X-X;X-X-X;X-X;X:X;X",
";X1X2X:X;X;X6X;XwX0X;X1X6X1X6X5X:X1X0X:X2X:X;X:X:X0X:X0X:X:X;X;X=X;X3X;X=X3X;X1X;X;X;X3X;X3X;X3X2X3X1X1X2X1X1X2X;X;X2X1X;X;X1X=X&X&X1X$X$X&X1X$X&X$X;X$X&X&X<X;X$X1X;X$X&X1X;X1X<X;X&X$X;X<X&X1X&X&X;X<X&X&X$X&X1X&X&X&X&X1X,X,X1X1X<X1X1X&X&X<X,X1X1X1X,X1X,X&X,X,X&X,X&X$X@X,X&XOXoXoXOX&X&X$X$X&X&X1X,X,X;X&X<X$X&X&X$X&X$X,X,X@X&X@X$X&X,X$X@X,X&X;X<X,X&X&X$X@X$X&X&X<X<X&X,X@X#XOX,X$X@XOX$X$XOX@X$X$X@X,X$X@X<X#X@X<X,X$X&X$X$X<X&X$X$X$XOXOX$XOX$XOX@XOXOXOXOXOX$XOX$X$X&XOX$XOX@X$XOXOX<XOX@XOXOXOX XOX X(.OXOXOXoXOX X X XOX XoX$X<XOX<XOX$XOXOXOXOX X X$XOXOXOX XoX XQ.Q.P.!.}.Q.oXQ.(. X(. XoXQ.oX X@X$X$X&X&X%X&X;X&X&X&X&X<X&X&X&X$X&X,X$X&X$X$X$XOXOX@X#X@X$X<X$X$XOXOXoXoXOXOXOX@X$X@X$X<X$X,X$X,X$X$X,X$X,X,X$X&X&X&X&X&X&X&X&X&X&X&X&X&X&X&X&X&X&X&X&X&X,X&X&X&X&X&X$X&X&X&X$X#XOXOXOXOXOXOX@XOXOXOX#X@X$X&X$X$X<X&X=X$X$X$X$X$X#X$X$X$X$X&X;X=X1X1X2X3X=X;X;X;X2X1X;X1X:X3X2X3X;X;X3X=X;X;X;X1X;X3X=X1X&X=X=X6X;X6X;X6X;X;X6X:X;X6X;X;X;X;X6X;X-X;X-X:X;X;X1X:X;X;X6X;X0X0X6X;X;X6X;X6X;X6X6X6X;X6X;X6X5X;X;X5X-X;X;X;X5X:X;X;X:X:X:X5X:X5X;X",
";X;X6X;X5X:X:X:X:X:X5X:X:X5X:X;X:X;X;X:X:X:X:X;X:X2X0X:X;X;X;X;X1X=X=X;X1X1X2X;X1X;X3X=X;X3X;X1X;X1X2X1X1X3X1X;X;X;X;X3X1X3X=X1X1X1X;X1X&X1X&X;X$X$X;X$X1X;X1X<X&X;X<X&X1X&X&X1X$X1X1X&X$X1X$X1X<X&X<X;X;X<X&X&X1X1X&X1X,X1X1X1X1X0X1X,X1X,X&X&X1X1X1X,X1X1X,X&X,X$X&X<X&X,X,X$X$XoXoXoXOXOXOXoX$X$X,X<X,X1X,X1X&X1X,X&X$X$X&X,X,X@X>X&X,X$X&X$X$X$X&X&X&X&X;X&XoX+XoXOX$X<X&X,X<X$X@X$X@X$XOX#X@XOXOX$X@X$X$X&X@XOX&XOX$X,X&X,X&X&X<X&X&X&X$X#X$XOX@X$X@XOX$X@XoXOX$XOXOX$XOXoXOXOX$X$X$X$XOX$X@XOXOXOXOXOXOXOX XOXOXOXOXOXOXOX#X X X#XOXOXOXOXOXOX$XOX XOX$X$X<XOXoX(.oXoXOXOX}.Q.Q.Q.Q.}. XOXOX<X(. XOXOXOX$X<X$X<X&X;X&X%X%X1X&X&X&X,X$X$X&X&X&X&X$X&X$X&X&X$X$X&X$X@X$XOX$X@X$X$XOX@X$X@X$XOX$X$X$X$X&X&X,X$X$X,X@X&X,X$X$X$X&X$X&X&X$X$X&X&X&X&X&X;X&X&X<X$X<X&X&X&X&X&X;X&X&X&X&X&X&X&X&X$XOX$X$XOXOX$X$X$X&X&X@X&X$X&X&X$X;X;X$X$X$X=X$X&X$X$X$X#X=X=X;X;X;X3X;X3X2X2X3X1X1X3X;X2X3X1X3X;X1X=X$X=X=X1X3X;X1X=X=X:X=X3X2X;X;X:X;X;X:X;X:X;X;X;X;X;X;X;X5X-X;X;X;X;X;X-X-X;X:X;X6X2X;X:X:X5X:X:X5X;X5X:X:X-X5X:X;X:X-X;X:X:X-X-X5X;X-X-X;X%X;X-X:X:X:X;X:X",
"6X6X;X6X-X:X;X5X;X5X:X:X5X;X:X:X1X2X6X0X;X0X;X:X:X;X6X;X:X;X-X:X1X=X$X3X3X1X3X;X=X=X;X1X=X;X;X;X1X3X;X2X1X1X;X;X=X3X;X;X=X1X;X=X$X&X$X$X=X$X;X;X$X;X$X&X&X;X&X;X1X;X;X;X&X1X1X&X1X;X&X;X;X&X;X&X&X;X,X&X&X,X&X&X&X,X&X,X1X1X,X1X1X,X1X1X,X,X1X1X,X1X1X,X,X<X<X&X,X&X&X@X&X&X$X,X@X$XOXoXOX$XOXOX&X&X&X&X1X1X;X<X&X&X1X&X&X$X,X$X&X&X&X&X$X@X&X&X&X<X&X&X&X<X1X&X&X$XOXOX@X$XOX$X@X$X$X@X$X$XOXOXOX#X$XOX$X$X&XOX$X$X@X$X$X@X@X$X&X&X&X&X&X&X@XOXOX$X#X@X$X@XOX%XOXOXOX$X$XOXOXoXOX@X$XOX$X$XOXOXOXOXOXOXOXOXOXOXOX XOX XOXOXOXOXOXOX#XOX$X X$X XOX$X X$XOX$X$X XOXOXOX X(. XoXOX}.}.}.Q.}.}.OXOXOX XOXOXOXOXOXOXOX$X&X&X%X&X&X&X&X&X<X&X&X$X,X$X<X$X$X$X$X&X$X&X@X<X@X$XOX@X@X$X$X$X$XOXOX$XOX$XOX$X@X<X<X$X>X$X$X,X<X$X@X&X$X@X<X&X&X&X&X&X&X&X<X&X<X&X&X&X&X&X&X&X&X&X<X&X<X&X$X&X$XOX$X$X$X$X@XOX@X$X$XOXOXOX@X$X$X$XOX$X@X&X$X$X$X$X;X$X$X$X&X$X$X$X$X$X$X;X;X3X;X1X;X1X;X1X;X3X;X;X;X2X;X;X;X=X$X;X=X$X=X=X1X=X1X3X;X3X3X2X:X;X;X;X;X;X;X;X;X;X;X:X:X;X:X-X;X-X;X;X;X;X:X:X;X;X1X;X;X2X;X:X5X:X:X:X:X:X:X5X:X;X:X5X;X:X5X-X;X:X5X;X5X;X;X-X;X-X5X-X;X5X5X-X",
";X6X5X;X5X:X5X6X:X:X;X5X:X:X6X-X0X:X:X1X2X;X0X:X;X;X;X;X;X;X-X;X=X=X=X=X;X;X3X;X=X3X=X=X;X;X1X3X;X3X3X;X1X=X=X1X;X;X;X;X;X=X=X1X1X$X$X&X&X=X&X$X1X;X&X;X$X;X;X&X1X&X&X;X;X&X;X;X&X1X<X;X$X1X;X;X$X&X&X;X&X;X1X&X&X<X1X&X1X,X1X,X,X,X,X1X1X1X,X1X0X1X8X0X1X1X1X&X,X&X$X@X$X,X$X$X$X$X$X@X#XOX$XOX&X&X<X;X;X,X1X<X&X&X&X&X$X$X&X&X,X$X$X<X$X@X&X,X<X&X1X&X1X&X;X,X,X&X&XOX$XOXOXOX&X&X$X,X$X$X$X@X XOXoXOXOXOXOXOX@X$X$XOX$X<X,X$X&X&X@X&X$X$X$X@X@X@XOX$X@XOX@X$X$XOX$XOX@XOXOX$XOX$X$X@X@X$XOX$XOX<XOXOXOXOXOXOXOXOXOXOXOXOXOXOX X#X XOX XOXOXOX$XOX$XOX XOX XOXOXOX(. XoXOXoXoXoXoX XoXoXOXOX#XOX XOX XOXOXOXOX#X@X$X&X;X&X;X%X&X$X&X&X$X<X$X,X&X&X$X@X$X$X&X$X@X$X&X$XOX$X@X$X@XOX$X@X$X$XOX$X$X@XOX$X,X@X@X,X$X$X@X$X<X$X@X$X&X&X&X$X&X$X$X&X;X&X&X&X&X&X&X;X&X&X&X&X&X&X;X&X&X$X$X&X$X$X$X@X@X$X$X$X@X$XOX#X$X@X@X$XOXOXOX&X1X$X$X=X=X$X=X$X=X$X$X#X$X=X=X=X;X;X;X1X3X3X2X1X2X;X;X;X1X1X;X;X1X$X$X1X$X1X=X$X;X;X;X=X=X3X3X2X;X;X:X;X;X;X;X;X:X;X:X;X;X;X;X:X6X:X;X:X:X;X;X;X;X6X;X:X;X2X:X:X:X5X;X:X;X5X-X:X;X:X-X:X:X;X:X5X:X-X:X;X-X:X;X-X-X;X5X;X:X-X:X;X",
"5X;X6X6X:X:X:X-X;X5X:X:X:X:X5X:X2X0X2X:X:X0X;X:X;X;X;X:X;X;X;X-X;X;X3X=X=X1X1X1X=X;X3X=X=X=X=X1X;X;X1X;X;X;X3X$X;X3X=X=X;X3X=X=X1X$X$X$X$X1X&X&X;X<X;X&X1X&X;X&X;X&X1X;X;X1X<X;X&X;X;X&X1X$X$X&X$X&X&X&X,X&X&X<X1X&X&X1X&X1X,X1X&X1X1X,X1X&X1X1X1X1X1X1X8X,X1X1X,X&X$X$X@X$X@X$X@X&X&X$XOXoXOX@X&X1X&X,X,X&X&X&X<X1X&X&X&X&X$X&X,X&X$X@X$X,X&X,X1X&X1X;X1X1X1X1X&X&XOX&X&X,X<X&X,X<X,X&X<X,X#X@X}.(.oX X XoXoXOX$X$X@X$X$X@X$X,X&X$X&X$X&XOX$XOXOX#X#X@XOX@XOX@XOX$X@X&X$X$X$X@XOXOX$X$XOX@XOX$XOXOXOXOXOXOXOXOXOXOXOXOXOX XOXOX XOXOX#X X$XOX X X$X$X XOX#XOX XoXOX X(. X(. XOXOXOXOX XOX X#X XOXOXOX). XOXOX<X@X$X$X&X%X4X&X&X&X<X&X&X&X&X&X&X&X$X$X$X$X@X$X&X$X$X@X$X$X$XOX$X$XOX$XOX@X$XOX@X$X$X@X$X$X$X$X$X@X@X$X$X$X$XOX@X$X&X&X&X&X<X&X&X&X&X$X&X$X&X&X&X$X&X$X<X&X&X&X&X&X&X&X&X&X$X$X$X$X$X@X<X<X$X$X@X&X<X,X$X&XOX&X&X1X=X=X;X3X=X=X$X=X=X=X=X=X=X$X1X3X;X;X;X:X1X;X1X2X3X;X;X2X3X1X3X&X1X$X$X$X$X=X;X1X3X1X=X:X:X;X2X;X;X;X;X-X:X:X6X-X;X;X;X;X;X;X-X;X;X;X;X-X;X;X;X;X;X;X:X;X;X;X:X:X-X5X;X:X:X5X;X;X:X5X;X5X-X;X-X;X;X:X5X-X;X-X;X:X-X;X:X;X:X:X5X",
";X6X:X:X:X:X:X:X5X:X:X:X:X:X:X:X:X0X:X:X1X;X:X;X;X:X;X;X;X;X;X;X=X3X=X=X=X1X1X1X1X=X=X=X$X1X=X=X;X3X=X3X;X;X=X;X3X=X=X=X;X=X3X;X;X&X$X;X&X1X1X;X1X$X;X&X$X$X1X$X&X;X1X<X&X1X&X1X=X&X;X&X=X<X;X;X$X&X&X&X1X&X1X&X&X&X&X1X&X1X&X1X1X<X1X&X1X<X&X,X,X1X1X0X1X,X1X,X&X&X&X@X$X,X$X$XOX@X$X$XOXOX$X&X1X,X1X&X,X;X,X;X1X&X&X&X$X&X&X$X$X&X$X@X&X&X&X1X1X,X;X,X1X1X1X,X&X&X&X&X&X1X1X,X,X&X,X&X&X@X@X$XoXoXoXoXoXOXOXoX$X@X$X$X$X,X>X$X$X$X$X@X$XOX@XOX@XOXOX@X@X@XOX@XOX&XOXOX@X$X$XOX$X$X$X$X$X$X@XOX<XOXOXOXOXOXOXOXOXOXOX<X X(.OXoXOXOXOX X XOXOXOXOXOX@X<X$XOX XoXOX X(.OXoXoX}.OXOXOX XOX X#X#XOX X<XoXOXOXOXOXOXOXOX$X&X&X&X4X;X&X&X&X$X,X$X$X$X$X$X$X$X$X$X&X@X$X<X@X@X<X$XOX@X<X$X&X@X$X$X@X,X$X@X$X$X@X$X$X,X$X$X$X,X$X$X$X,X&X$X&X&X&X&X$X&X,X$X$X&X&X$X<X&X$X&X$X$X&X$X&X&X<X,X&X&X&X&X&X&X<X&X@X&X@X$X@X$X$X,X&X$X$X@X&X<X$X;X=X=X=X=X;X=X=X;X=X=X=X=X1X=X3X;X;X;X;X2X1X1X;X;X;X;X1X;X1X;X1X&X&X$X$X&X;X;X=X1X;X;X3X:X=X3X5X:X-X;X;X;X;X;X;X:X;X:X;X6X:X;X;X;X;X;X;X:X:X;X6X1X:X;X:X;X;X;X:X;X5X-X:X:X5X:X5X-X:X-X5X:X:X;X5X:X;X5X:X-X;X-X;X;X-X:X5X:X;X:X",
"0X:X:X:X:X:X:X:X:X:X:X:X:X:X:X6X2X:X:X;X;X;X;X;X;X;X;X;X;X;X;X;X3X=X3X=X=X=X3X2X=X=X3X=X;X=X3X1X1X;X=X1X=X=X;X3X3X;X=X=X$X=X=X1X1X$X1X$X;X;X&X1X1X1X1X1X1X;X$X1X1X&X&X;X1X$X1X=X<X;X;X&X&X=X&X$X@X$X&X&X&X&X&X&X&X&X,X;X&X,X1X,X,X1X,X1X&X1X&X1X1X1X,X1X1X1X1X1X,X<X&X&X$X$X@X@XOX#XOXOXOXOX$X&X1X&X&X<X&X&X&X&X1X&X&X&X&X&X&X&X@X$X$X$X&X&X,X1X&X1X1X1X1X1X1X1X1X,X<X,X,X,X,X,X,X,X&X<X&X$X$XOXOX+XOXOX$X$X@X<X$X$X$XOX$X@X&X$X&X@X$X#XOXOXOX$X#X$XOXOX$XOX@XOX$X$XOX$X#XOX$X@XOXOX@X$XOX@XOXOXOXOXOXOXOXOXOXOXOX<XOXOXOXOX). XOXOXOXOXOXOXoXoXOXOXOXOXOXOXoXoX(.). XoXOXoXoX XoXOXOX X#X X XOX X).OXOXOXOXOXOX$X$X$X<X&X&X&X;X&X&X&X&X$X&X$X&X$X$X@X$X$X$X$X$X@X$X$X$X@X$X$X$X$X$X$X$X$X@X$X$X$X$X@X&X>X$X@X$X$X>X$X$X@X,X&X,X&X&X&X$X$X&X<X&X$X&X&X&X&X&X&X&X&X$X&X@X&X&X&X$X&X&X;X&X&X<X;X<X&X&X&X&X$X&X,X$XOXOX$X@X@X$X$X&X1X3X=X1X;X3X=X=X3X=X1X1X3X1X3X1X;X;X3X2X1X3X;X:X3X1X;X3X3X2X;X;X1X&X$X$X$X$X$X;X3X=X3X;X;X;X:X3X-X:X;X;X;X;X;X;X;X;X;X;X;X;X;X;X:X;X:X;X;X;X;X;X;X;X6X;X;X;X;X:X;X-X;X:X;X;X;X:X:X5X:X5X:X-X5X-X-X:X-X:X:X:X5X;X5X:X5X:X5X:X5X;X",
":X6X:X6X:X6X-X6X:X:X6X:X-X6X6X-X;X:X;X;X;X;X-X-X=X-X;X;X;X;X;X-X=X=X=X=X$X$X=X1X$X1X$X=X=X=X3X=X2X;X;X=X1X;X;X=X;X3X=X=X=X=X=X=X;X;X$X$X<X1X1X;X1X&X1X$X$X1X1X&X1X;X<X;X$X1X&X1X&X1X$X;X$X&X=X$X$X&X&X&X&X&X&X<X&X&X;X&X1X1X&X1X&X1X;X,X,X&X,X1X,X1X,X1X,X1X,X1X,X<X,X$X,X@X&X$XOXOX#X@X&X&X,X$X,X,X&X&X&X1X&X1X,X&X&X$X&X&X&X$X@X$X@X<X&X1X1X,X1X;X1X1X1X;X1X1X0X,X,X,X&X&X&X@X1X&X,X&X&XOXOX$XOXOX$X$X@X$X$X$X$X@X$XOX$X<X&X,X,X$X&X@X@X$X@X$X@XOX+X@X@XOX$X@X$XOXOXOXOXOX$X$XOXOX$X@X$X$XOX$X$X@XOX XOXOXOXOXOX<X(.OXOXOX(.OXOXOXOXOXOXoXOXoX XOX(. X XOXoXOX(. XoX XOX).OXOX XOX XOX X$X#X XOX X). XOXOXOXOX$X@X$X$X&X&X&X%X$X&X&X$X&X$X$X$X$X&XOX$X$X$X$X$X$X$X<X$XOX$XOX$X@X$X>X$X$X<X@X$X,X<X@X$X$X$X$X$XOX#X$XOX$X$X<X$X&X&X&X&X$X&X&X<X$X&X&X$X&X$X$X$X$X$X$X$X$X&X&X&X&X<X&X&X&X;X&X;X@X&X&X&X,X$X@X$XOXOX@X$X$XOX$X,X1X;X1X=X=X=X=X=X;X=X=X3X3X;X;X;X;X3X;X;X;X2X3X1X3X;X;X3X1X;X1X;X$X$X$XOX#X#X$X&X;X1X;X;X:X3X2X:X:X:X;X;X:X-X;X;X;X;X-X;X;X;X:X;X:X;X;X;X6X;X;X:X;X;X;X;X:X-X;X=X5X:X;X-X5X;X-X-X:X:X-X;X;X:X-X;X;X:X5X:X-X:X;X:X:X:X;X5X5X:X-X:X",
"6X:X6X:X6X:X6X6X-X6X-X6X6X-X:X6X;X:X;X;X-X=X;X=X*X=X-X-X*X-X;X*X=X=X#X#X#X#X=X1X=X=X=X=X=X=X;X;X;X1X3X=X=X3X1X;X;X=X=X$X$X<X1X;X$X$X$X$X$X;X&X;X<X;X1X&X1X;X&X1X&X;X;X;X<X;X1X$X1X$X;X$X1X$X&X$X&X$X$X<X&X$X$X$X<X&X&X,X&X<X1X,X&X&X&X&X;X,X1X0X&X<X1X&X1X1X,X,X,X,X&X&X&X<X<X$X$XOX#XOX<X,X<X,X;X&X&X;X<X&X1X,X1X&X&X&X&X<X&X$XOX#X@X&X&X<X,X1X&X1X&X1X1X1X1X1X<X,X$X$X&X,X&X&X<X,X,X&X&X$XOXoXOXoXOXOXOX#X@X$X@X$X$X@X@X$X,X$X<X,X,X$X&X&X&X$X@X#XOX@X#X@X$XOXOX$XoX XOXOX$XOX$X$XOXOX$X$XOXOX<XOXOXOX XOXOXOXOXOXOXOXOX XOXoXOXOX XOXOXOXoX(. X}. XQ.(.Q.(.(.(.OXOXOXOXOX#XOXOX XOX#XOXOX#X#XOXOXOXOX XOXOX@X$X,X$X,X&X&X%X&X&X&X&X$X$X$X&X@X$X$X$X$XOX@X$X$X@X$X@X$X#X@X@X$X$X$X$X@X@X$X$X$X@X$X$X$X$X@X<X@XOXOXOX@X@X$X@X$X&X&X<X$X&X&X&X$X$X@X$X&X$X&X$X&X$X,X$X@X$X&X&X&X$X$X$X$X&X&X,X<X<X&X<X&X$X,X$X,X$X$X$X$X$X,X<X1X&X3X=X1X1X;X3X1X=X=X;X=X;X;X1X=X;X;X3X1X;X3X1X1X2X2X;X;X1X1X3X;X;X$XOX XoX#X$X$X1X=X;X=X:X=X:X:X;X;X;X;X:X-X5X;X;X:X:X;X;X:X;X;X;X:X0X6X;X;X;X:X0X6X;X;X;X;X;X=X:X-X;X5X-X:X5X:X:X;X5X:X;X5X;X:X;X-X;X:X5X5X;X:X-X5X:X:X:X:X5X;X",
"5X6X-X6X7X:X:X:X-X:X:X:X:X:X:X-X0X:X;X*X=X$X*X=X;X;X=X;X-X=X-X=X:X=X*X=X=X=X;X3X:X=X=X3X1X<X;X&X;X&X1X&X$X&X&X&X&X&X&X<X$X&X&X&X&X$X$X1X$X;X1X&X$X1X$X1X&X1X;X1X$X=X=X;X=X1X=X1X$X$X&X&X;X<X;X&X&X&X&X&X&X&X$X&X$X&X&X,X1X,X1X&X,X;X,X;X<X1X&X,X0X1X1X0X,X1X<X&X,X1X&X,X&X$X$X$X,X@XOX#X&X,X,X,X&X&X&X&X&X,X,X&X,X&X&X$X$X$X&X,XOX$X&X&X&X&X;X&X1X,X1X1X,X1X1X1X&X,X;X,X;X&X<X;X&X&X&X&X$X$XOXOX}.OX$X$X@X&X$X$X#X@X$X@X@X,X$X,X$X&X$X,X,X$X<X$X@X$XOXOX$XOX#XOX$X<XOXOX$X<X$X$XOXOX<X$X<X$X$XOX$XOXOXOX$XOXOXOXOXOXOXOXOXOXOXoXOXOXOXOX X). X X<X!.W.W.!.>XW.>X!.Q.oXOXOXOXOX XOXOXOXoXoXoX#XOX$XoXOXOXOX$XOXOX@X$X$X&X$X@X@X&X<X&X&X@X$X,X$X$X@X$X<X@XOX#X$X@X,X$X@X@X$X$X,X@X$X$X$X>X$X,X$X@X$X>X@X$X@X&X&X<XOX@X@X$X&X<X,X$X$X@X$X<X$X$X,X$X@XOX$X@X$X$X@X$X&X@X$X&X@XOX$XOXOX#X$X&X,X&X&X&X&X&X;X<X;X&X$X$X$X$X$X$X;X&X=X1X$X=X&X-X-X&X=X$X-X;X&X;X-X;X;X&X;X;X3X;X=X3X;X2X=X1X;X1X1X1X1X1X$XoXQ.oX$X$X$X$X&X;X%X;X%X5X;X;X;X;X;X;X;X;X;X;X;X-X;X*X:X;X;X:X:X:X;X:X:X=X:X=X;X;X;X:X=X:X:X:X:X-X-X;X-X;X:X:X:X:X:X5X:X5X;X:X5X5X:X:X5X:X:X:X:X;X:X;X5X:X:X;X",
"-X7X6X7X6X7X:X:X:X:X:X:X-X:X-X:X0X:X;X=X$X=X-X-X;X-X;X;X;X-X-X=X=X=X=X=X=X=X;X3X;X;X$X;X$X1X;X&X,X1X&X&X&X&X$X$X$X&X&X$X&X$X&X$X;X$X$X;X&X1X$X1X1X$X1X$X&X;X&X1X=X=X3X=X;X=X1X$X&X&X;X&X&X&X&X&X$X$X&X&X$X&X&X&X<X&X1X1X1X1X,X1X;X<X1X,X&X1X1X&X,X1X1X,X1X,X&X1X,X&X,X&X&X&X$X@X@X$X@X$X&X,X&X&X&X<X&X&X;X&X;X;X$X&X$X$X$X&X&X&X$X=X&X&X&X<X,X1X;X1X,X1X1X,X,X1X,X;X,X&X,X1X;X,X,X&X;X&X<X$X$X$XOXOXOX@X$XOXOXOXOX#X@X<X$X$X,X$X@X$X$X@X$X$X@X$X$X@X#XOXOX@XOXOXOXOXOXOXOXOX<X$X@XOX@X$XOX<X@XOXOXOXOXOXOXOXOXOXOX$X XOX#XOXOX XOX XOX(.(. X X(.Q.W.>X!.!.W.W.<X X X XoX@XOXOXOX#XOXOX XOXOXoXOXoXoX$XOXOX$X$X@X$X$X>X@X&X&X$X$X&X&X&X&X@X$X@X$X@X$X$X$X$X@X$XOX$X$X$X$X@X<X$X$X$X,X<X$X@X$X$X,X$X$X$X$X$X$X$X$XOX$X$X@X@X$X@X,X&X$X@X,X&X@X@X&X$X$X$X$X@X<X&X$X@X&X&X@X@X$XOXOXOXOX$X&X&X&X&X&X;X&X;X&X;X&X$X$X$X$X$X&X$X&X<X&X-X&X;X$X$X-X&X-X-X&X;X-X&X;X;X;X;X1X;X;X;X3X;X2X=X3X;X3X;X1X3X;X$X X}. XoXoXOX$X%X%X&X&X&X;X&X5X;X;X-X;X;X;X;X;X;X;X;X;X-X;X;X;X:X-X:X-X*X:X=X:X:X;X:X;X:X=X:X=X-X5X;X;X;X;X-X5X;X5X-X;X:X-X:X5X:X-X5X;X:X:X;X5X5X5X:X:X:X5X:X5X",
"6X:X:X:X-X6X:X:X:X:X:X:X:X:X:X:X;X;X-X=X$X-X;X;X;X;X;X;X;X=X=X-X=X=X=X:X3X3X3X;X;X3X;X&X1X;X$X1X&X&X&X&X&X&X&X$X$X$X$X&X$X&X&X&X$X$X$X$X$X$X1X$X&X;X1X$X1X;X<X&X1X1X=X=X;X;X1X<X;X&X&X&X&X&X&X&X&X&X&X&X<X&X&X;X;X,X&X,X,X1X,X&X1X&X&X,X&X,X;X,X1X1X1X1X1X&X1X,X,X1X,X<X@X&X&X&X>X$XOX$X&X,X&X,X1X&X&X;X<X&X&X<X<X&X$X$X&X&X&X1X<X&X&X&X&X&X&X1X,X,X,X;X<X&X1X,X&X;X<X1X;X,X,X1X&X1X,X1X,X&X&X&X&XOXoXOXOXOXoXoXOXOX$X$X$X,X$X<X@X$X@XOX$X@XOX$X$X#XOXOXOX$XOX X$XOXOX$XOXOX<XOX X$XOXOXOXOXOX#XOX XOXOXOXOX$XOXOXOXOXOXOXOXOXOXOX X(. X XQ.Q.).>X!.>XQ.W.W.>XQ.).oXOXOXOXOX#XOXOXOXOXOXoXoX#XOX$X$X$X$X$X$X$X$X$X$X&X&X@X&X$X@X<X$X$X&X,X$X$X<XOX$X$X$X$X$X$X@X,X@X<X$X$X$X,X>X@X$X$X@X$X<X$X,X@X$X@X$X@X$XOXOX$X$X$X$X$X&X,X$X$X@X$X$X&X<X$X,X@XOXOX@X$X$X$X$X$X@X$X$X@XOXoXoXOXOX&X<X&X&X&X&X$X;X&X1X$X<X$X$X$X&X$X$X;X$X&X;X-X&X$X-X=X&X&X-X;X&X-X$X;X;X&X-X;X;X;X;X:X3X1X3X;X1X;X;X3X;X=X;X$X#X}.oXoXoX#X&X;X%X&X&X%X;X;X&X-X;X;X;X-X;X-X;X;X;X;X;X;X;X:X:X-X;X;X:X:X*X:X:X:X-X;X;X*X*X:X:X;X-X-X-X-X;X-X5X:X-X:X;X;X5X:X;X;X:X:X-X;X5X5X-X:X:X;X5X:X5X:X:X",
":X:X:X:X:X:X:X:X:X:X:X:X:X-X:X*X:X;X;X-X-X-X:X;X-X;X;X;X;X;X;X;X=X:X3X2X3X2X2X;X1X=X$X1X&X1X1X&X&X1X<X&X<X$X&X&X$X$X$X$X&X&X$X&X&X$X;X$X1X;X$X1X1X$X&X1X$X1X;X;X3X;X1X1X1X1X;X1X1X1X<X&X&X&X&X&X&X<X&X&X,X1X,X1X,X1X1X1X,X&X1X&X,X,X1X1X1X,X1X&X,X&X,X1X1X1X,X1X,X,X&X&X<X&X&X@X$X$X<X$X&X&X&X<X1X&X,X&X1X&X&X1X&X&X&X&X$X&X&X,X1X&X1X<X,X1X,X1X;X,X;X<X;X,X&X1X1X,X;X,X,X;X,X&X,X1X1X1X1X&X1X&X&XOX}.oXoX$XoXoX$X$X@X$X$X@X@X$X$X$X$X$X@X$X$X@X,X@XOX#XOXOX$XoXOXOXOXOXOX$XOXOXOXOXOXOXOXOXOXOXOXOX<X XOX$X XOX$XOXOX#XOXOXOX X XOXOX X). XQ. XW.!.!.Q.>X!.!.W. XOXoXOXOX#XOXOXOXoXoXoXoXOXOXOX$XOX$X$X<X$X@X&X$X>X@X&X@X&X@X$X@X,X$X@X$X@X$X$XOX$X@XOX$X$XOXOX$X$X@X$X$X@X$X$X$X,X$X&X@X,X$X$X<X$X$X$XOXOXOXOX&X<X$X@X,X$X$X$X,X&X,X$X$X$X@X$X$X$X$X$X$X@X<X@X&X@XOXOXOXoX XOXOX$X$X&X&X<X&X&X1X&X;X;X&X;X$X$X$X;X;X$X;X&X$X1X$X=X&X&X&X$X;X$X&X;X&X;X&X&X;X;X3X3X=X;X;X;X;X1X;X;X;X3X1X=X=X$X$X X}.oXoX XoX&X%X&X%X&X;X%X&X-X-X-X-X;X;X;X*X;X-X;X;X-X;X;X;X;X;X;X:X;X:X:X=X:X:X;X:X;X*X:X*X*X-X;X;X-X;X-X;X;X:X5X:X5X-X:X5X-X5X5X;X:X:X:X6X:X:X:X5X:X:X;X:X5X",
":X:X:X:X:X:X:X:X:X:X:X:X-X:X:X:X:X;X:X-X-X;X-X;X;X;X;X;X;X;X;X;X;X:X2X2X1X2X2X3X=X;X$X1X;X1X$X;X<X1X&X&X<X&X&X$XOX$X$X&X&X&X&X&X1X$X&X;X&X1X;X1X;X$X1X$X&X1X;X<X3X;X1X;X1X1X1X1X1X1X&X&X&X&X&X&X&X&X1X&X<X1X,X,X1X1X&X1X<X1X,X,X;X1X,X1X<X1X,X1X&X1X,X1X,X1X,X&X,X,X&X;X,X&X&X&X$X@X$X@X$X&X&X@X<X&X1X&X&X;X,X&X&X&X$X&X&X&X;X;X1X&X&X1X1X,X1X,X;X,X;X1X;X<X,X&X,X;X1X,X1X;X,X1X;X1X,X,X;X,X&X&X&XOXoX}.OX#XOX X$XOXOX$X<X@X#X$X$X,X$X,X$X@X$X&X$X$XOX#X$X$XOXoXOXOXOXOXOXOX<XOXOXOXOXOXOXOXOXOX$XOX$XOX$XOXOX$XOXOX$XOXOXOX XOX X).OX X<XQ. X).Q.<X!.`.Q.Q.).OXoXoXOXOX$XOXOXOXoXoX}.oXoXoXOXOX$X$X$X$X$X&X&X&X$X$X>X$X@X&X@X@X$X&X<X@X$X$X@XOXOX@XOX@X@X@XOXOX$X,X@X@X$X$X$X@X,X$X,X$X$X,X&X@X@X@X$X@XOXOX#XOX$X$X,X$X@X$X&X@X,X$X$X,X,X&X$X,X@X$X$X@X>X$X$X@X$XOXOXOXoXoXOXoX&X$X&X&X1X&X;X&X$X1X$X;X&X=X&X=X;X1X$X$X$X1X$X$X-X&X$X-X&X=X&X-X-X&X-X-X;X;X;X&X;X;X3X;X3X;X1X3X;X=X3X;X;X=X$X$X#XOX X XoX}.OX&X%X$X&X&X%X&X%X&X-X;X;X;X;X-X;X=X;X;X;X;X:X:X;X;X;X;X;X:X;X:X;X:X;X;X;X-X-X*X=X=X%X-X;X-X-X5X-X-X;X5X:X-X:X;X5X:X:X-X:X;X5X:X5X:X:X:X5X-X:X5X:X:X",
":X:X:X:X:X-X:X:X:X:X:X-X:X:X:X:X0X2X;X:X;X;X:X;X;X;X6X;X;X;X;X;X;X:X3X2X2X1X;X;X1X=X$X1X;X<X1X;X&X&X,X&X$X$X&X$X$X&X&X&X<X&X&X&X1X1X;X<X1X$X1X&X&X1X$X1X1X&X;X;X;X1X;X3X;X3X1X1X;X1X,X;X&X&X&X&X&X&X1X&X;X,X;X1X1X,X1X,X1X,X1X1X1X,X1X,X,X;X1X,X,X&X1X,X1X,X1X&X&X,X,X,X,X&X,X&X$X$X&X&X&XOX&X&X1X,X,X1X,X;X&X&X&X&X&X<X,X&X<X&X,X1X,X&X<X;X,X;X,X&X,X&X,X&X1X1X;X,X&X;X&X<X,X&X,X;X,X;X<X;X,X&X&XOXoXoXOXOXOXOXOX@X$X$X$X@X$X@X$X@X@X&X&X<X@X<X&X$XOXOXOXOXOXOX#XOX XOXOX#XOX$X XOXOXOX X$X XOXOXOXOXOXOXOXOXOXOXOXOX XOXOXOXOXOX XOX).). XQ. XW.!.W.Q.Q.).Q.(.oXOXoX#XOX$XOX$XoX}.(.}.oX XOX X$XOX$X$X&X$X@X$X@X$X@X,X&X&X$X&X$X@X$X$X$X@X$X$XOX$X$X$X$X$X$X$X$X>X$X$X$X@X,X&X>X$X$X@X$X@X&X$X$X$X$X$XOX@X$X$X&X@X$X@X&X&X&X,X,X,X,X$X@X$X$X@X$X@X$X,X$X&X&X&X@XOXOXOXoX$XOX$X$X&X&X$X&X<X$X$X;X&X1X$X;X&X;X&X;X&X&X1X$X1X;X$X&X=X&X;X-X&X=X&X;X;X&X&X;X&X-X;X3X;X;X;X;X;X;X;X3X3X;X;X;X=X=X=XOX X}.oXoX X#X$X&X%X&X%X&X&X%X%X=X-X$X=X*X-X=X-X;X;X-X;X-X;X;X:X:X;X:X;X;X;X;X=X-X-X-X=X$X=X-X-X:X;X;X5X;X;X:X;X:X;X:X5X:X-X:X;X;X:X:X:X:X:X:X5X:X5X:X:X;X5X;X:X",
":X:X-X:X:X:X:X:X:X:X:X:X:X=X=X:X:X;X:X;X;X;X;X;X6X;X;X:X;X;X:X-X;X3X2X2X3X1X3X;X3X;X=X$X&X1X&X&X;X&X;X;X$X1X&X&X$X=X&X1X;X;X;X&X&X;X&X;X$X1X$X1X1X$X1X&X&X;X&X;X;X3X1X;X;X3X;X;X1X,X;X<X<X&X&X&X&X<X&X&X1X&X,X&X,X1X&X,X1X1X1X1X,X,X1X1X1X1X1X1X1X,X&X1X&X1X&X&X&X,X<X,X&X,X&X,X,X,X&X<X&X@X,X,X1X,X1X&X<X&X1X&X&X&X&X;X1X&X;X,X&X1X1X,X&X1X&X;X,X1X1X,X1X1X1X,X,X1X&X,X1X&X;X,X;X<X&X1X1X&X1X&X@X,X@X#XoXoXoXOXOXOX$X@X$X$X$X$X$X$X<X,X$X&X$X$X@X$XOXOXOX$XOXoXOXOXOXOXOXOXOXOXOXOXOX$X<XOXOXOXOXOXOX$X$XOXOXOX<XOXOXOXOXOXOXOX). XOX<X X X).Q.>X!.W.!.<XQ.). XoXOXOXOXOX$X$XOXOXoXOXoXoXOX$X@XOX$XOX$X$X<X$X$X$X>X$X&X&X@X@X$X$X$X,X$X@X@X#XOX$X$X$X$X$XOX<X@X$X$X@X$X@X$X&X$X$X@X$X&X$X$X$X@X$X$X$X@X@X$X$X@X@X$X,X$X&X,X&X<X,X$X$X,X&X&X$X,X$X<X,X$X$X,X&X&X#XOXoXoXOXOX&X&X;X&X&X&X$X;X;X1X<X1X&X;X&X;X;X&X;X<X;X$X;X$X;X&X-X&X=X$X$X=X&X-X&X-X%X;X;X;X;X&X3X;X;X;X;X3X1X2X;X;X;X;X;X=X=X$X$X XQ.}.oXoXOX$X#X&X%X&X-X%X#X%X;X=X=X-X=X;X;X=X;X;X;X-X;X-X;X;X;X;X;X;X;X-X*X*X*X*X$X=X-X;X;X;X-X;X;X5X:X;X:X-X5X-X:X;X5X:X;X:X5X;X;X5X;X:X:X;X;X5X5X:X;X:X5X:X",
"-X:X:X:X:X:X:X-X:X:X:X:X:X:X:X:X;X;X:X;X;X1X:X;X2X;X6X;X:X:X;X;X3X;X:X3X2X;X;X;X;X=X&X1X;X1X;X&X<X1X;X&X;X&X=X$X;X&X&X1X1X<X;X$X1X&X1X=X&X$X;X&X$X;X$X;X$X1X1X;X;X;X=X1X;X1X&X1X;X;X,X1X,X;X&X&X;X;X<X&X&X&X&X&X;X1X<X;X,X,X0X0X1X1X1X,X0X,X,X1X1X;X1X,X1X<X&X&X<X,X&X,X$X,X,X,X,X<X,X,X&X&X<X1X1X1X,X1X;X,X&X&X&X&X&X<X&X<X&X&X,X&X&X;X<X&X,X&X1X1X,X1X1X,X,X1X1X&X1X<X&X1X,X;X,X,X1X0X,X1X,X;X<X$X,X$XOXoXoXoX XOXOX$X@X$X,X$X@XOX$X$X$X@X@X$X&XOXOXOX$XOXoX$XOX XOXOX XOXOXOXOXOX$XOXOX$XOXOXOX<X XOXOXOX XOXOXOXOX$X$X XOX X). X XOX). X).!.Q.Q.Q.W.<XQ.). XoXOXOX$XOXOX$XOXoXOXoX#XOXOX$X$X#XOX$X$X@X$X$X@X$X$X$X@X@X&X$X@X@X$X@XOX$X$X$X@X<X$XOX@X$X@X$X#X,X$X$X@X<X$X&X$X$X,X<X$X,X@X<X&X&X@X<X$X$X$X,X$X$X@X<X$X&X&X,X,X<X,X,X,X&X<X@X$X$X$X@X$X>X$X&X&XOXOXOXoXOX$X&X&X&X<X&X$X&X&X&X;X;X$X1X$X;X<X;X1X&X;X$X1X&X;X&X;X$X-X&X-X-X&X-X$X;X&X;X;X%X&X;X;X;X;X3X;X;X;X;X2X;X1X;X3X3X;X3X=X$X XQ.}.oX$XoX#X%X%X%X&X@X%X#XOX=X-X;X=X-X-X=X-X;X;X;X;X;X;X;X:X;X;X-X=X=X*X*X*X#X$X*X$X=X-X;X;X;X-X:X:X6X5X;X:X:X:X5X;X;X:X5X-X:X:X5X-X5X5X:X:X:X:X:X:X5X:X5X:X",
":X:X:X:X;X:X:X:X3X2X:X:X;X:X:X:X;X6X;X;X;X:X;X6X;X0X1X;X;X;X0X:X3X2X:X3X=X3X1X;X;X3X$X1X$X;X;X$X;X;X&X$X$X$X1X&X=X1X$X$X;X&X&X;X$X$X1X$X=X&X&X=X1X;X<X;X;X&X1X&X2X2X;X1X1X2X;X;X1X;X<X<X,X;X<X1X,X&X1X&X&X&X,X&X&X<X&X,X,X1X1X0X1X1X1X1X1X<X<X,X0X0X0X,X1X,X1X<X,X,X1X<X&X&X&X&X$X@X,X&X,X$X,X,X&X,X,X1X&X,X1X&X,X;X,X1X&X,X,X;X1X&X<X1X;X,X1X&X1X,X1X,X,X;X,X;X&X&X,X;X,X;X,X1X<X1X,X&X1X&X,X<X$X&X,X,X$XoXoXQ.oXoXOX$X&X&XOXOX@X&X$X$X$X@X@X$X&XOX$XOXOXOXOXOXOXOX$XOXOXOXOX$XOX$X$XOXOX<XOX$XOXOXOX X$XOX$X<X$X$XOXOXOXOXOXOX X<X).).<X!.W.!.W.Q.Q.Q.(. XOXOXOX#XOXOXOXOXOX$XOXOX#XOXOXOX#XOX&X$X&X$X&X&X@X&X$X&X@X&X@X$X$X&XOX@X@X$X$X@X$X@X@X$X@X$X@X$X$X@X$X@X$X@X$X<X<X@X<X$X@X$X$X@X@X$X&X@X$X@X#XOX$X<X$X<X@X&X>X$X$X<X,X&X&X@X,X@X$X@X$X$X@X$X$XOX$X@X$X#XOXOX$X&X<X&X&X&X1X;X;X<X;X&X;X<X<X;X;X&X1X;X$X1X$X1X$X&X;X$X;X&X-X&X;X=X=X&X&X-X&X-X&X-X$X;X3X;X;X;X;X3X3X;X3X=X=X$X3X$X=X$X#X X XOXoX XoX$X#X%XOX$X%XOX%X%X$X$X*X$X*X-X-X-X;X-X;X=X;X;X;X;X;X;X;X*X*X*X-X-X$X*X*X-X-X;X;X2X5X:X;X5X:X:X:X:X:X:X;X;X:X-X5X:X:X;X5X-X-X;X:X:X5X:X:X:X;X5X:X:X",
":X-X:X;X:X=X:X=X3X:X:X:X;X:X=X:X;X;X;X;X;X0X;X;X:X:X6X;X6X;X;X;X:X2X:X=X3X;X3X;X;X=X1X$X1X&X$X;X&X1X=X$X$X=X$X;X1X;X1X1X$X1X;X<X$X;X=X&X&X;X=X&X1X&X<X;X;X<X&X1X1X3X3X1X3X1X;X1X&X1X,X;X&X1X1X&X1X&X&X&X,X;X&X1X1X,X1X1X&X1X1X,X&X<X,X1X1X1X,X1X1X1X1X1X,X1X0X1X1X,X,X,X1X,X&X<X$X,X$X,X@X,X$X$X&X1X&X1X<X;X&X1X&X1X1X&X&X1X&X1X&X1X,X&X<X&X&X1X,X1X,X;X1X,X;X,X<X1X1X,X;X,X1X&X1X&X,X1X&X,X;X&X@X&X,X<X$XOXoXoX}.oXOXOX$X@X#XOX$X$X@X$X$X$X$X@X&XOX$XOX$XOXOXOXOXOXOX X$XOXOX<X<XOXOXOXOX$XOXOXOXOXOXOXOXOX#X@XOX<XOXOX XOX$XOX).OX XQ.Q.Q.!.B.!.W.!.<X(. X X).OXOX#XOXOX$X$XOX#XOXOXOX#XOX@XOX$X$X$X$X&X$X@X&X$X@X@X$X$X@X@X$X$X,X$X$X&X$X$X$X$X$X<X$XOX$X$XOX@X<X$X$X$X@X$X@X$X$XOX@X<X$X$X$X,X$X$X@X$X@X$X&X$X@X$X&X&X<X,X,X&X&X&X<X$X,X$X<X&X&X$X@X@X$XOX$X$X@XoXOX$X&X&X1X&X&X1X&X;X1X&X;X;X;X;X&X&X1X;X&X;X&X1X$X&X;X&X<X-X;X&X;X&X-X%X=X&X;X;X-X;X$X$X&X;X;X1X;X;X;X;X;X;X1X=X;X=X=X=X$X$XoX X X#XoXOX$X#X%X%X#X#X%X%X$X=X$X*X*X=X$X;X$X=X;X-X;X;X-X;X;X;X;X-X;X*X#X$X*X$X#X*X=X;X;X;X;X;X-X-X:X;X5X:X5X5X-X5X:X5X;X;X-X;X:X:X5X5X;X:X5X:X;X5X;X5X-X;X:X",
":X;X:X:X=X:X:X=X:X:X:X:X:X;X:X:X;X;X;X6X:X;X2X;X;X0X:X2X;X:X:X;X:X3X:X:X;X:X;X;X;X3X&X;X&X;X$X&X1X=X=X$X$X=X=X1X;X;X3X;X=X3X;X=X$X&X&X;X;X$X$X&X1X;X;X;X;X;X;X1X3X2X2X;X1X1X1X1X;X1X;X,X&X,X,X;X,X&X1X<X&X1X<X;X,X0X1X,X,X1X&X1X&X&X&X,X&X0X1X0X,X,X1X1X1X,X,X1X&X,X&X,X,X,X&X,X$X,X,X$X$X<X,X,X1X1X&X&X1X,X,X1X&X,X<X;X<X1X&X,X&X1X1X&X,X1X1X,X,X1X1X,X1X&X1X,X,X&X&X1X1X&X&X1X1X,X;X,X&X1X;X<X$X$X,X$X&XOX}.Q.Q.oX X@X@X$XOXOX$X<X$X@X&X@X$X<X&X@X$XOXOXOXoX#XOX$XOX XOXOX<XOXOXOXOX<XOX$X<XOXOXOXOXOXOXOXOX$X$XOXOXOXOXOXOXOX<XQ.Q.W.Q.W.!.W.W.!.!.Q.(. X X(.OXOXOXOX$XOXOXOX@X$X#X$X$X@X$X@X@X$X$X$X&X$X$X$X$X<X@X$X@X@X$X@X$X$X@X$X@X$X<X@X@X>X$X$X@X$X$X@X$X$X@X$X$X$X$X$X$X@X$X,X@X$X$X>X$X$X$X$X@X$X$X@X$X&X$X@X&X@X&X$X$X$X&X&X$X$X$X,X,X@X$X@X$XOXOXOX$XOX#X$X$X&X&X&X$X;X&X1X;X=X1X=X&X;X1X1X&X;X1X&X$X1X$X;X1X1X$X=X&X;X-X&X&X$X-X&X-X;X-X&X;X&X-X;X3X;X;X;X3X;X3X3X=X;X3X=X;X=X=X1X$XOXOX$X$X$X$X&X#X%X&X%X%X%X$X%X$X-X*X%X=X=X-X=X=X;X;X=X=X;X;X;X;X;X;X=X$X#XoX}.#X#X$X&X&X-X-X;X-X:X;X5X;X;X;X5X5X:X:X5X:X;X-X:X-X5X;X;X:X-X5X-X-X;X;X:X:X5X;X5X",
"-X:X;X-X:X:X=X:X:X=X:X=X;X:X:X=X;X6X;X:X;X:X;X:X:X;X:X;X6X;X;X:X2X3X3X:X;X3X3X2X;X;X1X$X1X$X;X&X;X=X1X=X=X=X3X=X3X;X;X;X1X=X=X;X;X;X<X$X$X&X;X;X&X&X1X&X&X1X&X&X1X;X1X;X;X;X<X1X1X;X,X;X1X&X1X,X;X,X&X1X,X,X;X,X1X1X1X1X;X<X&X&X&X&X&X&X&X&X,X1X<X&X&X&X&X1X&X&X,X&X,X,X,X&X&X&XOX@X&X$X$X@X$X&X&X,X,X1X&X;X,X&X1X&X1X,X;X,X1X&X1X,X&X1X&X1X&X;X1X;X,X1X1X<X&X&X;X1X,X&X,X;X,X<X&X1X1X&X,X1X&X&X$X,X,X,X$XOXoXoX}.oXOX$XOX$X$X@X$X@X@X<X$X$X$X@XOX&XOX$X$XOXoXoXOXOX$XOXOXOXOX$XOXOXOXOXOXOXOXOX$XOX$X XOXOXOX<XOX<XOXOXOXOXOXOX).`.W.!.Q.Q.W.!.!.!.W.<X X).oX X#XOXOX$XOX$XOX@XOX$XOX@X$X@X$X$X$X$XOX$X$XOX&XOX@X$X$X@X$X&X@X&X@X<X$X@X<X$X$X$X$X$X$X@XOX$X$XOX@X&X$X$X&X@X@X$X&X$X$X@X$X$X$X$X,X@X<X@X$X@X&X$X$X@X&X&X&X,X&X,X,X,X&X@X@X,X$X$X$X<X$X$XOX$XOX$X$X$XOX$X$X&X&X<X1X&X;X&X1X3X=X;X1X&X&X;X1X;X<X;X1X$X1X$X$X$X=X&X-X$X;X$X-X-X-X$X&X$X&X;X&X-X&X;X;X;X3X3X;X;X;X;X1X=X=X1X=X=X$X1X1X$X$XOXOX$X&X&X&X&X%X%X$X%X$X%X$X*X*X=X-X$X;X-X-X;X-X;X;X;X-X;X&X;X-X-X*X%X#X[.#X%X$X$X&X;X&X;X;X-X-X;X5X:X:X-X;X:X;X-X-X:X5X;X:X-X-X;X-X;X;X;X;X-X-X5X;X-X:X:X",
":X:X:X3X=X=X:X=X2X:X:X:X3X;X3X;X;X;X0X:X;X2X;X:X;X:X;X:X;X;X6X;X2X:X;X;X;X;X;X1X1X3X;X&X<X;X&X;X;X3X=X;X1X=X3X;X;X1X;X3X=X1X;X3X$X;X;X$X1X$X$X<X;X<X<X;X;X&X&X1X;X;X1X1X=X1X1X;X&X1X1X&X,X1X1X&X&X1X&X;X;X<X;X,X1X,X1X,X<X1X1X,X1X&X&X&X&X&X&X1X<X,X1X,X1X<X&X,X&X,X&X&X&X&X&XOXOX$X&X&X&X@X$X&X&X1X,X;X1X1X&X<X;X,X1X;X1X&X;X,X&X,X,X;X,X1X&X,X<X1X1X&X1X,X&X1X<X1X;X<X;X,X1X&X1X,X,X1X&X,X1X&X&X&X&X<X,XOX X}.}.oX@XOX$X$X$X@X@X$X@X$X$X$X@X&X<X$X$XOXoXOXoXoX XOXOXOXOXOX@X$X$XOXOX$XOXOXOXOXOXOXOXOXOXOXOX<X$X$XOXOXOXOX#XOX X`.!.A.!.!.Q.!.!.!.!. XOX X X).OX#XOXOX$X$X$X$XOX$X<X@X$X$X<X@X@X$X#X@X$X&XOX$X$X&X@X&X$X@X@X&X$X@X$X$X$X@X$X@X<X$X$X$X$XOX$X$X$X<X@X$X@X$X$X$X@X@X$X$X$X$X@X@X$X,X&X$X$X$X$X@X@XOX$X$X@X&X$X@X$X,X,X$X$X@X$X@X$X$X$X$X$XOXOXOX&X$X$X$X&X&X=X&X$X1X;X;X=X1X;X=X&X1X;X<X&X;X;X<X&X1X$X1X;X&X;X$X;X&X$X-X-X$X$X&X&X-X&X-X-X-X;X&X;X;X1X;X;X;X1X=X=X;X=X=X=X=X=X$X$X<X$XOX#X$X&X&X&X%X;X&X%X%X%X$X*X$X=X-X;X;X;X=X;X;X;X-X;X$X-X=X-X&X-X;X;X&XoX[.#X%X#X*X*X-X-X$X-X;X-X:X-X;X:X-X;X5X-X:X:X5X;X-X;X-X;X-X-X;X;X-X;X-X;X-X-X:X:X;X",
"=X:X3X3X:X:X=X:X;X:X3X:X2X:X2X1X:X;X;X:X:X:X0X:X:X:X0X1X;X1X:X;X3X:X3X:X3X;X1X;X=X1X&X1X;X;X;X&X=X=X3X;X=X1X=X1X;X3X;X;X=X=X;X=X$X&X&X=X1X$X;X$X;X;X;X&X&X1X;X;X=X;X=X;X1X3X1X1X&X1X&X,X1X&X<X&X1X,X1X,X1X,X1X1X&X,X&X1X1X,X1X1X,X1X<X&X&X&X&X$X0X1X1X0X0X1X1X1X,X&X&X<X@X$XOXOX$X<X>X&X@X&X,X&X1X,X;X<X&X,X,X;X,X&X&X,X&X1X,X;X&X1X&X1X,X&X1X,X1X&X,X1X1X&X1X,X1X&X,X&X&X1X&X1X,X1X;X,X,X;X&X,X,X&X,X&X&X@XOXQ.oXOXOX#X@X@X$X$X$X$X,X$X@X<X$X$X@X$X$XOXoXoXoX}.$XOXOXOXOXOXOX$XOXOXOXOXOX$X$X X$XOXOX XOXOXOXOX$XOXOXOX X#X@XOX<XQ.>XQ.!.W.W.Q.!.(.). X XOXOXOXOX@X#X@XOX@XOX@X$X$X$X$X$X@X$X$X#X$X$X$XOX$X@X&X$X@X@X$X@X&X$X@X$X&X$X@X$X@X$X&X@X$X@X@X$X@X@X$X$X$X$X@X$X$X@X@X$X$X@X,X@X<X$X&X@X$X@X$X<X@X$X$X,X$X<X&X$X&X&X<X$X@X$X@X$X$X$X@X$X@XOXOX#X@X$XOX&X&X$X&X&X&X;X&X1X$X3X1X;X3X3X=X;X&X;X;X1X&X;X;X;X$X;X&X&X;X$X&X$X;X-X&X&X=X-X$X$X-X$X=X&X;X;X;X3X;X;X;X;X1X=X1X1X3X=X1X1X=X1X=X$X$X<X#XOX&X&X&X&X&X%X&X-X%X$X#X$X*X-X;X;X=X=X-X;X=X;X=X=X-X=X-X-X&X$X-X;X-X%XoXoX#X%X$X&X$X-X%X-X-X&X-X-X:X;X5X:X-X:X;X-X-X;X;X-X;X-X;X-X-X-X:X-X;X;X:X5X:X:X5X",
"3X2X:X=X:X:X3X2X:X3X3X;X:X2X2X2X;X:X6X1X;X0X:X2X1X:X;X:X6X;X;X6X3X2X2X3X;X;X;X3X3X;X1X;X;X<X&X1X=X=X=X;X3X;X1X;X1X=X;X3X3X;X=X;X;X;X$X&X$X$X&X;X&X&X1X1X1X;X1X<X;X3X=X1X;X1X1X1X1X<X&X1X&X&X,X1X,X1X,X1X&X1X&X1X&X1X&X1X&X0X1X,X;X,X&X1X&X&X&X$X1X,X1X0X0X1X1X,X;X,X,X,X&X&X&X$X&X&X$X<X&X&X<X&X&X,X1X&X&X1X1X&X<X1X1X,X,X1X&X<X,X1X&X<X;X<X1X&X,X1X&X1X,X1X,X&X&X&X,X1X1X1X&X,X1X,X1X;X1X&X&X&X&X,X&X,X&X$XoX}.OXoX XOXOX$X$X<X@X$X@X$X$X$X>X$X$X$XOXOXoXoXoXQ.OXOXOXOXOX$X@XOXOXOX X$XOXOX X$XOXOXOXOXOXOX$X$X<XOXOXOXOXOXOXOX!.`.Q.Q.A.P.!.W.(.Q. XQ.). X<XOXOXOXOX$X$X@XOX$X@X$X$X$X$X@X$X$X$X$X$X&X$X$X$X&X$X$X@X$X$X@X@X$X$X$X$X@X@X$X@X&X$X$X$X$X$X$XOX$X$X@X$X@X$X<X$X,X$X$XOX$X$X$X@X$X$X$X@X,X<X@X@X#X,X$X$X$X$X@X$X$X$X@X<X&X>X$X@X<X@XOX#XOXOXOX$X$X&X$X$X&X&X&X$X$X&X$X1X=X;X;X;X1X1X&X<X;X1X&X&X1X&X1X$X;X3X&X$X;X;X$X$X$X*X%X&X$X$X-X&X&X&X;X&X;X;X;X3X;X3X;X3X;X;X;X1X3X3X;X=X&X<X<X$X$X$X$X&X&X&X%X&X$X$X#X%X%X*X*X*X;X;X;X-X=X-X;X-X-X;X=X$X-X;X$X$X%X&X-X#XoX#X#X#X$X$X%X*X*X;X%X%X;X;X;X-X:X;X5X:X5X;X-X-X:X;X-X;X-X;X5X-X;X5X5X:X-X;X:X;X:X",
":X:X:X:X3X:X2X3X;X2X2X2X2X3X2X2X:X:X0X;X1X6X1X:X0X;X:X0X;X;X1X;X:X2X;X;X;X3X1X;X1X1X&X1X1X$X1X1X=X=X;X;X1X3X;X;X=X1X;X1X$X;X;X=X&X$X1X$X$X1X=X&X1X;X&X;X;X&X&X;X=X=X3X;X1X;X1X;X;X1X1X&X,X1X1X&X1X,X1X,X1X,X1X,X1X,X1X,X;X,X;X,X&X&X&X&X<X&X&X$X$X&X,X1X1X0X,X1X<X,X&X,X<X,X,X<X@X&X&X,X&X&X&X,X&X1X,X;X,X,X&X1X&X1X&X;X,X&X1X,X;X,X1X&X,X;X&X1X1X,X1X,X1X&X&X1X,X1X;X,X&X,X,X;X,X;X&X<X&X1X<X;X,X&X,X&X,X&XOXQ.oX}.OXOX#X@X@X$X$X$X@X$X@X$X$X$X@X$X@XOX+XoX}.oXOX$XOXOXOX X$X<X XOXOXOXOXOXOXOXOXOXOX#XOXOXOX<XOX$XOXOXOXOXOXOXW.W.Q.Q.J.B.P.!. X).Q.<XOX<XOXOXOX$X$X$X$X$X$X$XOXOXOXOX@X$X$X@X,X$X$X&X&X&X$X@X$X@X&X@X&X$X$X@X&X@X<X$X<X$X$X$X$X@X@X<X$XOX@X$X>X$X$X$X$X@X$X@X$X@X<X$X@X$X$X$X@X<X&X&X$X$X$XOX$X@X&X@X<X$X@X$X,X$X$X$X$X$X$X$X#XOXOXOXOX$X$X<X&X@X$X&X&X1X;X$X=X1X=X1X;X3X=X=X1X;X;X;X&X1X&X;X;X$X1X&X;X&X;X$X&X-X&X-X&X$X=X$X-X$X=X&X-X;X-X;X3X;X;X;X3X;X=X1X;X3X;X;X=X=X1X;X$X1X<XOX$X&X1X&X&X&X%X&X%X%X#X%X%X$X-X-X-X;X=X;X;X=X;X=X=X=X-X=X;X$X$X$X$X$X#X].XX#X#X*X$X$X$X$X-X-X;X-X-X-X;X-X;X:X-X-X;X;X5X-X;X:X;X5X-X;X;X:X:X:X5X:X5X:X5X-X",
":X:X:X:X;X5X:X;X:X;X;X0X1X2X1X2X2X2X:X:X2X;X;X;X:X0X:X;X:X;X;X;X1X1X;X1X;X;X1X;X;X;X1X=X=X=X1X1X&X1X&X&X;X&X$X1X1X1X&X1X;X<X;X;X&X1X<X;X1X$X1X&X$X1X&X1X1X;X;X<X$X&X;X&X&X&X&X&X1X,X;X,X1X1X1X1X,X;X1X,X;X,X1X1X1X,X1X1X,X1X1X,X0X,X1X,X1X&X&X&X&X&X&X1X<X,X1X,X&X&X&X1X&X1X1X,X,X;X,X1X,X;X,X1X,X&X<X&X&X&X&X,X<X;X1X,X;X,X,X;X,X;X1X,X;X<X&X1X,X;X1X,X1X<X&X1X;X,X,X;X,X;X,X&X1X1X,X1X,X;X&X&X&X<X&X,X&X$XOX$XoXoX$X&X&X$X&X&X&X$X&X$X$X@X$X@X$X,X$X$XOX#X X XoXOX$XoX#XOXOXoXOX$X#XOXoXOXoX#X#XOXOXoXOXoXoXOX XOX$XOXoXOXoXOX}.W.!.Q.(.Q.!.T.!.Q. XOX$XOXOXOX$XOXOX<X$X$X@X$X$X>X$X@XOX@X$X@X$X@X$X>X$X$X$X<X@X$X$X<X@X$X$X$X$X&X@X$X@X$X<X$X,X$X@X$X@X$X@X$X$X$X@X$X@XOX$X$X@X$X$X$X$X&X@X@X$X@X$X@X$X@X$X$X$X$X@X&X$X,X$X,X&X&X$X&X$X%X$X&X$X&X$X&X$X&X-X$X$X-X$X&X-X&X&X;X;X-X;X;X;X&X;X;X&X-X;X;X;X&X;X;X;X&X-X$X;X$X$X$X-X$X&X$X-X$X=X$X;X;X;X;X*X;X:X*X=X;X;X;X;X;X;X;X-X;X;X-X;X;X;X;X<X=X$X$X<X=X&X1X&X;X$X-X-X$X%X%X%X&X&X;X;X-X-X-X$X$X=X%X-X=X-X=X&X$X-X&X*X#XoX[.XX#X#X#X#X%X*X$X-X-X-X;X=X-X;X;X;X;X-X;X;X;X;X;X;X;X;X-X:X;X:X;X;X6X;X0X:X:X;X;X",
"=X;X:X-X:X;X-X:X6X;X;X6X2X1X2X2X6X2X0X2X6X0X:X0X:X;X;X:X1X;X6X;X2X1X2X;X3X1X=X3X=X=X;X=X3X;X;X1X;X1X1X;X<X;X;X&X1X1X1X&X;X;X&X&X;X;X;X;X$X;X$X;X$X$X1X;X&X;X&X=X$X&X&X&X&X&X&X;X&X;X,X1X&X,X,X<X1X,X,X1X,X1X1X&X&X1X,X1X,X1X1X,X1X1X1X1X&X<X1X&X&X&X&X&X&X1X,X;X1X,X1X<X1X,X1X,X;X,X<X&X&X1X1X&X1X1X;X&X&X1X&X;X1X,X,X1X1X1X&X1X1X<X&X&X,X;X,X,X1X<X&X;X&X;X,X,X<X&X1X,X1X,X;X1X,X,X;X&X&X,X1X,X&X&X;X&X&X$X$XoXoX X$X$X$XOX$X&X$X$X$X&X$X$X$X$X$X$XOX@XOX#X#XOXOXOXOXOXOXoXoXoXOXOXOXOXOXoXoXOXoXOXoXOX#XOXOX#XoXoXoXOXoXOXoXoXQ.U.!.Q.Q.!.P.P.!.}.OXOX<X$XOX<XOXOX$X$X@X$XOX$X$X$X$X&X$X,X$X$X$X$X$X$X$X@X$X@X&X$X@X$X$X$X@X<X@X$X<X$X$X$X@X$X<X@X$X$X$X$X@X<X$XOXOX$X$XOXOX$XOXOX@X$X$X@X$X$X&X$X@X&X@X&X@X$X@X$X$X$X$X$X&X$X$X-X$X$X-X*X&X$X%X$X-X$X&X=X&X&X&X$X-X=X$X&X-X-X;X&X;X5X;X;X;X%X;X&X;X&X;X;X-X&X5X-X-X&X&X$X$X-X$X$X$X-X-X$X-X=X;X;X;X;X:X=X;X:X;X-X;X*X;X;X;X;X;X;X;X;X;X;X;X;X1X=X1X$X$X&X;X1X-X&X$X&X*X%X$X%X&X%X%X&X&X&X$X$X$X$X*X=X=X;X=X;X=X&X;X-X$XoX[.|.#XoX#X#X#X$X%X$X$X;X=X;X;X;X;X;X-X:X;X;X;X;X-X:X;X;X;X;X;X;X-X;X1X;X:X1X:X;X:X0X",
":X-X;X:X5X:X-X5X;X6X;X;X1X1X2X2X0X:X:XwX0X:X:X;X;X:X2X;X;X:X;X6X1X;X1X;X1X=X1X;X3X=X=X;X;X3X1X2X;X1X,X1X1X&X;X$X1X&X;X&X;X$X$X&X&X&X;X$X1X$X1X$X=X<X&X1X&X$X$X&X&X&X&X;X&X&X&X<X&X<X<X&X&X,X&X&X1X&X0X,X,X1X,X1X1X,X1X,X1X&X0X1X1X,X,X1X1X;X1X,X&X&X&X1X&X;X&X&X0X1X1X,X,X1X,X1X,X&X;X,X;X,X&X1X<X,X&X,X&X&X,X;X,X1X,X1X,X,X1X,X&X1X&X1X1X&X1X&X&X1X;X,X1X&X1X&X;X,X1X&X&X,X;X,X1X&X;X,X1X<X&X;X&X&X&X&X&X$X$XoX}.}.oX$X$XOXOX$X@X$X$X&X$X$X@X$X@X$X$X$X$X#XOXOXOXoX$XOXOXOX#XoXOXOXOXOX#XOXOXOXOXoXOXoXOXoXOXOX$XOXoXOXOXOX}.Q.!.!.Q.Q.Q.Q.Q.}.(.(.OX$X@XOX$XOX$XOXOX$X$X@X$X$X@X$X@X$X$X<X@X$X$X@X$X@X<X$X@X$X@X$X<X$X@X@X$X$X@X$X@X$X&X@X$X$X&X@X$X@X@X$X$X$X@XOXOX@X$X#XOXOX@X$X$X$X$X<X@X$X@X$X@X$X$X@X$X<X@X$X$X&X&X,X$X$X%X-X&X-X&X=X&X-X=X%X$X-X-X$X$X;X-X$X-X&X-X;X;X%X&X;X;X%X%X;X;X;X;X&X;X&X;X&X;X&X&X-X-X&X-X-X%X=X&X-X&X&X&X;X-X$X;X;X;X-X=X:X:X*X;X-X;X-X=X;X;X-X-X-X;X;X;X=X;X-X1X<X=X<X=X$X1X;X;X-X-X&X&X$X-X$X%X%X$X@X$X$X$X*X%X*X=X=X-X$X-X;X&X-X-X$X%XoXXXoX#XoX#X%X*X$X$X%X=X-X;X=X;X;X-X;X;X;X;X;X:X;X;X;X:X-X;X;X;X:X:X;X;X;X0X:X1X:X;X:X",
"-X:X:X;X;X:X6X;X;X;X;X6X1X2X1X2X2X2X0X:X2XwX2X2X0X0X1X6X1X6X;X;X3X2X1X3X1X=X;X;X;X;X1X3X1X1X3X=X$X&X;X;X1X;X&X1X1X1X1X=X&X;X$X$X&X$X&X<X=X&X&X;X$X&X=X&X$X;X;X$X&X$X<X&X&X$X&X&X&X;X;X&X,X;X1X,X<X1X&X1X1X&X1X,X,X1X&X1X<X1X,X;X&X1X&X,X,X,X1X1X&X&X<X&X<X&X&X&X<X1X,X1X1X&X1X&X;X1X,X;X,X;X<X,X1X&X;X&X,X;X<X&X1X&X;X,X&X1X&X1X,X&X1X,X;X,X&X1X,X&X,X&X1X,X&X1X&X1X,X;X<X;X<X;X,X1X,X;X,X;X<X;X&X<X&X&X$X$XoX XQ.}.oXoX#X#XOX$X&X$X&X$X$X$X$X$X#X#X$X#XOXOX#X#X$XOX$XOX$XOXoXOXoX$XOX#XOXoXOXoXoX XOXOXoXOXOXoXOXoXoXOXOXOX}.E.E.W.Q.Q.Q.Q.Q.OX}.OXOX<X$XOXOXOX$XOXOX$XOXOXOXOX<X$X$X$X$X@X$X$X<X@X$X$X@X@X$X$X$X$X@X@X$X&X$X@X$X$X@X$X$X$X@X@X&X&X$X&X$X$X@X$X<X$X$X$X$X@XOXOXOX$XOX@X@X$X$X$X$X@X&X@X@X&X$X@X&X$X&X<X&X$X&X,X&X=X-X$X-X&X$X;X$X=X$X-X&X-X-X&X$X;X$X&X-X&X;X%X&X;X;X&X;X;X&X;X;X;X-X;X-X&X;X;X-X&X&X;X$X$X=X%X-X$X-X-X-X$X=X;X-X;X;X;X:X*X:X:X;X;X=X;X;X-X-X;X;X-X;X-X-X;X-X;X$X;X<X$X&X1X;X<X&X$X;X$X-X%X$X%X$X#X$X#X%X%X#X%X$X$X$X=X-X;X=X;X;X-X*X*X#X#X#X#X[.#X#X#X#X%X-X$X=X-X$X-X-X;X;X;X:X;X:X;X-X;X;X;X;X;X;X;X;X;X;X;X6X;X:X;X:X:X;X;X",
"5X-X:X:X:X;X:X;X1X1X1X1X2X1X2X2X0X:XwXwX2XwX0X2X:X2X:X2X;X:X;X1X1X1X1X1X&X;X&X1X1X1X;X;X;X;X$X$X$X$X&X;X;X1X1X1X&X1X1X&X&X&X$X$X$X;X$X&X1X$X1X$X$X$X$X$X=X&X=X&X$X$X<X&X$X&X&X1X&X&X;X1X,X1X1X,X,X1X1X,X<X0X,X;X1X,X,X,X&X,X&X1X&X1X1X&X1X,X1X,X<X&X,X&X&X&X&X&X&X&X&X&X&X1X1X,X,X1X&X,X;X<X1X&X1X,X;X,X&X<X&X&X<X;X&X1X;X,X1X,X1X;X,X;X<X1X&X,X1X;X,X1X<X1X&X,X,X;X,X1X,X;X,X,X1X&X<X1X;X,X&X&X&X&X&X&X&X$X#XoXoX}.}.#X$XOX#X$X&X$X&X&X$X$X$X$XOXOX$X$XOX$X#XOXOXOXOX$XOXOXOXoXOX#X#XOXoXOXoXOXOXoXOX#XoXOXoX$X$XoXoXoX@XOXQ.E.L.U.!.U.P.T.Q.(.OXOX$X<X$X$X@XOXOXOX$X@X$X$X$X@X@X$X$X$X$X@X$X@X<X$X&X$X$X@X$X$X$X$X&X$X$X@X$X@X$X,X$X@X$X$X$X<X,X$X$X@X@X$X<X@X$X$X@X$XOX#XOX$XOX$X$X$X$X<X&X@X@X$X@X<X$X@X$X$X&X&X$X$X&X<X$X1X=X&X-X$X$X-X;X$X-X&X-X$X-X&X;X-X-X&X-X;X%X;X;X;X-X&X;X;X&X;X;X;X&X;X&X;X;X%X-X;X%X&X=X&X;X-X&X-X&X-X;X&X;X$X;X-X:X;X-X;X:X-X:X=X;X*X-X;X*X;X=X=X;X-X;X;X;X-X;X-X;X$X3X$X1X$X$X;X$X-X$X&X%X*X-X$X%X#X$XOX#X%X#X#X*X$X*X-X=X-X;X-X&X;X&X$X#XoX#X#X#XXX#X#X*X#X$X$X=X=X=X=X-X;X;X;X;X6X;X:X:X;X;X;X:X:X;X;X;X:X;X:X:X0X:X:X;X;X:X;X",
":X:X5X-X-X:X5X;X:X1X1X1X1X2X2X2X:X0X2X0X0XwX:X:X0XwX0X:X2X;X;X6X1X;X1X;X&X1X;X;X<X;X&X&X;X;X#X#X#X$X$X$X&X&X1X1X1X$X;X&X$X;X;X&X;X$X&X=X$X&X$X1X$X-X&X$X$X&X1X$X$X,X&X&X&X&X<X&X&X,X&X<X1X1X1X0X1X;X<X1X1X&X,X1X1X,X;X1X1X1X&X<X1X<X&X1X,X1X1X1X1X&X1X;X1X&X&X&X&X&X&X&X,X&X,X1X1X&X1X,X&X1X&X1X<X1X&X&X&X;X&X1X&X&X,X&X,X;X,X;X&X,X1X,X&X1X,X;X&X,X1X&X;X,X,X;X;X,X1X&X;X,X&X1X,X1X1X&X<X&X;X,X&X1X&X&X$X$XoXoXoX}.}.oXOX$XOX$X$X$X$X$X&XOX&XOX#X$XOX$X$X#X#XOXOX$XOX$XOX$XOXOXOXOXOXOXOXoX#XoXoXOXoXOXOXoXOXoXOXoXoXoXOX}.Q.E.P.!.Q.W.P.!.Q. XOX@X@X$X$XOXOX<XOX$XOX$X$XOX@X$X$X@X$X@X$X>X$X<X@X$X@X$X$X&X$X@X@X$X@X$X$X<X$X&X$X@X$X@X@X<X@X$X<X$X@X<X$X$X@X$XOX@XOX$X$X@X$X$X$X$XOX@X$X@X$X$X&X$X@X$X$X&X$X@X$X&X&X&X&X&X;X&X-X&X-X;X&X-X&X-X&X=X&X-X&X;X$X;X;X&X-X&X;X&X;X&X;X;X-X&X;X5X%X;X&X;X;X;X;X;X&X;X=X=X&X-X&X$X;X$X;X&X&X;X;X;X;X;X-X;X;X;X;X;X=X:X;X;X;X;X-X*X=X=X=X=X=X-X=X=X;X=X<X$X&X1X&X&X1X1X&X$X-X$X&X-X%X&X&X%X#X%X%XoX#X#X%X$X*X-X=X;X$X;X$X-X;X-X#X%X%X#X#XoX#X$X#X%X*X$X-X=X-X=X;X;X;X;X:X;X;X0X;X:X0X:X6X;X:X;X:X;X;X:X;X;X;X;X0X:X6X;X",
"-X-X6X5X5X5X:X:X;X;X1X1X1X2X1X2X2X;X:X2X:X:X2X0X:X2X:X:X0X;X;X;X1X1X,X<X1X&X&X<X&X&X&X&X<X&X#XoX#X$XOX$X$X&X<X1X&X&X<X&X;X&X&X,X;X&X;X;X$X;X$X1X$X$X$X=X$X;X&X1X&X&X&X&X$X&X&X,X;X,X1X&X,X1X1X1X,X;X1X,X1X,X1X,X1X1X1X,X&X<X&X&X&X&X1X,X1X&X1X,X&X1X1X,X1X;X1X&X&X&X&X&X;X,X1X&X&X&X,X;X1X1X&X,X1X&X1X&X&X;X,X&X&X;X&X<X;X,X1X<X1X&X&X<X1X&X&X1X,X;X&X,X,X;X&X1X,X;X&X,X<X;X;X,X1X,X&X,X,X1X1X&X1X<X;X&X&XOXOXoXoX}.Q.oX$X$X#X$X@X$X$X&X$XOX$X&XOX$X$X$X$X#XOX#XOX#X@XOX$XOXOX#XOX#X#XOXOXoXOXOXOX#XOXoXOXoXoXOXoXOXoXoX}.Q.}.Q.Q.Q.}.Q.Q.}. X}.OX<X$X@X<XOX@X$XOX$XOX$X@XOX@X$X$X@X<X@X$X$X$X@X$X@X$X@X$X$X$X@X@X$X@X&X@X$X@X$X$X$X$X$X$X$X&X$X&X@X$X$X@X&X$X$X$X$X$X$X$X@XOXOX<X@XOX$X@X$X@X@X$X@X$X@X$X@X$X&X$X&X&X&X;X&X1X$X-X&X&X;X;X&X$X;X-X$X=X-X;X$X;X-X&X;X&X=X;X;X;X&X5X&X;X;X&X-X;X;X;X;X;X;X;X;X%X;X-X&X$X&X&X-X$X-X;X;X;X&X-X;X;X;X;X;X;X;X;X-X:X*X;X;X-X=X=X=X=X*X=X=X-X=X-X=X=X-X<X;X1X$X;X$X1X$X=X=X&X=X%X&X&X-X@X$X%XOXoX#X#X%X$X$X$X-X=X-X-X;X$X=X&X-X=X$X%X#X#X|.#X#X#X$X*X$X=X-X;X=X-X-X;X;X:X;X;X6X0X:X:X2X2X:X;X:X;X;X:X:X:X;X0X:X:X:X;X;X",
"5X:X:X;X:X;X:X-X;X2X1X1X2X2X1X2X;X:X;X:X0X2X2X:XwXwX0X2X:X:X:X;X1X;X1X&X,X&X1X&X&X$X$X&X&X&XOX X&X$XOX$XOX$X&X<X<X;X&X1X<X1X1X&X1X1X;X<X1X&X;X&X;X;X$X$X$X&X;X1X$X&X&X<X&X&X&X&X1X1X&X,X&X&X&X&X1X,X&X1X,X1X&X1X8X1X&X1X&X;X&X&X1X,X,X1X,X1X,X1X,X1X,X1X,X,X1X<X1X,X1X;X<X;X&X<X<X1X;X,X&X,X,X;X1X,X&X<X&X&X,X;X&X&X&X&X&X1X,X1X&X1X,X;X,X;X,X,X;X<X&X1X&X1X,X&X1X<X&X1X1X&X,X;X,X1X&X1X;X,X&X,X,X1X1X,X&X$X#XoXoX}.}.oXoXoX#X@X&X$X&X$X&X$X$XOX$XOX#XOX$XOX#XOX$XOX$X$X@X$XOXOXOXOXOX#XoXOXOXoXoXOXoXOXOX#XoXOXoXoXoX}.Q.}.Q.}.!.(.(.Q.Q.Q.Q.Q.OXOXOXOXOXOXOX<XOXOXOX$X$X$XOX@X$X&X$X$X@X$X&X$X$X$X$X@X&X@X<X$X<X$X$X$X@X$X$X$X@X$X<X@X$X@X@X$X,X$X$X@X$X$X$X@X$XOX@X$XOXOXOXOX@X#X$X$X$X$X$X<X$X$X$X@X$X,X$X$X&X&X&X<X$X;X$X1X&X;X-X&X&X;X-X;X&X-X&X&X-X&X&X&X-X-X&X;X;X%X;X;X-X;X;X&X;X;X&X-X;X&X%X;X&X;X5X;X$X=X;X-X$X$X&X;X&X;X-X;X;X&X-X;X;X;X-X:X:X;X;X:X-X;X;X*X=X-X*X*X=X=X=X;X=X;X=X-X$X3X$X<X;X1X$X1X$X%X*X%X*X-X-X%X;X$X%X#X%XoX#X$X%X$X*X=X-X=X;X-X$X&X&X;X*X*X#X#XoXXX#X%X%X$X$X*X=X=X-X;X-X;X;X;X;X;X;X;X:X2XwX0X0X2X0X:X0X:X;X0X:X;X;X2X;X0X;X:X",
"5X-X;X;X:X:X5X;X;X;X;X:X2X2X2X1X;X;X0X:X1X6X:X0X:X2X0X:X6X1X;X;X2X&X&X1X1X&X$X&X$X$X&X<X,X$X$XOX$X$XOXoX$X&X#X1X&X&X&X&X&X,X<X1X&X;X;X$X&X$X&X$X$X$X$X$X$X;X&X=X&X;X&X;X,X,X;X,X&X&X&X$X&X&X&X,X,X;X1X,X,X;X&X&X1X1X&X1X,X1X&X1X,X1X&X1X;X,X1X,X1X,X1X1X,X1X,X1X;X&X,X,X&X1X&X;X&X<X,X1X8X1X1X&X&X1X&X&X;X&X,X&X$X$X$X,X1X&X1X;X,X1X;X,X;X&X,X;X,X1X&X,X1X&X,X1X&X,X;X,X1X&X,X1X1X,X1X&X,X1X;X&X1X<X&X1X&X#X XoXoX}.E.oXoXoX$X$XOX$X$X$XOX$X$X&X#X@X$X$XOX$XoXOXOXOXOX$X$XOXoXOX$XOXOX XOXOXoXOX XoXoXOXOXOXOXOXoXoX}.oXoXQ.}.(.Q.Q.Q.!.P.U.Q.}.OX@X<X<X@X$XOXOX$XOX$XOXoXOX$X&X$X$X<X$X$X@X@X$X@X&X@X$X$X$X$X$X$X$X$X@X@X$X$X@X$X@X$X$X@X<X@X&X$X&X&X@X$X$X@X#XOXOX#X#XOXOXOX#X$X$XOXOX@X&X@X$X@XOX$X$X&X&X$X&X&X&X$X;X1X$X&X;X=X;X&X-X&X=X&X-X$X;X-X&X-X&X-X;X&X;X&X;X&X$X;X&X;X;X-X;X;X%X;X&X;X$X&X;X-X;X&X-X-X;X&X;X;X-X;X&X$X-X&X&X-X;X=X;X-X;X=X:X*X:X=X:X;X;X;X;X-X*X=X*X=X-X=X;X-X;X=X-X$X3X<X<X&X;X&X$X$X$X*X%X%X&X&X;X%X%X$XOXOX#X$X%X$X$X*X$X*X$X$X*X-X-X-X$X$X$X%X#X#XoX#X#X#X#X%X#X$X$X$X*X=X;X;X:X-X;X;X;X:X;X0X2X0X;X:X;X;X:X:X1X;X0X1X;X:X6X;X1X",
":X-X5X:X;X5X-X:X:X;X;X;X1X1X1X2X:X;X:X:X;X1X0X;X;X;X:X:X1X;X;X;X$X&X$XOX}.oXoX$X$XoX$X1X].t.g.$X$X1X$X$X&X$XOX,X1X1X&X&X&X&X;X,X;X&X;X$X;X$X$X;X;X$X&X$X$X$X$X=X&X<X<X&X&X1X,X;X<X&X&X&X$X&X&X&X1X,X,X1X1X,X1X<X&X,X1X,X1X,X1X,X1X,X1X,X1X1X,X;X0X1X,X1X1X,X1X&X<X&X;X&X&X&X,X&X;X;X,X1X1X1X,X<X&X&X;X,X,X&X&X1XOX$X&X;X,X1X,X,X,X&X,X&X,X1X1X<X;X<X1X&X;X,X;X<X,X;X,X&X&X1X,X&X,X1X&X1X<X&X<X;X&X&X&X,X&XOXoX XoX}.}.}.oX#X$X$XOX$X$X$X&X$X$X$X$X$X$X@X$X#X#X#XoXOX$XoXOXOX$XoXOXOXOX#XoXoX XOXOXOXOX#X#XOX$XOXoXoX(.Q.Q.}.}.Q.}.Q.W.!.!.!.(.+XoXOXOX$XOX@X#X@X$X@XOXoXOX$X$X@X@X,X@X$X$X$X$X&X$X$X<X$XOX@X<X@X&X@X$X$X,X$X$X<X$X<X$XOX$X$X$X$X$X@X$X@X@X#X$XOX@X$XOXOXOXOX@X#X@X$X$X@X$X$X$X$X$X@X@X$X$X&X<X&X&X&X;X$X$X&X=X&X-X&X;X-X;X$X-X$X;X&X&X;X$X;X&X;X;X$X-X;X-X;X;X-X&X;X4X;X;X;X;X&X&X;X-X&X&X$X;X&X;X;X;X-X;X&X;X;X-X&X=X-X;X&X;X-X;X;X;X-X:X=X:X*X;X;X;X;X;X=X=X=X=X-X;X-X;X;X;X;X1X$X;X1X;X&X;X$X%X-X$X$X-X-X&X-X&X%X%X#X%X%X$X-X-X$X-X=X*X-X=X-X;X&X%X-X$X$X%X#XXX#X#X#X#X%X#X%X=X-X*X-X;X-X;X;X;X;X;X;X;X:X6X2X0X2X:X;X;X0X;X:X:X:X6X;X;X;X:X;X",
"-X-X-X:X:X;X:X;X;X;X;X:X2X1X2X1X:X;X;X:X2X;X0X2X0X:X;X0X;X;X;X-X&X,X<X,X,X0X0X&X0XqXOXg.t.p.j.p.oX$X&X$X&X@X}.$X&X,X<X,X,X,X$X<X$X;X$X&X;X$X$X$X;X$X;X$X$X$X;X$X&X;X,X1X&X&X;X<X&X&X&X&X&X&X1X1X1X,X1X&X1X&X1X,X;X,X&X1X&X1X,X1X,X;X,X1X,X1X,X1X,X,X1X1X1X;X,X1X1X&X&X1X1X1X,X;X,X1X1X,X1X&X&X1X<X&X&X,X<X;X&X&X$X$X&X<X,X1X&X,X;X&X1X1X,X&X&X1X,X;X;X,X,X1X&X&X;X&X1X1X,X&X;X<X1X&X&X,X1X&X1X&X&X&X&X1X;X$X#XoXoX XoX}.oXoXOX$X$X$X$X&X$X$X&XOX$X<X$X&X$X$XOXOXOXoXOXOXoXOXOXOX#XOXOX@XOXOXOXOXOXOX#XOXOXOX$XOXOXoX}.}.oX}.oXQ. XQ.!.U.!.Q. XoXoXOXOX<XOXOXOX<XOX$XOXOXOX$X$XOX$X&X@X$X@X@XOX$X,X$X@X$X$X,X$X&X&X$X<X@X$X$XOXOX@X$X,X@X@X$X@X$X$X$X<X$X<X$X@XOX$X@XOX@X$X$X@X@X$X@X$X$X$X>X<X@X@X$X$X$X$X&X<X&X=X$X&X$X=X=X=X=X&X-X;X&X;X&X&X-X&X-X;X$X;X;X&X$X&X&X-X$X&X;X&X-X&X;X;X;X;X;X&X;X-X;X;X-X;X&X-X;X&X-X;X&X;X&X&X-X&X=X$X&X&X;X=X;X;X:X;X;X:X*X:X:X-X;X;X;X-X;X-X-X-X=X-X;X;X;X=X-X&X1X1X=X$X;X$X$X-X;X&X=X-X&X%X-X%X$X#XOX%X$X&X-X*X&X-X$X-X$X=X$X&X%X=X$X*X#X#X#X#XoX#X%X#X#X#X$X;X=X-X=X=X-X-X;X;X;X;X:X:X;X0X;X:X:X0X:X:X;X:X2X;X0X:X2X6X;X;X;X",
"-X6X:X5X-X5X5X;X;X:X:X;X3X1X2X1X;X:X0X1X;X6X:X:X:X;X:X;X:X;X;X&X<X,X$XoX@X&X Xx.L.2.^ ,.g.h.h.c.P.(.oXoX@X$XoXOXOXOX&X&X&X&X,X$X1X&X<X;X$X&X$X=X&X;X$X$X$X$X$X&X&X&X&X&X1X,X;X&X1X&X1X,X1X<X1X,X&X1X,X1X1X,X&X;X<X;X,X,X1X,X1X;X,X1X1X&X1X,X1X,X1X1X1X,X,X,X1X,X,X&X1X,X<X&X;X,X,X&X,X1X;X,X1X&X;X&X1X&X&X&X1X,X&X&X&X1X;X,X1X1X,X1X&X<X;X1X,X&X&X1X,X&X1X&X,X1X,X1X&X<X1X1X&X1X&X,X1X1X&X&X&X,X&X&X&X,X&X$XOXOXoXoXoX}.}.oXOX$X@X$X$X$X&X&X$X&X$X&X&X&X$X$X$X$XoX$XOXoXoX$XoX$X$X@X$X$X$X$XOX#X#XOX@XOX$XOXOX$XoXoX(.}.oXQ.}.Q.(.Q.P.P.!.Q.Q.Q.}. XOXOXOX<X$X$X$XOXOXoXOXOXOX$X@X$X$X<X$X,X$X<X$X@X&X&X$X@X,X$X&X$X$X@X$XOXOXOX&X$X$X@X$X$X$X$X$X@X@X$X@X$X$XOX$X$X$X$X$X<X$X$XOXOXOX@X$X$X$X$X$X$X&X<X&X&X&X&X1X;X&X1X;X3X=X1X;X&X$X;X-X$X;X$X;X-X&X;X-X&X-X;X-X;X&X;X-X$X;X&X-X;X&X;X&X;X-X;X-X&X$X;X&X-X&X;X-X&X&X;X&X;X-X&X=X&X-X;X&X-X-X;X;X=X;X;X=X:X=X:X;X;X;X-X;X;X;X*X=X;X;X;X;X;X;X;X<X3X$X<X;X&X1X$X;X;X&X;X-X%X-X*X$X%X%X%X#X$X&X$X&X$X=X=X=X-X-X=X$X=X$X$X$X#X%X#X#X#X#X#X%X*X*X$X$X-X-X=X=X=X;X-X;X;X-X:X;X;X:X;X:X:X;X2X;X6X0X;X:X;X:X;X;X1X;X6X",
"-X5X:X:X;X5X:X:X;X;X:X;X2X2X1X3X:X;X:X:X;X;X;X:X;X:X;X;X;X;X;X;X}.U.G.a.t.2.*.G P *.a.L.P.L.L.P.x.}.oX X@X$XOX#XoXoXOXOX<X&X,X,X$X;X&X=X&X$X=X$X$X$X$X$X;X$X$X1X&X&X&X&X&X<X&X;X;X,X1X,X1X,X1X,X1X1X,X1X<X;X;X,X;X,X,X1X,X1X1X,X1X,X1X,X,X1X,X;X,X1X1X1X1X,X1X<X;X&X1X&X,X;X,X&X1X1X&X,X<X;X,X,X&X,X&X<X&X;X&X;X&X&X&X1X&X,X1X&X;X<X,X&X,X1X&X,X1X&X1X1X<X&X1X,X1X,X&X1X&X,X1X&X<X;X&X&X;X<X1X&X$X$X$X&X1X#XOX#XoXoXoXoXoXoXoX$X$X&X$X&X&X&X$X&X&X&X&X&X&X$X&X&XOXOXOXOXOXOX#X@X$XOXOX&X@X$XOXOXOX$XOX#XOX#XOXOXoXoXoXQ.}.}.Q.Q.!.T.P.P.!.Q.Q.Q. XoXOXOXOX$XOX@X$XOXOXoXOXOXOX$X$X$X@X$X$X@X$X@X$X>X$X$X@X,X&X@X@X$X@X$X@XOX@X#X@X@X$X<X$X$X<X$X$X$XOX@X$X$X$X$X$X$X@X@X@X&X$X$X$X$X@X$X$X$X,X$X$X&X$X,X$X&X$X1X$X1X3X;X;X=X;X=X-X&X&X;X&X-X&X$X;X-X&X-X-X&X;X-X;X&X$X;X;X&X;X$X;X;X&X&X;X;X;X;X&X;X-X&X&X;X&X$X;X-X-X-X-X-X;X&X&X&X=X-X-X-X-X;X;X;X;X;X:X*X:X*X;X;X;X:X;X-X;X;X*X;X;X;X;X;X;X;X;X<X;X1X;X&X;X&X&X&X;X$X-X%X*X%X#X%X#X%X%X$X%X&X$X&X=X=X-X=X$X=X$X-X$X$X#X$X%X#X#X#X%X$X$X$X=X=X=X-X-X$X-X;X;X;X2X;X;X6X;X;X-X;X;X;X0X:X2X;X0X2X;X2X:X0X;X6X;X1X",
"6X-X:X-X:X5X:X-X2X:X1X;X1X1X1X2X:X0X;X;X6X6X;X;X;X;X:X;X-X;X-X=Xh.j.t.=.! ^ ,.t.,.E.$XE.x.E.E.L.G.}.@XOX$X#XOXoX}.oXoXOX$X$X@X$X;X&X=X&X$X$X$X$X$X$X;X$X$X&X1X&X$X&X;X&X&X&X&X,X&X<X&X1X<X1X&X1X1X,X1X&X1X,X<X&X,X;X&X1X1X,X,X1X<X;X,X1X1X&X1X<X1X1X,X,X,X;X,X1X,X1X,X1X1X,X1X1X1X,X&X;X&X&X&X;X&X;X;X,X&X,X,X;X&X,X,X1X&X1X&X<X,X&X1X1X1X&X&X1X<X;X&X,X1X1X&X;X&X&X1X,X,X;X;X,X&X1X,X;X,X&X$X&X$XOX&X&X&XOXOX#X XoX#XoX}.}.oX$X$X$X&X&X&X;X<X&X&X$X<X&X&X&X&X$X&X$X$XOXOXOXOX$XOXOX$XOX$XOXoXoX#XOXOXOXOXoXOXOXOX}.oX}.Q.}.E.E.P.P.P.W.Q.(.oX}.(.OX@X@X<XOXOX$X$XOX$XOXoXoXOXOX@X$XOX$X<X&X&X&X,X$X,X$X,X$X&X<X$X,X&X$X$X$X#X@X$X$X$X@X@X&X@X@X$X$XOX$X$X@X@X<X<X$X$X&X$X$X@X<X$X$XOX@X$XOX@XOX$X$X&X&X$X,X;X&X&X&X=X=X1X=X=X;X&X;X-X&X;X$X;X-X$X;X;X&X;X;X$X&X&X-X;X&X&X-X-X;X;X&X;X-X&X-X&X&X;X$X&X;X-X;X-X;X$X&X&X*X&X&X-X$X=X-X&X-X;X=X;X=X-X;X-X;X:X=X=X:X*X;X-X;X;X;X;X-X;X;X-X;X;X;X-X;X<X$X$X1X&X;X$X=X-X;X-X&X$X*X%X$X%X%X#X$X#X$X$X%X-X$X-X-X-X=X;X-X$X$X-X$X$X*X$X*X%X$X#X*X$X=X#X=X=X$X*X=X=X;X;X;X:X;X0X;X1X:X:X:X;X:X;X:X:X2X:X6X6X;X:X;X:X;X;X;X",
"5X-X;X5X;X;X;X6X:X;X;X2X1X1X1X1X:X;X;X;X;X;X;X;X;X-X;X:X;X;X;X$Xh.p.2.t.p.h.E.OXL.h.h.P.P.x.L.!.P.OX@XoXOXOXoXOXoXoXOXoX#XOX@X<X$X&X&X$X=X$X$X$X$X$X$X$X;X&X;X1X<X&X&X&X&X<X&X&X&X;X,X1X1X&X1X&X,X1X,X1X,X;X,X1X1X;X,X;X&X1X1X,X&X1X;X1X,X1X1X,X1X,X1X0X&X1X;X1X1X,X1X,X,X1X,X;X1X,X1X&X&X&X&X;X<X&X&X&X;X&X1X&X1X1X<X&X&X&X1X1X1X&X1X&X&X1X,X;X&X,X1X&X&X,X;X,X<X;X,X;X&X1X<X;X,X&X&X&X&X&X&X&X$XOX$X&X&X$XoXOX#XoXoXoX}.Q.oX$X&X&X&X&X&X&X&X&X&X&X&X<X&X1X&X&X,X&X$XOXOX$X$X@XOXOX&XOX&XOXOXOXOXoXOXoXoXOX X(.oXoXQ.}.Q.E.T.P.!.P.W.T.Q.Q.Q.OXoXOX$X$X$X@X@X$XOXOXOXoXoXoXoXOX$X$X$X$X&X@X<X&X$X,X$X<X$X,X$X$X,X@X<X$X,X@X$X&X$X@X$X&X$X$X$X$X@XOX$X@X$X@X$X&X@XOXOX@X$X@X$X$X$X#XOX$X,X@X$X$X&X&X&X$X<X1X;X1X1X&X3X1X=X1X3X3X=X;X-X;X-X&X$X&X-X&X-X;X&X-X&X;X-X&X&X-X;X$X&X;X;X;X&X;X;X;X;X;X&X-X-X&X;X$X;X&X&X-X&X&X&X-X$X-X=X%X=X&X=X=X-X;X-X;X:X=X=X:X:X*X;X;X;X;X;X;X;X-X-X;X;X:X:X;X:X;X3X1X<X1X1X$X&X$X%X-X$X$X$X%X%X%X$XOX$X%X$X%X$X$X&X-X;X-X=X;X=X-X-X-X-X&X;X$X%X*X$X$X$X$X*X%X*X-X-X=X=X$X=X-X;X;X;X;X:X6X0X;X;X;X;X;X2X1X2X:X;X2X1X;X;X:X6X;X6X;X",
":X;X-X:X6X;X6X;X;X2X:X2X;X1X3X2X:X0X;X6X;X;X;X;X;X;X;X-X;X;X$X&X}.a.,.p.L.L.N.L.G.(.$XE.E.Q.E.x.G.}.OX}.}.OXoXOXOX$XOXOXOX@X#X$X$X&X=X&X$X$X$X$X;X$X1X$X1X$X;X&X&X&X&X&X&X&X;X&X&X&X&X&X1X,X&X&X1X&X1X,X;X,X;X,X&X,X1X<X1X,X,X;X1X,X1X,X1X1X,X,X1X1X,X1X1X,X1X,X,X;X<X1X;X,X1X,X1X1X<X&X&X&X&X<X&X1X,X;X,X&X&X<X1X,X&X1X,X;X,X&X&X1X,X;X,X,X;X<X1X,X&X1X,X;X,X&X1X,X&X1X,X&X1X,X&X;X<X1X&X&X&X&X$X$X$X,X&X$X#X#XoX$X#XoX}.}.oX$X&X&X&X&X;X<X&X,X&X&X;X&X,X;X<X&X,X,X&X$X$XOXOX&X$X&X&X,X&X&X$X$XoXOXoXOXoX}.oXoXoXoXoXQ.}.E.P.L.(.(.(.Q.!.!.Q.oXOXOX<X<X$XOXOX&XOX$X$XoXoXoXOXoXOXOX@X@X&X$X$X,X,X$X,X@X,X$X,X@X$X,X$X,X$X,X<X&X$X$X$X@X@X$X&X<XOXOX$X@X$X$X$X@X$X$X$X$X$XOXOXOX@X@X<X$X$X$X@X@X$X&X$X,X;X&X&X;X=X1X;X;X1X=X;X;X-X&X$X;X&X;X$X-X&X;X&X$X;X&X-X;X$X;X;X-X&X;X-X&X&X;X;X;X-X&X;X;X;X;X$X;X&X-X&X-X;X$X=X&X=X&X$X;X&X=X&X-X;X=X;X=X:X;X;X;X:X*X:X:X*X-X;X:X;X:X;X;X;X;X-X;X;X;X;X;X$X1X$X1X$X;X-X$X=X$X$X$X%X*X#X$X#X%X$X&X%X$X*X%X=X&X=X$X-X=X=X;X-X&X=X&X=X&X-X-X*X%X*X$X=X-X;X*X;X-X-X;X=X*X$X-X;X:X;X;X:X:X;X;X;X;X;X6X0X:X0X:X:X0X:X0X;X;X2X;X",
":X:X0X;X:X;X0X:X;X;X6X;X0X:X6X;X;X;X:X-X-X;X&X-X;X1X1X0X1X$X3X1X}.,.f.t.T.g.P.G.oX}.Q.E.Q.T.P.G.h.}.OXOXOXoXQ.$XOXOX X X@X$X@X#X$X@X<X&X&XOX$X$X$X$X$X$X&X&X=X;X@X$X$X@X<X&X,X,X,X,X$X,X,X,X,X,X1X1X&X&X&X1X1X,X1X,X;X,X1X,X1X,X1X1X,X0X1X1X,X,X1X,X,X1X<X;X,X1X,X1X,X,X1X&X1X,X1X1X&X&X&X;X&X&X&X&X&X&X;X,X1X&X1X,X1X&X1X&X1X,X,X,X;X,X&X,X;X&X1X,X,X;X1X,X;X1X1X&X,X,X&X&X&X&X<X&X&X&X&X,X&XoXOX$X&X1X$XOXoXoX$XoXoX$XoXQ.}.$X$X&X$X;X;X$X;X&X$X&X;X1X$X1X1X;X1X&X&X&X&X&X&X$X,X&X$XOX$X&X&X&X$XOX}.}.oXoX}.Q.OXQ.}.oXE.U.P.P.Q.Q.!.U.Q.(.oXOXoXoXOX$XOX$X$X$XOX@XOXOXOXOXOXOXOXOXOXOX$X@XOXOX&X&X,X$X$X@X$XOX$X,X,X$X$X&X&X<X@X@X$X@XOX$XOX#XOXOX#X$X@XOX$XOX$X$X@X&X$X@X$X@X$X$X$X@X$X&X&X&X-X$X=X&X$X-X&X-X&X;X&X;X;X&X&X;X;X=X;X-X-X;X;X;X;X;X;X;X-X;X;X;X3X;X;X;X3X;X3X;X;X=X3X;X=X3X=X=X;X&X;X&X;X;X;X&X-X&X=X=X&X-X$X-X;X$X&X-X;X&X=X;X-X;X;X*X:X;X:X=X;X;X-X;X;X-X-X;X-X;X=X;X;X=X=X-X=X=X&X-X&X=X&X-X-X$X$X$X$X%X*X#X#X%X#X*X$X-X;X=X-X;X-X=X;X;X=X=X=X=X*X*X=X*X*X*X*X=X*X*X*X=X;X;X=X=X-X-X-X:X;X;X:X:X2X0X:X:X1X;X6X:X:X:X:X:X:X:X:X:X;X:X:X-X:X:X",
":X;X;X6X:X1X;X:X:X;X;X2X;X:X;X:X;X6X5X-X;X;X&X;X0X1X<X;X1X<X#XQ.oXa.a.f.x.P.P.T.}.E.T.P.T.Y.J.x.3.G.Q.Q. X}.}.,X@XoXOXOXOXOXOX X$X&X&X&X$XOX$X$X$XOX$X$X$X$X=X$X$X,X<X&X&X,X$X,X$X,X$X,X;X<X,X;X&X,X&X1X,X,X;X1X&X;X,X&X<X,X1X0X,X1X,X1X,X1X1X1X,X1X1X,X1X,X1X,X1X1X1X&X&X1X&X1X1X,X,X&X<X&X,X;X&X&X<X;X&X&X&X&X<X1X,X1X1X1X,X1X1X&X<X;X1X<X,X1X,X1X0X&X,X1X1X,X1X&X1X&X&X1X;X&X&X&X&X&X<X&X$X$X$X&X<X1X&X$XOX#XOXoX#X$X XE.].OX$X&X&X$X&X;X;X&X1X1X1X&X1X$X&X&X1X1X&X&X&X&X&X,X$X$X$X&X&X&X&X$X&XoX}.Q.E.}.E.E.Q.E.Q.}.E.P.E.P.Q.Q.E.Q.E.^.oXOXOX@XOXOX$X@X$X@XOXOXOXOXOXOXOXOXOX<XOXOXOX<X<X$X@X@X&X@X&X&X<X@X@X$X$X&X&X&X&X$X$X<X$X#XOXOXOX$XOXOX@X$XOXOXOX#X@X$X$X@X@X$X$XOXOXOXOX$X$X&X$X&X&X-X&X-X-X&X=X$X-X-X&X-X;X;X-X;X-X;X=X;X;X=X=X-X;X;X;X;X;X;X;X-X;X;X3X;X3X;X;X;X=X;X=X;X;X3X1X=X-X;X;X&X;X&X;X;X$X-X&X&X-X$X&X-X-X&X=X&X&X-X;X-X;X;X;X:X*X;X=X:X;X;X;X;X-X;X-X;X;X=X;X-X-X;X;X;X=X;X;X&X=X&X-X$X$X&X-X$X#X%X#X%X$X$X*X*X=X;X=X-X=X=X$X;X=X-X-X-X;X=X*X*X=X-X:X=X;X*X;X*X=X=X:X-X;X-X;X;X;X;X;X:X;X;X:X;X:X0X;X6X:X:X:X:X:X:X:X:X:X:X:X:X:X:X:X:X",
";X6X;X;X2X;X:X;X:X;X;X:X:X:X;X;X:X5X:X;X-X;X-X;X1X1X1X&X&X,X<X}.T.g.,.a.>.P.G.Q.Q.E.T.P.P.P.P.G.h.x.J.E.Q.oXoXoXoXoXOXOXOXOXOXOXOX$X$X&XOX$X$X$X#X$X#X$X$X$X$X$X$X$X@X&X&X,X&X&X&X&X,X,X,X&X,X,X1X&X&X&X1X<X,X&X,X;X<X1X,X1X1X1X1X,X1X1X0X,X1X,X1X<X1X1X1X,X,X;X1X,X1X,X,X1X&X,X&X1X;X&X&X&X&X&X;X&X&X&X<X;X;X,X;X1X1X,X,X1X1X,X&X1X1X&X1X&X;X,X1X1X1X1X1X,X,X1X;X<X1X&X&X&X<X,X1X&X&X&X&X&X$XOX&X&X&X&X&XOX$X$X#X XoX#XoXE.}.oX$X&X-X;X$X;X$X$X1X&X1X1X1X$X;X;X,X1X&X$X#XOX&X1X$X$X$XOX$X$X$X$X&X$XoX}.}.}.oX}.OX}.OXOXP.L.E.E.E.E.Q.Q.(.oXoXOX+X@XOX#XOX$XOXOX<XOX@XOXOXOXOXOXOXOXOX<X@XOX<X,X@X$X@X&X@X&X$X,X$X,X&X&X&X&X&X&XOX@X$X@X@XOX#X@XOXOX$X$X$X$X$XOXOX@X$XOX@X#X$X#XOX#X$X$XOX$X&X&X=X&X&X$X&X=X&X-X&X;X;X&X&X-X&X;X-X;X;X-X-X;X-X;X-X;X;X;X;X-X:X-X;X;X;X;X;X3X;X;X3X=X3X;X;X=X3X=X;X;X&X;X;X;X&X;X$X&X-X$X&X$X-X$X$X$X-X;X;X$X;X=X;X;X;X:X:X:X:X=X;X:X;X;X-X;X;X;X-X;X-X;X;X-X;X-X;X&X;X;X&X-X&X=X&X*X-X$X#X$X%X#X$X*X&X*X-X=X-X=X-X-X;X-X-X=X$X;X-X-X-X*X=X=X;X-X:X*X;X*X-X;X;X;X=X=X;X*X;X;X;X;X-X-X-X;X;X;X;X;X6X:X:X:X:X6X:X6X:X;X:X:X:X:X:X:X",
"6X;X;X0X;X:X:X0X0X:X2X2X1X;X;X;X;X-X-X;X;X;X&X;X&X0X0XOX}.$X$XOXOXQ.G.L.t.}.E.OXQ.E.P.P.T.P.Y.P.E.g.g.L.P.Q.<XQ.}. XOXOX}.OXOX$XOXOX@XOX$X@X&X&X$XOX$X$X$X;X$X&X$X,X$X&X&X&X,X&X&X<X$X,X,X,X&X&X&X<X&X&X&X1X1X,X1X<X;X,X&X1X,X1X1X1X1X,X1X,X1X1X,X1X1X,X&X1X,X1X1X,X1X&X1X&X<X1X1X<X1X,X&X;X<X&X<X&X&X&X,X&X&X<X,X&X,X;X,X&X&X1X,X,X&X1X&X1X,X;X&X,X&X<X&X;X<X&X&X,X&X&X,X;X;X&X,X<X&X;X&X$X$X$X&X&X&X$X$X$X$X$XoXoXoXOX#X].E. X$X$X$X$X$X$X$X$X$X#X$X$X$X1X1X<X&X&X<X$XoXoX$X$X$X$XOX}.E.Q.}.oX$XoX}.}.Q.oXoXOXoXQ.}.Q.P.T.E.E.U.U.Q.Q.(.oXoXOXOX$X$XOXOXOXOX$XOXOXOXOX<XOXOX X<XOXOXOXOXOX@X,X@X$X&X@X&X&X,X&X$X$X$X&X&X$X$X&X$X,X$X$X$X$XOX$X$XOXOX$X$XOXOXOX+XOXOXOXOXOX@XOX$XOXOXOX$X$X$X$X$X-X;X$X-X&X=X&X-X$X&X-X&X;X;X-X;X;X=X;X;X=X;X;X;X;X;X;X;X;X;X;X;X;X;X;X;X;X;X1X;X=X;X;X=X;X;X=X&X;X;X-X&X&X;X-X;X&X;X;X-X;X&X;X;X&X-X&X-X;X;X-X;X-X;X;X:X*X*X:X;X-X*X;X;X-X=X=X;X=X;X;X=X;X=X;X&X-X$X-X$X&X-X$X$X-X$X$X*X$X#X#X%X$X$X-X=X-X;X=X;X$X=X=X=X;X-X=X:X-X-X*X-X;X*X=X:X=X:X-X;X-X-X;X-X;X;X-X;X;X-X;X$X;X:X;X;X;X:X;X:X:X:X:X:X:X2X:X:X:X:X:X:X;X:X:X",
";X:X;X:X6X;X0X:X0X:X:X0X;X6X;X;X:X-X5X;X;X;X;X;X;X0X2X$XOX$XOXY.}.E.Q.T.L.}.!.Q.!.E.E.T.!.P.T.Y.L.p.p.g.c.Y.#XOX@XOXOXOX XQ.oXOXoXOXOX$X$X@X&X$X&X$X$X$X;X&X&X<X&X&X&X$X@X&X&X&X,X@X&X,X,X&X&X<X1X&X&X&X;X,X1X1X&X,X;X,X&X1X,X0X,X1X0X,X1X1X,X1X,X0X<X1X1X,X1X&X8X1X,X1X,X;X<X1X,X;X&X1X&X<X&X&X&X&X;X&X&X1X&X;X1X1X&X1X1X<X&X&X;X,X,X;X,X;X&X,X,X;X&X,X1X1X&X1X&X<X&X;X&X&X&X<X&X;X;X$X$X$X$X&X$X$X$X$X$X$X$XOXoX#X$X$X$XoX}.}.#X$X$X$X$X$X#X#X#X#X$X$X$X&X$X1X$X&X&X&XOXoXOX#X}.oXoX}.E.E.E.}.Q.].E.T.T.T.E.Q.L.x.L.L.L.E.oX}.!.E.(.(.oXOXOXOXOX#X$XOX$XOX$XOX@XOXOXOX<XOXOXOXOXOXOX XoX@X$X<X&X&X@X&X&X@X$X$X,X<X$X&X&X&X&X&X<X&X$X<X@X$XOX#X#XOX$X$X$XOXOXOXOXoXOXOXOXOX@X$X$XOX$X$XOX$X$X;X-X$X;X$X-X$X;X&X$X-X&X&X;X-X;X&X=X;X-X;X;X=X=X-X;X-X:X-X;X;X;X:X;X;X;X;X;X-X;X-X;X;X-X;X;X-X;X;X;X;X;X-X;X&X;X;X;X&X-X&X-X&X&X-X-X&X&X;X&X-X;X=X*X;X;X-X:X=X:X*X;X;X=X;X=X=X-X=X=X-X;X-X-X;X;X;X;X-X=X&X;X-X$X&X$X*X%X$X%X$X*X#X*X*X=X;X-X;X;X;X=X-X-X$X;X;X=X-X;X=X=X$X-X-X*X*X*X*X=X=X-X-X;X$X;X;X*X;X;X;X;X;X;X;X;X:X;X;X:X;X2X:X:X2X:X:X:X:X:X:X:X:X:X:X:X:X",
"0X1X:X:X;X2X:X;X;X:X:X;X6X;X:X;X-X;X-X;X;X;X;X;X<X;X&X<XqX1X}.c.2.>.x.h.P.Y.E.P.E.E.P.T.P.T.P.P.x.x.J.J.a.a.P.OX$X<X<X$XOXoXoX X#XoXOX#X$X$X$X$X&X&X;X;X;X;X;X;X<X&X&X@X$X&X&X,X<X$X&X&X&X&X,X,X,X&X&X&X&X<X&X&X,X;X&X1X1X,X1X1X8X1X1X,X1X,X1X1X;X&X1X,X,X1X,X1X1X1X1X&X;X,X;X,X;X,X1X&X1X&X&X&X&X&X<X&X&X,X,X&X&X,X,X&X&X1X1X,X&X1X&X1X1X,X1X,X;X,X1X1X,X&X&X,X1X&X<X&X&X&X&X$X&X<X&X&X$X&X$X$X&X$X$XOXOX$X$X$X$XOXOX$XOX#XoXoX#X#X#X$X$X$X#X#X$X$X$X$X$X$X$X$X$X&X1X,X$X#X#XOXT.E.oX#X#XoX}.].].E.E.T.L.Y.P.T.L.G.L.L.L.E.(.E.Q./.E.Q.oXOXOX@X$X@XOXOXOX$X%X$X<X$X$X<XOX$XOXOXOXOXOXOX XoXOXOX,X&X&X@X&X@X$X@X@X$X$X&X<X$X$X&X&X$X$XOX@X$X@X$XOXOX@X$X@XOX$X#XOXOXoXoXOXOX#X@X$X$X$X@X$X$X&X&X&X-X&X;X&X-X$X-X;X$X&X=X$X-X&X;X;X-X=X;X;X-X;X;X;X;X;X;X;X;X;X*X;X;X;X;X;X;X;X:X;X-X=X;X=X;X-X=X&X&X;X&X-X;X;X&X-X&X&X-X&X;X-X&X$X-X$X$X;X&X;X-X:X;X;X;X*X:X=X:X=X-X;X-X=X=X;X-X;X;X;X=X;X;X-X-X&X$X&X-X$X$X$X=X&X$X-X$X#X$X#X%X#X*X$X-X=X;X-X;X-X=X;X;X$X-X-X=X;X-X$X*X$X*X*X*X#X*X*X=X-X=X-X=X;X;X;X;X;X;X;X;X;X;X;X:X:X:X;X:X:X0X:X6X:XwX2X6X:X:X:X:X:X:X:X:X",
":X;X;X0X;X:X:X1X:X;X;X:X1X;X;X;X;X-X:X-X;X;X;X;X&X;X$X<X3X XJ.y.,.*.G.G.Q.}.oX}.U.T.E.T.E.P.P.T.P.!.E.T.G.u.u.x.P.T.Q.oX@XOXOXOXOXOXOXOX&X&XOX$X$X&X&X&X&X<X1X&X&X&X$X$X@X$X$X<X,X<X&X&X@X$X<X,X1X&X&X&X&X1X1X&X&X1X,X;X&X1X1X1X1X1X1X1X1X1X,X8X1X,X&X1X,X1X1X1X1X,X1X,X,X,X&X1X&X&X1X,X&X1X&X&X&X1X&X&X&X;X,X&X&X;X&X1X,X&X;X&X,X1X&X<X&X,X1X;X&X<X&X&X<X;X&X1X1X&X1X&X;X$X$X$X&X;X&X&X$X&X&X1X&X$X@X$X&X$X$XOX$X#X#XOX#X$X$XOX#X#X$X$X$X$X$X$X&X;X$X;X$X=X$X$X&X<X&X&X$X$XOX X}.oXoXOX$XoXoXE.}.}.oXE.E.T.T.P.Q.E.Q.E.L.E.oXU.Q.Q.oXoXoXoXoXOXOXOX$X$X$X$X$X$XOX$X$XOX$X@X<XOXOXOXOXOX@XOXOX X@X&X&X@X@X&X<X$X$X@X&X&X$X&X$X,X,X@X$X@X$X@X$X$XOXOXOXOX$XOX$XOXOXOXOXOXOX#X$X&X$X&X$X&X&X-X;X;X$X-X$X-X;X$X-X$X$X-X=X&X=X&X&X;X=X;X;X;X;X=X;X=X;X;X;X;X-X:X;X;X;X-X-X-X;X;X;X-X;X;X;X;X;X;X=X;X-X;X;X;X-X&X-X5X&X;X;X-X;X;X&X;X;X$X-X;X-X&X;X;X;X;X;X;X:X:X:X=X-X;X;X=X=X-X=X=X=X-X-X=X;X=X-X;X$X-X-X$X=X%X%X=X$X-X*X$X*X#X#X#X*X*X*X=X-X;X=X;X;X$X-X=X-X=X=X;X-X=X*X*X$X*X#X#X*X#X*X=X;X-X=X=X-X;X;X-X;X=X;X-X;X;X;X2X;X0X1X:X:X:X6X2X6X:X:X:X:X:X:X:X:X:X:X:X",
":X:X:X1X:X:X0X;X;X:X0X;X:X0X2X;X-X;X-X;X;X;X5X;X&X1X1XOXG.,.^ >.G.f.L.Q.E.Q.P.T.E.E.!.E.T.T.T.Y.J.P.x.P.Q.G.=./ ^ >.a.P. X$XOXOXOXOXOXOX@X$X@XoX&X$X&X&X&X&X&X&X,X<X,X@X$X,X@X,X,X&X&XOX@X$X,X1X&X&X&X$X&X,X&X;X,X<X;X,X,X1X,X0X1X,X,X1X,X1X1X1X,X1X1X,X1X&X1X,X1X,X1X;X<X;X,X1X,X1X,X1X,X&X&X&X&X&X&X&X<X;X&X;X,X<X&X&X;X&X,X<X;X,X1X&X1X&X&X<X1X&X1X&X&X&X,X&X1X1X;X&X1X$X$X#X&X;X;X$X$X$X&X1X&X$X$X$X&X&X$X$XOX$XoXoX#XOX$X$XOX#X$X$X$X&X$X$X=X&X$X$X&X;X$X1X1X&X$X$XOX$X#XoX;X$XoX].oX X}.].}.}.}.}.}.].E.Q.T.T.Q.E.L.U.Q.E.oXQ.(.oXoXoXOXOXoXOXOX$XOXOX$X&X@X<X$X<XOXOXOXOXOX<X$X$XOXOXOXOX&X$X@X&X&X@X&X,X$X,X$X&X,X$X&X$X$X,X$X,X$X$X@XOX#X$XOX@X$X#X@XOX#XOXOXOX#XOX&X&X&X$X&X$X&X&X<X;X-X&X=X&X$X-X&X-X&X$X$X-X&X-X$X-X;X-X=X-X-X;X-X;X;X-X;X;X-X;X-X;X;X;X;X:X;X;X;X;X=X-X=X-X-X;X-X;X&X;X&X;X;X;X;X&X;X;X&X;X&X;X;X;X&X-X$X;X&X;X-X=X-X;X;X=X:X*X:X*X-X=X-X$X;X-X*X=X;X;X;X;X;X-X-X;X=X&X&X-X$X$X-X$X-X$X$X*X%X$X%X#X$X*X-X-X;X;X;X-X=X-X=X;X=X;X-X$X-X*X#X#X$X$X*X#X[.|.*X*X=X=X-X;X;X;X;X;X;X-X;X;X-X-X;X;X:X:X0X:XwX:X2X7X:XwXwX:X:X:X:X:X:X:X:X:X",
"1X:X:X;X0X:X:X;X0X2X:X1X;X0X:X:X;X-X;X-X;X:X;X-X;XeX&XG.^ 2.E.OXE.E.E.E.}.Q.E.E.E.E.E.T.E.E.E.Q.P.P.L.P.P.L.G.x.G.J.L.B.L.P. X<X@X+X+XoX@X$X@X#X&X@X$X$X<X<X&X&X&X@X,X,X$X<X&X&XOX@X$X@X$X&X&X,X$X&X&X&X,X&X&X&X&X1X&X1X1X,X1X,X,X1X,X1X,X1X1X;X1X1X8X1X,X1X<X1X8X1X1X,X;X,X1X&X;X,X1X&X1X&X,X&X&X&X&X&X;X&X<X&X<X&X1X,X;X&X&X;X&X&X&X,X&X1X&X;X&X,X,X;X,X&X$X$X$X;X&X;X&X1X$X1X$X;X;X$X$X=X;X$X&X$X&X@X&X$X&X&X$X$X$XOX$XOX#XOX#XOX=X3X;X&X&X$X;X=X&X;X=X&X=X$X&X&X$X$X$X$X$X$XOXoX#X XoX}.oX].oX X}.Q.}.}.(.Q.}.T.P.E.T.P.E.OXoXQ.E.Q.oXOXOXoX$X$X$X$X$X$X&X$X$X$X<X$X$XOXOX$XOXOX$XOX<XOXOXOXOXOX$X$X&X@X$X@X$X$X,X$X,X$X,X$X$X>X,X$X$X$X$X@XOXOXOX$XOXOX#XOXOXOX#XOX#X$X$X$X&X<X$X;X1X$X$X;X&X-X-X&X=X$X-X&X&X=X&X-X&X=X-X&X;X*X-X;X;X;X;X;X;X;X;X;X;X;X;X:X;X5X-X;X;X-X-X;X-X;X;X:X-X;X;X:X5X;X;X;X;X&X;X;X%X%X;X;X;X$X&X;X&X=X&X-X;X&X-X;X;X;X;X;X*X:X=X:X;X=X;X-X-X;X;X;X;X;X;X;X-X:X;X-X-X-X&X&X&X$X-X$X$X%X$X$X$X#X#X#X#X#X=X-X;X-X;X;X;X=X-X;X;X;X;X-X*X*X*X*X$X%X*X|.XX[.*X*X;X-X-X=X*X;X-X=X;X;X;X;X;X;X;X-X:X;X2X0X:X:X:X:X6X:X:X:X:XwX:X6X2X:X:XwX",
";X0X;X:X;X:X;X2X:X:X0X:X:X:X:X;X5X:X5X;X;X:X;X;XtXp.P >.T.OX XY.Q.Q.T.E.Q.}.}.}.Q.Q.E.T.E.}.oX@X<X&X$X X XQ.T.P.G.L.P.G.x.L.P.Q.OX&XOX@XOXOX&X&X&X$XOX#X&X&X&X;X&X&X$X&X@X&X&X<X$X,X$X&X&X&X<X,X&X<X&X&X&X1X&X&X&X<X1X,X1X1X1X1X1X,X1X1X1X1X,X,X1X,X1X1X1X,X1X&X1X1X,X1X;X<X&X&X1X1X,X,X,X1X&X;X&X&X&X<X&X&X&X&X&X;X&X&X&X,X,X&X1X,X;X;X&X&X<X,X;X&X;X,X&X&X&X&X1X&X1X$X1X$X1X$X&X$X$X<X&X$X&X&X&X&X&X$X$X&X&X&X$X&X$X$X#XOXOX$X#X$X;X&X;X<X$X$X$X&X;X$X&X$X&X;X&X&X$X&X$XOX$XOX#XOX$XOXOXOXoXoXoXoX}.oXoX XoX}.oXE.P.E.Q.P.P.T.(.}.(.Q.oXOX$XOX$X#X#X$X$X@X$X$XOX<X@XOXOX@X$XOXOX<XOXOXOX$XOXOXOXOX@X$X@X&X&X$X@X$X$X$X&X$X$X,X$X$X$X@X>X,X$X,XOX$X$XOXOXOXOX XoXOXoXOXOX$X$X$X&X$X;X$X$X&X;X$X;X$X$X-X&X-X$X-X-X$X-X$X-X&X$X&X;X;X;X;X-X;X;X;X;X;X;X;X-X;X;X-X-X;X:X-X5X;X:X-X5X;X-X-X5X;X-X-X;X%X&X;X-X;X;X&X;X;X;X%X-X&X-X$X=X&X&X-X&X-X;X=X;X;X;X;X:X:X:X=X=X-X$X;X=X;X=X-X;X;X;X;X;X;X;X;X;X&X-X=X-X*X$X&X$X*X%X%X#X#X%X#X*X$X=X-X;X=X;X-X;X-X-X=X;X;X-X=X#X#X$X*X*X#X|.XX|.#X#X#X$X=X=X;X-X;X-X;X;X-X-X-X;X-X;X:X;X:X1X6X2X6X:X:X:X:X:X:X:X:X:X:X:X:X:X:X",
"6X;X0X:X:X;X1X6X:X0X:X;X;X0X;X6X:X6X5X;X;X0X;X-X].:.g.G. X!.}.<XoXoX}.!.E.Q.}.Q.}.Q.Q.Q.oXOX<X,X1X<X<X&X&X@X@XoX$X$XOXOXoXoX XQ.}.+X@XoXoXoXOX&X,X@XOX@X@X$X&X&X,X<X$X,X&X,X$X,X<X&X,X$X&X@X,X,X1X<X1X1X&X1X&X1X&X&X1X,X,X,X1X,X,X1X1X,X0X,X<X1X1X1X,X,X1X,X,X1X1X,X1X,X,X1X&X&X,X1X,X;X&X1X&X<X&X;X&X&X&X&X;X&X&X,X&X1X1X<X;X;X&X<X<X&X,X;X;X&X,X<X&X1X<X&X&X$X;X=X=X1X=X;X=X1X=X=X=X$X=X=X=X<X&X&X$X$X$X$X$X&X&X$X&XOXOX#XOX$X=X&X&X;X;X$X$X$X<X$X$X&X$X1X;X&X&X$X&XOX$X@X$X$X$X$X$X$X$XOX#XOX$XoXoXoXOX#XoXoXOXE.P.E.}.Q.P.P.}.}.}.oXoX$X$X@XOXOX$X$X&X$X$X&XOX$X X$X<X$X$XOX$X$X<X$X$X$X<XOX$X@XOX@X@X$X@X$X@X$X$X$X$X$X$X$X,X$X,X$X$X<X$X$X$X$X$XOXOXOXOXoXOXoXOXoX#XOX$X&X&X&X&X;X=X=X$X;X$X&X=X&X&X=X;X$X&X-X;X&X$X-X$X;X-X;X;X*X;X;X;X;X;X;X;X-X;X;X;X;X-X;X;X-X-X;X;X5X-X:X-X5X-X:X-X5X&X;X;X-X;X&X-X5X&X-X-X&X;X$X$X-X$X-X$X-X;X&X;X=X;X-X-X;X:X*X*X:X=X-X;X-X-X;X-X;X;X;X;X;X;X;X:X;X;X&X&X;X&X$X$X&X%X$X*X#X%X*X$X$X*X-X*X;X;X=X;X=X;X=X$X;X-X=X$X=X#X#X#X%X#X%X#X#X#X#XXX|.oX#X-X-X;X;X;X;X;X;X;X;X;X;X;X;X;X;X:X1X:X:X:X:X2X:X:XwX:X:X:X:X:X6X:X:X",
"1X2X;X:X:X0X;X;X;X2X;X:X6X;X;X;X:X5X:X:X;X1X-X#XG.y.1XE.#XOX}.#X,X&XoX}.}.Q.E.Q.T.Q.}.oXOX&X&X$X$X@X@X&X&X<X<X<X,X<X<XOX$XOXQ.!.}.(.oXoXoX(.OX@X$X$X$X$X$X&X&X$X$X@X&X$X$X&X@X$X&X&X&X,X&X&X&X<X&X&X&X&X,X&X<X&X;X,X&X1X1X1X,X1X;X,X1X,X1X1X1X,X,X1X1X1X,X;X,X1X1X1X,X1X1X&X,X1X1X,X;X,X;X<X&X1X<X&X&X&X&X<X&X&X;X,X&X&X&X&X&X,X;X&X&X;X,X&X,X&X&X;X&X&X&X&X&X&X;X3X=X=X=X3X;X=X1X=X=X=X=X=X=X;X&X$X&X$X@X$X&X$XOX&X$X$X$X$X$XOX1X$X1X$X$X;X1X$X;X;X$X;X$X1X$X=X&X&X&X$X$X$X$X@X$X$XOX$X#XOX$X$X$X$XoX#XoXOXoXoX$XE.P.P.E.Q.E.U.oXQ.Q.oXoXOX$X$X$X$X$X&X$X$X$X$X$X<X$X<X$XOX X<X$X X$XOX$X<X$XOX@X$X$XOXOX@XOX$X,X$X,X$X,X$X&X$X<X@X$X&X@X$X@X,X$X@X@XOX$X$XOX#XoXOX#X#X$X$X&X&X;X$X$X&X;X3X;X3X&X-X&X=X=X&X-X&X=X&X$X-X-X&X;X$X;X;X*X;X=X-X;X;X;X;X;X;X;X;X-X;X:X-X5X;X:X-X-X;X-X;X;X;X-X;X;X;X;X;X;X&X;X&X;X&X;X&X;X-X-X&X-X&X&X&X$X;X$X;X-X;X-X;X;X*X=X=X:X*X;X=X=X;X;X=X;X=X;X;X-X;X;X*X;X-X-X;X-X&X=X&X-X$X#X$X#X#X%X$X$X&X-X;X;X;X;X;X;X-X=X-X-X=X=X=X#X#XXX#X#X#X#X#XoX#X%X#XoX#X#XoXoX$X*X=X-X;X:X-X;X;X;X;X;X;X;X:X:X2X6X:XwX:X:X:X:X:X:X:X6X2X2X:X:X:X",
";X0X1X;X2X;X;X2X:X;X0X:X;X;X6X;X%X:X6X;X6X;X%X].G.g.qXE.$X&X<X X@X$X$XOXoX}.Q.}.E.}.OX$X&X$X$X@X,X<X,X$X<X@X@X$X$X@XOXOXOXOXQ.!.!.Q.(.oX@X@XOXOX$X@X&X&X,X,X$X@X@X$X$X@X<X$X$X$X@X$X,X$X&X@X$X&X1X&X&X&X&X&X&X;X;X,X1X&X1X,X1X,X1X<X1X0X,X1X,X1X,X1X1X1X1X1X,X1X1X,X1X,X1X,X&X,X&X1X&X<X&X1X&X&X&X;X&X&X;X&X<X&X;X,X&X&X<X&X&X;X,X,X&X&X;X&X<X&X&X&X&X&X&X&X&X$X1X=X=X;X;X=X=X;X3X=X=X=X=X$X;X&X&X$X&XOX$X$X$X$X&X$X$XOX$X$X$X&X$X&X;X$X1X1X&X1X&X&X$X<X;X&X$X&X&X$X$X$X$X$X$X&XOX$XOX$X$X$XOX$XoXoXoX#XOX XoX}.oXQ.U.T.E.P.E.E.E.Q.}.Q.oXoX$X$X$X#X$X=X$X$X$X&X$X$X<X$X<XOXOX<X<X$X<X$X@X$X$XOX$X$X+XoXoXOX$X@X&X&X&X,X&X&X&X&X$X$X,X$X&X@X$X$X@X$X&X$XOX$XOXOXOX$XOXOX$X$X=X$X&X=X=X;X=X3X$X=X$X;X&X=X&X-X&X-X-X&X=X$X$X&X$X&X*X-X-X=X;X;X=X;X;X;X-X;X;X;X;X;X;X5X-X;X-X;X:X-X;X5X-X:X-X;X-X;X-X&X;X&X;X;X;X;X&X-X;X&X-X$X&X=X=X$X%X-X;X$X-X;X-X;X-X;X;X;X*X:X$X-X-X;X;X-X-X;X;X-X;X;X;X*X;X;X;X&X&X;X%X-X$X-X*X#X#X#X*X$X&X;X;X;X;X;X;X-X;X=X;X-X%X=X=X*X$X#X%XoX#X#X#X#X#X#X#X#X$X#X#XoX[.[.#X#X=X;X;X:X;X;X;X=X;X;X;X;X:X0X2X:X:X6X:X:X6X:X:X2X:X:X:X6X2X:X",
":X:X6X;X1X6X:X:X:X0X;X:X;X:X;X;X-X-X;X;X1X-XoXY.].G.1X XOX}.$XqX XOX@X$XOXOXOXOX$XOXOXOX$X@X&X,X,X,X&X<X,X$X$XOX<X<X,X,X<X<XOX(.P.U.P.Q.oXOX$XOXOXOXOX$X$X,X$X#X,X$X<X&X&X@X,X,XOX$X$X,X&X@X$X,X&X<X$X&X$X&X&X<X,X;X,X1X,X1X&X1X,X1X1X,X1X1X1X,X1X0X,X,X,X;X1X,X,X1X&X1X,X1X1X1X1X,X&X1X1X,X&X,X&X&X&X,X&X&X&X&X&X,X;X<X&X;X,X<X&X;X&X1X,X&X&X1X,X&X&X$X$X&X&X<X=X;X3X;X=X;X3X=X1X;X1X=X=X=X=X=X&X$X$X$XOX$XOX$X$X&X$X$X$X$X$X$X$X$X$X&X$X&X1X1X&X=X;X$X;X$X1X$X&X$X@X$X$X$X$X$XOX$X$X#X$XOX$X$X$XoXOXOXoX#XQ.}.E.E.}.Q.E.L.L.L.E.E.E.}.E.oXoX$X$X$X$X%X$X=X$X$XOX<X$XOX$X$X$X XOX$X<X$X<X$X$X@X@X@XOXoXoXOXOX#X&X$X$X&X&X&X&X<X&X@X,X$X$X<X,X$X$X<X@X$X&XOXOX$X$X$X$X$X$X$X&X;X=X&X=X=X=X=X;X=X-X$X-X-X-X$X-X$X$X&X&X-X-X-X-X-X;X*X-X=X=X-X-X;X;X;X;X;X-X:X;X-X-X;X:X-X5X;X-X:X;X-X-X;X:X5X:X-X;X;X-X&X&X;X&X;X&X;X=X&X&X;X-X$X=X%X*X&X$X-X$X;X=X-X=X=X-X-X:X*X=X;X$X;X=X;X;X;X;X;X;X;X;X:X;X;X;X;X;X;X-X&X-X&X*X$X#X%X%X$X&X;X;X;X;X;X;X-X;X;X=X-X=X=X-X$X#X#X$X$X#X#X#X#X%X#X#X$X#X%X#XXXXX].[.#X*X-X;X;X;X:X-X;X-X;X;X;X:X;X:X:X:X2X:X2X2X:X:X6X:X:X:X:X:X:X",
";X0X:X2X;X:X;X0X;X:X;X;X;X;X;X;X;X:X%X-X-X-X}.Y.$XY.E.OX1X<X$XOXoXoXOXOXOXOX$X&X,X,X@X&XOX&X,X<X<X$X@X@XOX,X<X<X@X@XOX$X$XOXOXoXT.U.U.T.U.E.oXOXOXOXoXOX@X$X<X@X>X$X@X$X@X$X@X$XOX$X,X,X&X&X&X&X,X&X&X$X&X&X&X1X1X,X1X,X1X&X1X&X,X;X1X,X1X,X1X,X1X,X1X1X&X1X&X1X,X;X1X,X1X&X1X&X1X;X1X&X1X&X&X&X<X&X&X&X&X&X&X;X1X&X;X&X;X,X&X&X&X;X&X<X,X;X&X&X$X$X$X&X&X$X;X&X=X3X;X=X1X=X;X;X1X=X=X=X=X=X=X=X&X$X$X$X$X$X$X$X$X$X@X$X&XOX&X&X;X$X1X$X1X;X=X1X=X$X&X;X&X$X;X;X$X$X$X$X@X$X&X&X$X$X$X@X$X#X$XOXoX#XOX#X#XoX}.Q.E.Q.}.Q.U.P.L.L.T.E.Q.}.}.oXOX$X$X$X$X$X$X$X*X$X$X$X$X$X$X X$X$XOX<XOX<X<X$X$X&X$XOXOXoXOXoXOXOXOXOX$X$X&X&X<X&X>X$X@X$X$X@X,X$X&X$X&X@X$X$X$XOX$XOX$XOX$X$X$X$X$X;X3X&X1X=X-X=X&X&X=X%X*X&X&X=X$X;X&X;X;X$X$X=X=X;X=X=X=X-X*X:X-X;X;X:X;X;X;X;X:X-X-X5X-X-X-X-X-X5X-X:X-X-X-X-X&X-X4X;X-X;X;X-X-X&X-X-X-X&X-X&X$X&X*X$X&X;X=X-X=X=X-X;X;X=X;X;X-X=X;X-X;X-X;X-X;X:X-X;X;X;X;X*X;X;X&X&X;X&X&X=X-X$X$X#X#X$X-X-X;X-X;X-X-X;X;X;X;X=X-X=X;X*X*X#X=X$X*X#X#X$X%X*X#X#X#X%X#X#X#XoX|.#X%X*X;X;X-X;X;X=X-X-X;X;X:X:X:X:X:X:X6X:X:X:X:X:X:X2X:X:X:X:X",
":X;X:X;X0X:X:X;X:X;X;X:X;X:X;X:X0X;X-X$X&X$XoXY.g.T.oX2X#X}.<XOX@X$X$XOXoXoXOX$X&X&X$X<X&X&X@X#X,X,X$X$X$X$X@XOX&X$X<X$X&X@X$X$X@X+XoXQ.T.U.oX@XOXoXQ.}. X@X$X&X$X$X$X$X$X@X$X$XOXOX,X&X&X,X,X<X1X1X&X&X&X&X;X,X&X1X<X1X,X1X,X&X1X,X1X1X1X1X,X,X1X1X,X1X1X,X1X,X;X<X&X1X,X1X,X1X,X,X1X,X&X1X<X1X&X&X;X&X&X<X&X&X&X&X<X,X;X&X1X&X,X,X&X;X&X&X1X<X&X<X&X$X$X&X&X1X;X=X;X=X1X=X=X;X3X;X1X;X=X-X=X=X&X$X&X$X$XOX#XOX&X$X$X$X$X&X$X&X&X=X$X1X$X&X$X&X&X;X=X&X$X;X&X$X&X@X$X$X$X$X$X&X$XOX$X$X$X@X$X$X$XoXoX#X$XoXoXQ.}.Q.Q.T.T.E.E.}.T.E.E.Q.].}.OX$XOX$X$X$X$X&X$X=X$XOX<XOX<X$XOX$X$X$X$X$X$X$X$XOX#X@XOXOXoXOXoXoXoXoXoXOXOX$X$X$X$X$X,X$X,X$X$X@X&X&X&X&X&X@X&X$X$X&X$X$X$X$X$X$X&X&X=X=X=X=X=X=X&X=X&X&X-X=X&X&X-X-X$X$X-X&X=X=X=X-X=X-X-X*X;X*X;X;X-X;X;X=X:X-X-X:X-X-X-X:X5X-X-X;X-X-X-X5X;X:X;X;X;X;X;X&X;X&X&X;X;X&X&X=X$X;X$X-X%X=X$X-X-X=X;X=X=X-X-X;X=X=X=X-X=X;X;X=X;X=X;X-X;X;X-X;X;X:X;X;X;X;X&X-X-X&X&X$X%X#X#X*X-X;X;X;X;X*X*X=X;X;X;X-X=X-X*X*X*X%X&X-X-X#X#X%X%X$X#X#X#X|.oX$X*X=X[.XX$X*X=X=X=X=X;X-X;X;X;X:X;X:X:X:XwX:X:X:X:X:X:XwX6X:X:X:X:XwX",
"5X;X5X;X:X;X;X;X;X;X;X;X0X;X;X&X&X&X&X<X&XoXE.P.x.T.}.@X$XOX+XoXOXOXoXOXOX$X$X<X,X,X,X$X@X&X,X&X,X$X$X@XOX&X&X&X@X$X@X,X$X@XOX#XOX,X,XOX!.P.U.Q.$X X X@XOX}. X@X&X$X&X&X&X$X&X&X$X$X$X&X&X,X1X&X1X;X;X&X;X&X1X1X2X1X1X1X1X1X;X;X,X&X1X1X,X1X0X,X0X1X1X,X1X,X1X<X;X,X1X&X,X1X;X,X1X1X&X&X1X&X<X,X&X;X&X;X<X,X&X&X;X<X&X&X&X,X&X,X;X&X;X;X1X$X1X=X&X$X$X$X$X=X&X;X;X;X;X-X-X;X;X;X;X-X-X&X*X%X*X*X X$X=X$X=X$X*X=X=X=X$X$X=X$X=X$X$X$X&X$X$X&X&X&X&X&X<X$X&X&X&X$X&X$X$X$X$X$X$X&X&X&X$X&X$X$X#XOXoXOXOX$X$XoXoX}.}.E.E.E.E.E.E.E.T.P.T.oXoX}.Q.OX X(.OXOX$X$X$XOXoXoX$X&X$X$XOX XoX$X$X$X$X$X$XOXOXOXOX(.OXOXOXOX XoXOXOX$X<X&X&X$X&X-X&X-X-X;X&X&X&X-X&X;X&X-X$X;X;X$X$X$X$X;X$X$X;X$X;X;X&X1X;X&X<X&X&X&X&X$X&X$X;X;X=X1X;X=X;X&X-X&X%X-X-X%X;X;X-X&X-X;X%X;X-X5X-X-X;X-X-X-X-X-X-X;X-X-X5X-X-X;X;X;X;X-X=X-X=X;X-X;X-X-X=X;X=X&X=X=X=X-X=X=X-X=X;X=X;X;X=X-X;X=X;X3X=X;X3X:X;X;X;X;X;X;X;X;X;X:X;X;X-X-X-X-X-X&X-X&X-X=X-X-X-X*X:X*X:X:X-X-X*X;X*X:X*X*X*X-X:X%X$X*X$X%X#X#X#X#X$X%X*X$X#X%X$X#X#X#X*X*X-X=X$X-X;X;X-X;X;X;X:X:X:X:X6XwX:X:X:XwXwX2X:X2XwX:X2X",
";X;X;X;X;X:X0X0X;X6X;X0X6X0X;X;X&X&X&X&X$X$XoX}.L.T.Q.oXoXoXOX&X#XOXOXOXOX@X&X,X$X,X$X$X&X&X&X&X$X,X$X$X$X@X&X&X$X<X$X$X$X<X$XOX$X<X$X@XoX!.T.P.!.oX#X@XOXOXOXOXOX$X&X&X&X1X&X&X&X&X&X&X&X;X<X1X;X&X;X&X1X1X1X1X0X1X1X,X1X1X,X1X1X,X1X,X1X1X1X1X0X1X1X,X,X1X1X,X<X;X&X1X,X&X,X&X1X,X,X1X&X,X;X&X&X,X,X&X&X;X&X1X&X,X&X1X&X;X;X,X&X;X&X&X&X1X&X1X1X1X1X&X1X&X&X;X-X;X;X:X;X-X;X;X-X;X-X-X*X%X%X#X=X=X#X=X=X=X$X=X X=X X$X=X$X=X$X&X$X$X&X<X&X$X$X<X&X&X,X&X$X$X&X$X$X$X@X$X$X&X$X$X$X&X&X&X$X$X#X#X$X$XOXOXoX}.oXQ.}.].E.E.].Q.}.E.P.Y.E.}.(.}.}.oXoXoXOXOXOXOX$X#X$X$X&X$X@X#XOXoXoX$XOXOX$X$XOXOXoXOX X XOXOX(.(.OXOXOXOX<X@X<X$X$X$X&X&X$X-X&X$X;X-X;X-X&X&X$X;X&X$X$X$X$X&X;X$X;X&X$X;X$X$X;X&X$X&X&X$X&X&X&X$X$X;X3X=X3X=X;X-X&X-X&X-X&X-X&X%X5X%X;X;X%X-X&X-X-X-X-X-X-X-X5X:X-X5X-X-X-X-X:X;X;X-X;X;X;X;X;X;X=X;X=X;X=X=X-X=X=X-X-X=X=X;X;X-X;X-X;X-X;X;X=X3X=X;X;X;X;X;X3X3X;X3X;X=X;X;X;X;X;X;X;X-X-X&X&X-X-X-X-X-X-X-X-X;X-X:X*X-X;X:X*X:X-X*X*X*X-X*X*X*X$X$X$X#X%X%X#X%X#X#X#X#X%X*X#XXX#X#X$X*X-X=X=X=X;X;X;X-X;X:X0X:X:X-X6X7X:X6X2X2X:X2X2X:X2X2X:X",
";X&X;X;X;X;X;X0X0X0X:X;X;X&X#XoX$X@XOXOXOX$XoXOXT.T.P.P.P.}.OX&X$X@X@X$X$X$X$X,X<X&X$X>X&X,X,X,X,X,X&X@X&X&X&X,X,X,X$X,X,X$X$X@X<X$X<X$X$XoXT.x.x.Q.$XoXoXOXOX}.$X$X$X&X&X<X;X,X&X&X&X<X1X,X,X1X&X&X1X1X1X1X0X2X1X1X1X1X1X1X1X1X&X1X&X1X1X,X1X,X,X,X1X1X1X,X<X&X&X,X,X&X;X&X1X1X,X1X&X1X&X1X;X,X;X;X,X1X&X;X&X,X&X;X&X&X,X&X&X&X1X$X;X$X$X;X$X1X&X1X=X;X$X1X;X;X-X;X;X;X&X-X;X;X;X-X-X&X*X*X*X%X*X=X=X$X$X=X=X X X#X=X=X=X=X$X$X$X$X$X&X&X&X&X$X&X&X&X$X$X,X&X$X$X&X$X$X&X@X&X@X$X&X&X&X@X$X$XOX$X$X$X$X#XoX}.].}.}.Q.}.}.}.}.oX}.Q.T.P.!.oXoXQ.OX}.oX}. XOX$X@X$X&X&X&X$X&X$XOX$X$XOX$X$XOXOXOXOXOXOXoX(. X(. X(.OX XoXOXOX&X<X&X&X&X-X$X&X&X&X$X-X-X&X;X-X&X;X&X;X$X;X$X&X;X;X&X$X-X$X$X$X$X$X&X$X$X$X$X$X;X$X;X&X=X=X1X=X;X;X-X&X-X&X&X&X-X%X-X;X;X%X&X;X-X&X:X;X-X-X5X;X:X-X;X-X-X;X:X-X;X5X;X-X;X;X;X-X-X;X=X;X;X;X;X=X=X-X-X=X;X=X-X;X-X-X;X;X=X-X;X=X-X;X;X=X;X=X3X;X;X;X;X;X;X1X3X3X:X;X;X-X;X-X;X-X;X-X-X;X;X-X;X-X-X;X-X-X-X:X;X-X-X;X*X*X-X*X:X*X*X-X-X$X$X*X$X#X#X$X$X#X$X$X$X$X%X$X*X#X*X*X$X-X-X=X=X-X;X;X;X;X;X;X6X6X6X6X6X2X:X2X:X2X:X:X:X:X:X2X",
"%X&X-X&X&X;X&X&X;X-X%X*X$XoX}.}.OX$XOXoX}.oXoXQ.Q.P.J.L.T.oXOX&X<X$X$X$X@X&X,X$X$X@X,X$X,X$X&X<X,X$X&X,X&X,X&X<X&X<X,X,X$X,X$X@X@X$X@X,X<XOXQ.L.c.P.Q.oX}.OX XQ.&X&X&X$X$X<X&X&X<X&X;X&X&X,X1X1X1X1X1X1XqX0X1X1X1X1X,X;X1X1X1X&X0X<X1X,X1X8X1X1X1X1X,X1X,X;X,X1X1X,X;X1X,X1X&X<X1X1X&X,X,X1X&X&X<X&X&X&X,X<X&X;X<X&X1X,X&X1X<X;X&X1X$X1X1X&X;X&X$X$X$X$X$X$X$X$X-X;X-X-X-X-X-X-X&X-X-X-X%X*X*X$X*X$X=X=X=X X$X*X X#X#X=X$X=X=X$X$X$X&X$X&X&X&X&X&X&X$X,X$X$X$X&X$X@X$X$X$X$X$X$X$X@X$X&X$X$X$X$X$X$X$X$X$XoXoXoX}.}.}.}.}.}.}.}.}.Q.E.P.P.}.OXQ.oX(.oXoXoXOX$X&X<X&X$X&X&X$X&X&X$X&X$X$X#X$X#XOX XOXOXoXoX(. X(.OXoX X).OXOX@X$X$X$X%X$X-X;X$X-X&X;X$X;X&X&X$X-X$X$X$X$X$X$X1X$X=X$X$X$X$X#X$X$X$X$XOX$X$X$X$X$X$X;X1X=X=X1X=X=X&X;X;X-X;X;X;X;X5X%X;X;X;X&X-X-X-X;X;X5X-X-X;X;X:X-X5X;X-X:X;X-X;X;X-X;X;X;X=X;X;X-X-X;X-X=X=X;X-X-X=X-X=X;X;X-X;X-X;X;X-X;X;X=X=X1X;X;X3X;X3X;X:X3X;X3X;X;X3X;X;X;X;X-X;X;X-X-X;X;X;X;X;X;X;X-X:X:X;X;X:X*X:X*X*X*X:X*X*X-X*X;X$X-X$X%X%X*X#X#X$X#X*X%X*X#X#X*X*X*X#X*X=X-X=X-X=X=X-X-X=X;X;X:X:X6X6X6XwX:XwX:X:X:X:X:X:X;X:X;X",
"-X$X$X;X$X$X$X#XoX}. XoX#X#XOX#XoXOX$XoXOXoXQ.T.oXT.L.P.oX,X<X$X&X&X@X$X<X$X&X,X$X$X,X,X$X,X,X,X,X,X<X,X,X&X,X,X,X&X,X&X$X,X$X,X$X<X<X,X&X@X X}.P.G.B.!.OXoXQ.Q.$X&X$X$X$X$X&X&X&X&X&X<X;X&X1X,X1X2X1X0X2X1X1X1X1X1X&X1X1X0X1X1X1X,X,X1X,X1X,X;X,X1X1X1X;X,X&X1X,X1X&X,X1X<X&X1X<X;X;X,X;X,X1X&X;X&X&X,X&X&X<X;X<X&X;X;X;X,X<X&X1X$X;X$X1X$X1X$X;X$X$X$X$X$X$X;X-X-X-X=X*X*X*X=X-X=X=X*X$X-X*X$X X$X=X=X$X$X X*X*X#X#X*X$X=X=X=X&X$X&X&X<X&X&X$X&X&X$X&X$X<X&X&X&X&X$X$X$X$XOX$X$X$X&X$X$X$X$X@X@XOX$X$X#XOX$XOXoXoX XoX}.E.}.].}.oXoXT.P.E.oXoXoXoXOX$X$X@X&X&X&X&X&X@X$X$X&X&X&X&X&X&X$X$X#XOXOXOX XoXoX(. X}.OX X XoXOXOX$X@X$X=X$X&X$X$X;X&X;X$X&X$X$X1X;X&X$X$X$X$X$X$X;X$X&X$X$X$X$X$X$X#X$XOXOX$X$X$X$X;X$X&X=X1X3X=X3X;X-X;X&X;X;X;X&X;X&X-X&X-X&X;X&X=X-X;X-X-X:X;X;X;X-X5X-X-X:X-X-X;X;X;X;X;X;X;X=X;X;X;X;X=X;X=X=X-X=X=X-X;X=X;X;X;X=X;X=X;X-X;X=X;X=X;X=X1X3X;X;X;X;X3X;X;X3X;X;X;X;X;X;X:X-X-X-X;X:X:X-X;X;X;X;X;X;X;X:X;X-X;X=X=X#X*X=X-X*X*X;X*X$X=X%X$X$X*X$X#X%X#X$X%X#X#X#X#X*X*X#X*X$X-X=X=X*X*X-X-X-X-X;X;X:X6X:XwX:X6X:X2X;X:X3X:X;X;X;X;X",
";X&X1X$X$X$XoX#X#XoXoXoX#X#X#XOX}.$X$XOXOX&X}.P.T.P.L.T.OX<X&XOX&X$X$X,X$X@X&X@X&X@X,X$X,X,X<X&X$X,X<X&X,X,X&X&X,X<X,X&X,X$X,X$X>X$X<X$X$X$XOX@X}.L.x.T.oX X}.OX#XoXOXOX$X$X&X,X&X&X&X&X;X,X&X&X0X2X0X1X1X1X1X,X1X1X1X1X1X1X1X1X1X1X0X1X1X,X1X,X;X,X&X,X&X1X,X&X;X<X1X&X&X;X,X,X1X,X,X&X&X1X&X<X,X<X;X;X1X&X,X&X;X&X,X&X&X&X;X&X1X;X&X1X1X$X$X;X&X$X-X$X&X$X;X$X$X=X=X;X*X$X=X=X$X=X-X$X$X*X*X=X=X=X=X X=X*X*X X=X#X*X*X$X=X=X=X$X$X@X&X$X&X&X$X$X&X$X&X&X$X&X&X<X&X&X$X$X$X$X&X&X$X$X$X$XOX$X&X$X$X$XOX$XOX$X$X#XOXoXoX}.}.E.E.Q.(.oXQ.T.E.Q.}.Q.oXoXOX$X$XOXOX&X&X$X$X$X$X$X$X&X&X$X$X$X@X$X$XOXOXOXOXOXoX(.Q. X(.(. XOXOXOX@X&X$X$X=X;X$X$X$X$X;X$X;X$X$X$X=X$X$X$X$X$X$X$X$X$X$X$X$X#XoX#X#X$X$X$X$X#X@X$X&X$X&X3X=X;X;X=X;X;X&X;X&X&X&X-X;X-X&X;X-X-X&X;X&X&X-X;X-X-X-X5X-X;X;X:X;X;X;X;X;X;X;X;X;X-X=X;X-X=X-X;X-X;X-X-X=X;X;X-X;X;X;X;X;X;X-X=X;X;X;X;X-X3X;X=X=X;X;X3X;X;X;X;X3X;X;X3X;X;X-X;X-X;X;X;X;X;X;X;X;X:X;X;X:X;X;X;X;X;X*X=X*X=X*X=X*X=X;X-X;X-X$X=X$X$X#X%X*X#X*X$X*X%X$X%X$X*X*X#X#X$X*X*X$X%X*X=X=X=X;X;X;X:X:X6X:X:X:X:X:X:X:X3X:X3X2X:X2X",
"&X&X&X&X&X$X$XoX$X#X#XoXOXoXoX X+X$X@XOX$X&X XL.x.G.P.}.OX$XOXoX$XOX@X$X$X,X$X&X@X&X$X<X,X$X$X,X&X&X&X,X&X&X&X,X,X,X&X&X,X@X@X,X$X<XOX<X@XOXOX#XOXQ.P.!.}.OX@XOXoXoX XoX$X$X&X&X1X&X1X&X,X;X,X;X1X,X0X;X<X1X1X,X1X,X,X1X,X1X1X,X1X1X,X,X<X&X1X1X,X;X1X&X&X1X1X&X1X&X&X1X,X;X1X&X1X&X,X1X<X;X&X&X&X&X,X&X&X&X;X&X&X,X;X<X,X&X&X1X$X1X&X$X$X;X$X$X$X=X$X$X$X$X$X$X*X-X-X-X=X$X=X=X-X-X$X=X*X=X$X%X=X X=X*X=X X*X X$X=X=X=X=X=X3X=X$X$X$X$X=X&X$X;X$X$X&X;X;X;X&X;X&X&X$X$X$XOX$X$X&X$X@X$X$X$X$X&X&X$X$X$X$X$XOX$X#XOX#XoXoXoX}.E.E.E.!.Q.E.P.E.Q.}.Q.}.}.+XOXOX$X$X$X$X$X$X$X@X$X$X$X$X#XOX$XOX$XOX XOXOXOXOXOX}.(.oXoXOXOXOX XoX$X$X&X$X$X&X;X$X&X&X;X$X$X;X$X&X$X=X$X$X$X$X$X$X$X$X$X$X$X#X$X#XOXOX$XOX$X&X&X&X;X$X;X=X1X=X;X=X&X-X$X-X$X-X&X-X&X&X-X&X;X&X=X-X*X$X-X&X-X;X-X;X;X-X-X;X-X5X;X:X;X;X;X;X;X;X;X-X;X-X;X=X;X=X-X-X;X=X;X=X;X;X;X;X;X=X-X;X=X-X=X;X=X1X3X;X;X3X;X;X;X;X;X3X;X3X;X;X;X;X;X;X;X;X;X;X:X;X;X;X;X;X:X;X-X;X=X;X-X*X*X*X*X=X*X=X;X=X;X;X&X&X&X*X$X*X%X#X$X*X$X#X*X$X$X*X$X$X#XXX#X%X$X$X$X$X$X-X$X=X-X;X:X:X:X:X:X:X:X;X:X:X2X2X=X:X:X3X",
"$X$X&X<X&X$X#XOX}.}.].}.$X$X$X$X$X$XoXoXoX&XQ.x.g.P.Q.$X$X@X$X,XOX@X$X,X$X@X,X&X$X&X,X,X&X,X,X$X@X&X&X<X<X<X@X$X&X&X&X&X$X$X$X$X,X@XOXOX$X@XOX X XOXQ.T.Q.$X<XOX#XoXoXoXoXOX$X$X1X,X,X1X1X,X1X<X1X1X<X,X1X,X0X1X,X1X<X,X1X1X0X1X8X1X1X1X1X1X,X&X<X&X&X1X<X,X&X1X,X&X1X,X;X,X&X1X,X1X;X,X;X,X,X;X&X1X&X;X<X1X&X,X;X,X&X&X&X1X&X1X1X$X;X$X$X$X$X$X$X$X$X$X$X$X$X$X$X$X=X*X*X$X=X=X=X=X-X=X-X$X*X*X=X$X*X$X*X#X#X X*X$X=X3X3X=X=X#X$X$X$X;X&X$X1X$X&X;X$X$X$X&X;X&X&X&X$X&X$X$XOX@X$X$X$X$X$X@X&X&X&X$X$X$X$XOX#X$XOX$X$X$XoXoX}.oXE.T.E.}.}.T.P.T.Q.}.Q.Q.}.OXOX$X&X&X&X&X&X$X$X$X$XOX#XoXoXoX#XOXOX XOXOXOXOXOX XQ. XOX@X@XOXOX X$X$X$X$X=X=X$X&X;X<X$X$X$X$X1X$X-X$X$X&X=X$X$X$X$X$X$X$X$X$X#X#X$X$X$X$X$X$X&X;X$X;X;X3X=X;X;X3X=X&X-X&X=X&X$X;X-X;X&X;X&X-X;X&X$X*X-X%X-X-X;X-X:X-X5X;X-X;X;X-X-X;X;X-X-X=X;X;X=X;X;X-X;X=X-X*X-X;X-X;X-X;X;X;X-X;X-X;X;X;X-X;X3X=X=X;X;X;X1X3X;X3X;X;X;X;X3X;X;X-X;X;X:X;X;X;X-X;X;X:X;X;X;X;X;X-X;X*X=X*X*X#X*X$X=X-X*X-X;X*X-X-X$X*X%X$X$X#X%X#X%X#X#X#X%X#X#X%XoX[.#XoX#X%X$X*X%X$X$X&X&X;X:X:X:X:X2X;X;X:X:X;X3X2X3X3X:X:X",
"$X$X@X$X<X<X$X$XOXOX X}.}.}.OXOXOXoXOXOX$X1XOXx.x.E.$X$X$XOX$X,X$X$X$X,X@X$X<X,X&X&X&X&X,X&X,X$X&X&X<X&X&X,X$X,XOX$X,X&X&X@X&X,X<X$X&X<X<X$X<X$XOX$X$X}.Q.OXOXQ.}.oXOXoXE.oX$X&X&X;X0X<X&X1X<X&X,X1X,X,X0X,X;X&X0X,X$X&X1X0X1X1X,X1X1X,X,X1X&X,X1X&X<X&X1X,X;X,X<X;X,X1X&X,X;X,X1X<X&X1X&X&X&X,X,X<X&X1X;X,X1X,X&X&X;X&X&X$X&X<X&X1X&X=X$X=X$X&X&X$X=X$X$X$X$X$X=X X=X=X$X=X=X=X=X$X=X=X=X$X=X=X=X=X=X*X X*X X#X$X X=X=X*X$X=X=X$X=X=X$X$X$X;X$X;X&X$X;X$X1X<X;X&X$X&X$X&X$X$X$X$X$X$X$XOX$X$X$X@X$X$X$X$X$X$X$XOXOX#XOXOX XoX].E.Q.Q.Q.Q.}.Q.}.oXE.}.Q.oXoXoXOX$XOXOX$X$X&X$XOX&XOX#XOX#XOX$XoXOX<XOXOXOXOXOXOX X(.oX X XOXOXOXoX$X3X$X#X$X$X$X1X$XOX=X<X$X$X3X$X;X$X$X$X$X$X=X$X$X=X$X$X$X$X$X$X$X$X#X$X$X;X&X;X&X=X3X$X=X3X$X1X$X;X;X&X$X$X$X;X&X;X&X;X&X;X&X-X;X=X=X;X;X=X*X-X=X-X;X;X=X-X=X:X;X;X;X-X;X;X;X;X-X;X;X;X;X:X;X;X;X-X;X;X;X-X;X;X-X;X;X;X=X=X-X;X1X1X=X3X1X=X=X;X1X1X;X2X1X1X1X:X;X;X3X;X3X;X1X3X;X;X;X;X3X;X3X=X1X=X1X1X=X=X$X=X=X=X$X=X=X$X=X-X$X=X%X*X$X*X#X#X#X#X#X%X*X%X$X#X#X%X#X].].%X;X-X-X$X$X$X-X&X-X3X:X:X:X:X:X=X:X:X=X3X:X3X3X:X:X",
"$X$X$X<XOX$X<XOXOX X X#XoX X XOXOXoXoXOXOX&XoXG.G.E.oXOXOX$X,X$X$X,X,X&X$X,X&X,X,X&X,X<X&X&X$X@X&X,X$X>X&X@X&X$X&X<X,X<X&X$X$X$X,X@XOXOX@X$X@X@X}.oXOX XOXOXOX}.}.oX X}.}.oX&X,X&X,X1X&X&X,X1X&X<X&X&X&X&X;X&X<X0X1X&X&X,X1X1X,X1X1X,X1X1X&X1X1X;X,X1X&X,X;X1X&X&X1X;X,X,X;X,X&X,X1X&X&X&X,X;X;X&X;X&X&X,X1X,X1X&X&X&X&X&X&X&X$X;X$X;X&X$X$X$X$X&X=X$X$X$X$X$X$X=X$X=X=X$X*X X=X=X=X$X$X=X=X=X$X=X#X=X X=X#X X*X*X=X=X=X=X=X=X X$X$X$X$X$X&X$X;X$X1X1X$X&X$X;X&X&X&X&X$X@X$X$X$X$X$XOX$X@X$X$X$XOX$X$X$X@X$X$X$X#XOX#X$XOX#XoX X}.Q.E.}.Q.}.}.Q.Q.oX}.Q.Q.}.oXoX$X$X$X$X&X$X$XOX&X$XoXOX$X$X#XoX$XOXOXOXOX$X XOX XoXoX#XOX#XOXOX#X#X$XOX$X;X3X#X<X1X1X3X=X$X$X=X&X$X$X;X$X-X&X$X$X&X$X$X$X$X$X$X$X#XOX@X$X$X$X=X$X&X=X=X;X=X=X;X$X;X$X<X$X;X1X$X$X;X$X;X$X;X$X;X-X-X*X$X-X=X=X$X-X;X=X;X;X-X;X;X;X;X;X=X;X;X:X-X;X;X;X;X;X;X-X;X-X=X;X;X;X;X;X-X;X=X=X-X-X=X;X=X;X=X=X1X;X=X=X1X;X3X;X3X;X;X;X2X;X;X1X;X2X;X;X1X;X;X;X3X;X;X;X;X1X;X3X1X=X=X=X=X$X=X=X=X$X=X=X#X%X*X$X$X$X$X%X#X$X*X#X#X#X#X#X*X#XoX#X[.].R.].-X&X$X$X&X*X%X=X&X:X:X:X=X:X3X=X=X:X3X:X:X3X2X3X=X",
"<X<X@X$X$X<XOXOX@XOXOX+XOXOX X(.OXoXOXOXoXOXoXP.Q.}.Q.Q.OX&X&XOX@X<X&X,X@X&X<X&X&X,X<X,X,X&X&X&X&X,X$X&X&X&X,X$X$X,X,X&XOXOXOX@X<X@X XOX@X$X@X}.,X$X@XOXOX X}.oX}.oXoXoXoX$X&X1X&X1X1X,X&X1X1X&X&X&X&X&X&X<X&X<X1X,X&X$X,X,X,X,X1X1X1X,X,X&X1X&X,X;X,X;X<X;X,X;X;X,X,X;X;X&X1X1X1X&X&X,X&X1X<X&X&X&X1X,X1X&X&X<X&X;X&X&X&X&X<X$X$X1X$X$X&X$X$X;X$X&X$X$X$X$X$X$X=X=X X=X=X=X=X$X$X=X=X=X=X=X=X=X=X=X=X$X*X$X*X#X X=X#X=X X=X=X=X$X$X=X=X=X$X=X=X;X=X=X=X=X=X;X1X$X&X&X&X&X$X&X&X$XOX$X#X#XOX$X$X$X$X$X$X$X$X@X$X$X$X$X$X$XOXoXOXoXoXoX}.Q.Q.}.E.oX}.oX}.}.Q.Q.Q.OX$XOX&X$X&X$X&X$X&XOX#XOX$X$XOX X$X$XOX$XOX<X$XoXoX#XOX#XOX#XOX$X$X$X X}. XOX$X}. X$XOX X$X1X$X$X=X$X&X$X$X$X&X$X$X$X;X$X$X$X$X@X#X#X$X$X$X&X&X;X$X=X=X=X&X=X;X1X$X;X$X&X;X$X$X<X;X$X<X&X=X&X$X-X*X$X*X$X;X=X=X$X-X=X-X;X=X=X;X-X;X;X:X;X;X;X;X;X;X:X;X;X-X;X;X;X-X;X;X;X;X=X;X-X;X;X-X;X-X=X-X=X=X=X=X=X;X=X=X;X;X;X3X3X3X:X3X;X1X;X1X1X3X3X:X;X3X;X;X1X;X3X3X=X;X;X$X$X=X=X$X$X$X$X$X=X#X$X$X$X$X$X%X%X%X#XoX%X#X#X%X#X$X%X#X#X#X$X%X.XE..X%X%X#X#X%X&X$X%X&X=X:X:X:X=X:X3X:X:X:X3X2X3X2X3X3X",
"@X$X$X,X$X$XOX$X XOXOXoXoXoXoXoXOXOX$X$XoX$XOX}.OXOXoXoXoX&X@X$XOX$X&X&X,X&X&X&X,X&X,X<X,X,X,X&X@X$X&X&X@X<X$X@X$XOX@X$X&X&X&X&X$X$XOX#XOXOX X}.Q.P.J.P.L.x.x.J.oX}.$X&X&X$X&X1X,X1X1X&X,X1X&X&X&X&X,X<X,X,X8X1X8X,X&X$X&X<X1X,X8X1X1X1X,X1X,X&X1X,X1X,X1X,X1X,X,X&X1X,X,X1X&X<X1X,X;X<X&X&X&X;X,X1X&X&X&X,X1X1X&X&X<X&X&X&X&X&X1X$X;X&X=X$X$X$X=X$X$X$X$X$X$X$X=X=X=X$X X=X=X=X=X$X$X=X$X=X;X$X=X X$X*X$X*X X=X=X#X=X$X=X=X$X=X=X=X=X=X=X=X$X3X=X&X3X;X3X;X=X$X<X&X$X$X$X$X$X@X$X$XOXOX#X$X$XOX$X$X@X#X$X@X$X$X$X@X$X$X$X$X$X#XOXoXOXoXoX}.}.Q.oX(.oXoX}.Q.}.Q.oXoX$X$X$XOX&X&X$X$X$XOX#X#XOX#X$XOX X$X X$XOX$XOXOX XOXOX X X#X$X$X#X X X$X X X X2XqX3X$X<X$X#X&X&X$X=X$X$X=X$X$X$X$X$X#X$X$X$XOXOX#XOX$X@X$X$X$X1X=X1X=X3X=X=X&X;X&X1X;X$X;X&X&X&X;X$X;X&X;X<X;X*X$X-X-X-X=X$X;X-X=X;X;X-X;X;X;X;X;X-X;X;X-X;X-X;X-X;X;X;X;X;X;X=X;X;X;X;X=X;X;X=X;X&X=X-X;X$X=X=X$X3X=X$X=X3X3X;X;X;X1X;X1X;X;X;X;X3X;X;X;X;X;X;X1X3X;X;X;X;X1X$X&X=X$X&X&X$X=X&X$X=X$X$X$X$X*X#X%X$X#X#X#X#X#X#X#X#X%X$X$X%X%X#X$X%XoX].].OXoXOX#X%X%X&X$X$X=X=X*X*X:X*X=X=X=X3X3X3X2X3X:X3X",
",X&X,X@X,X@XOXOXOX XOX X}.}.OXOX XOX$X,XOX$X,XOX&X&X@XoXoXoXOXOXOXOX&X&X&X&X&X&X,X,X$X$X<X<X$X,X#X@X$XOX$X@X#X$X,X&X$X$X@X,X&X&XOXOX$XOX}.!.P.P.x.g.h.L.L.c.x.x.E.].oX;X0X&X&X,X,X1X,X,X&X1X,X&X&X&X,X&X&X&X,X,X1X,X,X$X,X,X,X0X1X1X1X,X,X1X&X;X1X,X1X1X,X,X1X,X;X,X1X;X;X,X1X&X;X&X&X,X&X&X<X,X;X&X&X,X&X1X;X&X&X&X&X&X&X&X$X&X$X;X&X$X$X-X$X=X=X$X$X$X$X*X$X-X=X=X$X=X3X X$X$X=X=X3X=X$X=X3X3X*X=X=X#X X=X*X$X*X=X X=X=X=X$X=X=X$X=X3X$X=X=X=X=X=X1X;X=X=X=X$X$X$X$X&X&X$X&X&X$XOX$X$X$XOXOX$X$X$XOX$X$X#X#XOX#X$XOX#XOX$XOX#XOXOXoXoXoXOX XoXoXoXoXOX}.oX(.}.].oX#XOXOX$X$X&X$X<X$X@X$X#X#X$X XOX$XOX X$X$X$X X XoXoXoX#XOXOX1X$X].J. X$X X}.J.}.#X X X$X<X$X=X&X;X$X$X$X$X$X$X$X$X$X$X#X$X#X$X$X$X#X#X$X$X$X$X;X$X3X=X;X=X;X1X&X=X$X$X1X1X$X=X;X$X<X$X$X<X=X;X=X=X=X1X3X=X=X=X=X3X;X;X=X=X=X;X;X;X;X;X=X;X;X;X;X-X;X;X;X;X;X;X*X;X;X;X-X;X;X;X=X=X-X-X$X-X$X=X=X$X=X=X$X3X;X=X3X1X;X=X1X1X3X;X3X3X;X3X1X;X3X;X1X;X=X3X;X;X3X1X<X&X$X=X$X1X<X=X$X3X$X$X$X$X=X=X$X$X$X#X%X#X%X#X$X%X*X%X*X$X$XOXoXoX%X].E.E.XXXXoXOX#X%X&X%X-X*X*X:X=X:X=X3X:X3X=X:X2X3X3X2X:X",
"@X<X$X&X<X@XOX$XOXOX}.oXoXOXOXOXoX}.@X$XOX$X,X$XoX&X<X&XQ.}.oXoXOX@X&X,X<X,X,X,X&X,X,X,X&X@X,X&X$X$X@X$X@X$XOX@X,X&X@XOXOXoXoXoX}.@X@X XP.L.x.G.T.E.OX<X,X XQ.E.J.L.}.&X0X1X<X1X;X1X1X1X&X1X&X&X$X@X<X$XOXOXOX$X,X,X$X,X&X<X,X1X,X<X,X;X;X&X&X<X,X1X,X,X;X1X&X1X,X;X&X<X,X;X<X,X,X1X;X&X&X1X;X&X&X<X;X<X&X&X&X&X<X&X;X&X<X$X&X&X1X$X1X$X$X$X$X&X$X$X$X$X$X$X&X$X=X=X3X$X=X$X=X3X$X X=X=X=X&X$X=X X$X=X=X=X=X=X=X=X X=X=X=X X=X=X#X=X$X$X=X$X=X=X=X=X=X3X=X=X=X$X$X@X&X$X$X&X,X$X$X$X$X@X$X$X$X$X$X$X$X#XOXOXOX#XOX#X#XOXoXOX#XOXoX XOXoXoXOXOXOXOXoXOXoXoX}.}.oXQ.}.oXoX$XOX$X$X&X$X$X$XOXOXOX$XOX#X$X XOX$XOX$X XoXoX X XoX XoXG. X$X3X XE.G.y.y.G.!.].}.$X1X1X$X$X$X$X$X$X$X$X$X$X$X$X$X#X#X$X$XOXOX#XOX$X$X$X$X$X=X=X;X3X1X=X<X3X1X<X3X=X<X=X=X<X$X1X1X=X1X$X1X=X$X;X;X1X1X=X;X=X=X=X=X1X1X$X;X-X;X;X-X:X-X;X-X:X;X;X;X;X-X;X;X;X;X;X;X;X;X-X;X=X-X=X-X=X=X-X$X$X=X=X=X=X=X=X=X1X=X1X1X;X=X1X1X1X;X1X;X3X1X;X3X;X3X1X;X1X3X;X$X3X&X3X$X<X<X;X1X<X&X$X=X$X3X$X$X$X-X$X*X$X#X$X%X#X$X#X$X$X$X*X#X%XoX%XXX].].oXoXoX#X%X%X%X&X%X=X=X=X=X=X:X3X:X3X:X3X3X3X2X3X3X",
"<X$X<X<X<X$X<X<X@XOX<XOXOXOXOX XoX}.OX$XoXOX&XOXoXOX,X&XOXoXoXQ.}.oX$X&X&X&X&X<X,X$X&X&X&X&X$X$X$X@X&X@X@X$X$X$X$XoX}.!.Q.E.E.T.Q.}.Q.!.P.P.!.Q.@X$X,X,X<X@X XQ.L.Y.}.,X0X1X,X0X,X1X1X,X1X&X<X$X@X&X,X&XOXoXoXOXOXOX$X$X@X&X,X<X&X&X&X&X;X,X<X&X1X1X,X1X,X1X1X1X&X,X<X;X;X,X,X;X1X&X<X&X&X&X&X<X1X;X&X&X&X&X<X&X&X&X&X<X&X&X&X$X;X&X$X$X-X$X$X=X$X$X$X$X$X$X$X;X3X X=X$X=X=X=X=X3X X$X=X=X3X=X=X=X=X=X=X$X=X X=X$X=X X=X=X=X=X$X=X=X=X=X$X=X=X=X=X=X=X=X3X=X$X$X$X$X$X&X$X$X$X$X&X$X$X@X$X$X$X&X@X$XOX$X$XoX#XOX$XOXoXOX#XoX#X$XoXoXOXOXOX#XOXoXOXoXoXQ.Q.oXQ.oX}.}.}.#XOX$X$X$X$X&X$X$X#XOX$X$XOX<X$XOX$XOXOXOXOX XOXOXOX XoX X3X$X].u.>.y.!.3X$X1X1X3X$X#X X X;X$X=X;X&X$X$X;X$X$X$X$X#X$X#X#XOX$XOX$XOX#X$X$X$X;X=X=X=X=X=X1X$X1X<X3X<X&X1X<X1X&X1X3X;X<X;X<X=X=X=X3X=X=X3X=X=X&X=X=X=X;X=X;X;X;X:X-X-X;X:X=X;X-X;X-X;X-X;X;X-X;X;X;X;X;X-X-X-X-X;X-X=X=X=X=X=X=X=X=X=X;X1X=X=X=X=X;X;X;X1X=X=X1X;X3X3X1X;X3X3X1X1X3X1X3X3X1X;X<X1X1X1X$X1X;X3X<X1X&X$X;X<X&X=X&X&X=X$X$X*X$X#X%X%X*X*X%X$X$X&X%X%X%XoXXX.X%XoXoX%X#X#X@X&X;X=X=X:X=X:X=X3X=X3X:X:X3X3X3X3X3X",
"<X@X$X>X<X,X<X$X<X<X<X,X<XOXOXQ.OXoX@X$X#XOX@XoXoX$X,X<X,X$XoX}.E.Q.OXOX&X@X&X&X$X$X@X&X@X&X@X$X&X<X&X&X<X$X,X<X$XoXQ.E.}.Q.}.E.Q.Q.Y.P.!. X$X,X1X1X<XoX X&X1X$X}.E.oX<X0X1X&X1X1X1X0X<X&X,X&X$X$X<X,X&XOXoXoXoX}.oX@X$X$X$X@X$X$X$X&X&X&X&X&X&X1X,X1X1X1X1X1X8X1X,X;X,X1X&X1X&X,X1X,X;X&X,X;X&X,X&X,X;X&X&X&X&X;X&X&X&X&X&X&X&X$X1X$X;X$X$X$X$X$X$X$X$X$X$X&X$X$X=X$X3X$X=X$X=X=X=X=X$X$X3X=X=X*X$X=X X=X=X=X=X*X=X=X#X=X$X=X=X#X$X=X=X=X$X=X=X$X;X3X1X;X=X$X$X$X<X$X$X,X&X$X,X&X&X$X&X$X&X&X&X$X$X$X$XOX$X#XoXOX#X#X#XoX#XOX$XOXOX$XoXoXoXoXOX$XOXoXoXQ.}.}.Q.oXoX XoX$X&X$XOX$X&X,X$X#X#X@X$X$X X$X<X X$X XOX#XOX#X X XOXOX X}.J.c.G. X2X2XOX3X$XOX<X<X X X#X$X&X&X$X$X=X$X$X$X$X$X$X$X#X$X#X$X$XOX#X#X$X#X$X$X$X$X1X=X;X3X=X1X&X1X1X$X1X$X&X3X1X<X1X<X1X1X1X1X=X=X=X=X1X;X=X=X3X=X1X3X;X3X;X:X-X;X;X;X;X;X;X;X;X;X;X;X:X-X;X;X=X;X-X;X;X;X=X=X&X=X$X-X$X-X$X$X=X$X=X=X3X=X1X1X=X3X=X3X;X=X1X3X=X3X1X=X=X1X=X;X3X;X;X1X;X;X3X<X=X<X1X1X1X<X<X;X1X<X3X1X<X;X;X&X-X-X-X%X*X$X*X#X$X$X#X$X$X$X=X#XoXoXoX].E.].OX%X%XoX#X$X$X%X;X3X:X3X=X3X=X:X:X:X3X2X3X2X2X3X:X",
"$X&X<X$X&X$X$X&X@XOX$X,X$X$XOX#X#X#XOX$X&X&X$X1XoX&X$XQ.$X1X&XE.}.Q. X$X&X$X$X&X,X&X$X&X$X$X$X&X1X&X$XOX#X#X$X&X<X,X&X&X&X;X,X,X1X1X1X&X1X&X1X1X1X$X$X$X$X&X<X;X].E.1X1X&X1X1X1X1X1X1X1X1X1X1X&X;X&X$X$X$X$X&X<X&X$X$XoXOXOX$X&X&X&X&X&X&X&X;X$X1X1X1X1X2X3X=X$X1X&X1X1X;X1X1X&X1X1X;X<X;X<X;X1X;X&X&X<X<X1X$X1X1X1X;X1X;X<X$X1X;X$X$X&X$X=X$X$X$X$X$X$X#X$X$X$X*X&X&X=X$X;X$X$X$X$X$X$X$X&X;X$X X=X X=X=X=X=X#X=X X X=X*X X=X*X$X=X&X$X;X$X&X;X$X&X1X$X1X$X$X$X&X$X&X$X&X&X$X&X$X&X$X$X$X&X$X&X#X%X$X%X%XOX%X#XoXoXoX%X#X#X#X%X$X XoX#X$X$X$X#XoX#XoX#XoX}.}.Q.].}.oXoX&X,X&XoX&X&X&X$XoX XOX$X$X<X$X$XOXOX$X<X$XOXOX X!.}.OX<XOXT.OX0XOXOX3XOX1X X].].OX<X$X X1X$X$X#X$X&X=X$X&X$X$X$X$X#X#X X$X$X#X#X#X#X=X#X=X$X=X=X=X3X3X1X=X1X&X;X;X&X$X1X1X&X1X$X&X1X&X&X3X;X;X;X3X=X=X;X1X=X=X;X=X=X=X;X=X-X:X-X:X-X;X:X;X-X-X:X-X;X-X;X%X;X5X;X;X%X;X&X;X5X&X&X<X&X&X$X X#X$X=X&X;X$X$X1X&X1X$X1X1X$X1X;X3X;X;X;X;X;X;X3X3X;X;X3X;X;X;X;X;X;X3X;X;X;X;X=X=X=X=X3X=X;X1X$X=X$X*X*X*X$X*X=X*X-X=X-X;X-X=X;X$X$X#XoX}.}.].#X$X$X$X$X1X&X1X:X=X=X=X=X=X1X=X1X=X;X;X3X;X3X;X",
"<X&X&X&X$X&X&X$X$X$X&X&X$XOXOX XOX}. XoX#XoXOX$X<X$XT.f.g.E.&X&XT.E.}.#X&X$X$X<X1X&XoX}.Q.oX&X0XoXOXOX#X$X$X;X&X1X&X1X&X&X<X&X1X1X1X1X1X1X<X;X1X&X;X;X$X&X$X$X;X}.].1X1X&X2X,X1X0X1X1X1X,X1X1X&X1X<X&X&X&X&X1X1X1X&X&X$X#X$X&X$X&X&X$X&X&X&X1X&X$X1X1X1X2X1X1X1X1X1X;X<X1X&X;X1X1X&X1X;X;X&X;X&X1X;X;X;X;X$X1X;X$X1X&X&X&X;X$X$X$X1X=X&X$X$X$X$X$X$X$X#X#X$X$X$X$X=X$X=X&X$X$X;X;X$X$X;X$X$X$X$X=X=X*X=X=X=X$X=X=X=X=X=X$X=X#X=X&X$X$X$X=X&X$X1X&X=X$X1X$X;X&X=X&X$X$X&X@X$X$X$X$X@X$XOX$XOXOX$XoX%X#X#X#XOXoX%XoXXXoXoXoX%X+X#XoXOXoXoXOX$XOX#XoX XoXoXoXoX XOXOXoX].E.}.$X$X$X$X$X$X$XOXoXOX$X<XOX X XOX X XOX<X$X#X<X1X,XOX X X!.OX1X#X X#XOX XOX<X X}.Q.}.}.J.}.1XwX1X$X#X$X#X$X#X#X$X$X$X$X=X#X*X#X#X=X=X=X=X=X=X$X$X=X;X=X1X&X;X<X;X&X1X$X$X1X;X1X;X;X;X1X;X;X3X1X2X;X;X;X;X3X1X=X=X=X=X;X;X;X;X;X-X;X;X-X;X;X-X5X;X-X;X%X;X5X%X&X;X4X%X;X&X%X&X&X$X&X$X&X$X$X$X1X1X$X1X$X$X;X&X1X1X$X1X$X;X:X;X3X;X3X;X3X;X;X;X3X;X;X1X;X3X;X;X3X;X3X;X3X;X=X=X3X=X;X3X=X-X=X=X=X-X$X*X$X*X*X-X;X-X;X=X=X$X$X$X$X#X$X$X$X$X$X;X$X&X$X;X;X=X=X3X3X1X$X3X;X=X1X3X;X;X:X3X;X",
"&X;X&X&X<X&X&X$X3X&X$X$X#XOXoX}.OXOXOX#XOX#XOX$X$X&X&X&X$X$XoX].E.E.Q.oX$X$X$X&XoXoX}.}.}.}.oX$X}.oXOX&X,X<X1X&X;X<X&X&X&X;X,X&X1X1X1X;X1X;X,X;X1X&X&X$X1X$X1X&X].'.1X1X&X1X1X1X0X1X1X1X1X,X;X1X,X,X,X&X&X&X1X,X1X<X&X&X$X&X&X&X&X&X<X&X&X;X<X;X$X$X1X1X2X2X2X2X1X$X1X&X;X1X&X1X&X1X&X;X&X1X1X$X&X;X&X;X&X;X1X$X&X;X$X;X$X$X$X;X&X$X$X$X$X$X$X$X=X$X#X%X$X$X$X$X&X$X;X&X$X;X&X$X&X$X$X&X$X$X$X$X=X X$X=X=X X=X#X*X X=X#X=X#X=X X$X;X&X$X$X$X1X$X&X=X;X&X$X&X;X$X$X$X@X$X$X$X$X@X#XOX#X$X#XOX$XOXoX%XoXOXoXoX%XoXoX#XoX%XOX%X%X#X$XoXoXOX$X$XOXOXoX}.oXoXoX#XoXOXoXoX].E.}.OX$XOX&X&X$XOX#XoX#XOX$X X#X X XOX X X!.OX<X<X X!.}.<X!.E.}.$XOX XOX$X}.$X1XOXQ.T.T.!.Y.E.T.}.$X;X&X$X$X$X$X#X#X#X$X$X*X$X$X=X=X$X=X$X=X=X X=X$X=X=X=X&X1X$X1X&X1X&X1X;X&X<X;X;X<X&X1X;X2X3X1X3X1X;X3X=X1X;X=X3X=X3X=X;X-X-X:X-X:X:X-X5X:X;X;X;X-X;X-X;X%X%X&X%X&X-X&X&X&X&X$X$X&X$X<X$X$X$X;X&X1X;X&X1X&X1X$X;X1X&X$X3X;X;X;X;X;X1X;X;X3X;X1X;X3X;X;X;X=X1X;X;X;X;X3X;X=X;X;X1X;X=X1X-X;X-X=X-X=X-X-X*X;X;X;X;X=X;X*X$X$X$X$X$X&X;X1X1X1X$X1X1X$X$X&X;X&X;X;X=X1X;X1X1X1X;X;X:X=X:X;X",
"&X&X<X$X$X$X@X&X&X&X&X$X$X#XoXoX$X#X#X$X$X&X&X1X,X1X,X1X&X}.E.Q. X].}.}.oXoXOX$XE.}.}.oX}.Q.}.}.$X$X&X1X1X,X&X,X&X&X&X&X&X&X&X;X$X<X&X;X$X;X&X&X$X1X;X1X$X1X1X1X].E.1X;X$X1X&X1X1X1X1X1X1X;X1X;X;X&X&X;X,X&X&X&X&X&X&X&X<X$X$X&X&X&X;X&X&X&X&X;X$X$X=X1X3X1X1X1X1X&X;X1X&X1X;X&X1X;X<X;X1X=X&X;X;X<X1X&X;X$X&X$X1X$X;X&X$X;X$X$X$X1X;X$X$X$X$X$X$X$X#X$X$X$X$X$X$X-X$X$X$X$X&X=X;X$X;X$X=X$X$X$X=X=X#X=X$X=X=X=X=X$X=X=X=X=X=X=X$X;X$X$X&X=X$X1X$X$X1X$X1X$X$X$X$X$X$X$X$X$X$X$XOX#XOX#XOX#XOX#X%XoX%X#X%XoXXXoX%XoX%XoXOX%X$X+X$X$X$X$XOX$X$X$X#XoXoXoXoX X}.oX}.oX}.}. X$X$XOX&X$X&X$X$X$XoX#XOX<XOXOX$XOX<XOX1XOX}. X,X,X$X}.T. X X#X<XOX#X<X@X$XOXOX#X X].P.#XT.D.D.E.#X$X X;X&X$X#X#X#X X#X X$X=X=X$X=X=X=X=X=X3X=X=X=X=X3X;X$X1X$X;X$X;X$X1X1X&X;X&X1X;X;X;X;X;X;X2X;X1X3X1X=X3X=X;X;X=X;X;X;X*X:X;X;X-X;X-X-X-X;X-X5X-X&X;X%X;X&X&X&X&X4X&X&X&X&X&X&X&X$X$X=X$X&X;X;X&X&X$X1X;X1X1X&X;X1X;X;X3X3X3X;X;X;X;X;X;X;X;X3X;X3X;X1X;X;X;X1X;X;X3X;X;X3X=X3X=X=X;X;X;X;X;X;X-X;X;X-X;X-X=X-X=X=X=X&X#X$X$X$X$X;X;X<X1X&X1X=X;X$X<X;X&X1X;X1X;X3X=X3X=X1X=X:X2X;X",
"<X&X&X&X&X$X$X$X$X$X$X$X$XOXOXOXoXoX#XOX$X&X&X&X&X&X$X@XOX}.OX&X#XoX'.E.}.E.E.].oXoX}.E.E.}.OX;X,X;X,X1X;X,X<X&X,X;X&X&X;X&X&X,X&X$X;X&X&X$X&X$X;X&X;X&X&X1X1X;X}.].&X&X#X&X&X1X1X1X1X1X1X1X&X;X&X&X1X<X;X&X$X&X$XOX&X&X&X,X;X&X1X<X<X&X&X$X$X$X$X$X=X;X=X;X1X=X1X;X&X;X1X&X;X;X&X;X1X$X;X&X1X&X;X1X&X&X1X$X$X$X$X1X$X&X$X&X=X&X$X;X&X$X=X$X$X$X$X$X$X$X$X$X$X$X$X=X$X;X&X&X=X$X&X$X;X;X$X$X$X$X#X=X#X=X=X$X=X=X=X=X=X$X$X$X=X X;X$X$X$X$X=X$X1X&X=X;X$X;X$X$X-X@X$X$X$X$X$X$X$X$X$X@X$X$X$XOX$XOX$XOXOX#XOXoXOX$X$X$X$X$X@X$X$X$X$X$X$X$XOX#XOXOXoXoX X}.}. X X}.}. X}.}.OX$XOX<X$X$XOX$XOX$XOX@XOX$X<XOX<XOXOX<X#X XOX$XOXQ.J. X$XOX X@X#X XOX<XOX XoX$X<X#X!.E.'.E.Y.J.Y.]. X X}.oX X#XOX$X<X=X3X3X=X3X$X$X3X3X$X=X=X=X3X3X1X&X$X1X1X;X&X=X&X&X;X;X1X$X1X1X&X=X=X3X3X3X1X;X;X1X1X;X=X;X=X;X;X;X:X*X;X;X;X;X;X;X;X;X-X;X;X-X;X-X;X&X&X%X&X&X&X&X&X&X&X$X<X<X$X&X;X;X$X1X<X;X1X;X&X1X;X&X$X1X&X;X;X;X;X;X;X;X3X;X3X;X3X;X;X;X;X;X;X;X3X3X;X3X;X3X1X;X;X;X;X=X;X:X;X;X;X;X;X-X;X;X;X;X;X;X=X=X*X&X$X$X$X$X$X$X$X&X;X&X$X;X&X&X;X;X;X;X;X1X&X1X1X3X;X;X3X3X:X=X3X",
"&X&X&X&X&X&X&X$X$X$X@X$X$X$X$X$XoXoXoX#XOX&X1X&X&X1X2X0X1X$X$X$X$X}.E.E.E.Y.P.T.E.}.oX}.}.}.$X,X;X<X&X$X&X&X1X1X;X,X<X&X&X,X&X<X1X1X1X&X;X1X;X1X;X<X1X$X;X&X$X=XoX}.;X$X X$X&X;X1X1X1X&X;X&X1X;X1X,X,X1X,X&X<X&X$X&X&X&X,X1X1X,X,X1X1X&X&X&X$X$X;X3X=X=X=X3X=X=X&X;X1X&X&X1X&X<X<X;X&X;X$X;X$X;X&X;X1X$X$X;X$X;X1X$X;X;X;X1X1X$X;X&X=X=X$X&X$X$X#X$X$X$X$X$X$X#X&X&X$X$X=X$X=X&X;X=X$X$X*X$X$X$X*X$X=X=X=X=X=X X X#X=X$X=X=X=X=X$X$X;X$X&X&X$X$X&X$X&X<X$X&X$X$X$X$XOX$X$XOX$XOX$X$X$X$X$X$X$X$X$X$X$X$X$X$X$X$X$X$X$X$X$X$X$X$X$XOXOXOX XOXOX X X}.}.}.}.}.oXoX}.}.!.P.T.}.#X$X#X XOX#XOXOX$X X XOX XOXOX X$XOX!.OX<X!.g.u.J.OX}.oXoX X X$X$X X}. X#XOXOX$XOX#X}.].T.T.T.T.T.!.}. X}.oX XOX$X#X$X=X$X=X=X3X=X=X=X3X$X3X=X=X=X$X;X$X$X$X&X;X<X;X&X1X&X;X1X&X&X;X=X=X;X;X;X3X;X;X3X;X3X;X;X;X3X;X;X-X:X;X;X-X-X;X;X;X;X;X-X-X-X;X%X&X&X%X&X&X&X&X$X;X&X<X$X&X$X$X1X&X&X;X1X;X&X1X1X1X&X<X1X1X$X1X3X;X3X;X3X3X;X;X;X;X;X3X;X3X;X1X3X3X;X;X;X;X3X;X;X;X;X;X;X;X3X;X;X;X;X;X;X;X;X=X;X;X;X;X;X-X-X=X$X$X$X-X<X$X;X$X;X&X$X;X&X&X;X$X;X&X<X;X&X1X=X;X;X;X3X=X3X:X:X:X",
"&X&X<X&X$X&X$X&X$X@X$X$X&X$X&X&X$X$X&X$X$X,X1X&X0X0X&XoX}.oX$X$X&XOXE.E.].}.E.}.T.oX$X$X#XOXOX$X$X&X&X&X&X;X1X1X1X1X&X&X1X1X1X;X1X;X1X;X1X1X&X1X1X;X1X&X$X$X$X$X$X#X;X#X}.$X;X1X,X1X1X1X<X;X;X<X,X1X;X&X&X&X<X$X&X&X&X&X&X&X&X&X&X&X;X&X$X&X$X$X1X1X;X;X;X=X1X=X<X;X&X;X;X1X;X;X;X&X;X&X1X=X<X$X;X<X$X;X=X&X&X$X$X;X$X$X;X$X=X&X$X&X$X&X=X$X$X$X$X$X$X$X$X$X$X$X=X$X=X&X;X$X$X&X&X$X;X$X$X&X$X&X X*X$X=X X=X=X=X=X=X=X3X=X=X=X=X$X;X&X$X=X$X&X1X=X;X$X=X$X$X$X$XOXOX$X$X$X$X$X$X@X$X$X$X$X$X$X$X&X$X$X$XOX$XOX$X#X$XOX#X$X#X$X#X#XOX$X X XQ.}. X}.}.}.Q.}.}.}. XoX XQ.T.T.Q. X X X}.}.OXOX$X XoX XQ. XOX X#X X}.<X XP.J.T.}. X$X}.E.}.OXOX1X3XT. XOXOX#X XOXOX$X<X XT.J.E.}.].E.}.}. XoX}.}.}.Q. X$X$X3X<X$X<X$X$X<X$X$X#X#X#XOX&X=X$X;X&X;X&X1X;X;X&X1X$X<X;X;X;X;X1X;X;X;X;X=X1X;X;X;X;X3X;X;X;X;X-X;X;X-X;X;X;X;X;X;X;X=X;X&X-X&X&X-X&X%X$X&X&X&X$X$X<X<X&X<X$X;X<X&X&X&X1X;X&X1X;X1X1X1X1X1X;X;X3X;X;X;X;X;X3X3X:X;X;X;X;X;X;X;X3X;X;X1X;X;X;X3X;X;X3X3X;X1X;X;X;X;X;X;X-X;X;X;X;X-X;X-X=X-X#X$X$X;X1X=X&X&X1X$X1X&X&X;X&X;X$X&X1X1X;X;X3X1X;X3X;X:X:X:X=X3X",
";X&X&X&X&X$X&X$X$X$X&X$X$X&X&X&X&X,X&X$X$X&X<X&X<X1X,X$X$X<X&X$X0X$XoX}. XoX$X$X1X1X1X&XOXoX&X1X1X1X1X1X;X1X;X=X1X1X1X1X;X1X1X1X1X&X&X1X$X$X1X$X$X1X&X;X;X$X$X$X1X#X1X$X}.#X;X0X1X;X1X&X1X;X;X&X&X&X&X&X&X$X&X$X&X&X&X$X$X$X&X$X&X&X&X&X&X&X1X&X1X1X1X3X1X;X3X1X1X$X;X;X&X&X&X;X&X;X&X;X$X&X;X&X&X$X;X$X&X=X&X1X$X$X$X$X$X&X$X$X$X;X-X$X$X$X$X$X$X$X$X*X$X$X$X$X=X&X$X&X$X$X;X$X$X$X$X$X-X$X*X$X=X=X X=X=X=X$X=X=X3X=X$X=X=X=X=X&X$X=X$X=X&X=X&X$X$X&X$X;X$X$X$X$X$X$XOXOX$XOX$X$X#X#X@X$XOX$XOXOX$X$X$XOX$X$X$X#X#X$XOXOXOXOXOXOX$X<XOXoX}.oX XOX}.}.}.!.].Q.Q.}.oXOX}.!.}.}.Q.}.Q.E.}. XoX X X}.}. X X XOXOX XG.G.T.Q.OX<XOX XOX}.$X<X X1XOXg.OX$XOX X$X<X$X X XOXOX#X!.T.!.Q.T.E.}.}.OXoX X}.#X$X3X$X=X$X$X$X3X$XOX#X#X X X X$X$X$X$X&X=X;X&X<X;X1X&X1X;X;X<X1X2X3X1X2X3X;X;X1X1X;X3X;X;X3X3X;X;X;X;X:X;X;X;X;X;X;X;X-X;X-X;X%X&X&X%X&X&X&X&X&X&X<X&X&X$X$X$X1X1X;X;X;X1X;X<X&X;X1X&X1X;X1X&X1X;X;X;X3X;X;X;X;X;X;X;X;X3X3X;X3X;X;X;X;X;X;X3X3X=X;X;X1X:X;X1X;X;X-X;X;X-X=X;X;X;X;X;X;X;X;X-X#X$X$X;X&X;X$X#X1X1X;X1X;X<X;X&X&X;X$X$X&X&X;X=X;X:X3X3X=X3X=X:X",
"&X&X1X&X&X&X&X&X$X$X&X$X,X&X,X$X&X&X&X&X;X,X&X&X<X;X&X&X&X$X&X&X1X<X$X#XoXoXoXoXOX1X0X&XoXOX&X&X1X;X1X1X<X1X1X1X1X1X1X;X1X;X=X1X$X<X;X;X1X&X1X1X1X$X$X$X$X&X&X#X1X$X2X$XY.&XtX$X1X1X;X;X&X1X1X1X&X&X&X&X$X&X&X&X&X$XoX$X&X&X1X,X&X&X,X;X<X$X&X;X&X;X=X=X1X;X1X=X;X$X1X&X1X$X;X<X;X1X&X1X&X;X1X$X$X;X$X$X$X&X=X&X=X$X&X<X;X$X$X;X;X1X$X;X$X=X$X$X$X;X$X$X$X&X=X$X$X$X;X$X&X$X&X$X$X$X&X$X$X$X$X$X*X=X$X=X$X=X=X=X=X=X=X$X=X$X=X$X$X1X$X&X=X$X;X&X1X;X$X$X$X$X$X$XoX#XOX#XOX$XOX#XoX}.oXoX$X&X$XoX<X$XOX$XOX$XOX X X XOXOXOXOX#XOX<X$X XOX X}.}. X}. X XQ.}.Q.Q.}. X}.Q.Q.}.}. XoX}.Q.Q. XoX X X}.}.OXOX}.Q. XOX!.c.Q.OXOXQ. X XQ. XOX$X$XQ.G.J.Q.$X$X<X$X<X X$XOXOX#X XOXOXOXOX#XOX}.J.J.J.P.!.oX].}. X X X<X1X3X$XOX X XOX X X}.$X$X$X1X;X&X&X;X&X;X&X1X;X<X1X&X;X;X;X;X3X3X;X;X3X;X1X3X;X;X;X=X;X;X;X3X3X;X;X;X=X;X=X3X;X=X=X=X&X&X$X$X&X&X&X&X@X$X$X1X<X<X$X<X&X;X&X;X1X$X&X1X1X&X&X1X$X<X;X;X;X1X;X;X;X3X3X2X2X;X;X;X;X;X;X;X2X;X;X;X;X3X2X3X;X3X1X;X;X3X2X3X;X;X;X;X;X;X-X;X-X*X;X;X*X;X-X*X&X$X;X$X;X&X;X$X1X;X&X;X1X&X&X;X;X#X].oX1XwX1X$X;X3X2X;X2X;X:X=X",
"&X&X&X<X&X&XOX$X&X$X$X$X$X$X&X$X&X&X;X<X&X&X1X&X1X&X&X&X$X$X$X$X&X$X$XOX#X$X$X&X&X&X<X$X$X&X<X1X;X1X;X1X1X;X1X1X&X1X1X1X1X&X1X;X1X;X;X<X;X<X;X&X&X$X$X;X1X;X&X$X$X#X;XOXY.oXqX=X1X1X;X<X;X;X&X1X&X&X&X&X&X<X&X&X&X@X$X&X,X1X&X,X1X1X&X&X&X1X$X;X;X&X1X$X3X;X;X3X$X1X$X1X;X1X;X1X$X$X1X1X1X1X$X;X$X&X;X$X&X=X=X&X&X$X=X$X$X&X&X=X&X$X&X$X=X$X$X&X-X$X=X&X=X&X$X&X$X$X$X&X=X$X=X$X$X;X=X$X$X#X$X$X$X$X=X=X3X=X=X$X$X=X3X$X=X=X=X X;X&X$X$X=X&X$X;X$X$X$X$X&X$X$X#X1X&X$XOXoX}.}.}.oXoXoXoX#X$XOX$X XOXOX$X X$X$X#X$X$X$XOX X!.T.T.}. XOX<X1X<XOX XT.Q.Q. X}.!.!.!.Q.Q.}. X XOXOX X}. X XoXOXOXOXoX}.!. X<XOX}.oX XJ. X X}.}.}. X X}.}. X#X XE.E.OX$XOXOX$X$XOX#X$XOXOXOX X X X X X XQ.Q.}.Q.!.!.!.!.}.].!.T.T.J.G.!.#X3X XE.T. X1X;X$X$X$X$X$X1X&X;X&X;X&X1X;X1X1X;X3X;X3X;X;X;X1X;X2X;X;X3X;X;X;X3X3X;X;X;X;X3X;X;X;X;X;X=X=X=X$X;X&X&X$X&X$X<X$X<X$X$X<X<X$X$X<X3X&X;X&X&X1X;X;X1X;X1X$X1X;X1X&X1X;X3X2X;X1X;X1X1X1X3X;X;X3X;X3X;X;X;X3X;X;X;X=X;X;X;X1X1X1X;X2X-X;X-X:X:X-X;X;X;X;X;X-X;X=X=X;X$X1X&X&X&X;X$X1X&X&X1X&X<X;X1X&X&X#X}.}.$X1X3X=X;X2X;X3X;X;X=X:X",
"&X&X&X&X&X$X$X$X$X$X@X$X$X$X$X$X&X&X;X&X1X&X<X,X&X,X,X&X&X&X$X@X&XOXOX$X$X&X<X0X&X&X$X$X&X0X0X&X;X3X;X1X1X;X1X1X1X1X=X1X=X1X;X;X;X;X;X&X&X;X&X;X1X&X;X1X1X1X$X$X$XOX$X#XT.].1X&X1X;X;X1X1X<X&X1X&X&X;X&X;X,X;X&X$X$X$X1X1X1X,X;X<X&X&X<X&X&X&X$X&X1X=X;X3X;X1X=X1X$X;X&X<X&X1X&X&X1X;X$X$X;X&X$X;X&X$X$X;X$X&X=X;X$X$X1X;X&X$X$X;X$X$X$X$X$X$X$X=X$X$X$X$X$X$X*X$X$X$X;X$X&X;X$X$X$X&X$X$X$X$X$X=X=X=X$X=X$X3X=X=X*X=X=X=X=X=X=X1X$X$X$X$X=X$X$X$X$X$X$X;X$X#X#XQ.].}.}. XoXoX#X$X$X$X#XoX XoX$X}.OX$X<X<XQ.Y.J.P.J.J.G.G.g.c.G.G.J.!.Q.}.}.Q.!. X}.Q.!.!.Q.}.}.!.}.}. X XoX}.}.}. XQ. X XQ. X(.<XQ.}. X!.}.OX XT.}.OX}.Q. XoX(.}.!.}.OX$X X X X#XOXOX#XOXOX X XOXOXOX(. XQ.Q. X!.Q.(.oX X!.T.Q.!.!.Q.T.J.J.c.x.t.y.J.Q.OXOX XT.'. X$X$X;X2X1X$X$X1X;X1X;X1X1X$X;X;X;X;X;X3X;X;X1X;X1X:X;X;X;X;X2X;X1X;X2X;X3X1X;X;X;X;X3X$X=X$X&X$X&X$X$X$X&X$X1X$X<X<X&X$X$X<X&X;X<X;X1X$X1X&X$X1X=X1X$X1X;X&X:X3X;X1X2X;X3X3X3X;X;X3X=X3X;X;X;X;X3X2X3X1X;X3X;X3X3X2X3X;X2X3X;X;X;X;X;X;X-X;X;X;X=X;X;X-X;X=X&X$X1X;X&X$X1X1X;X1X;X1X;X1X<X;X1X$X#X X#X&X=X=X;X;X3X1X3X:X3X:X",
"&X<X&X&X&X&X$XOXOX$X#X$X$X@X&X$X&X&X<X,X,X;X;X&X,X;X&X<X&X&X$X$X&X&X&X$X$X&X&X;X&X&X$X&X&X,X1X1X;X1X2X3X1X1X1X1X3X;X1X;X1X3X3X;X1X<X1X;X;X;X$X$X;X$X;X&X;X1X&X$X1X#X$X1X}.].&X1X;X,X;X&X$X;X1X1X1X<X,X1X,X&X<X1X&X$XOX&X1X1X<X&X,X1X1X&X&X&X=X&X;X$X3X;X;X;X;X1X$X;X&X&X;X;X&X1X$X$X$X1X&X$X=X$X$X;X;X$X$X$X;X&X&X=X&X$X$X;X;X&X$X&X=X$X$X$X$X#X$X$X&X$X-X$X$X$X$X$X$X$X;X$X$X$X=X&X=X$X$X$X$X=X=X X=X$X=X=X$X=X$X=X=X=X3X=X=X=X$X$X;X$X&X$X$X$X$X-X$X$X$X$X#XoXoXoXoXoXoX}.}.Q.oX$XOXOXoXOX$X&XOX$X$X XT.J.c.G.J.P.Y.J.P.Y.Y.T.!.T.P.T.!.!.Q.}.J.T.!. XOX X!.T.}. X XOX X(.Q.}.Q. X}. X X X X}.!.}.$XOX}.OX Xu.Q.}. XQ.Q. X X XOX}.}. XOXOX}.}.OX X#XoX X#X XOX X X X XQ. XQ.Q. X(. X X!.P.!.oX}.}.!.T.P.T.T.!.J.g.t.c. X<X$X}.E.oX$X$X$X1X1X$X1X$X&X1X1X&X1X&X;X3X3X;X;X;X;X3X;X3X;X3X3X2X;X3X1X;X;X1X;X3X1X1X;X;X=X3X=X=X=X$X&X&X$X&X$X&X$X,X$X<X$X<X@X$X$X<X3X&X=X&X;X1X&X;X1X&X1X&X1X;X&X1X3X;X;X3X;X;X;X;X2X1X;X3X;X;X;X1X3X1X;X=X;X;X1X1X;X;X;X;X;X1X;X;X;X-X;X;X;X;X;X;X;X;X-X;X=X;X-X-X;X&X=X<X;X1X1X$X1X;X<X;X1X;X;X1X1X;X&X$X$X;X1X1X=X3X;X;X:X3X=X=X",
"&X&X&X&X&X&X$X$XOX#XOX$X$X$X$X,X&X<X;X&X,X1X1X&X;X&X1X,X;X&X&X$X&X&X&X$X&X$X&X&X&X&X<X,X&X$X&X1X;X2X3X1X3X1X2X3X1X3X;X1X2X;X3X;X&X1X&X&X;X&X&X=X1X$X$X$X&X;X&X;X2X$X1X1X#X}.#X1X&X&X&X;X1X1X&X1X1X&X,X1X;X<X1X&X&X$XOX$X,X&X&X1X&X1X&X&X&X$X&X$X;X3X=X3X;X;X;X3X1X&X;X;X1X$X;X&X1X$X1X$X$X;X$X$X$X1X&X$X1X$X&X$X1X$X$X=X;X$X$X$X$X;X$X$X$X$X$X$X$X&X$X$X=X$X$X$X#X#X$X$X=X$X;X$X$X&X$X$X$X$X$X$X=X$X=X=X=X$X=X=X$X=X$X;X=X=X=X=X;X$X&X;X$X$X$X#X$X#X#XOX}.oX|.#X}.}.}.E.].}.oX#X}.oXOXOX$X$X$X&X XQ.T.G.g.G.E.OX'.Q.}.!.!.Q.Q. X X}.!.!.!.Q. XOX XQ.T.P.E. X$X1X XOXOXOX X XOX X XOXOXOXoXOX XoXQ. XOX X!.Q.!.u.}.}. XQ.Q.OX X}. XoX XOXOX X}. X XOX X XoX X X X(. XQ. X(. XQ. X X XQ.Q.P.P.!. X X}.Q.!.T.P.J.Y.T.P.J.G.G.J.T.}.#X1X1X$X X#X&X1X$X1X<X;X&X1X;X1X3X;X1X;X;X;X3X;X;X3X1X;X;X2X;X;X3X3X1X1X2X3X1X3X;X3X3X;X3X=X3X;X&X&X&X$X$X&X<X<X<X<X<X<X<XOX<X<X&X1X$X;X1X$X1X;X<X;X=X1X&X;X1X$X3X;X;X;X;X3X;X3X;X1X;X;X;X3X;X;X1X;X=X|.$X=X=X3X;X3X1X;X1X;X1X2X;X;X;X-X;X;X;X;X;X-X;X;X;X-X=X;X$X1X$X1X1X<X;X;X&X1X1X<X1X&X1X&X1X1X1X1X&X1X=X3X=X3X=X:X:X3X:X=X",
";X&X$X1X&X&X&X&XOXOX#X$X$X,X&X<X&X;X,X1X1X&X<X;X,X1X1X&X<X&X&X&X&X&X&X&X&X&X&X&X&X,X1X1X$XoX$X1X1X1X1X:X2X1X;X;X;X;X1X;X;X3X1X2X1X1X1X;X&X1X&X&X1X1X&X$X$X$X;X&X1X1X&X1X$X}. X;X$X;X;X<X1X&X1X1X,X1X&X&X,X;X;X,X1XOXOX$X&X&X&X<X&X&X&X&X&X$X;X$X&X=X;X=X3X;X;X;X=X1X<X;X$X1X$X;X$X;X$X1X;X&X$X&X$X$X;X;X$X1X$X1X$X;X1X&X;X&X1X1X$X$X;X$X$X$X$X$X$X$X#X$X$X$X$X$X#X#X$X$X$X$X$X&X$X$X&X=X$X$X$X$X=X=X=X X=X=X=X=X=X$X=X3X=X3X=X3X$X&X=X&X&X$X#X#X#X#X#X#XoX#X#X$XT.L.G.G.G.E.oX&X$X#X#X#X#XoX}.E.T.T.P.T.J.T.}. XT.T.E.T.T.Y.E.E.!.P.T.!.T.!.Q.!.!.P.g.>.,.u.c.J.!.!. X}.Q.}. XOXoX X X XoX X(. X<X}.!.OX#XT.J.}. X XoX X X X}.Q.}. X XOXOX XoXOX X#XoXOXoXOX}. X XQ. X(. XQ. X(.Q.Q.Q. XQ.!.!.Q.Q.!.}.}.!.P.G.c.c.J.Q.}.P.G.c.G.].oX1X1X;X&X;X1X1X$X;X1X1X1X1X$X;X;X;X;X3X;X;X:X;X2X;X1X1X3X1X1X2X1X3X1X3X1X1X1X=X=X;X3X1X1X1X1X;X&X&X&X<X<X<X,X$X,X1X<XOX<X<X<X1X$X<X&X&X1X;X<X;X&X1X&X1X&X;X1X;X;X3X;X;X;X;X;X3X;X3X;X=X;X3X;X=X=X|.|. X|.=X=X;X;X3X;X:X3X2X3X:X-X;X;X;X;X;X;X;X:X;X-X;X;X;X-X;X$X1X1X$X1X&X1X1X1X1X;X1X1X1X1X&X1X1X1X1X1X=X1X3X=X3X:X=X=X=X=X",
"&X&X<X,X<X;X&X<X#X$X@X$X$X&X&X&X,X&X&X1X,X;X&X,X,X,X<X&X,X1X1X&X&X&X&X&X&X,X1X1X<X1X,X1X$XOX$X0X2X3X2X;X;X;X2X;X;X;X;X3X;X1X1X1X&X1X1X1X1X&X1X;X<X1X&X$X$X$X;X1X<X1X$X;X&X#XoX$X&X;X;X;X;X1X&X$X&X1X<X1X,X1X,X;X1X&X$X&X&X&X$X$X$X&X&X$X&X&X1X&X;X&X;X;X;X;X3X;X1X&X$X1X1X$X;X&X&X;X1X&X;X&X&X=X1X$X1X&X;X;X;X$X1X&X$X1X&X;X1X$X1X$X$X$X$X$X$X$X$X$X$X$X$X$X$X$X#X#X#X$X=X=X$X$X=X=X&X$X$X#X$X$X$X=X=X=X=X=X=X=X$X=X=X=X;X3X1X=X$X=X;X$X$X$X#X#X#X$X$XOX#X}.}.].E.T.P.L.J.L.Y.P.}.OXOX#X}.E.T.T.T.!.}. X X}.E.J.T.E.!.!.!.Q. X X!.Q.}.oX X X X}.!.}.OX$X XQ.J.x.T.!.Q.}.}.!.Q.}.Q.}.Q. X X!.Q.!.P.T.!.<X1XJ.g.Q.(. XoX X X}.}. X}.oX XOXOXOX#XoX$XOXOX$X#XOX X X(. X XQ. XQ.Q.(.Q.!.Q.Q. X!.!.Q.!.!.!. X X!.T.T. X XQ.!.!.}.OXOXY.T.}.;X1X&X&X;X&X;X&X1X1X&X1X;X;X3X3X;X;X;X;X3X;X3X;X2X3X2X3X2X1X2X2X1X1X1X1X1X1X1X3X1X1X1X1X3X;X,X<X&X<X,X<X1X,X1X<XOX X<X<X$X1X$X;X&X;X&X;X&X;X&X$X1X1X&X<X;X;X3X;X3X3X;X;X;X1X;X;X;X=X1X;X;X;X=X$X=X=X=X=X;X3X1X;X;X1X;X2X;X-X;X;X-X;X;X;X;X:X;X;X;X;X:X=X;X<X;X;X$X&X1X1X1X1X;X&X1X1X;X1X1X&X;X,X;X1X=X;X;X;X;X=X3X=X:X=X=X",
"&X&X&X;X1X,X1X1X&X&X$X&X&X$X$X$X&X&X1X,X1X,X1X&X1X1X&X;X&X;X,X0X<X1X<X1X1X,X&X&X,X1X1X1X&X$X$XqX1X1X1X2X3X1X3X;X1X3X;X;X;X1X1X1X1X1X1X&X1X1X1X1X;X;X1X1X1X;X;X<X;X1X&X&X1X1X$X;X$X$X&X1X1X&X;X1X;X&X;X&X;X&X,X&X1X&X&X<X1X1X$X@X$X$X$X&X&X<X$X=X1X&X=X;X3X;X1X;X&X1X1X;X&X1X$X&X;X<X;X1X<X;X1X&X$X;X$X1X&X&X;X<X$X&X1X$X1X$X$X1X&X;X1X$X;X$X$X&X$X$X$X$X$X$X$X$XOX#XOX$X$X&X&X=X$X&X$X$X$X$X$X$X=X=X#X=X$X=X=X=X$X=X=X=X=X=X1X$X$X&X$X1X$X$X#X#X}. X$X$X}.T.G.G.L.T.].}.oX}.E.Y.G.P.].}.Q.E.}.OX@XoX X}.!.Q.Q.!.!.}.!.E.!.T.!.!.}.oX X}.Q.}.Q.}. X XOX}.}. X XOXQ. X<XOX XQ.!.!.Q. X}. XQ.}.}.}. X}.u./ 2.2.u.,X X XOXoX}.Q.OXOX$X#X#X#X$X$X$X X$X<X=X<X$X<X$X$XoX X(. XQ. XQ.}.}.Q.!.!.Q.Q.}.(.}.}.Q.}.}.Q.!.}.OXoX XOX#XOX X X;XT.G.T.E.]. X1X;X&X&X1X;X1X;X3X;X;X;X;X3X3X;X;X1X;X3X;X1X1X2X1X3X1X3X1X3X2X1X3X1X1X1X1X1X3X1X1X1X1X<X1X<X1X1X<X1X1X$X}.!. XOX#X<X;X&X;X1X$X1X1X&X1X1X;X&X1X&X;X;X;X;X=X;X;X;X;X3X2X;X3X;X;X3X3X;X3X;X3X;X;X=X;X;X;X3X2X;X3X1X1X;X-X;X:X-X;X;X;X;X;X:X;X;X-X;X;X1X;X1X=X1X;X1X&X1X1X1X1X1X1X1X1X1X1X;X&X=X;X3X3X;X=X:X3X=X3X=X=X",
"1X&X1X;X$X1X$X1X1X$X<X$X$X$X$X=X;X1X&X1X1X,X;X1X1X&X1X1X1X1X1X0X&X1X&X;X&X1X&X&X1X1X1X&X$X$X&X1X1X;X&X1X1X;X<X1X;X1X,X;X1X1X1X&X&X1X;X;X<X;X&X1X1X;X1X1X;X,X1X;X1X3X3X2X2X=X$X X3X=X$X=X1X2X3X=X&X1X3X1X;X=X1X1X1X&X<X1X&X1X&X&X&X;X1X&X$X$X;X&X&X=X;X1X&X1X&X&X3X;X;X=X1X3X;X1X=X;X;X1X3X;X;X;X;X=X;X;X=X;X;X;X=X3X;X=X;X;X;X=X$X1X$X1X;X$X&X$X$X$X$X$X#X#X#XOX$X#X*X*X#X=X=X$X3X=X=X=X=X$X=X=X*X X=X=X3X3X=X=X|.=X=X=X1X1X1X;X1X%XoX].OXOXoX}.}.$X!.f.y.J. XOXE.}.E.E.}.}. XOX#X].J.T.!.}.}.Q.Q.!.!.}.}. X}.Q.}. X}.}.}.Q.}.Q.Q.!.Q.Q.Q. X X X(. XQ.Q.!.Q. XQ.}. X}. X XQ.!.T.J.G.T.!.J.T.!.J.3.c.x.u.3.g.J.T.J.T.E.}. X}.#X#X#X$X=X$X*X$X=X$X X#X=X#X*X$X$X$X,X#X XQ.}.}.}.E.E.].}.}.}.oXOXOX}.}.oXoXoXoX$XOX XoXoXoX X}.}.Q.$X}.}.oX}.].#XwX&X;X1X1X$XOX&X2X2X=X3X2X2X=X=X;X3X1X;X=X=X=X3X2X;X2XwX2X1X3X1X2X2XqX2X3X1X2X2X=X$X<X$X3X<X<X<X1X3X!.J. X XJ.T.OX3X$X$X$X#X=X1X1X;X;X3X;X;X;X;X1X;X;X=X;X=X3X;X1X3X;X;X;X=X3X;X;X;X;X;X;X;X3X3X;X2X2X1X1X;X2X1X;X;X;X-X-X:X;X:X:X2X;X:X;X=X=X3X2X=X$X-X;X=X#X=X2X:X;X:X:X:X;X;X:X3X1X1X;X;X;X;X;X=X;X;X;X3X;X3X;X",
";X1X$X1X1X$X1X$X;X;X;X$X$X$X$X&X1X;X1X1X1X1X1X1X1X1X&X1X1X1X1X1X1X;X1X;X1X&X1X&X;X1X1X&X$X$X;X1X;X<X1X;X&X1X1X;X1X1X1X1X,X1X1X1X;X&X1X,X;X1X1X1X1X<X1X;X1X1X1X1X1X1X2X1X1X;X*X X;X=X;X;X1X1X1X1X;X1X2X2X1X1X1X1X1X;X&X&X1X,X1X,X;X&X&X$X$X$X$X;X=X&X<X1X1X;X&X;X=X;X=X;X;X;X3X=X;X3X;X1X;X1X;X;X3X3X;X;X3X3X;X;X;X=X=X3X3X=X;X3X;X&X;X$X$X;X$X$X$X$X$X$XOX#X#X#X X*X X X*X X=X=X;X1X;X;X=X=X=X=X*X=X*X=X=X*X=X*X;X;X1X1X$X1X1X;XOX&XoX#XT.].L.G.S.,.>.g.!.}.!.Q.oX].}.}.}.OX XOXOXOX X X XOXOX X!.}.].Q.!.Q.}.!.!.!.!.Q.!.}.Q.}.(.}.!. X(. X(.Q. X X XQ.(. X XOX XOXoXOXOXoX}. X@X!.J.G.T.E.J.g.c.c.J.Q.!.c.x.P.J.T.Q.}. X#X#X#X=X$X X=X=X$X#X=X=X=X=X$X=X X*X$X$XOX}.}.}.oX}.Q.}.}.}.}.oX}.}.}.}.Q.}.oXoX#XOX$XOX#XOX#X#XoXoX}.}.}.}.$X#X X$X0X1X;X1X1XwX2X1X$X=X$X$X$X=X3X2XeX$X=X;X2X1X2X1X1X2X1X3X=X=X1X3X1X$X2X1X1X1X2X1X1X3X3X1X1X1X1X3X<XT.!.<X1X1X3X3X1X2X2X1X3X3X;X3X2X3X1X1X1X3X;X2X3X;X=X;X;X3X;X;X;X;X;X;X=X=X;X;X3X3X;X3X3X;X;X;X;X1X3X;X;X;X;X;X;X:X;X:X:X:X:X:X:X=X:X2X3X:X:X2X2XwX;X:X2X:X;X:X2X2X:X2X2X2X2X:X2X2X;X2X3X2X3X;X3X=X;X;X3X;X;X;X;X",
"&X1X;X&X$X1X$X;X&X$X$X$X#X$X$X$X1X&X&X1X1X;X;X1X1X&X1X1X1X1X1X1X1X,X1X1X1X<X;X;X&X1X1X&X$X$X&X1X1X&X1X1X1X1X&X1X1X1X1X1X;X1X1X1X1X&X1X;X1X1X;X1X1X1X1X1X1X1X,X1X1X2X1X2X2X;X=X$X=X=X3X1X;X3X3X1X1X1X2X1X1X1X;X1X1X&X&X&X&X1X<X&X$X=X$X$X#X$X$X1X&X&X;X1X$X1X1X$X3X;X;X3X1X;X;X1X;X;X3X;X;X3X;X;X:X3X;X3X;X;X3X;X;X;X=X;X;X;X;X=X&X1X$X1X1X$X=X$X=X$X$X$X$XOX#X$X=X*X*X#X X=X$X=X1X1X=X3X3X$X$X=X X=X*X X X*X*X=X2X1X;X&X<X1X;X=XXX.XE.L.D.g.g.g.a.t.c.$X1X X}.#X X}. XoXOX#XOX#X#XOX$X$XOX XoX X X}.}.Q.}.Q.!.}.T.P.!.!.!.}. X XQ. XQ.Q. X(.(. XOXOX). X XOX XOX XoX XOXOX<XOX XOX<X XQ.OXQ.G.J.!.!.J.!.P.G.J.!.P.T.}. XOX#X#X$X=X*X*X=X X$X=X*X*X$X$X=X$X=X*X$X$X#XoXoXoXoXoXoXoXoXoXoXoX}.}.Q.].oX X X#X$X$X$X$X$X#X$XOXoXOX#X#X].oX#X#X}.].}.1X1X&X$X&X0X1X$X1X2XqX2X1X;X=X|.2X2X=X#X#X#X=X=X2X1X1X1X1X2X1X1X3X2X2X2X1X1X3X2X&X1X1X1X1X1X$X XJ.#XqXqX2XxX2X1X2X2X1X2X;X;X=X=X3X;X;X2X1X1X3X1X3X;X=X3X;X3X3X;X;X3X3X=X3X=X1X;X:X;X;X;X;X1X;X3X;X;X;X;X;X3X3X;X;X:X:X:X:X:XwXwX:X:X3X3X3X:X3X=X*X*X*X-X:X:X:X:X:X2X:X2X2X:X:X2X2X;X;X;X3X;X;X;X=X=X;X;X;X1X=X;X",
"1X$X&X1X;X$X1X&X$X=X&X$X$X$X&X;X1X1X;X1X1X,X1X1X1X1X1X1X0X1X1X1X1X1X1X1X1X;X1X1X1X1X1X;X$X$X;X1X;X1X1X&X&X&X1X;X;X,X1X1X1X1X&X1X1X1X;X,X;X1X,X1X1X&X,X1X;X1X1X1X1X3X1X1X2X2X3X=X X|.=X=X;X2X2X1X3X1X1X1X;X;X$X$X1X1X$X&X&X&X&X$X$X$X$X$X$X$X&X;X&X=X;X$X1X;X&X;X=X;X=X=X=X3X1X=X=X2X;X1X;X2X3X;X;X;X;X;X3X3X;X;X3X=X;X;X=X3X=X;X;X$X1X&X;X&X$X&X$X$X=X$X$X$X$X#X=X#X X=X#X=X=X=X=X=X1X=X3X=X=X=X=X=X*X*X=X=X3X=X;X=XoX].}.oX}.E.R.D.L.j.L.>.p.t.y.Y.OXOXQ.E.Q. X}.oXoXOXOX XOX$X X XOXOXoX XQ.Q.OX X XQ.}.Q. X X}.!.Q.}.}.Q.!.Q. XQ.Q. X(. X X(.(. X XQ.Q.(.(. XOX X}.}.OX XOX$X!.$X XQ. X!.G.Q.Q.!.x.a.g.P.Q.!.!.}. XoX#X$X$X$X=X X$X=X=X*X X=X$X*X=X X=X#X=X$X<X#XoXOX#X#XOXOX$XOX$X#XoXoX}.}.oX}.oXOXOX#XOX$XOXOX$X$X$X$X#XoX$XoX|.$X#X}.E.T.}.1X0X&X#X<X1X1X=X3X=X#X X;X2XqX2X3X*X X].].|. X X=X2X2X2X2X1X1X1X2X2X2X2X1X1X3X1X3X<X<X1X2X<X X}.2XeX2X1X1X1X<X;X3X;X;X;X=X=X=X;X;X;X3X2X1X;X1X1X;X;X=X;X=X;X;X;X3X;X;X;X;X=X1X3X;X3X;X;X;X;X3X3X;X3X:X3X1X2X;X;X:X:X:X:X:X:X:X=X=X*X*X=X:X=X#X-X;X:X2X2X:X:X;X:X;X:X2X:X;X-X-X;X1X3X;X;X;X3X3X3X1X3X;X;X;X3X=X",
"1X&X1X$X&X&X1X$X$X1X$X$X$X&X;X1X&X1X1X1X1X&X1X1X1X1X1X1X,X1X1X1X1X1X1X1X1X1X1X1X;X1X1X&X;X&X$X1X;X1X;X,X1X&X1X1X1X1X1X&X;X1X1X&X&X1X1X;X1X;X1X1X0X1X1X1X1X1X0X1X2X2X3X2X2X2X1X1X|.$X=X=X;X2XqX2X1X3X1X1X3X1X=X$X;X&X&X&X&X$X$XoX#X#X$X$X;X$X$X$X&X<X=X&X$X$X1X&X3X=X1X1X3X;X;X;X3X1X;X1X2X;X;X1X;X;X;X;X;X;X3X;X;X1X;X3X1X;X;X;X1X<X;X;X$X=X$X$X$X$X#X$X#X#XOX#X X#X=X X=X=X=X=X=X=X=X;X3X;X=X=X=X*X#X=X3X:X=X[.|.].T.G.G.G.L.g.D.g.L.].L.*.^ y.L. X XQ.E.#X X!.oX}.oXoX#X XOX#XOX XoXOX XOXoX XoX X}. X X X XOX X X}.Q.(.}.}.Q.Q. XQ. X(. X(. X(. XQ. X X(. X). X X X X XOXOXOXOX}.u.,.J.!.G.Q.J.W.!.B.P. XQ.T.E.}. X#X$X$X$X$X=X#X=X X*X=X=X#X X=X=X*X$X=X X=X$X$X$XOX$X$X$X$X&X$X&X$X$XOX$XoX XoXoX#X$XOXOX$X$XOX$X$XOX#X$XoX#XoX X#X&X$X#X#XT.$XeX1X&X1X;X$X*X3X2X2X2X2X3X$X]. X|.=X=X=X$X|.'.'. X;X1X2X1X3X;X=X1X3X1X1X1X3X2X1X3X1X1X2X1X<X<X2XqXqX1X1X2X2X;X3X1X;X2X3X1X1X;X=X=X;X2X=X;X1X;X1X1X;X;X3X;X;X;X;X;X=X;X;X3X;X;X3X;X;X;X;X3X;X;X;X2X1X2X1X3X1X:X:X;X:X;X:X;X;X2X2X2X2X3X1X2X2X2X2X2X2X;X;X2X2X1X;X;X;X3X=X;X=X;X;X1X;X3X;X;X;X=X;X3X=X;X;X=X=X",
"=X1X&X1X1X$X&X;X&X;X1X;X&X&X1X1X1X;X;X<X1X1X;X,X1X;X,X1X1X1X1X1X1X1X0X,X1X&X1X1X1X&X<X;X;X1X1X1X1X&X1X1X;X1X1X&X&X1X1X1X1X1X1X1X1X1X<X1X1X1X1X0X1X1X1X1X1X,X1X1X1X1X2X1X2X1X1X3X=X=X*X X=X2XeX2X2X2X1X2X2X2X2X1X1X&X&X$X$X$XoXoXoX#X$X;X$X$X$X$X;X=X&X;X$X1X$X1X=X;X=X=X;X;X3X3X1X3X1X3X1X3X1X3X3X2X3X;X1X;X;X1X;X3X;X;X;X;X3X;X$X1X1X&X1X&X1X$X$X$X#X#X#XOX X#X=X*X#X=X X$X=X=X$X$X=X=X=X=X=X=X3X:X=X#X=X X].J.L.Y.G.G.L.T.E.T.R.oXR.%X:.>.>.E.$XoXoX X$X<X$X}.}.}.oX}. XOX X XOX X X}. XOXoX XQ. XQ.Q.Q.}. X X}.!.Q. X XQ. X X X(. X(. XOX X XOXoX X X X X X X<XOXOXOX X XOX XOX XG.g.G.J.J.}.!.!.!. XoX!.T.T.}. X#X$X$X$X$X$X=X X$X*X$X=X X=X*X=X=X X=X X$X=X$X$X$X$X$X$X$X$X$X$X&X$X$X$X$X$X#X#X#XOXOX#X$X#XoX$XOX$XOX$X$XoX$X#XoX#X$X$X$X$XoX#X X'.}.#X&X$X;X;X3X2X2X=X'.H.'.'.}.#X=X;X3X=X;X|.'.].=X2X2X=X1X3X1X1X2X1X2X2X1X1X<X1X1X1X1X1X<X<X2X2X2X1X<X2X3X2X2X1X1X1X;X3X3X=X$X=X1X=X3X2X3X1X=X3X=X=X;X=X3X;X;X;X;X;X;X;X;X;X;X3X;X1X;X;X3X1X2X2X2X1X2X1X;X;X:X;X;X;X;X;X[.=X3X!.y.y.G.J.H.H.G.y.S.F. X=X3X3X3X;X1X1X;X3X3X=X=X;X3X;X;X;X1X;X1X1X3X=X=X=X",
"1X$X1X&X1X&X1X$X1X&X&X;X;X$X;X1X&X&X1X1X1X&X1X1X1X;X1X;X1X1X1X1X1X1X1X1X1X1X1X;X1X1X$X&X;X1X&X&X&X1X1X;X1X&X;X1X1X1X,X1X,X1X1X1X1X,X1X1X1X1X0X1X1X1X0X1X1X1X1X0X1X2X1X1X2X2X1X3X=X1X=X|.|.=X1X2X2X2X1X2X2X2X1X1X<X;X&X$X&X$X$X$X$X$X$X$X$X$X$X;X$X;X$X$X$X&X;X1X=X;X;X=X:X;X;X;X;X3X2X1X2X1X;X;X;X1X3X1X;X1X3X2X;X;X;X3X;X;X;X3X&X&X1X&X&X;X;X$X$X$X$X#X$X#X#X#X=X=X=X=X$X=X=X=X$X$X=X=X=X#X#X|.*X*X*X|.'.H.H.H.L.T.E.E.}.$X&X$X%X;XoXL.r.G.T.$X X}.}.OX XQ.Q.}. XoX}.oX}.OX X$XOXOX#X X}.}. X X XQ.Q.}. XQ.Q. X}.Q.}.Q.}. X XoX X X}. X XOXOX XOXOX<XOXOXOXOXOX<X$XOX#XOXOXoXoXQ.}. X}.Q.!.}. X X!.!.}.Q.T.T.}.}.}.#X$X$X*X$X*X#X=X X=X X=X*X$X=X=X#X=X*X=X=X#X$X$X&X=X$X$X&X$X$X&X&X$X&X$X$X$X$X$X#X#X$X$X#X$X#X$X#X$X$X$X$X#X#X$X#X#X#X#X#XoX;X#XE.G.G.E.#X1X2XT.y.g.G.H.'.|. X|.].[.$X;X3X2X2X=X].].#X3X2X1X1X2X2X2X=X#X;X2X1X1X3X3X<X3X1X1X<X3X2X1X1X1X1X1X1X1X1X3X;X;X;X;X2X=X X=X1X;X;X2X1X1X=X=X3X=X=X=X3X;X=X;X=X;X;X3X;X;X;X3X;X;X3X;X3X1X1X2X2X1X3X;X:X;X-X;X;X;X;X1X2X2X3X'.H.S.H.H.'.'.H.H.H.].;X2X=X=X=X;X;X1X1X;X=X3X;X;X;X;X;X1X1X;X;X;X;X;X3X=X",
"&X1X=X1X$X;X$X1X$X1X;X;X$X&X&X<X1X1X;X1X1X1X1X1X,X1X,X1X1X1X1X0X1X;X1X1X;X,X,X;X&X;X1X1X1X1X1X1X&X1X;X<X;X1X1X&X;X1X1X;X1X1X1X;X;X1X1X;X,X1X1X1X1X1X1X1X1X1X1X1X2X2X3X1X1X2X1X;X=X2X=X].'. X3X2X2X1X1X2X2XqX0X1X1X&X&X&X&X&X&X&X;X$X$X$X$X$X;X1X;X&X;X$X$X$X1X$X3X=X;X;X3X;X;X;X2X;X;X2X1X;X3X2X3X;X;X;X2X3X;X;X3X;X;X;X;X3X;X3X;X1X;X1X1X;X$X&X=X$X$X$X$X#X$X#X*X X=X#X=X$X=X=X=X=X=X=X=X$X|.|.]. X X'.S.S.y.S.}.#X$X$X$X$X$X$XXXoX&Xf.oX&XtXE.OX}.}. XOX#XOX XoXoXoX}.oX XOXOX X$X,X<XOX}.Q. X X X XoXoX X}.Q.(.}. XQ. X X XOX X(. X(.oXOXOX XOX X XOX XOXOX XOX XOX XOX X X X XJ.L.P.!.OXOX!.Q.OXOXQ.Q. X XQ.}.oX#X#X=X=X#X$X=X*X=X$X*X=X=X X X=X=X#X=X X#X=X$X$X&X$X$X$X$X$X$X$X$X$X$X$X#X$X$X$X$X$X$X$X$X X$X#X$X$X$X$X$X$X#X#X$X$X$X$X$X$XoX#X$X#X'.Y.}.$X2X'.H.'. X].'.|.'.'.'. X=X;X;X=X=X;X;X|.}. X=X1X3X2XeX2X|.J.|.;X2XqXeX2X1X1X3X1X<X3X2X<X1X2X2X1X2X1X2X1X2X2X2X2X2X$X#X=X3X1X3X2X2X;X1X;X=X=X3X=X;X3X;X;X3X=X;X3X;X1X;X;X3X;X;X;X1X3X2X1X2X2X;X;X-X;X-X:X:X;X3X3X=X X{.J.'. X'.G.H.H.H.S.S.J.H.G.=X#X=X=X;X;X3X=X=X=X=X3X;X1X;X3X1X3X3X1X;X3X=X=X",
"1X$X1X;X$X1X$X&X$X;X1X$X#X$X&X1X,X1X1X1X1X1X1X1X1X1X1X1X1X1X1X1X1X1X1X1X1X1X1X0X1X1X1X1X1X1X1X,X1X&X1X1X<X;X1X<X1X1X0X1X1X1X1X,X1X&X&X;X&X;X1X1X1X1X0X,X1X1X1X1X1X2X2X1X2X1X1X3X3X;X=X X'.'.|.2X1X1X1X1X2X1X1X1XOX$X1X&X$X$X$X<X0X1X;X;X=X&X1X1X&X;X$X$X-X&X1X1X=X;X3X3X2X1X1X3X;X2X;X2X1X:X1X:X2X3X;X1X3X;X1X;X=X;X1X3X1X1X;X;X&X1X&X1X&X&X$X;X;X&X$X$X$X$X#X#X$X$X X=X*X X=X*X#X=X3X=X=X X|.|. X'.H.F.g.g.H.T.].}.oXoX$XOXOXQ.oX&Xf.].}.&XoX&X#XOX X#XOX X X X}. XoX#XOX X X#X$X<XOXOX X XOXOXoX}.(. X XOX X XOX X XoX X X X}. XoXOX XoX X X X X X XOX X X$XOX X XOX<X&X X}.OXOX!.P.oX XE.!.OX}.}. X X X}.}.|.}.}.#X*X$X*X$X$X=X#X=X=X=X=X=X=X=X=X=X=X X=X=X$X$X=X$X$X$X$X$X$X$X$X$X$X=X$X$X$X$X$X$X$X$X=X=X$X$X$X=X$X$X#X$X$X$X$X$X$X#X$X$X$X$X#X X$XoX].L.H.H.|.#X|.'.'.].].|. X=X3X1X1X3X=X=X3X1X;X#X}. X|.2X=X X|.|.=X'.H.}.$X2XiX2X;X;X3X3X<X3X2X1X3X1X2X1X2X3X1X2X1X1X3X2X#X=XiX$X2X3X2X3X:X3X;X;X;X3X;X;X;X3X;X;X;X=X=X3X;X3X;X;X=X3X3X;X;X1X2X1X3X;X;X2X;X;X-X=X$X X[.H.H.H.H.J.J.J.'.H.J.'.J.H.G.S.y.H. X X|.=X$X#X2X$X3X;X=X=X1X;X3X;X;X=X=X=X=X=X3X",
"&X1X1X&X1X$X1X&X$X1X1X$X#X$X1X1X1X;X1X1X1X1X&X1X1X;X1X&X1X&X1X1X&X1X1X1X1X,X1X1X,X1X1X1X1X1X1X1X;X1X1X&X;X1X;X1X1X1X1X1X1X1X1X0X;X1X1X1X1X1X,X1X1X1X1X1X1X1X1X1X2X1X2X1X3X1X1X3X1X1X1X;X#X'.[.=X2X2X1X3X=X3X1X1X2X<X}.}.E.T.E.}.}.}.#X$X;X;X&X&X1X$X$XoX#X$X$X;X;X;X1X1X;X2X1X;X1X1X3X1X1X1X3X1X2X1X;X;X=X1X;X;X3X1X;X1X3X3X=X=X<X=X;X;X;X$X$X$X$X=X;X$X$X$X$X$X X*X=X=X$X=X#X=X=X#X$X=X=X|.|.}.].'.H.S.G.T.E.].}.}.E.Y.T.}.oX}.K.R.L.R.Q.&X}.$X$XOX$X X#XOXOXoX#XOXOXOXOX#X$XOXOXOX X(.}.}. X XoX X}. X XOX$XOX$X X XOX$X XOX}.}. X X XoXoX X XoX XOX XOXOX X$X XOX<X$X#X@X<X<XQ.T.T. X}.T.!. X}.}.oXoXoX#XoXoXoX#X#X*X*X*X*X%X*X=X X=X=X$X=X=X=X#X=X=X=X$X*X=X$X$X$X$X$X$X=X$X&X$X$X$X$X#X$X$X$X#X#X=X$X$X$X$X=X$X$X$X=X$X$X#X$X$X$X#X$X#X$X$X$X#X#X#X#X}.T.Y.'.|.|.}.|.=X1X=X#X$X=X=X;X;X1X=X3X2X1X1X3X$X|.}.|.|.|.|.$X1X3X$X].J.H.'.2XuX3X=X X3X3X2X1X1X1X2X1X2X2X1X2X1X2X1XaX3X=X=X].2X1X3X1X1X1X1X2X;X;X;X=X3X3X;X;X1X3X;X;X;X=X;X=X;X1X;X=X=X=X=X=X$X X|.'.'.'.'.'.'.'.H.T.J.J.'.'.'.J.'.J.'.'.'.H.G.S.g.G.G.S.H. X=X#X X;X=X=X;X3X=X=X=X3X;X;X=X3X=X=X=X",
"&X1X=X1X$X1X&X1X$X1X&X#X#X$X1X1X1X;X,X;X1X&X1X;X1X;X1X1X1X&X&X1X1X;X1X1X1X1X;X1X;X1X1X1X1X1X1X1X1X&X;X1X1X&X;X1X;X1X;X1X1X1X1X1X1X1X&X&X1X1X1X1X1X1X1X1X1X0X1X1X3X1X2X1X1X;X;X=X=X=X2X3X=X|.T.J.}. X3X1X2X2X1X;X0X$XT.P.Y.P.L.L.].}.#X&X1X<X;X;X$X$X$X$X$X$X&X;X3X2X2X3X1X3X;X:X1X3X2X3X3X2X1X3X2X3X3X;X=X;X1X=X2X3X2X=X=X=X=X=X;X;X1X<X1X$X&X=X$X&X$X&X$X$X$X$X=X$X*X=X*X=X=X$X=X*X|.$X|.|.|.'.E.H.S.G.T.}.}.}.E.oXQ.E.E. XQ.G.L.L.#XL.}.&X}.OXOXOX XOX$XOX#X X#X$XOX$X#XOX$X$X X XoX XQ.}. XOXOX X XoXOXOX$XOXOX XOXOX<XOXOXOXOXOXOX=X<XOX X$XOX#X X$X X X<X$XOX<X&X X XOX<X}.J.T.!.Q.Q.Q.Q.}.oX}.OX X#X#X$X#X#X#X*X$X*X*X*X*X=X X X=X=X=X$X=X$X=X=X X=X=X=X=X=X=X=X=X=X=X#X=X=X=X$X=X=X$X=X#X=X=X#X=X=X=X=X$X=X$X=X=X=X$X$X=X=X$X$X#X$X#X#X$X$X#X#X#XoX].E.T.|.].'.'.}.;X2X3X1X;X;X=X=X;X1X1X2X3X;X3X2X2X=X|.|.#X$X=X=X1X1X2X2X=X$X=X3X1X2XiX].=X2X1X3X1X2X1X3X1X2X3X;X1X;X1X3XiXeX Xg.$X1X2X2X1X2X;X3X;X;X3X=X=X;X;X;X;X;X;X3X3X;X=X;X;X;X;X3X;X;X;X;X=X|.'. X].|.oX#X#X X].'.T.J.!.'.T.J.T.E.!.'.'.J.J.G.J.f.y.S.H.J.}.OX#X=X=X=X3X;X;X=X1X1X3X;X=X$X;X=X;X",
"1X$X1X&X1X=X&X$X1X1X$X#XoX$X1X1X1X1X1X1X1X1X1X,X1X,X1X1X1X1X1X1X1X,X1X1X1X1X1X&X;X&X,X1X1X1X1X1X;X1X1X&X1X&X1X&X1X,X1X1X1X1X&X1X1X1X1X1X1X1X0X1X1X1X1X1X1X1X1X1X2X1X2X1X2X3X;X=X=X=X1X1X;X|.'.'.'. X3X1XqX0X2X;X#X}.].oX$X#X}.E.}.].E.T.Y.T.T.T.}.}. X$X1X1X;X$X;X1X;X;X;X;X1X3X;X2X;X1X1X;X:X1X1X2X1X;X;X3X=X3X1X1X;X=X=X=X=X=X&X;X&X;X&X;X&X$X$X=X$X$X;X$X$X$X=X=X=X X=X=X X=X;X=X|.|.|. X'.Y.T.H.G.H.E.oX}.Q.E. XoXoXOXOXE.h.].R.].E.}.&X}.$X$X X#XOX$XOX@X$XOXoX$XOXOX<X$X<X X X XoX XoX X$XOXOX XOX X<X X$XOX#XOX<X$X<X$X X<X3X3X$X<X<X$X3XOX<X3X X<X3X$X$X$XOX}. X$X,X}.J.J.!.}. X}. X X X XOX#X#X$X$X$X$X$X*X*X-X*X*X*X*X$X*X=X$X#X=X=X X=X X=X$X=X=X=X X=X$X$X=X$X=X=X=X$X=X=X$X=X=X#X=X X$X=X=X=X$X$X=X=X=X=X X=X$X*X=X$X$X$X$X#X$X X$X#X$X$XoX].T.T.'.}.|.'.'.|.=X=X=X1X2X3X=X=X;X;X1X2X;X;X;X2XwX3X=X=X;X2X1X3X=X=X3X;X3X2X|.T.S.H.*X!.=X2X1X;X2X2X3X2X;X1X;X3X2X3X2X XfXgX#XH.$X3X2X3X1X2X3X;X1X;X;X=X=X;X;X3X;X1X3X;X;X;X;X=X;X3X;X2X1X3X1X3X1X|.}.oX|.}.oX#X#X].T.].'.!.'.J.T.J.J.J.T.].'.T.T.T.T.J.S.H.J.G.H.$X&X1X=X=X=X1X=X=X1X;X;X;X;X=X3X=X=X",
"$X1X&X;X&X;X$X1X&X1X$XoX#X;X1X1X1X1X1X1X,X1X1X1X1X1X1X1X1X&X1X1X1X&X1X1X1X1X1X$X$X$X&X1X1X1X1X1X1X&X<X1X;X1X1X1X1X1X1X1X1X1X1X1X1X1X1X,X1X1X1X2X1X,X1X1X1X;X1X1X1X2X2X2X1X3X1X;X1X1X1X2X2X1X3X=X|.|.'.J.{.{.]. X].}.$X0X0X<X$XOX#X}.E.Y.L.H.Y.T.Y.Y.T.].oX#X#XoX=X;X;X;X;X;X;X1X2X3X1X2X1X2X1X1X1X;X;X3X;X;X3X1X1X;X;X=X=X=X;X;X&X;X;X;X;X$X$X<X$X$X;X$X&X$X$X$X$X=X=X=X$X X=X=X=X$X|.|.|.}.'.Y.H.G.L.T.].}.}.}.#X#XoXQ.Q.}.T.x.L.K.e.%XoX$XoXoX$X XOX X X$X<XOXOX#X$X&X$XOXOX X}.}.oXoX X#XOXOXOXOX#XOX X<XOXOX X$X XOX<XOX$X<X$X$X$X X$X$X$X X3X$X<X X$X<X$X$XOX}.}.<X,X$X!.T.P.}. X}.Q. XOXOXOXOX$X$X$X=X=X$X*X;X*X*X*X-X*X*X=X X=X=X=X#X=X=X=X=X$X=X=X=X=X=X$X=X=X=X$X=X=X=X$X=X=X=X#X=X*X#X=X#X=X=X X=X=X$X$X=X*X$X=X=X#X X$X$X$X$X#XOX$X$X$X$X$X}.T.T.T.].|.|.|.#X$X=X=X=X;X=X;X=X;X=X1X3X;X=X=X=X1X2X2X1X3X1X1X1X2X1X1X1XaXuX2X2X*X*X[.|.'.*X:X:X=X2X:X;X1X3X2X1X1X2X1X2X2X2X1X].#X2X2X=X1X2X1X3X2X1X3X;X=X=X3X;X1X3X1X;X;X3X3X=X;X;X;X;X=X=X=X;X;X=X|.}.}.}.}.}. X}.T.H.].!.'.'.T.J.J.J.T.T.T.!.'.'.].].}.G.G.J.g.J. X#X=X=X=X=X=X3X;X=X1X1X3X=X=X=X=X=X",
"<X;X1X;X;X&X1X$X1X$X$X X$X1X1X1X,X;X&X1X1X;X1X;X1X;X,X1X1X1X1X1X1X1X;X1X2X1X;X$X$X$X&X;X,X1X<X1X1X1X;X1X1X&X&X1X1X&X&X1X1X&X&X1X1X1X;X1X1X&X1X1X1X;X;X1X1X1X<X1X2X2X1X1X2X1X3X1X3X1X1X;X1X2XeX2X=X#X].'.'.J.E.Q.#X$X<X1X&XOX$X$X1X;X<X;X&X&X$X$XoX].T.T.]. X#XoX X=X;X;X;X;X3X1X1X2X1X1X3X2X2X3X3X2X2X;X3X2X1X2X3X;X3X=X3X1X1X;X&X1X&X<X$X;X$X;X$X$X$X;X=X3X$X3X=X=X$X$X=X=X=X=X=X|.|.].].'.Y.H.F.G.Y.T.].].oX$X$XOXoX$XQ.T.G.g.f.i.' ;X&X<X$X$X$XOX$X$X<X$X$X$XOX$X$X$X$X X}.Q.}.oXoX XOX X X<X<X<XOX$XOXOX$X$X XOX<XOX X$XOXOX$X<X3X$X$X$X3X<X<X<X$X3X$X X$X X X X<X,XOXJ.c.P.Q. X X}.}. X X$X#X#X$X$X&X$X=X=X-X*X*X*X*X*X*X*X$X=X*X=X=X=X$X=X=X=X=X X=X X=X$X=X X=X=X=X=X X=X X=X$X=X=X#X$X=X*X=X X=X=X$X*X=X=X$X X=X=X X=X=X$X$X#X#XOX#X$X$X#X$X#X}.T.T.E.].|.|.;X3X1X$X=X=X=X=X=X3X;X3X=X=X1X3X1X=X=X3X1X2X1X=X=X2X2X2X2X1X2X:X-X:X:X:X*X[.*X:X:X;X;X:X2X-X;X2X;X1X;X3X;X;XeX3X$XJ.#X2X2X1X2X1X1X2X1X;X;X2X=X3X=X1X;X;X;X1X;X;X;X;X=X3X;X3X1X1X3X;X=X|.|.[.#X#X}. XoX X}.E.!.'.!.J.J.T.!.J.'.E.].'.T.T.J.T.].J.E.Y.S.S.}.;X=X1X3X$X=X3X;X1X=X=X1X=X1X=X=X3X",
";X;X;X&X&X;X&X;X&X;X#X#X$X1X1X&X1X&X1X1X1X1X1X1X1X&X1X;X;X1X,X;X1X<X1X1X1X1X;X$X#X$X$X1X1X1X1X,X&X1X&X&X;X1X1X;X;X1X;X1X;X1X;X1X&X1X1X;X&X1X1X1X1X1X1X1X1X1X1X1X3X1X2X2X1X2X2X;X=X1X2X=X=X1X2X1X2X2X2XeX2X2X2X1X1X;X&X$XoXE.oX$X&X&X1X1X1X1X1X;X1X$X#XoX$X$X$X#X'. X=X3X;X=X3X2X1X2X2X1X1X1X2X2X1X1X3X;X1X2X2X2X2X3X1X1X1X1X;X3X;X1X;X;X;X=X&X$X=X&X;X&X;X$X$X$X=X=X$X=X=X=X=X$X|.|.].].'.Y.Y.H.G.J.Y.T.E.].oX$XoXQ.oXOXE.f.,.2.f.e.g.0X&X;X$X$X$XOXOX$X$X$X<X X$X$X$X$XOX X X}. X XOXOXOXOXOX$X<X$X<X$X3X,X<X<X<X$X$XOX#XOX X$X3X3X3X<X3X<X3X<X=X<X$X$X$X3X X$XOX<X$XoXT.c.c.J.}.}.Q. X XOX#X$X$X$X$X=X&X=X*X*X=X*X*X*X*X*X*X*X=X#X#X=X=X X=X=X=X=X=X=X$X=X=X=X=X=X#X=X=X=X$X*X=X=X X=X=X*X*X$X=X X X=X=X=X=X=X=X$X=X=X=X$X*X=X$X$X#X$XOX#X#X#X#X$X#X].].].oX#X X#X=X3X=X$X=X=X=X=X=X=X=X=X=X=X;X;X;X=X;X=X1X1X2X3X;X1X2X1X3X1X:X2X2X2X:X=X*X*X:X=X:X;X;X:X;X:X3X;X3X;X;X3X;X3X=X1X2XH.|.$X;XeX1X2X1X3X3X1X;X;X3X=X1X=X;X;X;X3X1X;X=X3X3X=X;X3X3X2X2X;X#X X}. XE.].}.}.].T.T.T.!.!.!.!.!.T.J.!.T.!.!.!.!.J.!.'.Y.]. X!.J.c.T.1X1X=X=X=X=X=X;X;X1X=X1X$X=X=X;X$X",
";X<X&X1X1X$X1X$X=X$X#XOX$X1X,X&X1X1X1X1X1X1X&X1X1X1X1X,X1X1X1X1X1X1X&X,X2X0X&X$X#X$X&X1X1X2X1X1X1X;X1X1X1X&X&X1X,X;X1X&X<X;X1X&X1X&X;X<X;X1X,X1X,X1X;X1X1X&X1X1X1X3X;X1X;X3X1X2X3X2X2X2X1X3X;X;X1X1X1X1X2X3X1X1X1X&X$X$X#X}.#X$X;X1X;X1X1X1X&X;X1X1X;X;X0X1X&X X'.|.=X;X;X3X;X2X1X3X2X1X2X;X2X:X;X2X1X2X2X2XqXeX2X1X2X2X1X;X;X=X1X$X&X1X&X&X$X;X$X&X$X$X1X$X=X$X$X$X3X$X=X$X=X=X}.}.].'.H.H.G.G.Y.Y.T.T.E.}.oX#XOXT.G.x.p.! L >.g.t.oX&X}.OXOX3X$X<X$XOX<X<X$XOX$X$XoXoX XoX#X$X$XOX$X<X$X<X3X<X1X<X<X<X,X3X<X<X<X<X<X#XOX X<X<X<X<X$X$X$X$X<X3X3X$X3X<X X X$X X<XOXQ.J.J.}.}.P. X!.}.@X=XOX#X$X$X$X$X$X$X&X*X*X$X$X*X*X*X*X*X-X=X X=X=X=X=X X=X$X=X#X=X=X=X$X$X$X$X=X$X X=X=X=X=X=X=X=X$X=X=X X$X*X=X$X=X=X=X=X X=X=X=X=X#X=X X$X$X#X#X#X#X#X#XoX$X#X].].oX$X$X1X;X1X=X=X=X=X3X1X1X3X=X$X=X;X3X=X=X=X3X1X1X1X3X;X=X;X2X1X3X1X2X:X-X:X2X2X:X:X:X2X:X*X:X;X;X-X;X;X1X:X1X;X1X1X3X$X1X2XH.$X2X3X1X2X1X1X2X2X;X3X1X;X;X=X1X3X;X=X=X;X;X;X=X;X;X;X;X=X;X;X=X|.].|.#X}.#X#X X X!.].].T.'.T.J.'.J.!.T.'.!.'.'.T.T.!.].!.}.J.Y.}.H.J. X3X1X=X=X=X=X;X1X3X1X=X;X=X;X3X=X",
"1X3X1X=X;X&X&X&XOX&X<X$X$X,X0X&X&X;X1X1X1X1X1X;X1X1X0X1X1X;X1X1X0X1X;X1X1X1X&X$X#X;X1X;X,X1XqX1X1X2X1X1X1X=X3X=X3X;X;X;X;X;X;X2X;X;X=X=X;X3X2X1X2X;X1X1X;X2X1X2X;X2X1X2X1X3X1X;X1X;X;X;X;X3X1X3X1X2X3X1X3X2X1X2X2X=X2X1X]. X-X XwX1X=X=X=X1X2X2X2X1X3X2X2X1X=X=X}.}. X$X1X2X;X;X=X;X:X;X:X:X:X2X3X2X3X2X2XqX2X2X1X1X1X2X1X1X1X1X=X=X3X;X$X=X$X=X1X=X=X3X=X$X=X$X1X$X$X&X$XoX}.#XoX}.'.L.G.D.D.D.T.!.oX}.T.Q. XJ.t.g.g.y.,.t.c.g.L.G.P.}.}.}.}.OXOXoXoXOX$X$X$X$X$X$X#X X|. X X#X=X;X=X&X3X=X=X$X1X1X1X1X1X<X3X<X1X1X<X$XOX<X$X$X#X<X$X$X$X1X<X$X$X1X#X X3XqXJ.1X0X!.c.J.T.T.T. X].}. X#X=X$X*X$X=X=X=X*X$X=X=X=X=X=X$X=X=X*X=X=X=X=X$X=X=X=X$X3X=X=X=X3X=X$X=X=X#X$X$X$X$X$X$X<X$X$X*X#X=X$X X=X=X=X$X=X X=X=X*X=X$X=X=X X=X$X=X#X$X$X$X#X#X#X#X&X#X}.].oX$X$X&X=X=X=X3X;X=X3X=X;X3X;X;X;X;X=X=X-X=X=X;X;X;X=X;X-X;X;X;X-X;X;X;X=X;X3X;X2X3X1X1X2X1X2X;X1X1X;X;X1X2X;X2X;X1X2X3X;X;X;XH.$X3X2X2X1X;X1X;X;X;X3X=X=X=X=X=X=X=X=X=X=X=X=X1X1X1X;X3X1X;X#X|.|.|.|.#X XoX#X}.Q.}.Q.!.}.!.Y.T.!.!.!.E.T.'.E.].].E.T.T.T.E.T.T.'.G.H.oX$X=X1X=X1X;X;X;X3X;X;X=X=X=X=X=X",
"1X1X1X;X&X3X&X1X$X1X<X@XoX+X&X<X,X1X&X1X&X1X1X,X1X1X1X1X,X1X;X1X0X<X;X1X1X1X;X$X$X1X1X1X1X1X1X2X2X2X3X2X1X1X;X=X;X;X3X;X;X;X3X;X1X;X3X1X;X1X1X2X1X3X2X1X3X2X1X1X2X3X1X2X2X2X3X1X2X3X3X;X;X;X1X2X1X1X2X2X1X1X2X2X2X=X1X=X'.'.=X=X#X$X1X2X2X2X3X=X1X1X1X2X2X1X=X$X X X#X$X1X1X#X X#X;X;X:X:XuX2X:X2X1X3X3X1X2X2X2X2X2XqX0X1X1X1X1X1X1X1X;X;X3X=X=X=X$X$X=X=X=X=X=X$XOX#X$X$X}.}.Q.E.E.Y.G.h.h.T.}.E.Q.!.J.P.#X XG.g.c.u.,.>.t.u.t.G.G.Y.}. X X}.}.}.}.}.}.OX&X&X$X=X$X#X#X#X=X=X=X=X=X=X=X=X=X=X1X<X3X<X3X<X1X1X1X1X3X$X$X3X1X3X3X$X3X3X$X1X1X1X<X$X3XOX$X1X$X;X<X!.G.G.T.Q.E.J.E.}.}.#X#X*X=X*X$X=X$X$X=X X=X=X=X#X=X X=X=X=X=X X=X=X=X=X=X=X$X=X=X=X=X$X=X=X=X$X$X X$X$X$X$X$X$X$X$X$X=X X*X=X$X$X*X=X=X=X=X=X$X=X=X=X$X=X=X=X=X$X$X$X$X$X#X#X$X$X#X}.].oX$X;X-X=X3X1X=X;X;X;X;X;X;X;X3X3X;X1X=X;X-X=X;X=X-X;X;X;X;X;X-X;X;X;X;X=X3X;X1X;X1X2X;X2X3X2X3X3X;X2X3X3X2X1X3X3X1X;X1X;X1X3X{.}.=X;X2X2X2X3X1X3X1X;X;X3X=X=X;X=X=X;X;X=X3X;X3X=X1X;X=X3X=X X|.|.|.|.|. XOXOX XQ.}.}.}. XQ.E.Q.}.Q.}.Q.}.}.}.}.}.].].T.T.].'.E.].L.Y. X=X=X=X1X;X;X;X3X2X;X3X=X=X3X;X3X",
"1X;X1X;X;X&X&X&X&X1X,X$XoXoX@X,X&X1X1X1X1X1X1X1X0X1X1X1X1X1X1X,X1X1X,X1X0X0X1X&X&X;X1X1X1X1X1X0X1X2X1X1X2X3X3X1X2X;X1X;X1X3X1X3X1X3X;X;X;X3X1X1X2X;X2X;X1X1X2X1X;X1X1X1X1X2X1X2X2X1X2X;X3X1X1X1X;X3X1X1X1X1X2X1X2X3X3X;X|.'.|.=X$X=X3X1X1X3X1X1X3X1X1X1X2X1X3X$X X}.].$X<X$X#X#XoX-X;X:X:X:X:X-X2X2X2X2X2X1X1X3X1X1X1X1X1X1X1X0X2X1X1X=X;X=X=X1X=X=X=X=X=X=X3X$X#X#X#X}.oX}.E.Y.L.G.x.S.J.T.T.T.}.G.T.<X3XP.,.~ !.Y.G.u.u.G.f.t.x.x.T. X XOX XOXoXoXoXoX%X&X&X&X=X=X$X$X=X=X1X1X=X=X1X=X;X=X=X=X<X$X1X$X<X3X1X3X3X1X<X1X1X1X;X$X1X3X=X3X<X1X1X<X$X$X$X$X3X].eX!.g.c.Y.}.].E.T.]. X#X$X$X$X-X$X*X=X*X$X$X=X=X$X=X$X=X=X X$X#X=X=X$X X=X=X=X=X=X$X*X$X=X X$X X=X=X$XOX$XOX$X&X$X=X#X$X=X$X=X=X=X*X=X=X X=X=X=X=X$X X=X=X=X=X=X=X=X$X$X$X$X$X$X$X$X#X}.].}.#X$X$X$X$X=X=X=X;X=X1X=X;X3X1X=X;X3X;X=X=X=X=X-X-X;X=X-X;X;X;X;X;X;X;X;X;X;X;X3X3X1X2X;X1X2X;X1X3X3X;X;X1X;X1X2X2X2X3X1X;X1X2X$XT.=X3X2X1X2X2X3X1X2X3X1X1X;X;X;X3X3X;X;X=X=X=X1X3X=X=X3X=X$X X|.}.|.|.}.#XOX X!.}. X}.}.}.}.}.}.}. XOX X#X#X#XoX}.].].].].].].].].T.Y.#X=X=X=X1X;X3X2X;X;X;X;X=X3X=X=X=X",
"2X;X<X;X&X;X&X&X&X,X1X$X@X@X&X0X<X;X,X;X1X1X&X1X1X1X1X1X1X;X1X1X1X1X;X1X1X2X1X<X&X1X,X1X2XqX0X1X1X2X2X2X1X1X1X3X;X3X3X;X2X;X;X;X1X;X1X1X;X1X;X3X3X1X;X3X;X1X3X2X2X;X3X2X1X1X1X3X2X2X2X1X1X2X3X1X3X:X3X1X3X1X3X1X2X;X1X2X;X|.'.'.=X=X$X=X1X1X1X2X2X2X1X1X1X2X1X3X<X}.]. X#X}.}.;X#X;X;X:X:X:X:X:X2X2X2X2X2X2X2X2X1X1X,X1X1X1X2X1X2X1X3X=X=X3X=X=X=X$X$X=X$X=X$X$XoX$XoX}.}.oX}.P.t.g.G.G.p.g.P.}.!.P.}. Xy.F >.}. X}.Q.!.T.!.J.a.g.G.!.oXOXOX$X$X$X$X$X$X%X%X&X%X;X3X=X=X=X=X=X=X1X;X1X3X;X1X3X;X1X1X&X;X<X;X1X&X<X1X3X1X3XOX#X X#XOX#XOX#X$X3X=X3X3X$X$X$X X#XG.P.T.Q.T.T.T.}. X#X$X=X$X*X*X=X$X$X=X=X=X=X=X=X X=X=X=X=X=X=X=X$X=X=X=X=X=X X=X=X=X=X=X=X=X=X=X$X$X$X$X#X$X$X$X$X$X=X X*X=X#X X=X=X$X=X=X=X=X X=X=X=X#X$X*X$X X=X$X$X&X$X$X$X$X$X#X}.}.oX#X$X#X$X=X=X=X1X1X1X3X1X;X1X=X1X;X=X=X=X;X-X;X-X=X;X;X=X*X:X:X-X;X;X;X;X;X;X;X1X2X;X1X1X;X3X1X;X;X;X2X1X1X3X;X;X;X;X;X1X;X1X2X3XT.3X1X1X2X3X1X1X2X1X2X1X3X1X3X;X1X1X1X;X3X1X=X=X3X=X=X=X=X|.|.|.|.|.|.oX#X X}.].].}. XQ.Q.}. X X}.}.}.}.#X}.}.}.].].'.E.].}.].T.E.T.E.#X1X=X;X3X1X3X;X;X3X;X;X=X;X$X;X=X",
"=X1X&X;X&X=X<X&X&X&X&X<X<X&X&X&X1X;X&X1X1X1X;X1X1X0X1X1X,X1X1X1X&X1X1X1X0X1X1X1X1X&X$X2X2X0X1X1X2X1X2X2X2X3X1X1X1X1X3X;X;X3X;X3X;X1X1X=X1X3X=X1X1X1X;X1X3X3X2X1X3X1X1X1X3X2X2X1X2X2X2X1X3X2X3X2X;X;X3X;X3X1X2X2XqX1X3XeXiX$X!.'.].].|.;X2XiX2X3X2X2X2X1X;X3X2X2X1X<X3X1X$X'.'.#X*X;X;X;X-X:X:X;X#X*X=X=X;X2X2X2X1X3X1X1X1X1X&X;X1X3X1X=X=X=X=X=X1X=X=X=X=X$X|.#X X#XoXE.E.}.}.Y.T.G.f.f.G.T.}.}.J.f.>.^ ,.E.$X#XQ.}.}.Q.Q.E.T.J.G.J.}. XOX$X<X$X$X&X$X$X$X$X@X%X=X=X=X=X=X=X=X=X1X3X1X3X;X1X3X2X1X3X<X;X3X1X1X1X1X3X3X<X$X X X]. XoX X#X$X$X;X<X=X1XOX X$X3Xg.S.!.!.T.P.T.Q. X#X$X$X;X=X=X%X*X$X=X X$X=X#X$X=X X=X=X=X=X#X=X=X=X=X=X=X=X=X=X$X=X=X=X*X=X=X=X=X$X$X#X$XOX$X$X$X$X$X#X=X=X*X=X$X=X*X=X=X X=X X=X=X=X X=X=X=X=X=X$X$X$X=X$X$X$X$X$X#X}.}.OX$X#X#X#X=X=X;X3X3X;X1X1X1X=X1X;X=X1X;X3X$X=X;X3X3X;X=X1X-X;X;X=X=X;X=X3X=X3X;X3X1X2X1X3X;X;X3X;X1X1X;X3X;X3X;X3X1X;X1X;X2X=X1X1X'.eX1X1X1X1X2X1X2X2X3X2X;X3X1X2X2X3X;X3X;X=X=X3X=X$X=X#X#X|.}.|.|.#X|.oX X}.!.E.!.}.}.}.}. X XOX}.}.].].].].E.'.T.T.].Y.].].T.Y.T.T.}.&X=X=X;X3X;X1X;X3X1X3X1X=X=X$X=X3X",
"1X3X;X&X=X&X&X&X;X&X&X,X&XOXoXOX&X1X1X1X1X1X1X,X1X1X1X1X1X;X1X&X1X1X1X1X1X1X<X1X;X$X$X1XqX1X1X1X1X2X1X2X2X1X1X2X2X1X1X2X1X:X;X;X;X;X;X1X1X1X1X;X;X;X1X;X2X;X1X1X2X1X2X3X1X1X1X2X2X1X2X1X2X1X1X1X2X1X;X1X1X3X1X1X2X1X=X3XeX2X X|.'.J.J.'.$X2X2X2X2XeX2X3X;X2X2X1X1X1XqXqX1X$X|.#X#X#X*XoX[.[.XX[. X*X*X X#X=X$X=X$X=X=X1X1X1X1X0X;X;X=X1X3X1X1X1X=X=X=X=X$X|. X XoX}.E.E.E.E.T.L.h.t.>.r.g.a.,.P ^ t.P.!.T.}.$X X}.}.Q.!.T.T.].}.!. X}. XOX$X$X XOXOX$X$X%X#X%X;X=X=X=X3X=X;X3X1X;X;X;X;X;X;X;X;X<X$X$X<X1X2X<X<X<XOX;X$X$X X X}.oX X X$X3X<X$X1XOX3X$X X3X1Xt.J.T.T.T.T.!. X#X X$X-X=X=X=X*X*X-X=X=X=X=X=X=X=X=X=X=X#X=X=X=X=X=X#X=X X#X#X=X=X X=X X$X$X=X X$X$X$X#XOX$X$XOX$X$X$X$X=X X$X X=X#X=X=X=X=X$X=X=X=X=X$X=X=X=X X=X*X=X&X$X$X$X$X$X$X#X}. X$X$X#XOX$X=X=X;X;X;X1X3X;X;X;X=X3X1X=X;X=X=X=X=X;X=X1X;X=X;X;X3X=X;X3X1X=X;X;X;X:X;X1X2X;X3X1X;X2X;X;X;X;X2X3X2X;X;X3X;X1X3X*X=X=X#XiX2X2X2X1X1X2X1X1X2X1X;X1X;X1X2X;X1X;X=X;X1X=X=X=X=X#X|.|.|.|.|. X#X#X X].E.E.E.Q.}. XOXOXOX X XQ.Q.!.E.'.'.E.].T.E.].T.E.Y.J.E.].#X;X;X3X;X1X2X1X1X:X=X1X=X=X=X;X=X;X",
"&X1X&X$X&X&X$X&X&X&X&X&X$XoXoX$X1X&X1X&X;X1X1X1X,X1X1X1X1X1X1X1X,X1X1X1X1X;X1X$X$X$X#X1X2X2X1X1X2X2X2X2X1X2X2X1X2X1X2X3X;X3X;X1X=X;X1X1X1X1X;X1X;X1X;X<X=X1X;X1X1X1X3X;X1X1X2X3X1X2X1X2X1X3X1X2X1X2X2X1X1X2X2X1X1X2X=X$X2X1X=X1X|.}.H.H.J.].=X2X<X2XeX1X1X2X2X3X$X1X1X;X;X;X=X X[.oX*X#X*X*X[.[.:X=X3X=X|.|.|. X}.|. X#X$X;X2X2X$X$X1X;X1X1X1X;X;X$X$X$X#X#XoXoXoX}.E.Q.}.Y.D.g.t.Y.#XoXG.p.g.G.'.P.].=X$X X}.}. X X}.E.].]. X$X}.}.Q.].}.$X<X#X#X#X$X#X#X#X&X-X=X=X=X=X1X3X=X=X;X3X1X3X;X3X3X;X1X=X=X1X1X3X=X X$X$X=X3X=X$X$X$X#X}.#X3X1X3X$X1X$X=X$X$X$X}.G.T.P.J.T.}. XOX#XOX$X$X$X=X*X$X=X$X=X=X=X#X=X X=X=X=X X=X=X=X$X$X X=X$X$X=X=X*X*X$X$X=X=X*X*X$X=X#X#XOXOX#XOX$X$X$X$X$X*X=X=X#X#X=X$X=X=X$X=X X*X$X=X=X=X=X=X$X=X=X&X=X$X$X#X#X#X#X#X}.}.$X1X$X$X&X;X=X1X;X;X2X1X;X=X3X3X1X=X3X=X=X=X&X=X;X;X=X=X3X;X=X;X;X3X=X;X;X;X3X;X3X1X1X;X1X2X;X3X;X3X3X;X;X;X;X;X;X;X3X1X3X1X=X=X X3XwX1X2X2X1X2X3X2X1X1X1X;X;X2X1X1X1X1X3X1X;X=X=X=X=X#X#X|. X|.|.|.|.|.#X}.E.E.!.!.E.Q.oX#XOX}.}. X}.Q.Q.].E.E.'.E.].'.E.Y.E.Y.Y.}. X$X2X=X1X=X3X;X1X;X3X1X=X=X=X=X;X=X=X",
",X&X<X&X$X&X&X&X&X&X,X1X$XoXoX<X;X1X1X1X1X,X;X1X1X1X1X1X1X&X1X1X1X1X2X1X;X&X$X$X&X#X#X1X1XqX1X1X2X2X1X2X2X2X2X2X1X1X2X1X1X3X;X;X=X3X;X1X1X1X1X&X;X3X;X<X;X;X1X1X2X2X2X1X1X3X1X1X3X1X1X1X1X2X1X3X1X3X2X1X1X2X1X2X=XeX2X=X2X1X$X1X;X=X*X'.H.H.H.'. X1X2X2X1X2X1X$X1X1X#X}. X$X=X'.*X:X:X:X:X:X:X:X=X:X2X3X;X;X;X1X=X$X}.}.}.}.OX#X#X$X$X1X1X;X$X&X;X$X$X$X#X#X|.#XOX}.].}.}.L.g.p.h.h.x.G.T.oX$X1X$X<X2X3X X$X=XoX|. X]. X}.}. X#X X}.T.J.].OX3X$X$X&X=X*X%XoX$X$X1X1X1X1X;X;X=X=X;X=X=X;X;X=X;X;X1X1X3X=X=X=X X].=X$X1X1X=X=X=X=X$XoXOX$X1X3XOX#X1XOX3X1XOXy.'.T.!.T.E.}.oX X X$X=X$X$X*X$X*X*X$X=X$X=X=X=X=X$X=X$X=X=X=X X=X=X=X=X X*X=X X=X X=X*X=X X=X=X X$X$XoX$X$X#XOX#X$X$X#X$X$X=X X=X=X$X=X$X=X=X=X=X$X=X#X=X=X X=X=X=X=X;X$X=X$X#XoXoXoX#X].}.$X1X$X&X2X;X3X;X;X3X3X;X;X1X;X;X=X;X;X1X=X;X3X=X=X=X;X3X=X;X3X=X;X=X;X=X;X=X3X;X1X3X2X2X3X1X1X;X1X;X=X;X=X;X3X;X1X;X;X=X1X3X;X1X'.2X3X=X2X1X2X1X2X2X3X;X3X;X;X3X2X2X3X;X;X=X3X;X=X$X$X#X#X|.[.].[.|.oX X|. X].Q.}.}.'.}.OX X}.Q.}.}.}.}.T.].].'.T.T.T.'.].G.Y.T.E.oX$X&X2X1X=X1X1X3X2X1X1X1X1X1X=X=X3X$X;X",
"$X&X$X$X&X&X$X$X&X$XoXoX}.$X&X,X1X;X1X;X;X1X1X;X0X1X1X,X1X1X;X1X&X1X1X1X#X#XoX#XOX<X<X<XqX2X1X1X1X1X1X3X2X2X2X2X2X1X1X2X;X3X3X;X1X;X;X&X$X1X;X&X;X1X;X1X1X1X0X1X1X1X3X3X1X2X1X2X3X2X2X2X2X1X1X3X2X2X2X3X2X2X1X1X3X1X1X3X;X1X3X=X=X=X=X*X'.'.'.'.$X2XeX=X=X2X1X X]. XOX'.].$X=X}.:X2X1X2X2X2X2X2X3X2X2X2X2X2X2X2X2X2X1X<X$X XE.G.E.].#X&X;X&X&X&X$X$X#X#X$X$X$X$XOXE.L.G.D.h.h.G.Y.E.}.oX$X;X1X&X1X3X;X1X1X1X$X$X#X#X X|.|.oX X$X3X XT.H.].$X=X X$X&X=XoXoX-X-X=X2X=X1X;X=X2XwX=X|.1XwX3X#X=X3X;X1X=X#X3X2X|.'.=X3X;X=X=X3X;X1X3X$X$X$X$X$X$X#X#X1X3X#XOX XT.Y.E.!.T.T.Q.#XOX$X X$X$X$X=X$X-X$X-X=X=X=X=X=X$X=X=X X=X=X=X=X=X#X$X=X=X=X=X=X=X=X=X$X X=X#X X*X=X#X$X$X$XOXOXOX#X#X$X$X=X=X$X=X3X=X=X X3X=X$X=X$X=X=X=X$X=X$X=X=X=X$X$X$X$X#X#X#XoX}.}.}.#X$X$X$X=X=X=X1X;X1X;X1X1X;X3X;X;X3X=X=X=X$X3X3X2X1X3X2X3X1X1X3X;X3X1X3X;X3X;X;X2X1X2X1X;X;X;X3X1X;X;X3X;X3X1X;X3X;X=X3X=X1X=X}.#X2X1X X3X1X2X3X2X1X1X2X1X3X;X;X1X;X;X;X=X=X=X=X=X=X#X|. X].'.].|. X|.|.|.}.}. X}.Q.}.}. X}.oX}.}.T.E.!.E.T.T.T.].}.E.T.T.J.Y.].}.$X$X;X$X;X;X;X3X;X1X3X1X=X=X=X=X=X=X=X$X",
"&X&X&X$X$X$X$X@XOX#X$X#X$X&X,X1X&X1X&X1X<X1X&X,X1X1X1X1X1X&X1X&X1X&X1X$X$X#X#X$X X<X<X1X,X2X1X1X1X1X2X1X2X3X<X2X3X2X1X;X;X;X1X1X&X1X&X;X;X&X$X;X&X1X1X1X<X1X1X1X2X1X2X1X1X1X2X2X2X1X2X1X2X1X2X1X2X1X;X1X2X1X1X2X1X1X2X3X;X=X=X=X3X=X=X#X X|.'.'. X3X2XiX2X$X#X X$X].G.S.T. X|.}.2X0X2X2X2X2X2X2X2X3X2X2X3X2X2X2X1X2X1X1X1X;X#XT.D.J.].$X;X1X;X;X$X#X#X#X#XOX}.'.T.L.J.G.G.G.G.Y.T.}.oXoX&X,X&X&X&X;X1X;X&X;X&X$X$X XoXoX#X#X#X#X].!.T.'. X$X=X#X#X#X$X$X;X;X-X#Xy.y.y.S.S.S. X2X2X;X|.|.#X=X=X=X3X=X=X;X1X X'.=X=X=X=X=X=X;X=X;X1X1X3X$X#X$X$X3X!.P.J.T.J.J.G.T.!.!.Q.}.OX#X X#X$X$X$X=X*X*X*X*X X=X=X#X=X=X=X$X=X=X=X#X=X=X=X=X=X=X=X=X=X=X=X=X$X=X=X*X$X*X#X$X$X$X#X$X$XOX$X$X$X$X$X=X=X=X=X$X=X=X=X=X*X=X=X X=X=X X=X=X=X$X X$X#X$X#X#X#X#X X}.].].oX#X$X&X$X3X;X3X;X3X1X;X3X;X;X;X;X=X=X=X3X=X;X1X1X1X1X3X1X3X1X1X1X1X1X1X1X;X;X3X;X1X3X;X1X=X;X2X;X;X;X3X;X=X3X=X;X1X=X=X$X#X3X*XH.'.=XeXeX2X3X1X1X1X3X3X2X=X;X3X1X2X3X3X;X=X=X=X=X=X#X|.|.].|.'.|.|.|.|.}.!.}. X}.Q.}. XOXoX X X}.].E.}.!.].].].'.T.T.T.T.E.}.}.#X$X$X$X&X=X;X;X;X3X;X1X=X3X1X;X;X3X=X=X=X",
"<X,X&X@XOX#XOXoXOX$X&X&X1X1X1X2X1X1X,X;X1X1X1X1X0X2X1X,X1X1X1X1X;X1X1X;X$X$X$X$X#X#X<X1X1X1X1X,X1X1X2X2X2X2X2X2X2X1X2X3X3X3X;X=X;X<X&X&X&X$X&X&X&X;X,X&X,X1X1X1X1X2X1X2X;X3X2X1X1X1X2X2X1X2X3X2X3X1X3X1X2X1X2X1X2X2X2X1X=X3X;X=X1X=X|.|.#X*X|.'. X=X1X2X=X=X1XiXqX!.G.T. X#X$X1XwXwX2XuXdX2XgX2X2X2X2X2X2X2X2X2X1X1X&X1X1X0X$X}.T.E.oX}.E.L.D.G.x.G.G.J.T.E.Y.G.G.G.Y.T.T.Y.T.Q.E.oX&X&X&X&X<X&X1X=X1X1X;X;X1X=X=X$X*X#X#X$X|.|.].!.!.]. X=X;X;X=X X}.|.*X[.].T.'.'.H.'.S.t.S.3X=X X$X2XiX3X|.#X$X=X=X=X=X#X$X2X=X=X=X=X=X3X;X3X=X<X<X#X}.}. X#X].E.'.}.].T.T.].Q.}. XOXOX X$X$X$X$X$X=X-X$X*X$X=X=X=X=X X=X=X=X=X=X=X$X=X X=X=X X=X=X$X X=X=X=X=X#X X=X X*X X$X$X$X$XOX$X$X$X$X$X$X=X$X=X=X=X=X=X$X=X=X=X=X$X=X=X$X=X=X=X=X$X=X$X$X$X$X#X#XoXoX}.].].oX#X$X=X&X;X3X=X1X1X=X=X1X3X=X=X=X=X=X;X;X1X3X1X3X1X1X1X=X3X1X3X1X;X3X1X1X;X;X;X1X;X3X1X;X;X3X2X3X;X=X;X;X=X=X;X;X=X=X=X=X=X#X=X#X X$X2X2X1X1X1X2X;X2X1X1X;X;X3X1X1X3X;X;X3X=X;X=X=X|.|.|.|.|.}.].].|.'.}.E.].}. X X}.OX#XOX X}.!.}.!.Q.'.E.}.T.Y.L.].}.].#X#X$X$X&X$X-X$X3X;X;X1X;X1X;X1X1X3X1X;X1X=X3X=X",
"&X&X&X&X$X@X#X#X&X$X;X1X1X1X1X,X1X1X1X1X1X;X1X1X2X1X1X1X1X;X<X1X1X1X&X$X$X$X$X1X#X$X<X1X1X1X1X1X2X1X2X1X1X2X2X<X3X;X;X;X;X=X;X;X;X&X<X&X1X<X&X&X&X<X&X1X1X&X1X,X2X3X1X3X2X2X1X2X3X1X1X3X2X1X1X2X1X1X;X2X3X2X2X2X2X2X1X1X1X1X1X;X3X$X|.|.$X|.[.'.H.].].H.J.|.1X=X}.Y.J.}.}.].#X2XwXwXiX2X2XdX2X2X2X2X2X2X2X2X2X3X2X1X$X1X1X1X$X}.$X$X$XOX}.T.P.T.Y.P.G.h.D.g.a.t.G.L.T.E.E.E.E.}.oX$X1X0X&X<X;X,X;X1X1X3X1X1X3X1X;X=X=X#X#X|.].'.]. X'.T.T.}.|.=X=X}.Y.'.{.L.Y.Y.|.|. X|.}.S.S.*X2X;X=X=X X].$XiX}.=X$X|.=X=X=X2X:X:X=X;X=X=X=X=X X$X$X$X X!.}.!. X'.}. X XE.T.T.}. XOX#X X X X$X$X$X#X=X$X=X*X*X=X X=X$X=X=X#X$X=X=X X=X=X$X=X=X=X=X$X=X=X=X$X=X=X=X#X=X=X$X*X$X$X$XOX$X$X$X=X$X$X$X=X=X$X=X=X=X=X=X=X=X=X X=X=X$X=X*X=X X=X=X=X$X$X$X#X#XoX|.].].].].}.#X$X$X$X=X=X;X=X=X1X=X3X=X=X#X=X=X=X;X;X1X1X1X1X3X1X3X=X$X=X$X=X=X=X3X3X=X;X3X;X;X:X3X1X3X;X;X;X=X=X=X;X;X=X;X;X=X1X=X=X;X X=X2X;X=X2X1X2X2X1X3X2X3X1X1X1X1X2X2X2X1X2X;X=X3X;X=X=X$X|.|.].|.|.}.'.'.].].E.}.oXoX XoX XOXOX}.].Q.!.}.'.Q.Y.].E.G.Y.oX&X$X$X&X$X=X=X&X&X=X=X;X3X;X;X;X1X3X;X;X;X;X=X;X3X=X",
",X&X$X@X$X@X$X$X&X<X;X1X1X1X1X2X1X1X0X,X1X1X1X1X1X1X1X1X1X1X;X1X1X1X,X$X&X$X;X$X$X$X&X1X1X1X,X1X3X2X1X2X2X<X2X2X;X3X;X;X;X3X=X;X1X1X1X&X<X&X,X&X&X&X&X;X&X1X,X1X1X1X3X1X2X1X1X1X1X1X3X1X1X2X1X1X2X1X1X1X2X2X2X1X1X2X2X3X3X2X2X1X1X=X$X=X#X#X X].H.{.'.H.'.|.|.H.f.J. X#X#X#X3XeXwXwXwXwX2X2XnX2XeX2XiX2X2X2X2X2X2X1X<X1X1X;X#X}.$X&X&X$X}.Q. XOXoX}.T.T.T.T.T.E.}.E.T.E.}.E.T.E.}.$X,X1X&X$X&X&X;X:X:X:X2X:X1X;X;X;X=X$X*X|.'.'.'.J.J.H.H.H.H.J.'.{.Y.'.Y.Y.].*X'.|.].].|.Y.S.H. X=X=X'.F.S.'.|.{.*X*X*X=X-X=X;X=X:X*X*X-X-X=X-X#X$X$X<X#X X}.}.}.].}. X|.}. X X X X$XOX X X#X$X$X#X=X=X#X=X$X*X=X=X=X=X X=X=X=X=X$X=X=X=X$X=X X=X=X=X=X=X$X=X=X$X=X=X*X$X=X#X#X#XOXOX#XOX#X$X$X$X$X$X=X=X=X=X$X=X=X3X$X=X$X=X=X=X X*X$X=X=X=X=X$X$X$X$X#XoX|.|.}.].].}.#X$X$X-X;X=X;X=X=X3X=X=X=X=X*X$X$X=X3X1X1X3X3X1X;X3X1X$X$X$X=X$X=X$X3X=X=X3X=X3X;X3X;X=X;X;X3X=X=X=X=X=X;X3X1X;X1X;X3X=X=X;X2X].H.$XaX2X2X2X2X1X;X1X;X2X1X3X2X1X2X1X;X2X;X=X=X=X*X X[.}.|.'.|.'.'.'.].|.}.}.oXoXOX X X X X}.E.!.Q.E.E.}.].oX XY.'.$X;X;X$X1X$X&X=X$X<X=X;X;X3X;X=X1X=X=X=X=X=X=X=X3X;X=X",
"@X@X&X&X,X$X&X<X<X<X&X;X,X2X1X2X1X1X1X1X1X1X1X1X2X1X1X1X&X1X1X&X1X1X1X&X;X;X$X&X<X1X1X1X1X,X1X1X1X2X2X1X1X2X<X2X2X1X1X;X;X=X1X=X&X,X,X1X1X1X;X&X;X&X<X,X,X;X1X,X1X3X2X1X1X2X3X1X2X1X2X1X2X1X2X2X1X3X1X3X1X2X1X2X1X1X1X3X1X1X2X2X1X2X3X;X=X*X X X=X}.'.|.$X|.'.H. XOX=X1X1XqXiXiX0XwXwX0X2X2X2X2X2XiX2XeX2X2X2X2X1X1X1X1X1X&X#X#X&X&X$XoX}.Q.}.}.].E.T.E.oX$X1X0X<X#XoXoXoXoX].E.}.$X&X$XOX$X$X$X;X;X;X2X2X;X:X;X=X-X-X=X#X|.[.'.G.G.F.H.H.H.G.H.H.Y.'.|.].{.].XX$X=X|.].|.|.J.S.F.'.}.'.H.'.H.S.[.;X*X*X2X;X;X;X:X=X*X=X;X=X-X*X3X<X#X X XoX#X#X X X X$X#X$XOX#XOXOX$X<XoX X X$X$X$X#X=X$X=X*X=X=X#X$X=X=X=X=X=X X=X=X X=X=X=X$X=X#X$X*X=X X X$X=X X=X=X=X X=X$X#XoX#XoXOX#X$X$X$X=X=X$X=X=X=X=X3X$X=X=X=X=X=X X=X=X=X=X X$X X*X#X$X$X$X$X#XoX#XoX}.}.].oX#X$X&X3X=X=X3X;X$X=X=X=X$X=X#X X=X=X1X1X1X1X3X=X=X=X=X=X$X3X=X3X;X3X1X=X=X=X;X3X=X=X;X3X3X;X=X$X=X$X=X;X;X2X3X1X1X;X1X;X3X2X#XH.S. XiX2X2X3X1X3X;X;X3X;X2X1X2X1X2X1X3X1X=X=X$X|.|.].].'.|.}.|.}.[.|.}. XoX XoXOXoXoX}.oXQ.!.}.!.!.!. X;X1X&X#XoX=X;X$X;X$X$X$X&X&X;X1X=X3X3X;X1X=X=X=X=X1X=X=X=X=X=X=X",
"&X&X,X&X&X,X<X&X,X,X1X2X1X1X2X2X1X0X1X0X0X1X1X1X1X1X1X&X;X;X&X1X1X1X;X$X1X1X&X$X1X&X1X1X1X2X1X1X1X1X1X1X2X2X2X2X1X1X3X1X3X;X;X1X&X&X&X1X,X&X$X&X&X,X&X;X;X<X&X1X1X1X1X1X1X2X3X1X2X2X1X1X1X2X2X1X2X3X1X2X1X2X2X1X1X2X1X=X=X1X2X3X1X2X2X1X;X=X=X$X3X|.'.'.'.H.H.|.1X1X1X<X1X2X2X1XwX0X2XwX2X2X2X2XeX3XeXeX2XqX2X1X2X1X1X1X1X&X$X$X<X&X$X&X,X2X0X0X&X$XOXoX#XOXOXoX1X&X&X&X$XoXoX}.}.oXOXoXoX$X$X$X-X;X:X0X0X:X;X;X$X-X-X*X[.].'.'.S.S.S.H.'.J.H.H.T.'.].].].{.{.].'.'.'.'.'.[.|.}.].'.T.H.'.'.].'.*X*X*X*X:X;X*X;X;X;X-X=X=X=X*X$X=X$X}.'.}. X#X#X#X X}.}.}.}.}.}. XOX$XOXOXoX#X$X$X$X*X*X=X=X*X*X=X X=X=X=X=X$X X=X=X*X=X$X X=X=X$X=X*X=X*X=X X*X=X=X=X X=X=X X$X#XoXoXOXoX#X#X$X$X=X=X=X$X=X=X=X=X=X=X$X$X=X=X=X=X$X=X=X=X=X=X=X$X$X$X$X$X$X$XoXoXoX].}.oX$X=X=X;X;X=X=X$X=X$X=X=X$X$X#X*X=X=X3X=X3X3X$X=X3X3X$X3X3X3X3X1X<X3X$X=X$X=X1X;X;X=X=X1X;X3X=X X$X=X=X3X2X3X1X;X;X;X=X1X$X3XiX=Xg.S.3X2X2X2X3X;X2X1X;X3X1X2X3X3X2X1X;X1X;X3X$X|.|.}.[.|. X|.'.|.'.}.}.#X XoXoX XoXOX}. X}.}.}.!.T.}.$X;X&X;X&X=X&X;X$X$X;X$X$X&X=X=X$X;X;X;X;X;X=X1X=X3X&X=X;X;X;X1X=X",
",X,X&X,X,X&X&X1X1X1X1X1X2X1X1X1X2X1X1X1X1X1X0X0X1X<X&X1X&X&X;X&X;X1X$X&X1X1X1X&X1X1X1X1X2X2X2X1X2X1X1X2X1X2X2X<X2X1X1X1X;X1X1X1X$X&X&X&X&X&X$X$X&X&X&X,X&X,X&X1X3X1X3X1X2X3X1X1X2X2X2X3X3X1X1X1X2X2X1X3X2X2X1X1X2X2X1X=X=X3X2X;X;X1X;X3X;X;X=X$X].=X3X$X|.$X;X2X$X$X1X2XqX1XwXiXwXwXwXwXfX2X2X2X2XeX2X2XxX2X2X1X1X2X0X2X1X#XoX#X0X1X&X&X1XqX1X&X&X&X&X&X1X&X$X XoXOX&X&X$X}.]. XoXOXoX}.$X$X&X$X$X-X;X:X:X;X;X=X=X=X-X#X{.H.F.J.J.S.S.G.H.H.J.'.'.].[.'.{.#X#XXX|.'.=X$X'.'.|.|.*X|. X$X|.'.H.'.'.{.{.{.*X*X|.*X;X;X-X=X*X*X=X=X$X X}.].#X#XoX X X#XoXoX X#X#X#X#XOX$X X X#X#XOX$X$X#X=X*X#X=X#X$X=X=X=X#X=X=X=X=X=X$X=X=X*X=X=X X=X=X X=X#X=X=X=X=X$X=X=X#X=X*X#XOX#X#X$X$X$X$X$X$X$X=X=X=X$X=X=X$X=X=X=X#X=X$X=X=X X=X=X=X=X$X#X$X$X$X$X$X$X$X#X}.}.oXoX#X$X$X$X=X=X=X=X=X=X$X=X=X*X X X*X=X3X3X=X3X=X$X$X$X3X3X=X$X=X$X=X3X=X=X=X=X=X;X=X=X;X3X;X=X=X=X#X$X=X;X;X;X3X=X;X3X=X=X3X=X2XwX XT.OX2X1X2X1X;X3X;X1X;X;X1X1X2X1X1X3X2X1X=X$X X|.|.|.#X|.].'.}.|.|.}.oXoX X X XOX XOXoX}.}.OX}.T.}.=X#XoX#X&X1X&X;X1X&X1X1X1X&X;X=X$X;X;X3X;X3X=X$X$X=X;X&X;X<X;X;X<X",
",X&X,X,X,X1X<X1X1X,X0X1X0X1X1X1X2X2X3X1X2X2X2X3X2X1X2X1X1X1X;X;X=X=X-X$X-X;X&X-X:X0X;XwX2X0X0X0X1X1X2X1X1X1X3X1X2X2X2X3X1X;X=X=X;X1X2X1X&X;X&X&X&X$X;X<X&X1X1X1X;X1X;X;X;X;X1X3X2X2X3X2X1X1X2X2X1X2X2X3X2X2X2X2X2X2X3X3X2X3X2X3X1X1X3X1X3X1X<X<X$X=X1X2X2XqX3X2X3X1X2X2XwXwXwX2XwXwXwXwXwXwXwXwXeX2XeXeXeX3X2XeX3X2XeX2X=X X#X=X;X&X$X;X1X1X1X;X$XqXqX1X#XoX$X&X1X$X$X$X$X$X$X$X$X$X#X#X#XOX$X$X*X*X X2X2X2X3X=X1X=XG.T.Y.H.G.Y.G.G.H.G.H.Y.Y.T.Y.].].].E.].}.].].].}.}.oX|.oXoX#X#X#X].T.T.].].T.].].].].].'.Y.;X;X;X$X=X-X$XT.].].].oXoXoX#X#XoX|.|.}. X#X#X#X=X X=X#X X*X=X X X$X*X X*X=X*X$X$X$X=X=X=X$X=X X X=X=X X=X X=X=X=X3X=X=X$X=X=X$X=X=X$X=X=X=X=X$X=X$X$X=X=X$X#X=X=X=X$X-X;X$X=X$X=X=X=X=X=X=X=X$X=X=X X=X=X$X=X=X$X$X$X$X$XoXoXoX#X@X$XQ.}.oX$X&X1X$X;X&X=X&X$X;X<X$X$X#X#X$X$X;X&X$X$X=X$X$X$X=X=X$X;X;X1X$X1X$X1X;X=X=X=X=X=X$X1X=X=X=X$X=X$X$X=X=X1X=X3X;X=X=X$X1X1X1X=X X|.3XuX2X2X:X=X=X3X=X1X=X$X=X2XqX1X$X1X$XoX}.}.}.}.].}.].}.].].].].oX}. XOX XoXOX#X X}.$X X].}. X|.=X=X=X$X1X=X=X=X3X1X=X=X1X=X$X=X$X$X3X&X&X&X;X$X&X$X<X&X&X&X$X&X<X",
"&X,X&X<X,X,X,X,X1X1X1X1X1XqXqX1X2X1X1X2X1X2X2X2X1X2X2X3X1X3X;X=X$X=X&X&X;X&X;X;X0X0X0X0X2X:X6X;X;X2X2X2X2X1X2X1X1X1X1X1X3X3X=X=X;X&X<X&X1X;X;X;X;X;X;X;X1X;X;X1X1X1X3X;X3X2X1X2X2X2X2X3X1X1X1X<X2X2X2X3X3X2X2X2XeX2X2X3X2X2X2X2X2X3X2X2X1X1X1X<X=X3X1X2X2XqXeX2X3X2X2XxXwXwXwXwXwX0XwXqXwXwXwXwXiX3XeX3X2XeXeX3X2X2X3X3X|.].|.=X&X;X&X;X&X1X;X<X1X1X1X X X#X&X1X1X1X;X$X$X$X$X$X#X#X$X$X#X$X$X=X=X:X3X2X3X3X=X#X]. Xg.H.Y.Y.G.L.F.H.L.G.L.Y.Y.T.T.].E.T.Y.].].].E.}.}.oX|.oX#X|. X#X}.].T.E.}.].}.|.oX#X#X}.oX].'.$X1X=XoX].}.].oX}.}. X|.oX XoX}.}.oXoXoX#X X$X#X=X$X=X=X$X=X*X*X#X=X=X=X X$X=X=X3X X$X=X=X=X=X=X$X=X=X=X$X$X#X$X X$X=X=X=X X=X3X X3X$X$X=X X$X=X X=X X#X=X=X#X$X-X=X=X=X-X-X-X$X3X$X=X=X=X X=X*X=X=X$X=X*X=X X$X$X$X$XoX#XoXOXoX$XOXoX}.OX@X&X$X1X$X$X&X;X$X$X&X$X#X#X#X$X&X$X$X&X&X$X1X$X$X&X$X$X$X$X$X;X$X;X=X3X=X=X=X$X=X=X;X3X=X=X3X$X=X=X=X=X=X1X1X=X;X=X1X=X3X1X=X#X$X;X2X2X3X=X=X=X=X=X$X;X1X1X1X;X;X1X#XoX}.}.].}.}.}.].oX].].}.oX}.].(.oX X X X X X X}.}. X$X$X=X;X;X=X$X;X3X3X1X1X$X1X3X3X$X=X=X$X$X=X$X$X;X;X&X&X&X&X;X&X&X&X,X,X&X",
",X&X,X,X1X,X1X1X,X,X0X0X1X2X2X1X2X2X2X1X1X2X1X1X1X1X1X2X1X1X1X3X;X;X$X;X;X;X&X;X0X;X1X1X;X;X;X;X;X1X1X1X1X2X2X1X2X1X1X3X3X1X1X=X1X;X$X1X2X1X<X1X;X;X1X<X<X1X&X1X1X1X3X2X2X1X2X1X2X1X1X1X2X1X1X2X2X2X2X2X2X2X2X2X3X2X2X3X2X2X2X2X2X1X1X2X2X2X3X3X1X1X2X2X2X2X2X2X1X2X1X2XwXwXwXwXwXwXwX0X0XwXwX2XiXeX3XqXeX2XeXeXqX2X3X3X X}. X3X$X;X1X<X&X;X1X0XqX2X$X#X&X1X0X1X1X1X;X$X$X&X$X$X#X#XOX$X$X$X1X1X3X:X3X:X2X;X=X*X X=XG.Y.L.Y.L.G.L.G.Y.H.Y.Y.T.].].}.].E.T.].].].T.}.#X#X#X}.oX#X}.oX].T.T.E.].}.oX|.#XoX}.}.oX|.L.}.&X#XT.T.].oXoX|.}.#X#XoX#X XoX|.oX|.oX#X#XOX=X$X X=X=X*X=X$X=X X*X#X X=X X=X X=X=X3X3X$X=X$X=X$X=X$X=X$X#X=X=X$X$X X X3X X=X$X=X=X=X=X X=X=X X3X$X=X=X=X=X=X-X=X$X-X%X-X-X-X=X=X$X=X=X#X=X=X$X=X=X=X$X=X=X=X$X$X$X$X$X$XOX#XoX#XOXoXQ.OX&X@X<X;X&X;X=X&X=X&X&X$X$X#X#X$X$X=X=X;X$X$X$X$X;X$X$X$X=X$X$X$X$X$X;X3X1X$X;X=X=X;X=X=X3X=X=X=X=X$X$X;X=X=X3X=X=X;X1X;X;X2X3X=X$X=X3X;X:X=X=X=X=X=X=X3X1X1X<X1X;X1X}.].].].}.}. X}.oX}.].oX].oXoX|. XoXOXOXoXOX X].}.Y.|.1X=X=X3X=X=X=X1X=X3X;X3X;X3X;X=X=X$X=X3X3X$X1X;X$X;X&X&X&X&X&X&X&X,X&X&X,X",
",X,X1X,X,X,X,X,X1X1X2X1X1XqX1X1X2X2X1X1X1X2X2X1X3X1X1X3X1X1X3X1X-X&X;X;X&X-X&X;X;X;X;X;X;X-X&X&X;X3X1X1X2X2X3X2X2X3X2X1X1X2X1X1X0X#X#X;X0X&X&X1X0X1X1X1X1X;X1X1X;X1X1X1X3X1X2X2X1X1X1X3X3X3X1X1X3X2X2X3X3X2X2X2X2X3X2XfX2X2X2X2X2X1X1X1X3X1X1X3X3X1X2X2X2X3XxX2X2X2X2X2XwXwXwX2XwXwXwXwXwXwXwXwX3XeXiXeX3XiX3XeXeX2XfX2X1X3X3X3X$X;X$X;X;X1X1X0X1X1X2X1XwXwX2X&X1X1X;X<X1X$X1X1X#X#X$X$X1X$X;X1X=X:X:X:X;X3X;X=X2XeXY.H.D.T.'.T.Y.Y.Y.L.Y.Y.E.].}.oX|.].].}.].E.L.].#X#X#X].].oX].].].E.E.].}.}.].].}.}.}.}.}.oX|.}.}.T.].|.#XoXoXoX#X#X#X#XoX#X|.oX XoX#X#X$X$X=X=X$X=X=X$X=X=X*X*X X$X=X*X*X$X=X=X$X=X$X=X3X X=X=X3X X=X=X=X$X X=X=X$X=X=X=X=X=X$X$X=X3X=X#X=X=X=X$X3X=X=X$X=X=X-X=X=X-X=X$X-X=X=X=X=X=X=X#X=X$X=X=X=X=X X$X=X-X$X$X$X$X$X$X$XOX$XOX}.}.oXOX$X;X&X=X&X$X;X$X&X;X$X#X#X#X$X$X$X&X$X$X;X&X;X<X$X&X$X$X$X$X&X;X$X=X=X=X=X$X3X=X$X1X=X;X;X=X=X=X=X=X3X=X1X;X;X1X3X;X=X=X3X3X=X=X=X;X=X*X=X$X$X=X3X1X$X#X=X1X0X$X}.E.].].}.}.}.}.}.].].}.].].].}.}. X#X X XoXOX XQ. XG.}.wX=X=X;X|.3X3X3X1X1X3X1X1X3X3X=X$X$X=X=X3X$X$X;X&X&X;X&X&X1X<X,X,X1X<X,X,X",
",X1X,X1X,X,X1X1X1X1X1X2XqX1X1X0X1X1X1X2X2X2X1X1X1X1X1X1X2X<X3X1X&X;X&X&X;X;X&X1X$X1X&X&X1X;X1X1X;X3X3X2X2X1X2X1X1X1X1X1X1X1X3X2X&X}.].$X;X$X#X1X1X1X1X1X1X&X&X1X3X1X1X3X1X1X2X1X3X2X3X3X2X3X2X3X2X2X2X2X2X2XfX2X3X2X2X2X2XfX2X2X1X1X3X=X=X;X;X;X1X1X1X2X1X1X1X2X2XqX2XqXeX2XwXqX0XwX2XwXwXwXwXwXeXeX3X2X2XxX2X2X3X2XqX2X2X2X<X<X$X#X#X$X1X2X0X1X$X1X1XqXqX2X=X$X&X;X1X$X$X1X1X$X$X$X$X=X$X1X&X1X:X=X=X;X;X1X3X1X2X2XH.F.D.E.}.}.].T.Y.Y.T.T.].}.].oX|.}.|.}.].T.Y.].#X#X}.].].}.].].E.].].].oX].}.oXoX|.}.oX X#X-X#X].E.}.$X$X X#X#X#X$X#XOX#XoXoX|.oX#X#XOX$X$X#X=X$X=X=X=X$X X$X=X*X$X X=X=X=X=X=X X=X=X=X=X$X=X=X=X=X=X$X=X=X=X=X=X$X$X=X X=X=X X=X=X=X$X|.#X$X=X=X=X=X$X=X=X$X*X-X$X-X=X-X-X$X3X$X=X=X=X X=X=X=X=X=X=X=X X=X$X;X$X$X&X$X$X$X X$XoX}.Q.oX$X$X&X;X$X&X;X&X$X=X$X$X$X$X$X$X$X$X&X$X$X=X=X$X;X$X$X$X$X$X$X&X&X&X=X=X=X=X=X3X=X3X3X;X;X;X3X=X1X=X=X=X=X$X=X;X;X;X1X=X=X1X1X;X=X=X=X=X=X=X=X=X3X=X1X=X$X=X1X1X#XT.}.}.}.}. X}.].].}.'.].}.}.}.}. X}. X X}. XOX X}. XH. XeX=X=X1X$X3X;X;X;X;X1X;X1X;X;X=X=X$X=X3X=X1X$X&X=X&X1X<X1X,X;X,X<X,X,X1X,X",
"&X<X,X8X,X1X8X1X,X,X1XqX2X1X1X1X2X2X1X1X2X2X1X1X2X1X1X1X2X2X1X1X$X&X;X<X&X;X;X&X;X$X1X1X1X1X1X1X;X;X;X1X1X2X1X2X3X;X3X=X;X;X;X;X$X XoX$X;X&X<X2X1X1X1X1X1X1X1X;X1X1X3X1X1X2X1X2XqX2X2X2X2X3X2X2X3X2X2X3X2X2X2X2X3X3XiX2X2X2X2X2X1X1X=X=X=X;X;X1X3X2X2X2X3X2X2X1XxX2X2XqX2XeXwXwXwXwXwXwXwXwX0XwX3XeXiXeX2X2X2X2X2X2XqX2X3X2X3X3XoX}. X#X;X1X1X<X1X1X1X2X1X&X3X1X&X&X=X$X$X$X$X$X1X&X1X&X$X$X$X=X;X;X3X3X=X=X=X=X=X1XL.T.Y.}.].}.].'.E.T.T.E.].].E.].].}.}.}.E.G.L.T.}.oX}.}.].].E.].].E.].].}.].].}.|.oX#X#XoX#XOX#X$X#X#X#XoX#X#X#X#X#X#X#X#X X|.oX|.oX#X$X$X=X=X=X=X X$X=X=X=X=X X X=X=X#X=X=X=X$X*X=X=X X*X=X X=X=X$X$X=X=X$X=X=X=X=X=X$X=X=X$X=X=X=X=X#X=X=X$X=X3X$X=X=X=X=X-X=X=X-X-X%X$X-X=X=X=X=X$X=X=X=X X=X$X=X$X=X=X=X$X$X$X$X$X$X$X$XoXOXOXQ.E.oX@X&X;X&X$X;X<X$X&X$X&X$X=X$X$X$X$X$X$X=X&X&X$X&X;X$X;X=X&X$X$X$X=X;X$X1X=X$X$X;X=X=X;X;X;X3X1X=X;X3X=X=X=X3X=X;X1X3X3X=X=X3X;X=X#X*X=X=X=X;X=X=X=X3X=X;X1X;X$X}.].].}. X X}.}.].}.}.}.}.}.].}.|.|.oXQ.Q.Q.Q.}.}.}.].}.Y. X2X=X=X2X;X;X;X3X;X;X3X;X1X1X3X;X=X=X=X;X1X&X1X$X1X&X$X&X;X1X1X,X1X1X,X1X,X",
"0X1X1X1X1X1X,X1X1X1X1X1X2X2X1X2XqX1X,X1X2X1X1X1X1X1X1X1X<X2X<X<X&X$X&X$X&X&X$X&X&X1X&X1X,X,X,X;X;X3X1X;X1X3X2X2X1X2X1X1X3X;X3X1X;X&X$X&X&X1X1X0X&X1X&X&X&X1X&X&X1X3X3X1X1X2X2X2X3X2XqX2X2X2X2X2X2X3X2X2X2X2X2X2X2X2X2XiXfX2X2X2X2X1X1X3X3X2X1X1X1X1X2X2X1X2X2X1X2X2X2X2X2X2XeXeXwXwXwXwXwXwXqXwX2XqXeX2XqX2XxX2XeXeX3X3XqX2X2X3X|. X|.=X1X1X1X;X2X1X1X1X2X1X3X3X=X=X=X=X=X$X=X=X=X=X=X$X=X=X=X=X3X2X2X2X3X=X=X=X=X3XY.}.}.].T.].E.].].].].].].E.Y.].E.].].}.E.H.G.Y.T.}.}.].}.}.].}.].E.].}.oX].T.].}.oX XoXoX#X}.#X$X$X#X}.}.}. X#X#X#X#X#X#X#X|.oX#X#X#X$X$X$X=X=X=X=X=X=X=X=X$X=X=X=X=X=X=X X=X=X$X X=X$X$X=X=X=X=X=X=X=X=X=X X=X=X$X=X=X=X=X=X=X=X$X$X=X=X#X=X=X X=X#X=X=X=X$X=X=X-X*X-X-X&X=X=X=X$X=X$X X=X*X=X=X X#X=X=X=X#X=X=X$X#X$X$X$XOX$X#X}.Q. X$X&X&X;X<X;X$X;X;X$X;X=X;X$X$X$X&X$X;X$X=X$X;X$X$X&X$X$X$X$X$X$X&X=X=X=X$X3X=X3X;X1X;X;X;X;X;X;X1X1X=X$X=X=X;X3X1X2X1X=X;X2X;X#X#X#X=X=X=X;X$X3X=X=X$X;X;X$X}.E.].oX X#X}.}.].'.}.}.}.].}.}. X X#X X X XQ.!.Q. X}.'.Y.].$X3X$X=X=X3X;X3X3X;X;X;X1X3X1X1X1X=X1X=X;X=X1X;X$X$X=X$X1X,X&X,X,X,X,X,X,X,X",
",X,X,X1X1X0X1X0X1X1X1XqX2X2X2X1X1X2X1X1X2XqXqX1X1X1X1X1X1X<X1X<X$X$X$X&X$X$X$X&X&X&X&X&X&X&X&X&X;X=X3X2X2X1X1X1X2X2X2X2X2X2X1X2X&X1X;X$X#X$X&X$X&X1X;X1X;X&X;X1X;X2X1X1X2X2X2X2XqX2X2X2X2X3X2X3X2X2X2X2X2X2X2XfX2XfX2XfX3X2X2X2X2X2X2X2XeX2X2X1X2X2X2X2X2X2XxX2X2XeXeX1XeX2XeX2XwXwXwXwXwXwXwXwXeX2XeXeX2XeX2X2X2XeX2X2X2XeX3X<X|.$X;X3X1X=X1X;X3X=X$X1X2X=X=X=X$X;X=X1X1X=X=X=X=X=X=X3X$X=X=X=X=X;X2X1X=X=X=X=X$X$XG.].].].E.}.T.].].oXoX}.T.Y.T.].T.].].oX].Y.D.G.Y.].}.oXoX].}.}.].].].}.}.].].].oX#X#X#X#XoX$X#X}. X#XoX#X}.#XOX#X#XOX#X#X#X}.#X|.#X#X$X1X=X=X=X=X=X=X=X=X=X X#X=X*X$X=X=X=X$X=X*X=X*X X=X$X3X=X$X=X$X=X=X=X3X=X=X=X=X$X=X=X=X X=X=X=X=X#X*X$X X$X$X=X$X$X$X-X=X-X$X-X&X*X-X$X=X=X=X=X=X=X=X$X=X=X=X=X=X=X X=X$X#X=X$X$X$X$X$X$XoXE.E.}.&X&X;X;X$X&X;X&X$X$X&X&X;X&X&X=X$X$X;X$X&X$X$X&X=X$X$X$X#X#X$X$X$X=X=X=X=X=X=X=X;X;X;X3X;X;X3X1X3X;X=X=X=X=X=X3X3X2X;X=X;X3X=X#X X|.=X=X=X=X=X=X=X=X;X$X#X}.].].}.oXoX X}.].E.T.}. X X XoX XoX#X#X$X$X X}.}.Q. X X].E.$X1X3X;X=X$X;X;X;X=X=X=X;X1X;X2X2X1X1X1X3X;X-X1X&X$X;X&X1X<X1X&X1X&X,X1X,X,X1X",
"1X1X,X1X,XqX1X1X2X1X1X2X2X2X2X2X1X1X1X1XqX1X1X1X1X1X1X1X1X;X,X1X1X&X&X$XOX$X$XOX<X3X$X<X&X<X1X1X;X3X1X2X2X1X1X2X3X;X;X3X;X;X=X=X&X;X&X$X#XoX$X&X&X$X$X&X&X$X$X$X=X1X2X2X2X2X2X2XqX2X2XeXeX3XeX3X3X2X3X3X3X3X3X3X3X2X3XiXiXiXiX3X6X2X0X:X:X;X;X2X2XwX2XwX2XeX2X2XwXwXwXwXwXwXwXwXwX0XwXwXwXwXwXwX2X2XqX2X2X2X2X2X2X2X1X2X2X2X=X$X#X$X;X;X;X;X;X=X=X X#X=X=X=X*X=X=X=X=X=X=X=X=X=X=X$X=X3X$X=X=X=X2X:X=X3X3X3X3X=X=XoX].Y.T.T.].].E.}.}.}.}.}.].Y.E.].].].].].T.T.D.D.L.].#X#XoX].}.}.].].}.].}.oX}.|.].oX#X#X#X#XoXoX X}.}.}.}.}.oX#X$X X#X}.#X#X$X#X$X#X$X#X$X=X$X$X=X#X=X=X#X#X X*X=X=X$X*X=X=X=X=X*X-X=X*X$X*X*X=X$X$X*X*X-X$X=X|.$X$X*X-X$X*X$X=X$X%X*X$X*X$X=X=X=X=X=X$X=X=X=X&X*X=X%X-X-X*X=X X=X=X=X*X X=X=X=X*X=X*X$X$X=X=X=X=X$X=X=X$X$X$X X#XE.}.$X$X,X$X&X$X=X&X=X$X1X$X$X;X$X$X$X$X$X$X$X;X&X$X;X$X$X$X$X$X#X$X$X$X$X1X=X;X3X$X3X=X=X;X=X=X3X;X1X=X=X1X;X=X=X;X3X;X=X3X3X2X2X3X].].=X=X=X=X=X=X=X=X3X;X1X1X$X].Y.E.}. X X].J.'.!.!.]. X X X XOX$X$X XQ.OX#X}. X<X X$X1X1X3X$X=X=X=X3X;X;X=X=X=X*X-X;X;X;X:X;X;X-X-X&X&X1X1X$X$X&X,X&X1X,X,X&X,X1X,X8X",
",X,X1X,X1X,X1X1X1XqX1X1X2X2X2X2X1XqX1X1X1XqX1X1X,X1X1X1X1X1X;X;X<X<X$XOX#XOX<X$X$X<X&X<X<X,X<X<X1X;X1X3X1X2X1X2X;X1X1X;X2X;X;X;X;X,X1X;X;X$X1X<X=X;X1X1X1X1X1X&X;X1X2X2X2X2X1XqXeXeXeX2X3XiX3XeX2X3X3X3X3X3XiX3X2X2XiX3XiX3XiX2X2XwXwX2XwX0X:X:X0X1XwX0X2X2XeXqXwXwX0XwXwXwXwX0XwX2XwXwXwX0XwXwX2XeX2X2X2X2X2X2X1X1X3X1X1X1X1X1X*X=X;X;X3X;X;X;X;X=X=X=X=X=X#X=X3X3X=X=X=X=X=X=X=X=X=X=X1X=X;X3X3X:X:X=X=X=X=X#X#X#X}.].].Y.Y.L.Y.].].}.}.}.}.].].].E.E.'.E.E.].L.Y.Y.T.}.#XoX}.oX}.}.}.}.oX].oXoX[.}.oX#X#X$X#X#X#X#X#X}.}.}.oX#X#X$X#XoX X#X$X#X#X#X#XOX$X$XOX=X=X=X X*X X=X=X=X X=X#X=X X$X=X=X=X$X=X$X*X$X-X*X%X-X*X=X%X*X$X=X=X*X$X*X*X*X$X-X*X*X*X*X*X$X*X3X X3X X$X=X=X X-X*X-X=X-X=X&X=X=X3X X=X=X$X$X=X X$X=X X X=X*X=X=X=X=X=X=X=X$X3X#XoX$X}.oX&X$X&X$X;X&X=X&X$X$X$X$X$X$X&X$X;X=X$X&X=X=X&X;X$X$X$X;X$X$X#X$X$X$X$X=X=X=X$X=X=X=X1X=X=X=X;X;X=X;X3X3X;X=X;X;X1X3X;X2X1X1X;X|.'.].=X=X=X3X2X2X1X3X1X=X=X$X X].].}.#X X X X!.!.!.]. XOX#X#X X$X$X<X3X!.<XOX!.OX1X<X].1X<X=X3X=X=X;X1X;X-X=X*X=X$X;X;X;X;X;X;X;X;X;X-X$X1X;X$X$X&X;X1X,X1X0X&X1X,X,X1X",
"1X,X3X1X1X1X1X1X1X2X1X2X2X2X2X2X1X1X,X1X1XqX1X1X&X1X1X&X,X&X;X<X,X$X$XoX XOX$X<X,X$X&X<X,X&X<X<X1X1X2X1X1X2X1X3X1X1X;X1X;X;X3X=X1X1X1X1X1X1X1X1X1X$X&X1X1X1X<X1X1X3X1X1X1X2X1X2XeXeXqXqXeX3XeX3XgX2X3XiXiXiXiXiXgXiXiXiXiXiX3X2XwXwXwX0XwXwXwXwX0XwX2XwXeX2XeX2XwXwXwXwXwX0XwXwXwXwXwXwXwXwXwXwX2X2X2X2X2XxX1X1X3X=X=X=X3X1X3X=X=X=X3X2X3X3X2X2X1X;X;X3X2X=X=X X3X=X=X=X X=X=X=X$X=X3X1X1X=X1X;X=X3X=X=X;X=X=X|.].[.].oX}.].E.T.T.].oX}.oX#X X}.}.}.].E.].].].}.].].E.].}.}.#X}.].}.].].].].}.|.oX|.}.}. X#X$X$X#X$X#XoX#X}.#X#X#X#X#X$X#XoX#X$X#XoX#X#X#X$X#X#X=X=X=X$X$X=X X=X$X*X X=X=X X=X=X=X*X=X*X=X*X*X$X*X*X$X*X*X*X*X*X#X#X*X*X$X=X-X-X=X$X*X$X$X-X$X$X=X$X=X=X$X=X=X=X$X-X=X$X-X-X-X-X=X=X$X$X=X#X*X X#X=X X$X=X#X=X=X=X=X=X=X=X$X$X=X$X#X&X|.oX&X$X&X1X1X$X&X&X=X;X$X1X$X$X;X;X$X$X&X1X$X&X=X$X&X&X$X$X$X$X$X$X$X$X$X=X=X=X=X=X=X=X=X=X=X=X;X=X=X=X1X1X;X=X;X3X;X1X;X1X1X3X#X].'. X2X*X:X:X=X;X=X=X*X2X;X$XoXoX|.}.}.'.}.!.].'. X].!.$X$X$X X$X X X XQ. X XOX<X X}.OX$X$X=X=X$X=X=X=X;X;X=X*X&X-X-X;X-X;X;X:X;X;X;X-X$X$X;X$X$X;X<X&X1X,X,X<X1X,X,X1X",
"1X<X,X1X1X1X1X1X2X1X2X1X2X2X2X2X1XqX1X1X0X1X1X,X1X,X,X1X&X&X&X&X<X<XOXOXOX@X$XOX$X@X&X&X&X&X,X<X=X2X1X1X2X3X2X3X;X3X2X3X2X1X1X3X1X;X&X&X2X1X1X1X&X1X;X1X&X1X1X1X2X1X1X3X1X1X2X2XeXeXiX3XiX3XeXeXfXdXiXiXiXiXfXfX2XnXiXiX3XiX2XiX2X0X2XwX0X2XwX2XwX2XwXwXwXwX2XeXwXwXwXwXwXwXwXwXwXwXwX0XwXqX0X2X2X2X1X1X2X2X3X<X=X1X=X=X=X=X=X=X3X1X1X2X3X:X:X3X3X2X3X2X3X3X=X*X3X;X=X X*X=X=X=X=X=X=X=X=X1X=X1X:X=X:X;X3X2X;X;X'.'.}.#X&X$X#X X}.#X$X#X#X$X#X#X|.}.].}.].}.}.oX#X}.].].].}.].}.].].].].].].].oXoX}.}.|.#X$X#X#X#X#X$X#X#X#X XOXOX#X#XOX$X$X$X#X#X#X#X$X#XOX$X#X X=X=X=X X$X*X=X#X*X=X*X$X*X=X=X$X=X*X=X$X$X*X-X$X*X-X$X=X$X%X=X*X=X=X*X*X-X$X=X-X*X=X=X*X*X$X*X=X=X=X$X=X=X$X=X=X=X-X-X$X-X$X-X$X=X=X*X=X=X=X=X=X*X=X=X*X=X$X X*X*X*X=X=X=X$X=X;X#X$X X}.;X$X&X$X$X&X=X=X&X&X1X$X;X&X$X$X1X1X$X$X&X$X1X;X&X=X$X;X&X;X<X&X$X;X1X$X3X=X=X=X$X3X=X=X3X=X3X3X1X=X=X;X3X;X3X;X1X;X;X|.1X2X*X'.|.*X;X3X2X3X=X;X3X3X3X2X;X#X|.].}.}.].T.]. X'.!.'.!.]. X X$X3XOX X].J. X}.}.OXOXJ.E.2X=X<X$X3X=X=X=X;X;X-X-X=X-X;X-X;X;X-X:X;X:X;X;X;X$X$X=X&X&X;X1X,X&X1X1X,X,X,X1X,X",
"1X1X<X1X1X1X1X1X2X3X2X2X2X2XqX2X1X1X,X8X1X0X1X1X1X0X,X<X<X&X$X$X@XOXOX<XOXOXOXOX@XOX<X$X<X@X,X$X1X1X1X2X1X2X3X;X2X3X1X2X1X2X1X1X<X;X&X1X2X2X1X<X2X1X2X1X1X1X1X1X2X2X1X3X2X2X2X2X3X3X2XeXeXeXeXiX3X3XfX2X3XfXiX3XiXfXiXiXfXiXiXiX:X6XwX6X0X6X0X6XwX0XwXwXeX2XeX2X0XwXwXwXwX0XwXwXwXwXwXwXwXwX2XwX2X2X1X1X;X;X$X|.=X=X=X=X=X;X;X3X2X2X2X3X;X;X=X=X;X:X=X3X2X3X=X*X;X=X*X#X*X=X=X3X=X=X:X=X1X2X3X2X;X=X3X2X2X2X3X;X=X=X$X$X$X$X#XoXoX$X$X$X&X;X&X$X#X#X#XoX#X X|.}. XoXoX|.}.].E.].}.oX].}.].oXoXoX}.].oX#X#X$X#XoXoX X#X#X#XoX#X#XOX#X$X#X$X$X#X#X X$X$X$X$X$X$X$X*X$X X=X=X*X=X X*X$X$X=X=X X=X=X=X-X-X&X-X*X%X*X*X-X%X-X%X*X*X-X-X$X-X$X-X*X-X-X-X-X$X&X*X-X-X*X$X=X=X=X X=X=X*X$X*X*X*X*X$X*X$X X$X#X=X$X=X*X=X*X$X=X*X#X=X$X=X=X=X=X=X X=X=X*X=X$X$X'.].$X#X&X$X;X$X;X&X$X1X$X;X$X&X;X&X$X;X&X&X;X;X&X;X$X$X=X&X;X$X1X$X1X;X$X;X=X=X$X=X=X$X=X=X3X$X1X;X3X;X;X;X;X;X;X1X;X=X=X#X2X2X X'.'.|.#X=X=X*X:X=X3X3X3X$X$XoX].T.T.E.].!.].!.!.T.'.].!.}. X#X X X].!.T.!.3XOXJ.T.OX$X$X$X$X3X=X=X=X=X;X=X-X-X;X-X;X;X-X-X;X-X:X;X5X;X:X$X$X&X;X&X$X;X1X,X1X,X,X,X,X1X,X",
"1X1X1X1X1X1X1X2X1X3X2X2X2X1X2X2X1XqX1X1X8X1X0X,X1X1X1X&X&X$X$XOXOXOX$X$XOXOXOXOX$X$XOX$X@X<X&X<X1X1X2X3X1X2X1X1X3X1X1X3X2X3X2X1X1X1X1X1X1X0X0X2X0XqX1X2XqX1X1X1X2X2X1X2X2X2X2XxX2X2X3XeX3XeXeXeXdXfX3XfXiXiXiXiXiXiXiXiXiX3XiXiX2X0X6X0X6X0X6X6XwXwXwX6X2XtXeXeXwXwXwXwXwXwXwXwXeXwXqXwX2XwXwX2X2X2X1X3X;X=X|.[. X$X=X;X;X1X2X2X2X2X2X;X:X:X=X=X=X;X:X=X:X2X=X*X X*X|.|.|.|.=X*X=X3X=X:X3X2X2X:X2X2X2X2X2X1X;X=X=X=X$X$X$X$X#X X}.#X$X#X$X;X;X&X#X#X#X$X$X#XoX#X}.oX#XoX].].T.].].].].].}.}.].|.}.}.oX#X#X#X}.].}.#XoX#X#XoX#X#X#X#X#X$X$X#X#XoX$X$X$X$X=X=X$X$X$X=X*X=X*X X#X*X*X X X=X=X=X#X=X-X$X-X*X$X-X$X-X$X-X*X*X*X=X%X*X*X$X-X-X-X&X-X-X-X$X-X-X%X-X$X$X=X=X$X=X=X=X=X$X-X$X*X&X-X*X*X=X=X=X=X=X=X X=X X=X X X=X=X#X*X#X*X=X*X=X=X=X X*X3X#X#XE.T.#X#X;X$X$X$X&X$X1X$X1X&X;X=X&X;X;X$X=X$X;X&X&X<X;X&X=X&X$X1X$X;X$X$X&X$X=X=X=X=X$X=X=X=X=X=X=X;X=X;X=X3X=X=X3X;X=X=X*X#X3X=X}.'.|.=X;X3X2X2X2X3X=X*X*X3X;X$X].L.F.G.Y.J.T.'.J.J.T.T.!.}. X X!.'.!. X#XOXOXT.G.Q.1X<X#X<X=X$X1X;X;X3X;X-X;X;X;X;X-X-X;X-X-X;X:X:X-X-X:X$X$X&X$X&X$X&X&X1X<X1X,X1X,X,X0X",
"1X1X1X1X1X1X2X1X2X1X2X3X2X2X2X3X1X1X1X,X1X0X0X1X,X1X&X&X$X&X$X$XOX<XOXOXOXOX XOX<XOX<X<X$X<X@X$X1X3X1X1X1X1X3X2X1X1X1X2X2X1X3X2X1X0X1X1X1X1X0XqX1X0X1X1X1X1XqX2XeXqX2X1X2XeX2X2XiX3XiX3XfXeXiXiXiXiXgXdXiXiXiXiXiXiXfXiXiXiX3XnX0XwX6XwXwX6X6XwXwXrXwXwX2X2X2X2XwXwXwX0XwXwXwXwXwXwXwXwXwXwX0X2X1X1X2X3X=X#X|. X X#X=X1X1X2X2X2X2X2X2X;X=X=X=X:X=X2X;X:X=X3X:X=X|. X|.*X|.*X*X*X:X=X;X2X;X2X;X;X2X2X1X2X3X1X=X$X$X=X$X$X$X=X=X$X}.#X#X#X$X$X;X$X$X$X$X#XoX#XoX}.].#X#X#X}.E.].].].].].}.}.oXoX}.oX}.}.}.}.}.}.].}.}.#X#X#X#X#X#X$X#X#X$X$X#X X}.$X$X$X$X$X$X$X$X X=X*X X=X#X=X X#X=X$X=X#X=X=X#X=X%X-X-X-X$X-X%X-X$X*X%X-X*X*X%X-X&X-X-X$X-X&X-X-X;X-X&X-X-X&X*X X3X X3X$X=X=X X*X*X*X%X$X-X#X=X=X=X=X$X X=X=X#X$X=X X*X#X=X$X=X*X X X=X X*X=X=X=X$X#X'.E.#XoX$X$X$X$X$X$X=X&X=X=X$X$X;X$X$X&X&X1X$X1X;X;X&X$X&X$X;X$X;X&X1X$X;X=X=X$X=X$X=X=X=X;X=X=X;X=X1X=X3X;X;X=X;X=X=X#X X|.#X|. X X X=X=X2X=X=X=X*X*X*X=X;X=X XT.D.g.D.F.J.T.T.J.J.J.J.!.].!.].!.J.T.!. X<X!.J.}.3XOX X;X$X&X3X1X;X3X2X;X;X;X;X;X;X-X:X;X;X;X;X-X;X-X:X;X;X&X=X&X$X$X$X&X1X<X,X,X,X,X,X1X",
",X1X1X<X1X1X1X2X3X1X2X2X3X2X2X2X0X1X1X1X0X1X1X1X&X&X&X&X&X;X$X=X$XOXOX X XOXOX XOXOXOXOX<X$X$X<X;X;X1X1X2X1X2X1X2X1X1X2X1X2X1X2X1X1X1X1X1X,X2XwX;X&X<X<X1X2X2XqX2X2X2X2XeX2X2X2XeXeXfXeXeXeXiXeX3XiXiX2XiXfX3XiXiXiXfXfX3X3XiXiXrXwXrXwXwXwX0X6XwX6XwXwXfX2X2XfXwX2XqXwXwXwXwXwXeXwXwXwX0XwX2X2X;X3X1X3X=X*X|.|.}.|.=X1X1X3X;X1X;X3X3X2X=X:X3X3X3X2X2X=X:X3X:X=X:X=X:X=X3X=X=X:X3X3X:X3X2X2X;X3X3X3X2X2X2X2X=X=X=X=X$X$X=X$X$X$X#X$X$X$X$X$X$X#X$X$X#XoX}.}.}.#X}.#X$X#X}.].].].oXoX#X$X$X*X$X$X#XoX].].].}.}.}.}.oXoX$X#X#X#X#X#X#XoX#X$X#XoX]. X$X$X=X$X$X#X#X=X=X$X=X=X$X*X=X=X X*X=X X*X$X=X=X-X*X-X$X-X*X*X$X-X=X*X=X%X=X%X*X-X$X;X-X-X;X-X;X-X-X-X=X-X-X=X=X=X=X$X=X=X=X=X&X*X*X*X*X$X*X*X=X=X=X=X=X=X#X=X*X=X=X$X$X*X$X=X=X=X*X=X=X=X=X#X$X#X$XE.].#X X#X#X$X$X$X$X$X&X$X&X$X$X$X$X$X$X&X$X1X<X;X&X;X;X$X=X&X1X&X1X$X$X$X=X=X=X$X=X$X=X$X3X=X;X3X=X=X&X;X1X=X3X=X=X$X|.|.|.|.|.|.].'.H.H.S.S.S./ S.H.'. X'.T.H.D.g.g.D.G.J.J.J.T.H.J.'.!.!.].!.].!.Y.J.T.T.!.Q.OX3XOX X$X1X3X=X1X2X1X;X;X;X-X-X;X-X5X-X-X;X;X;X5X;X5X-X;X1X;X=X$X$X#X$X&X,X1X1X,X1X1X,X,X",
"1X1XqX,X,X,X1X1X1X1X2X3X2X1X2XqX<X,X,X,XqX,X,X1X1X;X&X;X1X=X3X;X$X$X$X$X$XOX#X#X#X&X<X$X=X&X&X$X=X$X=X1X1X,X1X1X1X2X2X2X2X2X2X2X1X1X&X&X1X1X1X0X1X1X0X2XqX2X1XqXwXwX2XwXwXuXaXaXsXaXaXiXiXeXiXiXfX2X2XiX2X2XiXeXeXaXuXtXeXeXeXeXeXwXiX2X2XeX2X2X2X2XeX2XqX2X2X2XwXwX6XwXwXwXwXwXiXiX3XfX3X2X3X2X3XdX3X3X3X=X*X X$X$X=X3X;X=X;X3X3X*X*X*X*X*X[.3X3X*X X*X*X3X*X=X|.*X*X[.'.[.3X3X3X2X:X=X=X3X2X3X3X;X3X2X2X1X=X#X=X#X=X3X;X=X|.|.#X#X*X=X=X=X$X#X$X#XoXoX}.oXoXoX}.}.}. X}. XQ.!.Q. X#X$XOX X#X<X X}. X}.}.}.Q.Y.L.T.[. X#X*X*X$X#X$X$X<X=X#X#X|.$X$X$X;X$X;X$X$X=X=X=X=X=X$X=X*X#X X=X=X*X X=X=X=X$X*X*X=X$X=X=X$X;X=X$X=X=X=X$X*X*X-X*X-X=X=X=X=X=X$X*X*X*X-X=X=X=X=X=X=X=X X=X=X=X=X*X$X=X*X=X=X=X=X*X X=X X=X=X=X=X=X#X=X$X=X X#X=X$X$X$X$X$X X#X$X}.P.E.$XoXoX#XoX#X#X$X#X$X$X$X$XOXoXoX$X&X1X&X$X;X;X$X;X&X1X$X&X=X;X$X;X&X3X=X=X$X=X$X=X=X=X=X=X=X3X=X=X=X3X3X;X=X$X X].}.|.H.}.#X X=X XJ.G.c.u.t.y.D.J.S.J.g.J.'. XH.S.S.g.G.Y.H.Y.}.}.J.}.P.G.c.G.G.E.!.}. X X XOXOX$X1X&X1X;X1X1X1X1X1X;X;X;X;X-X;X:X;X-X;X:X-X;X;X;X-X$X;X-X%X[.#X-X;X1X1X1X,X1X<X1X,X",
"1X,X1X1X1X1X1X1X1X,X1X1X1X2X2X1X,X2XqX,X1X2X,X1X1X;X;X1X3X1X;X3X;X&X$X$X$X$X$X$X$X;X;X&X$X$X$X#X;X$X$X1X1X1X1X1X1X2X2X2X2X3X2X2X1X1X1X;X&X1X1X1X0X1X1X1X1X1XqX1X:X2X2X2XwXwXiXaXaXaXaXiXiXiXdXiXiXiXiX2XiXiX2XeXaXeXaXeXuXeXuXwXwXeX2XeXeX2XeX2XiX3X2XeXeXeX2XfXwX0XwXwXwXwXwXwX3XiXiX3X2X2XiX2X3XiX3X3X3X X*X*X2X2X;X2X2X2X;X;X*X*X3X3X3X*X3X3X3X*X*X[.*X=X=X=X|.|.*X X[.|.3X:X:X:X:X3X3X7X7X3X1X;X=X=X;X1X;X=X=X#X$X=X#X}.'.]. X|.|.$X$X#X$X$X$X#X}.oXoXoX}.}.!.E.Q.}.}.}.Q.E.!. X#XOX XOXOX#XOXoXoX X}.}.].E.Y.T.].}.[.[.#X*X$X$X$X$X#XoXoX}.#X#X$X$X$X$X$X$X=X=X=X#X=X X X=X#X=X$X*X$X=X=X=X$X=X=X$X=X3X=X=X=X=X=X=X=X=X=X=X&X=X=X&X-X$X-X$X&X*X$X-X=X%X$X-X#X=X=X$X=X=X=X=X$X=X=X X=X X#X=X X*X*X=X X=X3X*X X=X=X X$X$X$X$X=X$X X$X$X$X$XOXOX#X$X].Y.].$XoX#XoX#XOXoXOXOX#XOXoXoXoX}.oX#X$X$X;X&X1X&X;X&X&X$X$X1X&X;X;X&X;X$X=X=X$X$X=X=X=X3X3X;X1X1X;X;X3X=X=X=X=X=X X|.|.'.|.=X X'.3X Xy.J.J.G.2.>.u.S.G.H.H.'.=X2X3X=X=X$Xg.t.J.!.g.x.oXJ.P.T.Q. X@X@X$XoXOX<X$X X$X$X<X&X;X1X1X1X1X2X1X;X;X;X;X;X-X-X;X;X;X;X;X-X;X;X;X:X;X:X*X#X#X-X1X1X;X&X1X<X1X<X1X",
"1X1X,X,X1X,X1X1X1X1X1X2X1X2X1X1X2XqX,X<XqX2X2X1X1X<X1X=X1X;X;X=X1X=X<X;X=X$X&X$X$X1X1X$X&X$X$XoX;X$X$X1X2X1X1X1X1X2X2X2X2X2X3X2X1X1X1X1X1X1X1X2X1X2X1X0X1X0X2XqX2X2XwXwXuXuXiXiXiXiXiXuXiXiXiXiXiX2XiXiX2XfXfX2XuXaXaXeXuXeXwXwXuX2XeXeXeX2X2X2X2XeX3XeX3X3XiX2XwX0XeXwXwXwXwXwX2XiXdX2XdX3X2X3X3X2X3X3X=X X=X X|.'.'. X3X=X$X X3X*X*X|.[.*X:X=X*X*X*X3X3X*X*X=X=X=X*X X|.|.[.3X*X X3X*X=X=X3X3X1X1X3X=X2XeX1X|.=X|. X|.|.'.{.'.|.|.|.=X#X=X$X$X$X#XoX}.}.oX].oXQ.!.}.}.oX X X}.}.Q.}. XOXOX XoXOXOX X XOX X X].].].'.'.].[.XX*X$X#X#XoXoX|.}.#X#X#X#X$X$X$X$X$X=X X*X=X*X*X*X#X*X$X=X X=X#X=X#X$X=X=X$X=X$X$X=X=X=X=X=X=X=X=X=X=X=X=X-X=X-X$X-X$X-X*X*X*X*X=X=X=X$X=X=X$X=X$X=X3X=X=X=X=X*X=X$X*X3X=X=X=X*X X*X=X$X=X#X$X$X$X$X$X$X$XOXOXOX$X#XOXoXoXE.L.}.$X$X}.oXoX}. XoXoXoXoXoX XoX}. XoX$X$X$X$X$X$X;X<X;X;X&X1X$X$X$X$X$X$X=X#X=X*X*X=X=X3X3X;X;X3X=X=X=X$X=X=X=X#X|.|.|.'. X3X X X2X Xu.u.G.J.G.J.!. X X X X#X=X$X|.].'.].f.>.t.g.g.S.J.T.!.OX$X,X<X@XOX<X<XOXOXOX$X<X<X&X1X;X1X1X3X:X2X:X:X;X;X;X;X;X;X;X;X;X;X:X;X;X;X:X-X;X:X=XoX$X;X1X;X1X,X,X1X1X1X",
",X1X1X1X1X1X1X1X1X1X2X3X2X3X2XqX,X,X2XqX,X,X2X1X1X1X=X1X;X1X;X;X1X1X1X$X1X1X$X1X&X1X1X;X;X;X#X X&X$X$X&X1X2X2X1X1X3X2X3X2X3X1X1X1X1X1X1X1X1X1X1X1XqX1X1X1X1X1X1X:XwXwXwXuXiXuXiXiXiXiXiXiX2XiXiX2XfX2XiX2X2X2XfXeXeXeXaXaXeXwX0XwXeX2X2X2X2XeX2XeX3XeXeXeXeXeX3X0XwX0XwXwX0XwXwXiX2X2X3X3XiX3XiX3X3X3X3X=X=X3X#XY.'.'.|.$X;X=X=X*X*X3X3X=X=X=X:X*X3X*X3X*X3X:X=X2X=X*X|.|.|.[.[.[.'.{.{.[.*X3X7X=X2X1X=X3XeX2X X X|.'.|.'.'.'.].|. X|.|.=X$X$X$X#XoXoXQ.}.}.oX}.}.}.}.}.oXOX X}.}.Q.Q.}. X#XoX X X#XOXOX#XOX#X X X}.'.'.].].[.oX}.}.].}.}.}.oX#XoXoX#X$X$X$X#X#X$X=X=X X$X X X=X X#X*X=X=X X=X=X#X$X=X=X=X=X=X=X=X=X1X$X;X=X;X3X-X$X-X$X=X*X-X=X=X=X-X$X$X*X&X=X=X=X$X=X=X=X=X=X=X$X$X$X#X=X X=X*X*X*X X=X*X=X*X X=X$X=X$X$X$X$X#XOX$X$X#X#X@X#X X}.}.E.Y.Q.$XoXoX}.oXoXoXoX}.oX#X#XoX}.oXoXoX#X#X$X$X$X$X$X&X$X$X$X;X&X$X$X$X#X X#X#X#X#X$X|.$X=X$X=X=X=X=X$X$X*X#X#X=X|. X X X=X].#X3X3X*XG.u.G.J.!.Q.}.OXOX X X$X=X$X=X2X;X$X=X3X XT. XqXqX#X$X$X<XOX}.Q.}.}.OXOXOX X#X$X<X1X;X1X1X1X1X2X1X;X:X:X1X:X;X;X:X;X-X;X;X;X-X;X;X;X;X$X-X5X-XXX].-X1X,X,X1X3X,X1X,X",
",X1X,XqX,X,X1X1X2X1X1X1X1X1X1X2XqX,X,XqX,X1X1X1X1X&X1X&X1X3X1X=X&X=X1X&X$X1X$X$X1X1X1X&X1X1X$X#X$X$X$X;X1X0X2X1X3X1X1X3X3X3X2X2X1X1X1X2X1X1X1X1X1X0X1X1X1X1X1X0XwX:XuXiXiXiXiXiXiXiXiXuX2XiXiXiXeXiXeXiXfX2X2XfXeXuXuXaXuXwXwXwXeXeX2XeX2X2X2X2XeX3XeX2X3XqXeX2X0XrXwX6XwXwXwX0XiX3XiXfX3XdXdX2X3X2X1X1X=X=X2X X'.|.=X=X=X=X$X3X:X3X3X*X*X3X*X*X*X=X:X=X:X=X3X3X*X*X*X*X*X=X*X|.[. X X'.'.'.*X3X2X2X=X|.#X3X2X|.|.|.[.|.].'.|. X|.|.$X=X$X=X|.#X}.}.}.oXoX}.}.}.Q.}.}. XoXoXoXoX}.}.Q.}. X#XoX}.}.}.OXOXOX#X$X$X#X#X X|.[.].].[.].E.].].}.oX#X}.}.#X#X$X$X$X$X#X=X=X=X=X#X*X#X=X=X X=X*X=X X=X=X*X*X=X=X=X=X=X;X=X=X=X$X$X=X3X=X-X$X=X=X-X$X=X=X-X=X*X-X$X*X$X-X X=X=X3X$X=X#X=X=X=X=X X=X=X#X=X=X*X*X3X*X=X=X=X=X*X$X#X$X$X$X#XOX$X$X#X$XOXOXOXoX}.Q.}.E.oX$XoXoX XoXoXoXoXoX XoXoXoXoX}.oX#XoX#X#X#X#X#X$X#X$X$X$X$X$X$X#XoX}.*X X*X X*X#X|.=X#X=X=X|.$X|.$X|.=X|.$X#X|. X].}.3X}. X=X#XJ.y.J. XOX!.!.Q. X$X$X}.#X$X$X-X2XeX2X2X=X$X=X=X$X X#X1X3X&XOX}. X+X<XOXOXOX XOX<X1X1X1X1X;X;X:X;X:X:X;X6X:X2X:X;X:X;X:X;X;X;X;X;X;X-X;X%X-X6X-X|.[.$X1X1X1X,X,X1X<X1X",
"1X1X,X1X1XqX1X1X1X1X1X1X2X2X1X3X1X1X1X2XqX1X1X1X1X1X;X1X;X1X1X1X&X1X<X;X1X&X1X;X&X1X1X1X1X1X&XoXoX$X$X&X1X1X0X2X2X1X2X1X2X2X2X1X1X0X0X1X1X1X1X1X1X1X1X1X1X0X2X2XuXwXuXuXiXaXiXuXiXiXiXuXaX2X2XiXiXeXiX2X2XfX2XfXeXeXaXrXuXeXwXwX2X3XqX2X2XxX2X2XiX3X2XeXeXeX2XeXwXwXwXwXwXwXwXwX3XiX3X2X2X3X3X3X3X2X1X2X=X;X2XH.}.|.;X=X#X#X$X=X3X*X*X*X3X3X3X*X*X=X:X3X=X:X:X=X=X=X=X*X*X*X*X X3X*X*X*X[.[.|.*X#X;X;X;X1X1X=X'.*X X|. X|.'.|.|.=X=X#X=X=X$X X#X#X}.oX}. XoX}.E.}. XQ.}. X X}.}.OX}.}. XOX#XOX XQ.}. X}. XOX X$X#X$X#X$X#XXX].{.T.T.T.].}.#X}.].}.}.}.oX#X#X$X#X=X=X*X*X$X*X*X#X=X*X X=X*X=X=X=X=X#X X=X=X=X=X3X1X=X1X;X1X=X=X;X=X-X-X=X=X-X*X&X&X*X*X$X*X$X=X-X=X=X=X=X$X=X=X$X=X=X=X*X X=X$X=X=X X*X*X X=X X X#X=X$X$X$X#X$X$XOX$X$XOXOX#X#X#XoX].}.oX X#X$XoX#XoXoX#XoXoXoX#X X}.}.}.}.oXoXoX XoXoX X#X#X#X#X$X$X$X$X$X#X#X}.#X*X X=X*X#X*X|.#X#X#X=X$X=X|.=X|.|.|.|.|.].].'.|.|.3X XJ.H.J.=XJ.J.T.!.}.$X<X$X#X$X=X|. X|.#X X1X$XOX1X1X XOX<XOX<X@XOXoXOXOX,X X}. XOX$X<X1X1X;X1X1X2X:X:X:X-X;X0X0X;X;X:X;X;X-X;X;X;X;X;X;X;X:X-X;X;X;X$XoXoX1X1X,X1X1X,X1X,X",
"1X,X,X1X1X1X1X1X2X,X2X3X3X2X2XqX1X1X1X1XqX2X,X1X1X1X&X1X1X1X;X;X&X;X;X;X;X1X1X&X&X1X1X;X;X1X#X}.Q.#X$X$X$X<X0X1X2X1X1X2X2X1X2X3X1X1X1X1X1X1X1X&X1X1X1X,X1X1X0X2XwXwXwXuXuXuXeXiXiXiXiXwX2XaX2XaXiXeXiXeXfX2XfX2XeXeXuXuXeXeXwX0XeX3X2XeX2XqX2XxX2XeX2XiXeX2X2X2XwX5XwXwX0XwXwXwX3XiX2X3X3XdX2X2X1X;X1X2X=X2X2XG.|.$X;X3X=X3X2X3X*X*X*X*X=X:X:X*X*X*X3X:X2X:X:X:X3X2X=X:X*X3X3X3X[.|.3X[.3X|.|.[.'. X3X2X2X=X|.[.#X$X#X|.].'.].|.$X=X=X#X=X|.#X|.}.}.}.oXoXoX}.}.OX}.Q.}.}.}.Q.}. XoX}.oX XoXoXOX X X XoXoX}. X$X$X#X|.*X#X#X].{.].T.E.E.}.}.].E.].].].}.}.oX#X$X=X#X#X#X X*X|.#X#X*X=X$X$X=X=X=X#X X=X$X=X3X=X=X=X3X=X3X;X3X1X=X-X$X-X$X=X&X=X=X*X=X$X-X-X*X-X=X=X=X=X=X=X=X X=X=X=X=X$X*X$X*X=X=X*X=X=X=X=X=X*X=X=X#X$X#X$X$X$X$X#X$XOX#X X#XoX$XE.].}.}.oX$XOX#X#X#XoX|.#X#X}.oX}.}.].oXoX|.}.#XoX#X#XOX X#X#X#X$X$X=X$X$XoX X*X X=X#X X*X X|. X X|.|.#X#X|.$X|.=X|.|.].|.|.|.'.=X=X{.'.].'. XJ.T.!. XOX X}.T.|. X$X=X=X=X;X1X X<XOX X X$X$X#X X XoXoXOXoX X(.OX XOX#X&X1X1X&X2X2X:X2X:X:X:X:X:X0XwX:X;X;X;X-X-X;X;X;X;X;X;X;X:X;X%X-X;X;X$XXX1X1X1X,X1X<X<X1X",
"1X1X1X1X,X,X1X1X1X1X1X1X1X1X2X3XqX1XqX2X,X2X1X1X1X1X1X;X1X1X1X&X1X;X<X1X&X1X1X1X1X1X1X&X;X;X XE.E.#X<X&X$X&X1X0X1X2X2X2X1X2X1X2X&X1X1X1X1X,X1X&X<X<X1X1X1X0XwXqX:X2X2X2XwXwXwXuXuXwXiXiXaXdXfXfXeXfXeXeXeXfX2XfXaXuXtXwXeXwXeXwXeX2XeX2XqX2X2X2XeX3XeX3XqXeXeX2XwXwXwX0XrXwXwXwXdX3XiXiX2X3X2X2X2X;X3X2X$X2X2Xy.|. X|.|.#X=X=X#X*X*X3X3X*X3X=X*X3X*X3X3X3X3X=X:X3X2X=X3X3X*X*X*X3X|.'.[.|.*X*X3X}.}.].'.'.'. X=X|.|.|.|.}.'.|.|. X#X#X*X#X#XoXoX#XoX}.oXoXoX}.}.OXOX X}.}.}.}.!.(. X}.}.}. X XoX#X@X$XOX X X X#X#X#X|.#X#XXX[.].}.].'.].}.}.].].T.E.T.].]. XOX#X|.#X#X X X X X X=X X#X=X=X#X$X X$X*X=X=X=X=X3X=X=X;X1X=X=X=X1X=X*X=X=X=X-X*X-X$X-X=X*X$X$X*X$X-X$X=X=X$X=X=X3X=X3X=X=X=X X=X=X X=X*X*X=X X*X*X=X X=X#X X X$X$X$X$X$XOX#XOXOXoXoXoXE.T.E.E.oX$XoX#XoX X#XoX}.}.}.#X}.oXoX#X$X#X|.$X#X$X#X#X#X#X#X$X$X$X&X$X$X#XoX=X$X=X=X=X X X|.'.[.|.|. X|.|.|.#X|.|. X|. X X#X$X$X XJ. X XS.r.J.P.!.}.}.'.}.#X}. X#X#X#X#X$X=X=X<X3X$X$X$XOX}.OXOX(. XOX@XOX X$X$X$X$X1X1X1X;X3X1X2X:X:X:X:X:X:X;X2X:X:X:X;X;X;X;X:X*X-X:X;X;X;X-X-X%X;X:X$X[.1X<X,X1X<X1X3X,X",
"1X1X1XqX1X1X1X1X1X,X2X2X2X1X2X2X1X1X2X1X1X1X1X1X1XqX2X1X1X;X,X1X;X,X1X;X1X;X1X1X1X0X&X&X0X#XY.T.oXoXoXoX&X0X1X&XqX1X1X1X1X3X1X2X1X1X1X1X,X1X&X;X1X$X&X;X1X1X0XwXwXuXuXuXiXiXiXiXgX2X2X2XgX2XaX2XeXeXaXiXaXeXeXeXeXeXwXwXwXeXwXuXeXeXeXeXeX2X2X2XqXeX2X2X2XeX2XeX0X0XwXwXwXeXwXwX2X2X2X2X2X2X3X2X2X2X2X2X=X2X2XS.'.'.}. X*X3X=X=X=X=X*X:X*X3X:X=X=X:X:X3X2X:X2X2X:X=X:X3X3X:X=X=X3X[.[.3X*X*X3X[.|.|.|.|.].|.|.=X#X|.$X|.'.H.'.|.*X X X=X*X X|. X|.oXoX}.oX].}.oX X}.}.}.}.].}.}.Q. XOX X}.Q.}.OX X X}.}. XOX X#X X|.oX#XXX[.[.].}.].].].].}.}.].}.].Y.T.}.#X#X}.|.*X X*X X#X X#X=X X*X X X=X#X=X$X=X*X=X=X=X=X3X=X=X=X=X;X3X;X=X=X-X&X=X;X=X-X=X*X=X$X=X*X&X=X-X=X$X=X=X3X X=X=X$X$X=X=X=X X=X=X=X*X=X=X X=X X=X=X=X#X$X$X$X$X#XoXoX#X$X#XoXoXoX}.}.E.}. XoXoXoX$X$X#X XoX|. X#X#X}.#X X#X X#X|.#X$X#XoX#XoXoX XoX#X#X#X$X$X$X#X X*X=X=X=X|.|.|. X].'.'.].*X|.].*X].].|.'. X=X X3XJ.J. X*XJ.G.J.x.T.Q.!.}.}.}. X$X$X$X-X-X;X;X;X$X$X$XOX#X XOX XoXOX XoXoXoXOXOXoX$X1X1X1X;X;X1X0X2X:X2X:X:X:X:X:X1X;X;X;X;X;X-X-X;X;X:X;X2X6X;X-X-X-X$X=X;X-X$X<X;X&X&X&X&X<X1X",
",XqX1X,XqX1X1X1XqX1X1X1X1X2XqX2X1X1X,XqX1X1X1X,X1X1X1X,X1X&X&X&X1X;X<X;X&X1X1X&X;X1X&X;X1X#XL.Y.}.oX$XOX$X&X<X&X1X1X1X1X1X1X1X2X1X0X1X1X,X1X;X;X1X1X&X$X&X1X1X1X:X:XwXuXuXwXwXuX2X2XgX2X2XgXaXdXeXeXiXiXuXeXeXwXuXwXwXeXwXuXeXwX3XeXiX3XqXqXeX3X2X2XeX3XeX3XeX2X0X6XwXrXwXwXwX:X2X2X2X2X3X2X2X3X2X3X2X1X3X2X$XJ.].].|.|.$X=X=X$X3X:X:X:X:X=X3X3X:X3X=X3X:X3X3X2X3X3X:X3X:X=X:X=X*X*X3X*X*X*X[.3X|. X X|.|.|.|.$X#X#X=X|.|.'.|.$X*X*X X$X#X].].|.|.oX|.oXoXoXoXoX X}.}.Q.Q.Q.!.}.}. XOXOX X X X XOX XQ.oX}.OXOX XoXoX|.|.XX.X].].E.].E.].}.}.}.}.}.].E.].oX#X#XoX X*X*X X X*X*X X=X=X#X=X*X X=X#X*X=X X$X$X$X=X=X1X=X;X3X$X=X=X=X-X=X=X-X;X-X=X;X-X=X-X$X-X=X=X$X X=X$X$X=X=X=X=X$X=X=X=X$X=X=X=X=X=X=X=X=X*X=X X$X$X$X$X$X$X#XOXoX#XOXOXoX#X}.oX}.E.E.}.}.#X$X#X X X#X#X$X#X#X$X#X#XoX#XoX$X$X$X$X#X$X#X$X#X#X#X#X#X#X#X#X$X#X#X=X*X*X#X|.|.|. X|.].'.'.|. X|.|. X|.|.=X|.|.|.|.=X*X[.J.J.J.J.J.g.J.T.T.!.}.}.oX$X$X*X*X=X=X-X;X$X3X=X$X#X X XoX$X$X@X$X<XOXoXOX#X$X;X1X1X1X:X;X:X:X2X:X:X:X:X*X:X;X6X;X6X;X;X-X-X;X;X2X6X;X;X;X-X:X;X-X$X;X-X$X&X;X1X&X<X&X1X,X",
"1XqX1XqX1X,X1X,X1X1X1X2X2XqX2X2X2X1X2X3X1X1X1X1X1X;X,X1X&X1X<X&X;X&X1X1X1X1X1X&X<X1X$X&X2X$XE.L.T.Q.&X&XOXOX&X&X1X1X1X1X1X1X1X1X1X1X1X1X1X;X<X&X$X1X&X1X1X&X1X<X:X2XwXuXwXwXwXwX2XfX2X2XdXaXaXfXeXiXeXiXeXuXuXwXrXuXwXuXeXwXwXwX2XiXeX3XqX2X2X2X3X2X3X2X2XeXeX2XwXwXwXwXwX0XwX2X2X2X2X2X2X2X3X2X1X1X3X2X=X2XH.H.|. X|.|.$X=X=X=X3X*X:X3X2X3X3X:X=X3X:X3X3X2X2X3X*X:X=X:X3X=X=X=X*X3X*X3X3X*X*X3X*X X|.|.|.#X*X#X*X#X=X|.}.'.|.|.$X=X=X=X|.].'.}.}.oX}.oX}.}.oXoX X}.}.}.}.}.}. XoX X#X#XOXOXoX X X(.}. X}.oX X}.oX}.|.|.[.].[.{.T.T.T.].}.oX X#XoX}.].}.}.#X#X#X=X*X#X#X*X#X=X=X*X$X#X#X*X$X=X=X X=X#X=X$X=X=X=X$X3X;X=X=X=X;X$X=X;X-X$X$X;X=X-X-X;X-X;X-X=X;X=X=X=X=X=X=X=X=X$X=X=X=X X=X X=X#X*X=X=X=X*X3X*X3X=X$X$X$X$X$X#X$X#X$XoX#XoXoXoX}.E.'.E.Q.oXoXOX$X#X#X*X=X$X#X$X|.#X#X|.|.|.#X#X=XOX$X#X$X$X#X#X#X#X#X#XoXOXoX#X#X=X#X X|.|.].[.[.|.].'.'.|.|. X|.|.|.*X|.}.|. X|.J.H. X X[.J.S.u.g.T.}.}.oX XoX$X$X$X=X$X-X;X&X-X1X$X3X$X$X XOX#XOX$X,X<X,XOXoXoX&X<X1X1X1X1X2X;X:X:X:X:X:X:X*X:X;X;X:X;X;X;X;X;X;X:X;X;X1X;X;X;X-X;X;X-X-X;X-X$X&X&X;X;X<X,X<X1X",
"1X,X1X1X1XqX1X1XqX2X2X2X2X2X2X2X2X2X1X2X<X1X1X<X1X1X<X<X,X;X&X&X1X1X1X&X&X;X,X;X1X1X;X1X2X<X}.T.L.E.oX$XOXOX$X$X,X,X1X1X1X1X1X<X1X1X1X1X1X1X;X1X&X;X;X1X1X1X1X,X:X2XwXwX2XwX2XuX2XgX2XgX2XdX2X2XeXeXeXeXuXeXeXeXuXwXeXeXwXeXwXwX2X3XeX2X2X2X1X3X1X3X2X2X2X2XeXeXwXwXrX6XwXwX:X0X2X2X2X2X2X2X3X3X1X3X1X2X=XiXy.'.=X$X|.|.#X=X$X$X3X*X3X3X3X3X:X:X:X=X:X:X:X3X:X:X3X=X3X:X=X:X:X:X:X:X3X*X*X3X*X[.#X#X*X|. X|.|.=X#X X|.|.|.'.|.|. X*X=X#X}.'.].}.}.|.oXoXoXoX#X#XoX X}.Q.}. XOX@XQ.}. XOX$X$X#XOXoX X}.}.}.}.}.}.|.|.|.|.[.].].].].].].].oX#X#X#X#X$X#X#X}.}.}.}.|.=X|.#X|.*X#X=X=X$X=X*X X=X X*X=X=X$X=X#X=X$X=X=X=X$X=X=X=X;X3X-X=X;X;X-X=X-X=X-X$X=X=X;X-X=X-X=X=X=X=X$X=X=X=X=X#X$X=X=X=X=X=X=X=X=X=X*X X*X*X=X=X$X#X$X$X$X#X#XOX#XoX XoX}.oXE.E.'.}.]. XoXoX=X=X|. X|.#X#X=X=X$X|.|.|.|.|.|. X#X#X$X$X$X#XoX$X$X}.oX}. X}.#X]. X].].'.].].|.|.].].].|.#X#X|.|.|. X X'. X#X].'.'.'.[.J.S.G.'.J.}.#XOXoXoX#X;X;X&X-X-X-X=X-X=X$X$X<X1X=XOX XOX}. XOXOX$X$X@X$X;X1X1X0X2X1X;X;X:X:X;X:X:X:X:X:X:X;X;X;X;X;X;X-X;X:X0X1X1X:X6X;X;X;X;X-X=X;X*X#X$X$X&X<X;X1X<X<X",
",X1XqX,X1X1X1X1X1X1X1X2X2X2X2X1XqX2X1X1X2X<X1X1X1X&X1X<X&X,X,X1X1X1X;X1X1X1X&X1X1X1X1X1X1X1X#XE.J.L.E. XOXOX$X$X&X&X&X1X0X1X1X1X1X1X1X1X1X1X1X1X1X;X1X1X2X1X0X1X:X2X2XuXuX2XwXuX2X2XgX2X2X2XdX2X2XiXeXiXwXeXeXwXeXeXeXwXeXwXwXwXqX3XqX3X2X2X3X2X2X2X3XeX2XeXeX2XrX0XwXwXwXwX6X2X2X2X2X2X2X2X3X2X;X2X3X2X1XeXr. X=X#X X*X#X=X=X3X=X=X3X2X7X2X2X:X:X:X3X3X:X:X3X=X3X3X2X3X:X3X2X2X:X3X3X=X*X*X*X X#X#X X|.|.|.*X#X X|.*X X}.'.].|.|.$X*X X].'.]. X}.}.oXoX}.oXoXoX XQ.}.Q.}.}.}.}.Q.].}.OX$X<X<X$XOX XoX}.}.}. X}.|.}.}.].].].].{.}.}.}.oX$X$X$X$X#X$X#X#X}.].}.}. X|.|.|.|. X|.*X X*X=X$X$X X=X=X=X$X*X$X=X=X=X=X$X;X3X=X;X;X=X=X$X-X;X=X=X=X=X-X;X=X-X-X-X=X;X$X=X=X=X=X=X=X=X$X X*X=X=X=X=X$X=X=X=X*X X$X=X=X#X$X=X#X$X$X$X#X$XOXoXoXoX XOX X}.].E.E.].E.Q.}.}.|.=X|.#X$X|.*X$X$X|.|. X}.|.].}.[.oX|.oXoX#XoX#X#XoX].].].}.}.|.].].].[. X[.[. X|.].[.|. X#X#X|.=X|.#X#X*X=X XJ.'.=X XH.G.J.J.G.G.}.oXoXoXoX|.$X&X;X=X=X;X-X-X$X1X$X<X1X$X#XOX#X}.}.oXOX$X$X&X,X1X1X0X:X;X;X:X:X;X:X:X;X-X:X-X:X:X;X:X-X;X;X;X;X:X;X:X6X0X;X6X;X-X;X;X-X-X;X$XoXoX$X&X,X,X<X&X<X",
"qX1X1X1XqX1X1X1X1X1X2X1X2X2X1X2X2X2X1X1X<X2X1X<X1X1X,X1X,X&X&X,X&X;X&X,X;X1X1X1X1X=X1X1X$X1X$XQ.L.L.L.E.OX$X$X$X$X&X;X1X1X1X<X1X,X1X1X0X1X1X1X1X1X&X1X1X1X1X2X0XwX2XuXwXuXwXuX2XnX2X2X2XnX2X2X2X2XwXwXeXiXwXuXwXeXuXeXeXuXwXwXwX2XeX2X2X2X3X2XqX2XqXqX2XeX2XeX2XrXwXwXwXwX6XwX0X2X2X2X2X2X2X2X3X3X2X1X2X1X2XG.#X=X#X#X#X X=X=X=X:X:X:X3X2X3X2X3X3X:X:X:X:X2X3X:X3X7X:X2X3X2X2X:X2X2X3X:X*X3X*X3X*X X*X X*X#X X#X|.|.|.|.|.'.].|.|.#X#X|.].|.|.oX].oX}.oX}.}.oX X XOX}.}.!.!.!.T.!.]. X XOX$X$X$XOXOX X}.Q.}.}.}.}.].'.].'.[.[.[.#X#X#X#X$X$X$X#XOX#X#XOX#XoXoX#X X[.].].]. X#X#X=X=X X*X*X$X=X=X X*X=X X$X=X=X=X=X=X=X=X$X3X;X=X;X=X=X-X-X;X-X=X=X;X;X;X=X;X-X;X3X=X=X=X=X X#X=X=X=X$X=X=X$X X=X=X*X=X=X=X#X=X*X=X$X$X$X$X$X$X#XOX X}.#XOX#XoXE.E.E.].E.E.].E.].'.[.#X;X;X=X$X|.|.|.|.|.|.|.|.|.].}.}.oX X}.}.}.oX}.].].].].}.|.]. X X X|.*X X#X|.|.|. X*X#X*X#X X|.$X-X=X=X'.y. X[.[.'.J.J.y.y.L.}.}.E.}.oX#X;X;X-X-X;X&X;X-X=X1X<X<X1X1X X XOX#XOXOXOX@X,X<X,X1X1X2X2X;X:X;X:X;X:X:X:X-X:X:X:X;X-X-X;X;X;X;X;X;X:X2X1X:X6X;X;X-X;X5X;X;X;X$XXX#X$X$X,X1X&X1X&X",
",X1XqXqX1XqX1X1X1X1X1X1X1X1X<X2X2X3X2X3X1X3X1X1X,X1X,X&X&X&X&X<X&X;X;X;X<X1X1X1X1X&X2X2X$X&X1X}.T.L.L.E.oXoXOX$X$X&X&X1X1X1X1X1X1X1X1X1X0X1X1X1X1X1X1X<X1X1X2X0X:XwXwXuXuX2X2XwX2X2X2X2X2X2X2X2XeXwXwXwXwXeXwXeXeXeXuXaXeXwX0X0X2XeX3X2X3X3X2X3X2X3X2X2X3X3XqXfXwX0XwX6X0XwXwXwXfX2X2X2X2X2XnXfX2X2X2X2X2X3X].$X$X*X|.#X*X=X=X=X=X:X3X:X3X:X:X3X3X3X:X3X3X:X2X:X2X3X2X:X3X:X3X=X:X:X3X:X3X*X|.*X*X*X*X*X X|.#X#X|. X|.#X|.].|.|.|.|.#X|.].[.}.].}.}.oX}.E.}.}.}.}.}.}.Q.Q.E.T.T.}. XOX$XOXOX$X<X<XOX XQ.}.}. X}.].].].'.].[.oX#X$X#X#X$X$X$X$XOX#X#X#X#X$X#X#X#X[.].].].].|.|.#X=X X=X=X=X$X=X=X|.|. X|.|.=X=X=X3X;X1X=X;X=X$X3X=X-X-X=X;X$X-X&X-X;X=X;X-X;X-X;X=X=X=X$X=X=X=X X=X=X=X=X=X$X=X=X:X=X*X=X=X X=X#X$X=X$X#X$X$X$X#X$XOXoX#X#XOXQ.T.T.E.Q.}.}.}.}.}.'.|.#X#X*X|.|.].].].|.|.|.|. X|.}.].].}.].oX}.}.}.].].].].}. X#X|.|.#X#X#X|.#X#X|.]. X|.#X X|.|.|.|.#X=X=X3X].y.3XJ.S.S.y./ y.T.}.#XoX}.#X&X&X;X;X&X;X-X-X-X-X;X;X$X3X1X1X#X X$XOX<X$X<X<X,X<X1X1X1X0X:X;X:X:X;X:X:X:X-X-X:X-X-X-X;X;X;X-X;X-X;X0X:X:X2X:X;X;X;X-X5X;X-X;X;X$X|.#X$X&X1X,X<X<X<X",
"1X1X,X1X1X,X1X1X<X1X1X1X1X2X2X2X2X2X3X3X3X1X1X1X1X&X&X1X&X&X@X$X&X$X;X;X1X1X1X1X1X<XqX2X$X;X2X$XQ.T.Y.Q.oXoXOX&XOX$X&X&X,X1X1X1X1X1X1X1X0X1X1X1X0X1X1X;X1X;X;X;X2X2XuXwXwXuX2XwXnX2X2X2X2X2XgX2X2XwXeXwXeXwXeXwXwXuXeXuXeXwXwX6XeX3X2X2X2X2X2X2X2XqX2XqX2XeX2X2XrX0X6X0XwX0XwXuX2X2X2XfX2X2X2X2X2XiX2X1XeX3X$X$X|.|.|.#X=X=X3X=X=X=X=X:X=X:X:X2X2X3X=X:X:X3X3X=X:X=X:X3X3X=X:X=X=X=X3X*X*X[.3X*X#X X X|.#X|.|.|.#X X#X#X|.|.].#X|. X|.}.].}.oX].].}.E.}.}.E.E.}.Q.}. XoX X}.}.!.}.OX$XOX#X X$X<X<X#X X}.}.}.}.OX].].E.'.{.[.#X*X#XOX#X#X$X=X$X$X$X$X$X$X$X$X#X#X X[.'.].].[. X X=X=X=X$X#X*X*X;X|.|. X|.$X$X$X$X=X=X=X=X$X=X=X;X-X=X;X=X;X-X=X=X;X=X;X-X=X;X;X=X3X=X3X=X$X=X*X=X$X=X X=X$X=X*X=X X=X=X=X=X=X=X|.=X=X$X$X$X$X#X$X$X$XoX$X#XoXE.Y.Y.E.}.oX}.}.}.oX X X].'.'.'.'.'.|.|.|. X#X|.|.|.].}.}.[.oX}.}.].].}.].}.}.oX|.=X|.#X|.|.|.|.|. X].].].[.|. X*X|. X X$X=X3X2X=X'.J.G.J.J.c.c.G.T.#X$X#X}.#X$X$X&X-X$X;X-X;X;X;X;X;XOX$X2X<X XoX#XOX$X<X1X1X<X;X&X;X;X:X;X;X;X:X-X;X-X*X:X:X-X-X:X-X;X-X;X;X;X;X;X;X:X2X0X:X0X;X;X-X;X:X-X-X;X$XoX$X;X1X1X1X1X1X1X",
"1XqX1X1X0X1X1X2X1X1X1X1X1X1X1X1X3X2X;X1X1X=X&X1X1X1X,X<X,X,X,X&X=X=X:X=X3X3X2X2X2X2X3X3X2X3X=X=X[.'.{.'.}. X$X=X;X#X;X1XOX&X2X&X1X1X0X0X1X1X1X1X,X1X1X0X1X$X&XqX1X2X2XeX2X2XeX2X2XiX3XdX2XiXdX2XuX6XwXuX2XuXwXuXuXuXuXuXuX2X2XdXiXiX2X2X2X3X2X3X2X2X3XfX2XfX2XfXuXwXuXwXwXuX6XuXdX2XnX2X2XdX2X2X2X2X3X2XdX7X3X|.3X[.[.3X3X3X=X3X3X=X=X=X=X3X3X3X2X1X1X3X2X;X3X2X=X=X=X$X=X$X#X X=X3X=X1X=X$X$X X*X#X X#X X|.|.|. X#X#X|.'.'. X*X#X X X}.}.E.!.}.}.}.Q.}.Q.}.Q.}.}.}.}.oX}.oX XoXoX X#X#X$X$X$X&X$X-X*XoX].].].XX].].].{.Y.].oX&X#X$X$X$X$X$X#X#X$X#X#X#X#X$X=X$X-X}.].}.].E.].#X#X#X#X#X#X#X$X1XXX].].{.].#X#XoX#X%X*X*X-X$X$X$X-X-X-X=X%X-X;X;X-X;X-X&X-X-X-X;X=X=X-X;X$X*X*X=X*X$X*X$X*X$X$X*X$X$X=X=X=X=X$X#X X=X*X=X X=X#X$X#X$X$X#X}.}.].}.}.}.}.}.|.}.|.|.|. X].'.H.T.'.|.|.|.|.|.|.|.|.|.oX|.}.oX}.].oX].].oX].oX].|.oX$X X#X X*X|.].|.|.|.}.|.|. X[. X=X*X X X3X X'.!.!. XS.c.G.u.y.J.Q.$X X|.#X=X=X3X=X;X=X=X;X=X;X=X=X$X<X1X1X$X}.|. X=X=X;X1X:X:X:X;X2X1X1X1X$X;X;X=X1X;X;X;X;X;X;X;X;X;X;X;X;X-X:X;X;X;X:X;X;X:X;X;X-X-X-X;X;X;X;X$X;X;X2X;X1X3X1X1X",
"1X1X1X1X1X1X1X1X1X1X1X1X1X0X1X1X2X1X2X2X3X1X1X$X&X,X&X&X$X$X$X$X=X=X;X;X2X2X2X2X2X2X2X2X3X3X=X*X*X X'.'.'.'.[.oX}.}.oX$X$X,X1X1X1X1X1X1X0X1X1X1X0X1X1X2X1X;X1X0X1X1X2X2XeX2X2X2X2XiXiX3X3XiX3XfXwXuXwXwXuXwXuXwXwXuXwXwXuXdX2X2X3X2XdX3X2X3XiX2X2X2X2X3X2X2X2X2XwXuX6XuXuXwXuXwX2X:X:X2X:X2X:X2X2X2XdX2X3X3X[.[.[.3X X X[. X*X3X3X=X=X=X*X=X:X3X;X1X;X=X=X=X=X=X$X$X$X X X#X#X#XOX$X3X1X3XOX$X X|.#X|.*X|.|.|.|.|.#X|.|.].'.|.oX}.}.!.E.}.}.}.E.!.Q.].!.}.!.}.Q.}.Q.}.}.oXoXoXoX#XOXOXoXoXOX$X$X$X$X-XoX].].].].].R.].R.].[.oX#X#X#X$X$X$X$X$X#X#X$XoX#X#XOX#X#X$X#XoX X].Y.T.#X].oX#XoXoX$X$X#X$X$XoX[.oX%X*X#X#X#X$X$X=X%X-X&X;X-X-X$X-X-X-X-X-X$X-X;X;X-X-X-X=X;X=X;X=X$X*X$X*X=X*X=X*X-X=X-X*X$X$X*X=X=X=X=X#X*X X=X*X#X$X#X#X#XOXOX}.Q.].}.}.].}.].|. X[.}.|.'.H.H.{.'.|.|.].|.|.|. X|.|.|.}.}.}.].}.].].}.].].oX].}.oXoX#X*X#X#X X|.|.|.|.|.|.|.|.[.].|.*X3X X3X X'.J.!. XJ.S.u.u.t.c.E. X$X#X#X#X=X=X=X=X=X1X3X=X;X=X1X=X=X1X<X$X#X|.#X$X#X=X;X;X:X:X:X:X2X1X1X;X1X=X1X;X;X;X;X<X;X;X&X1X;X;X;X;X;X:X;X:X;X:X;X;X;X-X;X;X:X;X-X:X;X;X*X*X;X;X3X1X2X1X1X1X",
"1X1XqX2X1XqX1XqX1X0X1X0X1X1X1X1X1X1X1X3X1X1X1X1X,X;X&X&XOXOXOX#X=X;X;X2X3X2X2X2X2X2X2X2X2X2X3X:X3X*X X'.'.'.E.}.].].E.E.&X,X,X1X1X1X1X1X1X1X1X1X0X;X&X<X1X&X<X2X2X1XqXqX2X2X1X2X2X2XfX3XiXiX3X3XuXwXwXuXwXuXwXuXuXwXwXuX2XuX2X2XfX3X3X2X2X2X2X2X2X3X2XiX2XfX2X2XuXwXuXwX6XuXuXuXdX:X:X:X:X:X:X:X3XdX7X3X3X3X[.3X|.3X[.[.{.[.|.=X=X=X=X=X=X=X=X3X1X3X=X*X$X#X X|.#X|. X X X|.|.$X X=X;X1X=X=X=X$X X|.|.|.|.|. X|. X|.|.|.'.].].}.'.T.T.!.}. X}.E.Q.}.Q.}.!.E.}.}.E.oX}.oXoXoXOX$X$XoXOXoXoXoX#XoX#X$X-X$XoX].].].{.E.].].XXoX#X#X#X$XOX$X$X$X$X#X#XoX#X X XoX}.oX#X#X$X$XE.Y.T.oX}.}.}.}.#X#X#XOX$X%X#X[.[.oX%X#XXX#XoX%X$X$X-X&X-X-X;X-X&X-X;X-X-X;X-X&X$X;X-X&X-X-X;X=X=X-X%X*X=X#X*X$X$X%X=X$X=X=X=X$X=X X=X=X=X$X*X#X*X$X X=XoXOXoX}.Q.E.}.].}.}.|.].|.].}.[.|.'.H.H.'.|.|.'.]. X|.|.|.|.|.|.oX].].oX].oX].}.oX].oX}.].}.#X#X*X X#X X X|.|.|.#X|.|.|.].].].*X3X X X XJ.J. X XS.S.u.c.!.Q.}.OX$X|.|.$X=X3X=X=X=X;X;X;X3X;X;X=X1X<X#X X}.#X$X;X=X;X-X:X:X:X:X;X2X1X1X;X$X;X;X;X=X;X;X;X=X;X;X=X;X;X;X;X;X;X;X;X;X;X:X;X;X:X;X:X;X-X;X-X;X;X-X=X;X;X3X1X2X1X3X1X",
"1XqX1X1X1X1X1X0X1X1X,X1X1X1X1X1X1X2X1X2X;X1X=X1X,X1X,X&X&X&X@X$X1X3X3X2X2X2X2X3X2X2X2X2X2X2X3X:X3X=X*X X}.}.}.}.E.].Y.T.&X,X$X<X1X1X1X1X1X1X1X1X1X$X#X$X;X&X1X1X2X1X2X2X2X2X2X1X2X2X3XiX3XdXdXiXwXuXuX6XuXwXwXuXwXuXuXuX2XuXdX2XiXdXfX2X2X2X3XiX2X2X2X2X2X2XnX2XuX2XwX6XuX2X:XuXuX2XdX2X2X2X2X2X2X3X3X3X7X7X3X3X|.|.3X3X X'.3X3X=X3X=X=X=X=X=X:X2X;X|. X#X*X#X X#X$X|.#X#X#X|.|. X$X3X2X3X=X$X=X#X#X#X|.|.|.|.|.|.|.|.|.|.}.|.}.}.E.!.}.}.}.!.T.}.}. XQ. X XoX XQ.}.}.oX#X#XOX$X$X$X#X#XoXoX XoXoX#X&X%XXX].R.].].R.Y.[.oX-X$X#X$X#X#X$X#X$XOX#X#X#X#X#X XoX}.oXoX$X$X$X}.T.].#X$X}.].$X$X}.].#X[.oX].Y.Y.].XXoX#X#XoX[.#X$X$X;X;X-X&X=X*X=X&X-X-X;X-X-X-X-X-X;X;X=X$X-X*X$X*X=X*X$X*X=X*X*X*X*X$X=X|.=X=X$X#X$X X*X X=X X#X=X#X#XoX}.}.E.].}.}.}.].}.|.|.].|.|.].'.H.'.|.|. X|.|.].|.|.|.|.|.}.].}.}.].].].oX].].}.].}.}.|.oX#X*X*X#X X|.|.|.|.#X#X|.|.|.]. X X*X X3X=X XJ.J.J.S.J.J.J.@X,X}.}.#X|.$X=X=X=X1X;X;X;X3X=X=X1X=X;X1X$X#X#X#X&X3X1X;X;X-X:X:X;X:X:X1X1X1X3X=X1X;X;X1X=X3X=X;X=X;X-X:X;X;X;X;X-X;X;X;X;X-X;X;X;X-X;X5X:X;X;X;X;X-X=X;X2X2X;X1X3X1X2X",
"2X1X1X0X2X1X0X1X1X1X1X1X1X1X1X1X2X1X3X2X1X1X;X;X;X1X<X&X1X<X1X<X3X2X2X2X2X2X2X3X:X3X7X2X2X2X:X:X2X3X=X=X$X$X#X}.].}.L.Y.$X&X$X&X1X;X1X1X1X1X1X1X1X#X X$X;X;X=X;X,X2XqX2X2X2X1X2X3X2X2X2XiX2XdX3XuXwXuXwXwXuXwXuXuXuXwXuXdX2X2XdX2X3X2X2XiX2XiX2XiXiX3XiX2X2XnX2X:XwX2XuXwX2XuXwX:XuX:XuX7X2XdX2X2X2X2X3X7X:X|.[.|.*X3X[.[. X*XdX;X;X;X;X3X=X3X3X2X=X X|. X#X$X$X#X*X=X=X$X#X|.|.|.$X;X1X=X$X=X$X=X|.|.|.#X|.|.|.|. X|.|. X|.|.].E.!.}.}.Q.!.T.E. X}. X XOX X#X#XoXoX#XoX$X$X&X&X$X&XOXOXoXoX#XoXoX|.$X=XoX'.Y.T.].R.T.].$X<X&X#X#X#X#X#X#X#XOX$X$X#X#XoXoX|.oX}.oX#X$X$XoX|.}.#X$X#XoX}. X].].}.].].E.L.Y.'.#X$X#X#X#XoX#X#X#X$X*X=X=X=X*X=X-X$X=X-X=X-X=X;X=X;X;X=X=X=X=X=X$X=X=X=X$X=X=X$X=X=X=X=X#X=X#X*X#X=X#X#X#X$X*X#X$X X#XoX}.].E.].}.}.].|.|.}.|.|.|.}.}.].'.'.|.|.|.|.|.|.[.|.|.|. X[.|.].].}.}.].].}.}.].oX}.}.}.oX#X*X X#X*X|.|.*X X#X X#X$X X]. X*X X X3X X!.'.J.S.g.J.p.g.}.#X XOX X$X=X=X=X=X;X3X=X3X=X3X;X;X$X3X1X3XOX$X$X1X2X1X;X;X:X;X:X;X:X-X1X;X;X;X-X:X;X;X$X=X-X;X;X:X;X:X;X;X;X;X:X-X;X-X;X;X-X;X;X;X;X;X-X:X:X-X-X-X-X;X3X1X1X1X1X1X1X1X",
"1X1X1X1X1X0X1X1X1X1X0X1X1X,X1X0X1X2X2X1X2X3X1X1X&X;X&X1X<X1X1X1X3X3X2X2X2X2X2X2X2X2X2X2X2X2X3X2X2X2X2X2X3X=X#X X}.'.L.L.oX$X&X1X1X1X1X1X1X1X1X;X<X#X X$X1X;X;X1X2X2X3X2X2X2X1X1XfX2X2XdX3XiX2XfX2XuXwXuXwXuXuX2XwXuXwXuX2X2XdX2X3XfXfX2X3XdX3X2X2X2XiX2X2XdX2X2XwXwXuX2X:XuX2XwX:X2X2X:X2X2X2X2X3XdXdX2X3X[.[.3X3X*X3X3X[.3X3X7X1X2X3X2X2X:X:X3X=X#X X|.|.#X=X=X=X=X;X;X3X=X#X X|.$X=X3X3X=X=X=X|.$X$X|.|.|.|.|.#X|.].|.#X|.}.}.J.!.}.}.Q.E.!.].}.Q.oXoXOXOX X X#XoX$X$X$X$X$X$X$X$X$XoXoX#XoXoXoX#X#X$XoXT.Y.].Y.Y.T.}.#X1X$X#X#X#XOX#X#X#X#X#X$X#X#X#X|.oX|.|.#X|.|.#X$X#X#X X].;X=XT.L. XoXY.T.Y.Y.H.H.E.}.}. X#XoX#X#X#X#X#X$X$X-X-X-X-X$X;X;X-X;X=X-X=X-X-X=X&X3X=X=X$X=X$X$X=X=X$X=X=X$X=X=X#X=X#X X$X#X$X$X#X#X$X X*X*X#XoX}.Q.E.}.].}.}.].}.].|.|.].|.].'.[. X|.}.].}.|.].|. X|.|.|.].].}.oX}.}.].oX}.}.}.}.[.}.].|.oX#X*X*X#X X|.|.|. X*X|.*X#X|. X[.=X X'.J.'.J.!.J.S.y.f.f.G.}. X XOX#X=X=X=X3X=X;X;X;X;X;X=X3X=X1X=X$X$X$X3X1X1X1X1X:X:X;X:X:X:X;X:X1X;X:X;X;X;X;X-X;X;X;X;X;X;X;X;X;X:X2X:X:X:X;X;X;X;X;X;X;X-X;X;X-X;X;X;X$X&X=X;X1X3X1X1X2X3X3X2X",
"0X1XqX1X1X1X2X1X1X1X1X,X1X1X1X1X1X2X2X1X1X1X1X1X&X;X;X1X1X1X2X2X2X2X2X2X2X2X2X2X3X3X2X2X2X2X3X2X3X2X2X3X2X;X$X#X}.Y.J.T.E.$X1X,X3X;X1X3X1X1X3X1X$X$X#X;X1X1X;X3X2X,X3X2X1X2X1X2XiX3X3XiXdXiXdX2XuXwXuXwXuXwXuXwXwXuXuXwX2XdX2X2X2X2X3X2X2X2X2X2X3XiX3X2X2X2X2X2X:XuX:X2X2XwXuX2X7X2X2X:X:X:X:X:X3X3X3X3X[.[.[.*X3X*X*X3X=X=X:X3X1X3X1X3X;X2X;X;X=X*X#X$X=X=X=X=X3X=X1X1X3X;X=X$X1X;X;X;X3X=X=X#X=X|.|.|.|.|.*X|.|.].].'.[.|.].'.Y.T.Q.}.Q.!.}.}.}.}. XOX X#X XOX$X#XOX#X$XOXoX$X#X#XoXoXoXoX#XoX$X#X#X$X}.Y.Y.].T.Y.].].#X$X$X#XOX$X#X#X X#XOX$X#X#XoXoX}.oX}.oX}.oXoX#X#X#X#X#X}.&X;XoXE.].].Y.'.E.T.Y.T.].T.H.].oX#X$X#X#XOXoX%X#X$X*X=X;X-X=X;X$X;X-X=X-X=X=X1X$X&X;X$X$X$X$X=X$X$X=X$X$X$X$X$X=X$X$X=X#X X#X#X#X#X#X#X$X#X$X}.}.'.E.E.}.}.].oX}.[.].|.|.|.|.].|.|.|.|.'.].|.].|.].|.].|.].|.oX[.|.|.oX[.}.].oX].|.].}.}.|.oX*X X#X X|.*X|.*X#X|.*X*X X].].|.'.J.J.J.J.'.!.J.y.t.G. X$XoXOXoX|.=X3X=X=X=X=X;X=X=X1X;X;X;X=X;X$XOX$X3X1X1X:X;X2X:X;X;X:X-X:X:X:X;X;X;X;X;X:X;X;X;X;X;X;X:X2X;X0X6X2X0X2X:X;X;X;X;X;X;X;X;X;X;X;X;X%X-X$X$X$X-X3X1X1X<X1X1X1X1X",
"1X1X1X2X1X0X1X0X1X1X1X1X1X1X1X1X2X2X1X2X2X1X;X1X1X1X,X1X1X1X2X2X2X2X2X2X2X2X2X3X:X2X3X2X3X2X:X2X3X:X;X;X1X;X=X$X#XY.L.T.P.oX1X&X;X;X2X1X1X;X1X3X#X#X#X;X1X;X;X;X1X,X1X1X1X2X2X2X3XiX2X2XiX3X2X3XwXuX2XuXwXuXwXuXwXwXwX2X2X2X2X2X2X2X2X2X3XiX2X2X2X2X2X3X2X2X2X2XwX:XwX2XwX2X:X:XuX2X2X:X:X=X:X:X2X3XJ.J.3X*X*X[.3X*X3X*X=X*X=X*X3X:X1X;X3X3X;X=X|.=X;X1X3X;X3X=X3X1X;X3X;X;X3X2X2X3X;X3X2X2X=X$X$X|.|.|.|. X X X|.'.'.'.].|.].'.E.!.!.}. X}.}.}.}. X#XOX$X$XOXOXOXOX#XOXoX#XoX XOXoXoXoX XoXoXoX$X#X#X$XoXY.T.].T.T.E.].#X$X$X#X$X#XoX#X#X$X X$X#XoX|.}.|.].}.}.}.}.|.oX|.#XoXoX&X#X$X2X$XG.D.E.].}.oXoXoX XT.G.].].#X#X$X$X#X X#X#X$X=X-X-X=X;X=X-X=X$X;X=X=X=X1X$X$X;X-X=X$X$X$X$X$X$X$X$X$X$X$X$X$X$X#X#X$X#X X$X#X#X#X X$X X}.}.E.E.E.E.].E.].}.}.|.|.].}.|.'.|.|.|.}.|.|.|.|.|.|.|. X]. X].oXoXoX|.oX|.oX|.|.oXoX].}.].|.oX|.#X#X#X#X|.#X*X#X X#X X|.'.].].!.!.!.!.J.J.J.S.g.t.G. X}.].$X;X$X=X1X1X1X=X=X;X1X$X=X3X;X=X3X;X X#X$X$X;X=X;X;X0X0X6X;X:X:X*X:X:X;X;X:X:X;X;X;X;X;X;X;X;X:X1X:X:X2X2X2X2X2X:X;X;X=X;X-X;X-X-X=X%X;X5X%X%X#X%X*X&X;X1X1X1X1X3X1X",
"1X1X1X1X1X1X1X0X1X1X1X2X1X1X1X1X1X2X1X1X2X2X1X1X3X2X3X2X3X2X2X2XiX2X2X2X2X2X2X2X2X2X3X2X:X3X2X2X2X;X3X;X1X=X&X&X}.E.P.T.T. X$X&X;X3X2X1X3X;X=X=X$X=X=X;X=X;X2X3X2X,X3X3X3X1X1X3X2X2X2X2XnX2X2XfX2XuXfX2X2X2X2X2X7XdX2X2X3X3X2X2X2X2X3X2X2X2X3X2X2X2X2X2X3X2X2X2X2X2XdX2X2X2X2X2X3X2X2X3X3X3X3X3X=X X[.|.*X*X*X*X*X*X*X=X*X:X:X:X;X1X1X2X1X1X=X=X=X=X1X3X3X2X;X2X:X:X:X:X:X:X2X2XwX:X;X;X:X;X*X*X#X X*X|. X|.].].].}.|.|.'.F.H.}.E.].}.}. XoX}. XOX X#XOX#X XoX#X#XOX#XOX#X#XOXoXoXoX}.}.oX}.oX#X$X#X#XOX XT.T.}.J.J.E.J.2X XoX$X$X}.].}.OXoXoXoXoX|.oX|.oXoXoX#X|.#XoXoX#X#X#X#X$X=X1X1X&X}.h.t.g.Y.}.!.}. X}.E.J.H.E. X X$X$X$X*X|.#X;X=X$X|.$X*X=X3X;X=X#X=X=X$X$X$X$X$X$X$X$X$X X<X$X$X$X$X=X$X=X$X$X#X#X$X#X$X#X$X#X#X#X}.}.T.Q.}.}.E.T.T.].'.}.].'.'.|.'.|.|.'.|.|.].|.]. X].[.[.'.].].|.].].oX[.oXoX].oX}.].oXoXoX[.].}.$X X*X X#X*X X#X#X#X*X=X|.].}.#X=XE.!.T.J.G.J.J.g.y.g.J.].].oX&X&X;X;X3X3X:X;X3X;X=X3X1X=X=X=X=X=X X$X<X=X1X1X1X1X2X;X;X:X2X2X:X*X;X;X:X;X:X-X:X:X:X:X:X:X:X:X:X:X2X:X0X2X:X;X;X:X-X-X;X;X;X=X;X;X&X-X-X%X#X#X%X:X1X1X1X1X1X1X1X1X",
"1X1X1X1X1X1XqX1XqX1X1XqX1X1X1X1X1X3X1X1X3X1X3X1X3X2X2X3X2X3X2X2X3X2X2X2X3X3X=X3X3X2X:X:X2X3X:X3X1X2X1X;X3X1X;X=X}.].T.Y.E.oX$X&X;X2X2X;X;X;X=X=X=X=X=X;X3X;X;X;X1X1X2X2X1X2X2X2X2X2X2X2X2X2XfX2X2X2X2X2X2XfX2XfX7X7X3X3X2XdX2X2XiXiX2X2X2X2XfX2X2X3X2X2X2X2X3X2X=X:X3X2X2X3X2X2X7X2X2X3X:X2X3X*X|.[.[.*X*X*X*X*X*X*X:X*X:X*X=X:X;X;X1X3X1X=X=X=X3X1X;X1X;X1X2X1X:X:X*X*X:X:X2X2X2X:X;X;X*X*X*X*X=X#X X|.|.|.|.].=X'.H.'.'.H.H.].'.!.}. X#XOXOX XoXOX XOXoXOXOX$XOX#XOX#X$XOX#X#XoX XoXoX}.oX}.oX$X X#X$X XT.Y.].T.T.G.G.}.=X$X X X].T.E.}. X|.oX|.#XoX|.|.oX[.|.|.oX|.#X|.oX|.#X$X$X$X;X;X$X#X|.}. X}.Y.J.E.}.].Y.T.T.'.}.}.}.}.|.'.'.|.|.|.|.|.|.#X#X#X$X=X=X3X$X<X$X3X$X$X$X$X3X$X$X3X$X<X<X$X;X&X&X$X$X#XoX#X#X$X$X#X$XoX#XoX}.}.}.E.].E.].}.].'.].}.'.'.}.'.}.|.].}. X[.[.].].[. X X|.}.|.].|.}.}.}.oX}.|.].].].].|.}.].}.#X$X*X#X X|. X X|.|. X|.|.'.T.'.}.J.T.Y.J.G.J.g.y.u.G.}.1X1X1X1X-X3X;X;X;X;X;X;X;X=X=X;X1X1X3X;X;X X$X1X$X&X1X1X1X:X;X:X;X:X:X:X:X;X:X:X:X:X:X-X:X:X:X:X:X:X:X:X:X;X0X6X2X:X:X;X:X;X;X;X;X;X-X-X;X%X%X;X;X&X&X-X;X1X1X;X1X1X1X1X1X",
"1X1X0X,X1X1X1X1X0X1XqX1X1X1X1X<X1X1X1X1X1X2X2X1X3X2X2X3X3X:X:X3X2X2X2X2X2X2X2X2X2X3X3X2X3X2X2X2X1X3X3X2X1X;X&X$X}.].E.E.oX$X&X&X;X3X3X2X2X;X;X=X;X=X;X3X1X;X:X;X1X1X2X1X2X1X2X2X3X2X2X2XfX2X2XnXiX2XaX2X2X2X2X2X3X3X3X*X3X3X3X2X3X3X3X3X3X3X3X X2X2X2X2X2X2X2X2X2X2X2X2X2X2X3X2X:X:X*X3X:X*X*X|.[.[.*X=X:X=X:X:X*X:X:X*X*X=X:X:X1X3X;X;X3X1X=X$X=X;X1X1X1X;X1X2X:X:X*X:X:X:X2X2X2X:X-X;X:X*X*X;X$X#X*X|.|.|.'.].|.'.'.|.}.H.S.G.G.J.P.}. X}.}.}.oX X XoX XoXOX#XoXoX#XoXoXOXOX$X#XoXoX XoX}.}.oX#X XoX#X}.Y.J.T.].T.g.J.G.2X,X X}.].T.].}. XoX#X#XoX}.].].].}.}.}.oXoX|.oX|.|.oX$X$X$X$X$X$X=X1X1X3X XJ.H.E.'.'. X#X#X#X X#X X X|.'.'.'.H.H.T.|.|.|.]. X*X3X;X=X$X<X<X$X$X<X#XOX$X<X<X$X3X$X$X#X&X$X$X$XOXOXoX#X X#XOXoXOX#XoX#XoXoX}.E.E.}.}.}.].].}.'.|.'.'.|.].|.|.|.|.].[.].].|.]. X|.|.}.|.oX|.|.|.oX|.oX|.#X}.}.#X#X}.oX#X#X#X#X|.#X#X#X*X#X=X=X|.'.'.'.].G.u.t.g.J.T.J.G.}. X#X#X#X#X;X1X;X;X;X3X3X3X;X;X1X=X=X1X=X=X=X;X$X3X1X1X=X;X3X;X:X;X:X:X:X:X-X-X:X:X:X:X:X:X:X:X:X:X:X6X:X:X:X6X0X2X:X2X:X;X;X;X;X;X;X-X-X;X-X-X-X&X;X%X&X&X&X4X<X;X,X1X1X,X,X1X",
"1X1X1X1X1X1XqX1X1X2X1X1X1X,X1X1X1X3X1X3X;X3X;X;X2X3X2X2X3X2X=X3X2X3X3X2X2X2X2X2X3X=X:X:X2X2X3X2X1X2X;X;X1X1X1X$X$X}.].}.oX&X&X&X;X;X2X3X3X1X;X=X;X3X;X1X3X2X3X3X1X1X<X,X1X2X1X1X2X2X3X2X2X2X2X2X2X2X2X2X2X2X2X2X7X7X*X7X2X2X2X3XiXiXdX2X2X XJ.J.2X3X2X2X3X2X2XdX2X;X3X=X[.].].].[. X[.[.*X3X3X[.|.*X*X:X:X=X:X:X:X*X:X:X:X*X*X=X;X;X=X;X=X=X=X=X3X;X2X1X;X3X1X2X:X:X:X:X:X:X:X2X2X:X;X:X:X*X*X:X3X=X*X#X|.].|.].|.=X;X XH.S.g.F.g.x.G.J.!.Q.}.}.oXoX XoXoX X}.Q. XoXoX}. XoXOX#XoXoXoXoX}.oXoX}. X}.}. X}.Y.G.J.].T.H.E.J.#X1X X}.oX]. X#X#X#X#X|.oX}.|.oX}.].].}.|.}.|.oX}.oXoXoX#X$X;X$X#X$X$X$X=X$X X XoX X'.E.}.}. X}.}.'.E.'.}.'.'.'.H.'.|.[.'.|. X#X*X=X$X$X$X$X$XOX#XOX XOX$XOX$X$XOXOXOXoXoXoXoX#X XoXoX XoX X}. XoXoXoXOXoX}.}.}.}.].E.'.].'.'.'.|.].}. X|.|.|.]. X[.|.|.|.|.|.|.|.|.|.oX}.oX|.oX|.|.oX$X}.oXoX#X#X}.|.=X*X#X X|.|. X|.}.|. X|.}.'.'.].1X X!.!.E.L.H.T.G.'.$X&X2X1X;X1X;X1X;X;X;X;X;X3X1X1X;X3X=X=X=X$X=X1X1X<X;X1X1X;X;X;X:X:X;X;X:X:X:X-X:X:X:X:X:X:X2X:X:X:X:X:X:X:X:X:X0X;X:X;X;X;X;X;X;X;X=X;X=X*X;X&X&X%X&X%X&X&X1X,X1X,X1X1X1X<X",
"1X1X1X,X1X1X1XqX0X1X1X1X1X1X1X1X1X1X1X1X1X1X2X;X2X2X2X2X2X2X2X2X2X=X3X2X2X*X[.*X*X*X*X=X=X3X:X:X1X3X:X3X1X=X&X=X$X#X}.}.#X$X$X$X=X=X3X3X2X2X:X;X;X;X2X2X2X;X;X3X<X<X|.=X;X2X1X3X2X2X2X2XfX2X2X2X3X2X2X2X2XfX3X3X3X3X3X3XdX7X XJ.J.S.S.H.{.'.3X*X X*X=X=X:X=X=X=X'.'.'.{.'.'.'.'.'.[. X3X|.[.*X*X*X:X:X*X=X:X:X:X:X:X:X:X*X:X*X*X;X;X=X=X=X$X=X3X;X3X1X;X;X;X1X3X=X:X=X:X:X:XdXdX:X:X*X:X:X*X:X*X=X=X*X|.|.|.[.|.=XwX3XG.t.S.{.}.J.J.J.L.Y.E.}.}.}.}. X$X$X@X X}.].Q.oX}.}.}.oXoX#XOX XoXoX}.}.}. X X}. X].Y.Y.Y.Y.J.}.'.Y.J.OX X].oX#X#X#X#X}.}.].].}.].oX}.}.|.}.oX[.}.|.}.oX}.].oX$X$X$X$X&X;X X$X$X$X1X3X X XT.!.'.'.T.J.T.T.'.|. X$X X'.'.'.J.'.|. X|.|. X}. XOX X XoX}.}.}. X}.}.}.OX}. X}. X].Q.oXOXoX}.}.oX}.}.}.}.oXoXoXoXoX}.oXoX}.].T.E.E.'.'.].|.|.|.|.|.|.].]. X|.].|.|.|.|.|.|.|.].].|.oX|.oX[.}.].oX].].}.#XoXoX#X=X=X#X X|.|.'.|.|. X*X=X;X;X3X1X$X1X1X<XP.y.g.E.T.$X1X2X2X;X*X:X;X3X;X;X;X3X;X3X3X;X=X=X=X=X=X$X$X1X1X<X$X&X1X=X;X:X:X;X-X-X-X:X-X:X:X:X:X2X7X:X:X:X2X:X:X:X:X:X:X;X:X;X;X;X;X-X:X;X;X=X-X=X$X$X%X%X#X%X%X$X&X;X1X,X1X<X,X<X1X1X",
"1X1X1X1X1X1X1X2X2X1X1X0X1X1X<X1X1X1X1X1X2X3X2X1X2X2X2X2X2X2X2X2X3X3X2XsX=XJ.S.J.[.|. X*X:X3X3X2X;X;X=X;X3X1X$X$X#XoXoX}.oXoX$X$X:X3X2X2X2X2X3X3X;X3X3X2X2X2X:X=X X<X}.#X=X1X2X2X2X2X2X2X2X2X2X2X2X3XnX2X2XnX2X3X3X3X3X3X'.{.H.J.3X[.[.{. X X3X*X[.*X:X2X3X*X'.{. X[.3X3X X*X*X=X|.3X=X3X3X[.3X=X:X:X:X:X:X*X:X:X*X:X:X*X:X*X*X*X=X=X=X X#X=X=X=X;X;X1X3X=X;X;X;X=X:X:X:X:X7X:X:X:X:X*X:X:X*X*X:X;X;X#X X|.}.|. X#X;X|.S.y.Y. X|.E.T.P.J.G.J.J.P.P.Y.!.}.OX#X X}.oX}.}.E.E.].}.#X#XOXoXoXoXoXoXoX#X#X#XoX X}.Q.}.}.Y.}.L.Y.G. X3X#X-X;X&X$X$X}.}.}.].].}.].}.oX|.}.}.}.oX}.|.|.oX#X X#X#X#X$X$X1X$X$X$X$X$X$X$X$X$X$X X].'.E.]. X X|.=X;X=X'.'.J.H.'.].'.'.T.T.'.E.}.Q.!.Q.Q.!.!.!.E.E.!.!.Q.!.Q.oXE.E.oXoX}.E.}.E.].Q.E.}.}.}.oX}.oXoX#X#XoX}.].].'.'.'.'.}.|.|.[.|.|.].].].].|.|.|.|.|.|.|.|.|.oX[.}.}.|.oX}.oXoX].}.oX#X#X$X1X#X*X*X=X$X=X=X;X;X;X=X;X;X;X;X=XP.P.T.P.G.g.p.y.}.2X2X#X=X=X*X2X;X3X;X3X;X;X;X;X;X=X=X1X1X1X3X=X$X1X1X;X1X1X1X3X;X;X;X;X:X:X*X:X:X-X:X:X:X:X:X:X6X:X7X2X:X:XuX:X2X:X;X;X;X;X;X;X-X:X;X;X-X=X-X$X-X%X%XOX$X&X5X&X,X1X,X1X1X1X1X,X",
"1X1X1X1X1X1X1X1X0X2X2X1X1X1X1X1X1X2X1X1X1X2X2X3X2X2X2XdX2X2X2X2X2X2XsX2X[.F.S.H.S.H.'.*X=X3X2X2X1X3X=X=X=X=X$X#X#X#XoXoX XoX$X&X=X:X:X3X3X2X2X2X2X2X2X2X3X;X=X=X XOX X X X|.=X;X2X2X2X2X2X2X2X2X2X2X2X3X3X3X X X3X7X7X3XJ.S.{.3X{.{.'. X[.[.[.3X X*X=X=X*X X].'.3X X=X X|. X X X|.*X=X3X X|.*X3X:X:X:X:X:X:X:X*X*X:X:X*X*X*X*X*X#X*X#X=X=X=X=X3X;X;X3X;X=X=X=X=X*X:X*X:X:X:X:X7X:X:X*X:X:X:X*X:X3X;X#X#X|.}.|.#X|.|.].'.'.|.}.].}.E.T.J.G.J.x.S.G.G.P.T.}. X X}.}.oX X}.E.}.oXOXOX#X#XOX#XOXOX$X$X#XoX X X X X X X X}.J.!.}.$X1X&X1X1X;X$X$XOX}.}.].].].oXoXoXoX}.|.|.}.|.oXoX X#X#XoX}. X#X#X#X3X$XOX#X X X#XOX$X X X}.].J.!.].|.|.$X=X=X X'.!.T.J.'.'.J.'.J.E.T.T.!.!.E.T.!.!.E.!.T.J.Y.P.T.P.T.J.H.].}.}.E.}.}.}.}.oXoX XoXoX XoX$X#XoXoX}.}.}.].}.'.'.'.].].'.|.'.].].[. X|.|.|.].|.|.|.[.|.].}.}.oXoX].oX].|.}. XoXoX#X;X2X$X$X=X=X=X=X$X|.'.'.J.'.Y.H.H.F.}.T.x.x.G.G.t.^ r.].-X;XaXwX;XwX;X=X;X;X3X;X=X1X3X$X=X=X1X;X$X}.OX3X1X<X;X;X;X=X:X=X*X*X*X:X:X-X-X:X:X:X:X6X7X:X7X6X6X6X7X7X6X:X;X:X;X;X;X-X;X;X;X;X-X-X=X$X=X$X%X%XoX%X<X,X0X<X1X,X1X,X1X1X1X,X",
"1X1X1X1X1X1X1XqX0X1X1X0X1X<X1X,X2X1X1X2X2X2X2X2X2X2X2X2X2X2X2X3X2X2X=X'.J.'.{.S.r.S.F.'.*X*X=X3X=X=X=X=X=X=X$X#XOX#X$XoXoX#X1X0X=X=X:X2X2X2X3X2X2X2X2X2X3X=X*X|. X$X=X|.Y.H.'.|.2X2X2X2X2X2X2X2X3X3X3X'.J.J.S.S.J.S.J.J.[. X[.{.|.[.'.[.[.3X[.*X*X*X|.'.'.'.[.#X[.[.*X X*X*X X*X3X[.3X*X|.3X*X=X:X*X=X:X:X:X:X*X:X*X:X:X*X*X*X*X X*X#X=X=X=X3X=X=X=X=X=X=X=X=X3X*X*X*X:X:X:X:X:X:X:X:X*X:X:X*X:X-X=X*X X|.|.|.|.;X#X X|.'.T.'. X}.Q.}.].!.P.G.G.T.J.J.E. XOXOXOXoXoXoX}.}.Q.}.#X#X#XOX#XOX#XOX$X#X X X}. X#X X#X}.<XJ.T.}.2X$X=X&X1X1X$X#X#X#X}.oXoXoX|.|.].[.|.|.oX|.oXoX|.oXoX#XoXoX#X$X&X$X#X$X$X<X#X X}. X X X X$X$X X!.J.!.'.H.'. X=X=X1X2X'.'.H.'.'.'.'.'.J.T.T.T.T.!.E.T.!.T.T.J.J.G.J.J.h.a.g.T.}.}.E.}.Q.}. X#XoXoX#XoXoXOX$X#XoXoX#X#X#X X}.'.'.'.'.].}.'.'.'.].].[. X|.|. X|. X|.}.].}.].}.].}.}.].].}.].].}.].E. X$X1X3X=X|.|.H.H.S.S.S.S.S.H.L.H.G.y.x.G.u.r.t.g.g.G.&X;X#X:X;X*X:X;X;X;X;X1X;X1X=X1X1X=X=X$X#X].T. X$X;X<X;X1X1X3X:X:X*X*X*X:X-X:X-X-X-X:X:X:X:X:X:X6X:X6X6X6X:X:X;X;X-X-X;X;X;X:X-X=X;X$X-X;X-X=X}.oX$X-X0X0X1X,X<X1X,X1X,X<X1X1X",
"1X1X1X1X1X1X1XqX2X2X2X2X2X2X2X2X2X2X:X2XaX|.uX2X2XiX:X2X2X2X-XiX2X XF.J.H.H.J.{.J.J.J.S.F.{.3X3X=X=X=X$X$X=X X X=X*X=X=X=X$X3X=X=X3X1X1X3X2X1X;X;X;X;X3X=X=X#X$X X*X=X#X#X[.'.'.S.G.}.iXfXiX2X2X3X'.J. X=X].T.T.Y.Y.Y.T.'.].}.].].].].[. X].|.*X*X X|.[.].|.|.|.3X X|.|.|.|.#X#X$X#X X#X#X$X=X3X:X:X3X:X:X:X:X=X:X3X2X:X*X*X*X3X3X[. X*X=X=X:X=X:X3X2X=X:X=X=X=X:X:X:X*X:X:X:X:X2X:X:X*X=X*X:X*X*X:X*X[.'.[.=X=X:X2X3XJ.].$X$X X!.}.!.].}.!.E.!.T.Y.Y.!.Q.}.oX XoXoXoX}.}.}.}.}.oXoX#X$X$X$X$X$X$X#X X X#X$X#X#X}.].E.T.}.1X2X&X&X&X&X,X$X$XoX}.}.oX}.oXoX}.oXoXoXoX}.oX}.oX XoX}.oXoXOXOXOX$X<XOX#XOX X X}.Q.}.Q. X}.}.oXQ.}.].'.'.'.].'. X X XH.H.H.H.J.J.T.T.Y.Y.J.J.P.T.T.!.!.P.J.P.Y.G.G.J.G.P.J.L. XOX!.}. X X XoX}. XOX#X#XoX X#X$X$X$X#X$X}.Y.G.Y.E.].}.}.].].].].}.].].|.oXoX].].].].}.].|.].[.|.|.|.|.'.'.|.|.'.'.'.'.$X$X}.Y.D.D.D.D.g.D.G.G.H.G.H.G.T.J.g.r.y.D.Y.H.H. X;X;X=X;X;X;X:X:X;X;X;X;X-X-X1X&X1X,X<X<XOX X#X|.=X=X;X3X;X;X;X;X;X1X;X;X=X;X=X-X;X;X;X:X:X:XwX0XwX:X:X:X;X:X:X*X:X*X-X;X-X:X:X*X*X*X:X-X*X].$X&X&X1X0X,X1X1X1X,X1X1X,X,X1X1X",
"0X1X1X0X2X2X2X1X1X1X2X2X2X2X2X2X2X=XuXuX-XuXuX:XaX-X2XuXiX2X2X-X=X'.J.J.J.J.H.J.F.F.S.S.J.{.*X3X=X=X$X=X=X=X*X#X#X=X X$X=X=X=X3X=X;X1X1X2X;X;X3X2X3X=X=X=X|.|.|. X X#X*X#X X|.|.'.H.H.H.H.H.J.'.3X X|. X].Y.].oX}.}.].].}.}.}.}.'. X].[.[. X X X X|.].|.|.|.|.|.[. X|.|. X X$X#X#X#X#X#X$X=X;X3X:X3X2X3X3X:X2X3X:X=X:X=X|.3X[. X[.[.3X*X=X=X=X=X=X=X=X=X*X=X=X=X*X*X:X*X=X:X2X:X:X:X*X:X:X*X=X:X:X:X:X*X|. X#X|.'.*X X].].}.!.J.E.E.!.E.E.E.J.T.T.J.P.!. X$X$XOX}.oXoXoXoXoXoXoXOX#XOX#X@X#X$X$X$X#XoX#X$X$XoX].].}.'.T. X1X0X&X<X<X&X$X$X#XoXoXoX}.oX X}.#X}.}.}. XoX XoX XoX X(. X}.oX XOX X#X#X#X#XOXoXoX}.}.].Q.}.}. XQ.Q.!.'.'.'.'.'.'.'.'.J.T.H.J.'.T.'.].E.P.G.x.c.G.L.L.E.T.T.T.J.x.g.c.G.g.f.g.].OXOX<X XoX X XOXOXOX#X$X$X#X#X#X$XoXoX}.].T.T.E.].].T.].E.].'.T.'.E.].].].].}.oX}.}.|.}.|.}.|.}.].|.].T.'.'.].'.'.'.'.Y.Y.H.h.g.g.D.G.L.Y.T.}.oX#X#X$X}. X}.'.'.}.'.H.'.#X3X;X=X;X;X=X:X;X;X;X-X;X;X-X&X&X$X$X&X$XoX}.oX#X$X=X;X;X3X:X;X3X;X3X;X=X;X=X-X=X;X;X;X;X;X:X;X:X;X:X;X;X-X;X-X:X*X*X-X-X;X*X-X-X*X*X*X#X*X#X-X&X&X1X,X1X<X,X1X1X,X1X1X1X1X,X",
"1X1X1X1X1X1X1X2X3X1X1X2X2X2X2X2X;X-X2XiX;XaX|.2XuX|.:X#X;XdXbX-XJ.J.{.J.F.S.S.S.S.S.S.J.{.{. X3X=X=X=X$X=X*X=X X=X=X$X=X=X1X1X3X=X1X=X1X;X=X3X;X1X=X$X#X X|. X X#X*X*X#X$X|.|.|.=X|.'.'.'.].[.].}.$X;X|.Y.E.].|.oX}.].].].].].].].].'. X'.[.'.].].|.|.|.|.|.|.|.|.|. X|. X*X=X#X$X*X#X X$X=X=X=X=X3X3X2X2X2X2X3X2X2X=X=X*X[.|.|.[.[.3X[.=X:X=X=X=X2X3X:X=X=X=X=X*X:X*X*X:X:X:X:X:X:X=X*X*X:X:X=X;X:X:X*X|.|.].].'.}.]. X XY.J.!.].!.Q.}.!.!.E.T.!.G.G.P.}.$X$X}.}.oX#X$X$XoXoXoX#XOX#X#X#XOX@XOX#X#XoX#X#XoX}.].E.}.}.].oX;X1X$X1X&X$X$XOXoXoXOX}.oX}.oXoXoXoXoX XoX}.oXoX}.oX}.}.}. XoX XoXOX XoXoX#XOXOX XoX}.Q.!.Q. X}. X X X X X X'.].].].].'.'.T.H.H.'.H.Y.J.G.G.P.E.T.J.J.J.Y.T.G.x.g.g.f.L.G.g.c.T. X XOX}.}.oXOXOXOXOX X#XoX#XoX#X#X}.}.].].].E.T.T.].T.E.].].E.T.T.].}.].].oX#XoX|.}.oX|.[.}.|.|.}.'.|.'.'.{.Y.T.'.Y.'.g.S.D.D.D.L.T.].}.#X#X$X$X$X$X$X#X;X1X=X=X$X}.Y. X=X3X=X=X1X;X=X-X-X-X;X;X;X;X;X1X&X&X$X@XOXOX X X|.=X3X1X1X1X;X;X;X;X;X=X;X=X;X;X-X=X;X;X;X:X;X;X;X:X-X;X;X;X*X:X:X-X:X:X*X-X:X*X-X*X*X[.[.*X-X<X&X1X1X1X1X1X,X,X,X1X0X1X1X1X8X",
"0X1X1X1X1X1X2X2X1X2X2X1X2X2X2X2X:XwX;X2XdXuX'.aX2X:X:X:X-X=X[.g.G.{.J.S.S.S.y.r.S.y.S.J.{.{.[.3X$X=X$X=X X$X*X=X=X=X=X=X=X=X=X1X;X1X3X=X=X=X=X$X X|.|.|.#X#X=X=X#X*X#X$X=X|.#X|.'.|.$X|.=X3X=X X#X X}.'.].}.}.E.].].].].].E.].E.'.'.[.'.[.'. X'.'.].].|. X|.|.|.|. X*X*X#X=X X#X#X#X$X*X$X$X=X1X:X:X2X2X2X2X2X2X2X2X3X*X|.*X|.|.[.3X[.*X3X3X:X=X3X=X=X:X3X=X=X:X*X*X:X:X:X2X:X:X=X=X*X=X:X=X:X:X:X:X=X[.|.|.#X X].'.J.T.].'.!.$X}. X}.}.}.}.!.!.P.G.G.x.T.}. X}.}.oX$X$X$XOX#XoX$XOXoXoXOX#X$X$X#X#X#X#XoX X].E.T.].}.}.#X$X1X1X1X&X#X#XoXoXoX$XoXoXoXoXoX}.}.oXoX}.oX X X(. XoX XoXoX XoX}.oX X XOXoX#X XoXoX X}. XQ.}.}. XOXOX|. X]. X].].].].=X|. X].'.|. X].G.G.G.G.J.J.G.c.G.P.J.c.g.G.g.p.G.J.c.G.T.E.P.T.T.!.Q.OX XOX#X X].].].}.oX}.}.].].].T.Y.Y.T.].#X}.}.}.].E.T.E.}.E.].].}.}.].}.}.].|.|.].].|.'.'.'.T.H.H.S.S.S.H.D.G.H.Y.T.}.oX#X&X$X&X$X$X#XoX|.#X=X=X=X|.|.|.|.#X=X=X=X=X3X3X=X:X:X;X:X;X;X;X;X1X&X$X$XOX#XOX XoX$X=X1X1X2X3X;X3X;X3X;X3X;X3X=X;X;X;X;X;X;X-X;X-X;X;X-X;X-X;X;X:X*X:X*X:X=X*X;X*X*X*X*X[.[.-X:X1X1X,X0X,X0X1X1X1X1X1X,X,X,X1X1X",
"1X1X1X0X,X1X1X1X2X2X1X3X2X2X2X2X1XqX=X=XaX3X2X;X;X2X'.2X3X}.r.H.J.'.{.G.S.S.S.y.S.S.S.J.{.'.'. X#X=X*X#X=X#X$X=X=X=X=X=X=X3X1X;X1X;X=X=X=X=X$X|.[.|.|.=X=X=X=X=X=X#X#X X#X|.|.|.|.#X|. X X*X*X|.|.E.T.].oX#X].].].].}.].].].}.}.'.'.'.'.[.[.].].'.]. X|.#X X X#X*X|.*X*X X=X=X=X=X=X$X=X=X=X=X3X:X2X2X2XdX2X2X2X7X2X3X=X*X*X|.|.3X[.*X3X=X=X=X=X3X2X3X:X:X:X=X3X:X:X=X:X:X3XdX:X:X*X*X*X=X*X:X:X:X:X;X*X|.$X|.|.T.'.S.S.Y.}.].!.!.].].!.].T.T.T.T.J.G.x.G.P.E. XOX$X$X$X$XOX#X$X$X#XoXoX X#X#X$X$X$X#XoXoX}.].].T.].}.#X#X$X;X&X&X&X$XoX XoX#X$X#XoX}.oX}.oX}.}.}.}. XoX X(.oX XoX X XOX X X}.oXOX XoXoXoXOX XOX X X X}. XoXOXOX|.|.].'.'.'.'.'.T.J.{.H.T.'.].J. X}.T.J.G.G.G.G.c.G.G.g.c.G.g.t.,.y.c.G.G.G.g.G.J.P.E.'. X}.}.!.E.].].}.oX].}.].].}.].'.Y.Y.E.}.T.].].}.].E.].].T.'.].].].].}.}.|.|.|.].'.'.J.{.T.H.H.S.F.H.G.H.H.E.E.].}.#X#X#X$X$X$X$X=X$X$X$X=X;X;X|.|.$X=X=X=X=X$X$X;X1X1X=X:X:X;X;X;X;X;X;X;X$X#XoXOX XOXOX#X#X=X3X2X1X3X;X;X1X3X=X;X;X=X3X;X;X;X-X=X;X;X=X;X;X;X=X;X;X;X;X*X;X;X;X-X;X=X=X*X#X[.[.oX*X;X0X1X1X0X1X1X0X0X1X1X1X1X,X1X1X0X,X",
"1X1X1X1X1X1X1X1X2X2X1X2X2X2X2X2X2X3X2X1X$X2XmXS.H.fX|.3X=XaXH.*XJ.'.H.S.S.H.J.S.S.S.S.J.J.{.'. X X#X=X=X=X#X*X=X$X=X$X=X=X=X1X=X3X3X=X=X|.|.|. X|. X$X=X=X=X=X*X X*X X*X|.|. X|.=X=X=X|. X=X#X X].'.}.#X#X}.].oXoXoX}.}.].].E.].'.'.'.'.'.].].|.'.].|.|.#X|.|. X|.|. X=X=X=X=X=X=X=X=X;X;X;X;X3X3X2X:X3X3X2X2X2X2X3X3X*X*X|.3X*X*X3X*X*X:X:X3X:X2X2X2X2X2X2X3X2X:X:X:X:X2X2X2X2X=X:X=X:X:X:X:X*X*X*X;X*X=X|.'.'.J.].J.G.E. X X'.E.Q.Q.!.T.T.J.P.!.P.J.G.x.G.J.}.$X$X&X$X$X$X$X&X$X$XoX XoXOXOX$X&X$X#X}.].].}.].T.].}.oX#X$X$X;X$XOXoXoXoXoXoX$XoX#X#XoXoXoXoXoX XoXoX}.oX X XoX#XOXoX XoXOX XoXoX}.oXoX X XoX XoX}. XQ.}.Q. XoX}.].]. X}.}.}.].H.H.S.S.S.G.G.y.E.}.}.!.H.x.g.g.g.g.a.t.y.u.u.t.t.c.g.g.G.g.f.G.G.J.J.P.E.T.T.T.].}.}.#XoXoX}.].}.oXoXoX].T.Y.Y.G.Y.Y.E.].].].T.E.].].}.oX}.#X#X X|.].T.'.H.H.H.H.G.H.H.T.'.].}. X#X#XoX#X$X#X X#X#X#X$X$X$X&X$X3X=X=X$X=X=X=X#X$X=X*X=X=X3X1X;X-X-X;X;X&X&X-X%X#X#XoX XoXOX#X#X=X=X;X1X3X1X:X3X;X;X;X1X;X=X=X;X=X;X-X;X;X-X;X;X-X;X;X;X;X;X;X;X*X=X;X-X-X*X=X#X[.[.[.|.*X;X:X:X0X1X,X1X1X,X,X1X8X,X1X1X1X,X1X1X",
"1X1X1X1X1X1X1X1X2X1X2X3X3X2X2X2X1X3X2X2X1XaXeXt.r.iX1X2X=XfXH.y.H.H.H.J.J.J.J.F.S.F.S.J.{.'.'.'.|.#X=X=X X#X=X=X=X#X=X$X=X=X=X1X=X=X=X#X$X=X$X$X=X$X=X=X=X=X$X#X X*X#X*X|.|.|. X'.|. X#X*X#X X].].}.$X$XoX}.#X X}.oX}.}.E.E.].].].[.'.'.'.'.].].].].#X|.|.|.#X*X*X*X X=X=X=X=X=X=X=X;X1X1X;X1X;X3X3X2X2X2X2X7X2X3X3X:X*X*X*X=X=X3X3X:X3X3X2X2X:X3X:X3X2X2X3X2X2X:X:X:X:X2X2X2X2X:X:X:X*X:X:X*X*X*X*X=X#X#X|.'.H.}. X].T. X#X XJ.Q.}.}.}.Q.E.!.T.E.Y.J.J.G.J.T.J.}.#X#X$X&X$X$X&X$X$X#XoX X#X#X$X$X$X$X#XoX].].}.].].}.#X$X$X=X&X#XoX#XOXOX#XoXoX#XOXoX#XoXoX}.oXoX XoXoX}.oX}.}.OX XoX#X XOXOXoXoXoXoX}.oX}.}.}.}.}. XQ.Q.Q. XQ. X X#X#X X#X X X X X].J.J.'.J.G.t.c.P.Y.G.u.t.,.y.u.y.u.t.t.t.g.J.Y.Y.P.T.E.J.J.D.G.G.J.H.P.Y.T.T.].|.#XoX|. XoX}.|.oX#XoX].T.Y.Y.Y.Y.Y.E.].'.Y.E.].oX#X#X#X}.}.].T.Y.Y.L.J.H.H.L.Y.T.].}. X#X#X$X;X$X#X#X$X#XoX$X$X#X$X$X#X$X#X=X$X*X=X=X;X=X#X$X=X$X=X=X=X;X1X-X&X-X$X#X%X#X#XoXoX}.#X$X$X$X$X=X;X;X3X:X3X1X;X;X3X;X;X;X3X3X=X;X-X;X;X-X;X;X-X;X;X-X;X;X-X;X;X*X;X=X;X*X%X#X#X|.[.oX*X-X;X;X;X1X1X1X1X1X&X1X1X2X1X1X1X1X1X1X1X",
"0X1X1X1X1X,X1X3X1X3X2X3X2X2X2X2X1XfX3X3XbXfXr.y.S.y.t.S.g.G.S.J.J.J.J.T.{.H.F.J.J.H.J.J.{. X X'.]. X=X;X=X=X X=X X=X$X=X$X=X=X=X=X=X=X=X$X=X=X1X=X=X=X=X=X$X$X#X X|.|. X#X#X|.|.=X#X|.|.*X#X|.=X}.#X$X].}.$X#XE.}.|.#X|.].].}.}.].]. X'.'.'.'.'.]. X|.=X#X|.*X=X|.*X=X=X=X3X=X3X1X3X3X;X2X2X3X1X3X2X3X3X2X2X3X2X3X2X:X=X*X*X3X3X7X2X7X3X2X2X2X3X:X2X3X:X:X2X3X3X*X:X=X*X:X2X2X2X:X:X=X:X=X=X=X*X*X=X=X=X=X;X|. X#X=X X'.}.}.E.].}.}.!.}.Q.!.T.Y.T.P.G.L.J.P.J.G.T.E.oX$X$X$X#X$X$X$X#XoX#XOX#X#X#X#X$X$XoX}.].].].E.].oX$X$X$X;XoXoX$X$X#X#XoX XOX#XOXoXoX XoX}.}.oX}. XoX X XoX XoXoXoX X#X XOX}.}.oXoX}.}.Q.}.}.Q.}. X X XoX X X X X$X#X#X}.}.E.}.'.Y.E.#X XT.!.}.}.Y.g.u.y.x.t.y.g.c.a.t.g.T.H.Y.T.!.$X XT.J.G.G.S.G.J.G.J.T.Y.].].#X|.oXoX#XoXoX[.}.].].].E.].T.Y.Y.T.].T.L.Y.T.].}.].T.L.D.H.L.G.F.G.Y.T.].].].].}.#X#XoX X$X#X#XoX#X$X#X}.$X#X$X$X$X$X=X=X=X=X X=X3X1X3X=X=X=X=X=X=X=X=X3X$X$X*X#X#XoXoXoX X#X#X$X$X;X&X1X;X1X;X=X;X;X;X1X;X;X3X;X;X=X=X1X-X=X=X-X;X=X=X;X;X=X;X-X*X;X*X-X;X;X;X-X*X#X[.].[.XX#X*X;X;X;X;X1X1X1X,X1X1X1X1X1X1X,X1X0X1X1X1X",
"0X1X1X1X;X1X;X1X3X1X2X2X3X3X2X2X<X2X2X$XT u.S.$XH.S.f.S.H.H.G.G.J.Y.E.T.T.Y.T.'.J.H.F.H.'.[. X'.].#X3X=X$X=X=X$X=X=X#X=X X=X=X=X=X=X=X=X3X3X3X=X=X=X3X=X=X$X=X X*X|. X#X#X*X X|. X|.*X X#X#X X|.#X#X#X#X#XoX|.oX#XoXoX].}.].oX}.].[.'.[.'.'.].|.[.|.*X=X X*X X X3X*X:X=X3X:X:X3X;X=X=X3X2X2X:X3X:X3X2X2X2X3X3X:X3X3X=X=X3X3X2X3X2X2X2X2X2X2X2X2X2X2X3X2X3X2X2X2X-X-X:X:X:X2XwX2X:X:X=X=X*X*X*X*X*X*X*X*X=X=X=X#X#X|. X XoX X X X}.}.!.Y.T.Q.!.Y.P.T.T.T.P.Y.Y.P.Y.Y.T.#X-X$X#X$XoX$X$X#X#X#X$X$X$X$X#X}.].].].].}.].].oX#X$X#XoXOXoX#XOX#XoXoX#XOX XoXoX#X XoX#XoX}.}.oX}.oX}.oXoX X XoX}.oX}.oX}.oX}.}.}.Q.(.}.}.}. XoX XoX XOXoX|.}. X}.}.}. X XE.E.]. X X}.T.Q.!.Q. X}.Y.g.t.g.g.g.G.J.T.J.c.G.Y.].|.oX}.].].D.G.G.L.Y.Y.Y.L.T.Y.E.].oX#X#X#XoX}.].oXoX}.].}.E.].].T.T.Y.Y.G.Y.Y.L.G.G.D.h.S.G.L.Y.T.].oX#XoX#X XoXoXoX#X#X#X XoXoX#X X#X#X$X#X$X$X$X$X$X$X$X=X=X$X=X=X$X=X=X;X3X;X=X;X=X$X$X;X$X$X#X X}.}.#X].oX%X*X-X;X;X-X=X=X;X3X=X;X3X=X=X=X=X=X1X;X1X=X;X;X-X=X-X=X;X-X;X;X;X;X=X=X-X;X;X;X=X=X X|.|.|.|. X$X;X;X3X1X3X1X1X1X1X1X1X1X1X1X,X1X;X1X1X1X1X",
"1X1X1X1X1X3X;X;X<X1X3X1X3X1X3X2X2XqX3XT./ H.'.T.H.S.g.G.T.H.H.Y.L.Y.Y.Y.H.Y.T.'.{.J.H.H.'. X'.[.].$X=X=X=X=X=X$X=X=X*X X=X#X X=X#X=X=X3X;X;X=X=X3X3X$X=X$X=X*X$X|.$X*X X#X|.|.#X#X X#X*X X*X*X X#XoX#X#X|.|.oX|.#XoX}.oX].|.oX}.[.].'. X].'.].|. X X X X*X|.*X*X[.3X3X3X3X*X3X:X:X;X:X:X3X2X:X2X:X2X2X2X2X2X3X=X2X=X3X=X3X3X2X2X2X2X2X2X2X2X2X3X2X2X2X2X3X2X2X2X;X:X;X:XuXwXwX2X:X:X:X=X*X*X*X*X*X*X*X*X=X=X=X=X=X#X}.].}.}.}.}.Q.}.Q.!.!.T.J.x.c.G.J.!.T.!.T.T.T.G.Y.'. X X#X=X&X$X&X$X#X#X$X$X$X$X$X}.].T.E.].].E.]. X$X#X#X#XoX#XOX#XOX XoX X#XoXoXoXoXoXoX}. XoX X XoX XoX X XoXoX}.oX XoX XoXoXoX}.}.}. X}. X X(.oXoX XoXoX X|.}.}.}.}.}.}. X].'.]. X X}.E.}.}.oX XOX}.T.J.x.g.G.G.!.Q.Q.!.}.}.#X#X#X#X#X X].'.}. X].].E.T.T.T.].}.}.#X#X#XoX}.}.}.].].E.E.}.E.Y.G.D.g.D.D.L.J.F.D.G.G.Y.Y.Y.Y.T.].]. X#XoX#X#XoX#X#X XoX#XoXoX|.#XOX#X#X$X$X#X$X$X$X$X$X$X=X=X=X=X3X$X3X;X=X=X=X=X=X=X=X1X$X$X&X1X1X#XoX}.oX#X$X-X;X-X&X$X1X1X=X=X1X=X;X1X=X=X=X=X=X3X1X=X*X;X;X-X-X;X-X=X-X;X-X;X-X;X;X-X=X=X=X#X|.|.|.}.|.#X#X-X;X;X=X1X1X1X1X1X1X1X1X1X1X1X1X1X1X1X1X1X",
"1X1X1X<X1X;X1X3X1X2X<X3X1X3X2X1X3X1X3X1X$X XY.t.g.y.g.J.J.H.J.Y.T.Y.J.G.J.J.!.'.J.'.J.J.'. X[.[.|.#X3X;X=X=X=X=X#X*X$X=X#X=X*X#X*X=X=X=X=X=X=X=X=X3X=X=X X=X*X#X=X|.#X#X|.#X*X X X*X*X X*X=X X#X#XoX X#XoX|.|.oX|.|.}.].].|.].oX|.[.[.]. X'.'.|.*X|.=X*X*X X*X X*X3X=X:X*X*X3X*X=X;X2X;X3X2X3X2X:X3X:X2X3X:X=X:X:X:X3X2X3X2X2X2X2X2X2X3X2X2X2X2X2X2X3X2X2X3X2X3X:X;X:X2X2XuX2X2X2X2X:X:X:X=X:X=X*X:X;X;X:X;X=X=X3X=X XE.E.'.!. X}.}.}.}.'.L.G.G.c.G.P.T.!.E.!.!.E.Y.H.Y.T.].|.|.|.|.|. X|.|.#X$XoX#X#X}.T.Y.].oX}.}.}.#X#XoX#X#X XoX#XoX#XoXoXoXOXoX#XoXoXoXoXoXoX X XoX XoX XoXoXoX}.}.oX X XoXoX}.}.}.}.}. X XQ.oXQ. X XoX(. XoXoX}.}.}.}.}.}.}.Q.Q.}.}. XoX}.}.}.}. X}.}.Q.!.T.P.J.J.!.}.}.}.$X$X#X#X#X X$X#X$X=X$X=X#X X|.|.Y.Y.E.].].].}.}.#X|.}.oX}.].].].}.].T.G.g.g.D.G.G.F.F.G.G.Y.T.].T.E.].oXoXoXoX XoXoX|.#X#XoXoX#XoX XoX#X#X#X#X$X$X#X#X$X$X$X$X$X$X=X=X=X=X=X=X3X=X;X;X$X&X=X=X&X&X$X$X$X$XOXoXoX#X#X-X;X;X;X;X-X=X3X1X=X=X=X=X=X3X3X;X=X=X=X=X=X*X-X=X-X=X-X=X$X=X-X-X;X;X;X;X-X#X*X|.|.}.|.].}. XoX$X$X1X1X1X1X1X1X1X2X1X2X1X1X1X1X3X1X2X1X1X1X",
"1X1X1X1X1X1X1X3X2X1X1X1X2X2X2X3X2X,X$XqX3XJ.S.G.y.y.g.J.Y.H.J.H.T.J.G.J.T.T.'.'.'.'.'.'.'.'.[. X X*X=X;X=X;X3X=X X=X#X=X=X X*X$X X=X X$X=X=X$X=X;X=X=X=X=X*X*X X|.=X#X#X#X#X#X X=X#X=X$X=X#X*X#X#X#X#X#X#XoXoX|.}.].}.}.}.oX].|. X]. X[.].[. X X X*X X*X*X*X X=X3X*X*X3X:X=X:X=X3X3X2X2X2X2X3X:X2X3X2X2X2X:X=X=X3X=X3X2X3X2X2XdX2X2X2X2X2X2X2X2X2X2X2X2X2X2X2X2X2X2X:XwX2XuXwXwX2X2X:X:X:X:X:X:X:X*X:X:X=X3X3X;X3X$X}.!.].].}. X X}.Q.}.E.J.P.!.T.T.T.Y.P.Y.E.}. X'.Y.Y.Y.'.'.].].'.'.'.'.}.].].T.].}.'.T.T.}.$X$X}.}.OX#X#X X#XoXoXoXoXoXoX#XoX$X#XOXoXoX}.}.}. X(.oX}.(. X}.oX}.}.OX X}.(. X}.}.oXoXoX}.}.Q.oX}. X X X X(. X}.}. X}.}.}.Q.}.}.Q.}. X}.oX}.}.oXQ.}.}.Q.!.T.E.E.!.T.Y.P.E.}.}.}.#X#X X|.#X#X=X=X=X=X=X=X-X=X=X$X].'.T.'.].oX}.oX#X].].].].].].].].].E.T.L.D.D.G.h.G.Y.T.E.T.Y.Y.T.E.].oXoXoXoXoX#X#X XoXoXoXoXoX#X#X#X#X#X#X#X$X#X$X#X$X$X$X$X$X=X$X=X$X=X$X=X=X=X$X=X3X3X=X;X;X1X$XOX$X$X#X#X#X&X&X;X;X:X;X-X;X=X;X=X;X;X3X;X3X=X=X$X=X=X=X$X$X#X$X#X$X$X*X=X-X=X=X;X;X;X-X*X*X#X X}.}.oX|.oX}.#X#X$X&X=X1X1X;X2X1X1X2X1X1X2X3X1X1X1X1X1X2X1X1X",
"1X1X1X1X1X1X1X1X1X2X1X2X2X2X2X3X1X<X$X2X=XG.g.J.g.g.J.T.T.J.T.T.Y.J.J.J.E.T.'.T.J.'.{.'.{.'.'. X#X=X3X;X;X3X1X=X=X$X$X*X X|.|.#X$X X=X=X=X$X$X=X=X1X$X=X#X=X X*X X*X*X|.#X|.|.|.*X$X=X*X#X*X|.=X#XOX#X X|.oX|.oX}.}.}.[.oX}.oX]. X].[. X].].]. X*X*X*X X X|.*X*X*X:X:X3X3X:X:X:X3X2X2X2X2X2X3X2X2X2X3X3X=X:X=X:X:X=X3X:X3X2X2X2X2X3X2X2X2X2X2X3X2X2X2X2X2X2X2X;X2X2X:X2XuXuX2X2X2X2X:X:X:X:X:X:X:X-X;X;X;X3X=X1X1X$X X X}.}. X X X}.Q.}.].J.J.Q.}.!.E.Y.P.Y.!.].].'.H.H.H.T.{.J.}.|.'.'.}.'.'.T.E.].].E.Y.E.}.$X$X].T.].#X#X#XoX}.oX X#XoX#XOX X$XOXOX XoXoXoX}.oX XoX}. X(.}. XoX X XoXoX}.oX XoX}.oXQ.}.}.oX X}.Q. XoX X X}. X}. X X}.Q.}. XQ.}. XoX X X}. X}.}.}.}.}.}.!.!.E.P.G.G.J.E.}.OX$X=X*X#X*X$X-X;X;X$X$X=X-X=X=X*X=X$X}.T.E.}.#X#X}.].].].}.E.T.T.].'.T.Y.G.S.f.g.g.G.J.Y.E.'.E.T.Y.T.E.}.oXoXoXoX#XoXoXoXoX XoXoX#X#X#X#X#X#X#X#X#XOX#X#X#X$X#X$X$X#X=X*X=X=X=X=X=X=X$X$X=X;X3X3X&X$X@X@X$X$X$X#X$X-X;X;X;X-X;X;X-X;X3X;X=X3X=X3X=X=X$X=X*X$X#X#X=X#X[.[.[.[.#X*X;X=X=X;X-X*X*X$X#XoX X}.}.|.#X#X#X<X<X$X<X3X1X3X1X3X1X2X1X2X3X2X2X1X2X1X1X1X1X2X1X",
"1X1X1X0X2X1X1X1X2X1X2X2X2X2X1X3X X3X1X3X1X1XG.f.g.G.H.J.E.Y.J.T.Y.Y.T.T.'.'.'.J.'.'.'.J.J.J.'.[.=X;X3X;X;X1X;X=X=X=X=X|. X|.|. X#X*X=X*X=X=X=X$X=X=X=X$X=X*X#X#X*X X*X#X|.=X X*X*X X X=X=X$X=X$X#X#X#X#X#XoXoX|.].}.].oX].|.].].[.].].[.[.].|. X*X X*X*X3X|.*X*X*X:X3X:X3X2X:X3X2X2X2X2X2X2X2X2X3X2X2X:X3X=X:X:X:X=X:X3X2X3X2X2X2XdX3X2X2X2X2X2X2X2X2X3X;X3X2X2X:X2X2XuX2XuXuX2X2X2X2X:X=X:X:X2X;X:X;X;X=X=X=X=X;X=X#X X X X}.].!.].}.}.}.T.J.G.T.T.!.!.!.!.E.E.{.Y.H.G.H.H.H.H.H.H.'.'.[.|.|.].].].].E.T.T.].].].Y.Y.E.}.#XoX#XoX}.oXoX#XoXoXoX#X#XoX#XoXoX}.}.}.oXoX XoX XOX}.}.}.oX}. XoX XoX}.oX}.}. X}.Q.}.oX X X}.Q. XQ. X X}.}.Q.}.}.}.}.Q.}.oXOXoXoX}. X!.!.}. XQ.}.}.].T.P.P.T.Q. XoX$X=X#X=X=X=X-X-X=X=X;X-X=X=X=X$X*X$X}.T.T.].}.].E.}.].}.oX].Y.T.].].T.G.g.f.f.g.D.H.P.Y.Y.T.E.].].E.].oXoXoX}.oX#XoX#XoX#XoXoXoX#X#X#XOX#XOX#X$X X#X#X#X$X#X$X#X$X=X#X X=X$X=X=X3X;X3X3X=X$X;X=X;X1XOXQ.E.E.Q.#X1X;X&X:X;X5X-X;X;X$X=X=X$X=X=X=X=X X=X$X=X#X#X#X X#X[.[.].[.oX*X*X=X=X=X=X*X#XoXXXoX}. X}.}. X#X#X<X3X3X1X1X1X1X1X1X2X2X1X1X1X1X1X1X3X;X2X2X3X2X1X",
"1X1X,X1X1X1X2X1X3X1X1X3X3X3X3X1X2X1X3X!. XzXJ.J.G.G.J.J.J.J.Y.J.T.T.!.].].T.'.T.'.'.'.{.J.{.{.].;X1X2X3X3X2X3X=X;X=X|. X|.|.|.|. X=X*X$X$X=X=X=X=X=X=X=X=X X*X#X#X*X X#X*X#X|.#X#X=X X*X#X#X$X|.#X#XOX#XoX|.|.#XoX].oX].oX].].].|.].].|. X].].*X=X=X X=X|.*X*X*X:X:X:X3X2X3X2X2X2X2X2X2X2X2X2X:X2X2X:X2X3X2X:X3X2X3X3X2X2X2X2X3X2X2X2X3X2X2X2X2X2X3X2X2X2X2X2X2X:X:X:XuXuXuXuXuXuX2X2X2X:X:X:X:X:X;X;X;X=X=X;X=X=X X X].}.].!.}.T.Q.}.}.}.Q.P.J.P.T.E.Q.'.E.T.T.H.'.H.F.H.H.H.F.S.S.S.H.'.|. X|.}.].].].].E.T.T.L.Y.E.}.oX}.].oX].oXoXoXoX XoX#XoXoXoXoX XoXoXoX X(.}.oXoX}.oX XoX X XoX XoXoX}.oXoX}.oXQ.}.(. XoX}.(. X XQ.}.Q.(. X X}.Q. X XQ. XoX}.oX}. X}.}.Q.E.E.T.}.}.Q.!.oX X}.}.}. X X}.=X$X*X=X=X=X$X$X;X;X-X$X=X$X*X*X#X#X}.].T.Y.L.D.T.].}.#XoX].T.].].Y.g.f.g.S.G.L.Y.T.Y.T.E.].}.}.E.].#XoX}.oXoXoXoXoXoXoXoXoX#XoX$X#X$X#X#XOX#X$XOX$X$X#X$X#X$XOX X$X X=X=X=X3X=X=X=X=X=X=X=X1X=X<XoXT.J.G.L. X0X;X;X;X;X:X;X-X-X=X=X=X$X=X=X=X=X=X=X=X X$X=X*X#X#X#X|.[.[.oX#X#X*X*X*X$X*X#XoX|.].|. X}.}.}.#X<X1X1X1X1X1X1X1X1X3X2X3X1X1X2X2X1X;X2X1X3X1X1X3X2X",
"1X1X1X1X1X1X1X2X1X2X:X;X=X*X;X2X=X$X1X=X<XzXy.g.J.L.J.Y.!.].].T.T.!.].].T.J.'.'.'.'.'.{.J.J.'.}.1X2X2X;X1X2X1X-X|. X|.|.|.|.=X=X=X$X=X$X=X=X3X=X=X=X=X$X*X X#X X*X X*X|. X X*X|.*X X=X$X#X=X$X#X#X XOX#XoX|.oXoX].oX}.}.}.oX].]. X].[.|. X[. X=X=X=X X*X*X*X*X:X:X3X3X7X2X2X2X7X2X2X2X2X2X2X2X3X2X2X3X3X:X2X2X3X2X2X2X2X2X2X2XdX3X2X2X2X2X3XdX3X2X2X2X3X:X2X3X2X:X:X:X2XuXuX2X2XuXuX2X2X2X2X:X2X:X:X:X3X=X1X-X;X X}.].E.!.Q.}.}.!.}.Q.T.!.oX}.T.}.!.T.Y.J.J.T.T.|.].H.H.S.H.G.S.H.H.H.'.}.|.[.'.].].E.].].].'.T.H.T.#X$X#X].].oX}.}. XoXoXOX#XoX#XoX XoXoXoX XoXoX XoX X XoX}.oX X(.oX X(.}.oX X XoX}.Q. X}.}.}. X}. XQ.}.}. X}.oX}.}.Q.}.}.}.}.oXoX X X}.(.Q.}. X}.!.E.Q.oX X X}.}.}. X#XoXoX#X=X=X-X-X-X-X*X-X*X*X-X*X$X=X-X-X$X&X;X$X].L.D.D.g.D.Y.].].T.Y.E.G.g.f.f.D.H.H.L.Y.T.'.].}.].'.T. XOX$XOX}.}.oX#X#XOXoX XoXoX#X X#X$X#X$X$X#XOX$X#XOX X$X#X$X#X$X#X*X*X=X$X=X=X=X;X=X1X=X=X=X$X$XQ. X$X>X X!.}.$X&X-X&X;X-X;X:X-X$X$X$X=X X=X#X$X=X=X=X$X=X$X$X=X$X*X#X*X|.XX|.[.#X#X#X#X|.#X|.#X].|. X XE.].#X<X2X1X1X1X1X1X1X1X2X1X1X2X1X2X3X2X1X3X1X3X2X2X1X1X",
";X1X1X2X2X2X1X1X3X2X2X2X1X1X3X=X2X2X|.=X3X2XJ.'.H.{.J.'.'.T.E.T.].T.T.T.Y.E.Y.E.'.].].Y.oXY.H.].0X-X:X:X-X*X;X:X*X|.|.|.|.*X=X=X=X*X*X X=X3X:X=X=X$X=X=X#X X*X#X X#X*X X|.|.|.*X|.#X#X#X=X X*X#X$X=X X*X X X|.].].].[.].|.|.|.#X|. X#X#X#X#X*X*X*X*X*X:X*X*X:X*X:X:X7X2X7X2X7X2X2X2XdX2XdX3X7X3X:X:X:X:X:X2X:X2X:X2X2X2X2X:X:X:X2X3X2X2X3X2X2X2X2X2X2X3X2X3X7X2X7X2X2X2X7X2XdX3XdX2X2X2X2X2X2X2X*X7X2X3X3X3X3X:X X X}.Q.!.P.!.B.J.W.!.!.Q.Q.Q.Q.J.Y.L.T.T.R.T.].H.|.'.H.S.H.H.S.S.'.;X;X=X=X$X|.}.}.}.Q.E.T.L.G.$X#XoXoX}.}.oX}.E.Q.}.}.oXoX XoX XoXoX}.oXoXOX X X X#X#X X#X#X X X}. X X#X X X}.oXoX(.Q.!.Q.}. X].!. XT.T.J.'.!. X X X X!. XoXQ.}. X XQ.Q. X X}.Q. XQ.Q.!. XOX X X}.}. X X#X=X=X=X=X-X&X*X*X-X-X-X=X-X$X-X-X-X;X&X$X1X$XoXY.Y.Y.g.D.G.G.G.G.D.L.c.g.g.g.G.J.J.].!.'.T.].!.].!.}.oXoX#XoX XoXoX XOXoXOX#XOX#XOX#X$X$X#XOX#X#X#X#X#X#X#X#X$X#X$X#X X#X=X=X=X=X=X;X|.;X2X:X=X|.[.].}.(.oXoXoXT.E.1X&X&X&X;X&X&X$X$X*X*X=X=X$X-X$X*X#X%X#X+X$X%X#XOX$X=X#X*X X=X=X X X#X*X#X X#X#X X X}.].|.|.|.=X;X2X0X:XuX:X2X6X:X2X1X1X1X3X1X2X2X1X1X2X1X1X1X2X2X",
"1X1X3X2X2X1X1X2XeXiX2X1X2X2X2X=X=X$X2XiX{.|.{.y.H.J.T.E.'.E.'.T.E.].].T.T.T.T.T.L.{.Y.T.].T.Y.].:X:X:X:X;X*X-X;X=X=X=X=X*X=X=X=X=X=X=X=X3X=X=X*X=X=X=X X*X*X X#X|.*X*X#X|. X=X$X*X#X*X X X*X$X#X=X#X#X X#X|.|.].[. X[. X|.|. X|.|. X#X#X#X X#X#X*X*X*X*X*X:X*X:X3X:X2X7X2X2X2X2X7X2X2X2X7X2X3X:X:X:X:X*X:X:X2X:X2X:X2X2X2XnX2X:XdX2X2X2X2X2X2X2X2X2X2X2X3X3X2X2X7X2X2X2XdX2X2X7X2XdX2X3X:X:X2X7X2X2X2X2X3X3X=X XE.Q.T.!.Q.!.!.!.!.!.W.!.T.T.T.P.T.T.T.T.Y.Y.Y.L.|.'.}.|.|.H.H.}.$X2X2X3X3X=X$X}.}.].E.T.L.G.T.].OXoXOX#XoX}.}.}.}.}.}. X XoXoX X(. X XoX XoX XOX X X X X X X XoX}. X}.}. X X XoX}. X XOXOX X!.!.J.J.J.'.'. X X[.'. X X}.}. X XoXoX X X}. XQ.Q. XOX X<X X X X}.}. X X|. X#X$X=X=X=X$X-X$X-X&X*X&X-X=X$X-X$X-X-X;X$X;X$X$X}.Y.G.L.g.S.D.D.g.f.f.f.y.y.g.G.G.J.T.J.!.J.J.!.].]. X XOX#XoXoXoXoXoXoX X#XoXOX#XOX#XOX$X$XOX#X#XOX#X#X#XoX$X#X$X$X#X$X#X=X=X;X=X=X=X=X=X=X#X|.].|.|.|.OX&XOXOXQ.L.P.OX$X$X$X&X;X;X;X1X=X=X-X$X$X$X%X#X#X%X#XOX#X%XoXOX X=X=X X$X#X X*X X#X X*X*X X#X=X|.|.|.|.#X*X=X:X6X:X2X:X:X:X:XwX:X2X1X2X1X2X2X2X1X1X3X1X2X2X2X2X",
"1X1X2X2X2X1X2X3X3X;X;X1X1X3XT.g.2XgX2XJ./ H.G.'.H.H.'.'.'.E.'.'.].T.E.'.].Y.].T.Y.E.T.E.].T.Y.E.2X:X:X:X:X*X=X*X=X=X;X3X=X=X=X=X=X=X=X=X3X3X X*X=X=X$X*X$X#X X X X*X#X X|.*X X*X#X=X#X*X*X X X*X#X*X#X*X|.|.].].|. X X|.|.|.|.|.}. X#X#X|. X X=X*X*X*X*X*X*X:X:X:X:X7X7X3X2X2X7X2X2X7X2X2X3X2X:X:X=X:X:X:X2X:X2X:X2X2X:XdX2X2XdX2X2X2X2X2X2X2X2X2X3X3X2X:X=X2X2X2X2X2X7XdX2XdX2XdX3X2X2X:X:X3X3XdXdX3X3X2X3X=X XE.!.!.!.Q.Q. XQ.T.E.P.Q.E.!.!.E.E.T.T.T.{.R.L.F.H.S.G.[.'.H.'.2X1X2X3X=X;X2X;X X].}.E.Y.L.L.}.$XoX$XOXoXoX XoXQ.}.(.}. X XQ. X}. X(.}. XoX X XoX X X X X X X X X X X X}. X X X}.oXQ.P.J.J.T.}.}.'.].'. X#X X X'.T.!.!.}.}.!.Q.}.oXQ.!.}.}.!.Q. X}. X X X(. XQ.}.}.}.oX#X$X=X$X;X-X-X-X;X-X-X-X-X-X%X-X-X-X$X-X-X1X$X;X$X}.Y.G.D.D.G.D.D.S.g.g.f.g.S.J.J.J.T.'.].].T.'.}.}.!.}.}.#X#X#XoX#XoX XOXoX#XoX#XOXoXOX#X X$X#X#X#XOX#X#XOX#X#X$X$X$X$X$X=X=X=X3X=X=X$X#X=X=X#X].[.|.=X$X}.OXoXoXoXT.E.$X$X$X$X;X;X1X;X;X-X-X=X*X&X$X=X%X#X%X%X%X#X#X%XoX$X$X$X*X X*X$X$X X*X*X$X X#X#X*X X}.].|.-X;X:X0XwX:X7X:XuX:X7X:X2X1X2X1X1X2X1X2X1X2X1X2X1X2X3X2X",
";X1X1X1X1X2X1X2X2X1X2XqXfX1X XH.y.H.{.y.S.H.H.[.H.'.'.'.].}.].].].].].E.E.'.E.'.].].].].T.G.D.F.;X:X:X-X:X:X*X;X=X=X:X=X=X*X3X3X=X=X3X=X;X=X X=X=X=X X$X X*X*X*X|.#X X*X|. X#X#X#X X*X X#X*X X*X|.*X X|.|.|.|.].*X#X|.|.|.|.|. X#X#X#X X|.*X X#X*X*X*X*X:X:X:X:X:X7X3X7XdX7X2X2X2XdX2X7X2X2X:X:X:X:X:X:X:X:X2X:X2X2XdX2X:X2X2X:X2X3XdX2X2X2X2X2X3X2X3X3X=X:X3X2X2X2X3X7X2X2XdX2X2X2XdX2X3X7X7X2X3X2X2X2X3X3X*X X}.Q.Q.!.!.Q.!.Q.!.Q.!.Q.Q.Q.}.}.}.E.E.T.T.{.Y.H.H.'.T.H.'.'.=X2X=X=X#X X$X2X3X$X}.}.oX X].}.oXOX#X#XoXoXoXoX}.}.}.}.}.Q.oX}.}.Q.}. X XoX X(. XoX$X X$X$X#X XoX X X X}.}.]. X}. X!.Q.}. X}.!.J.T. X X X#X=X X].'.!.T.Y.Q.Q.J.P.T.Q.T.!.}.}.!.Q.}.!.!.!.Q.}. X X}.}. X|.=X=X=X=X=X=X-X;X-X&X;X-X-X-X$X-X$X-X-X-X;X&X=X&X$X}.G.D.h.G.F.G.D.D.G.G.G.J.E.}.].].T.T.!.!.T.].].}.'.}.#X#XOXOX$XOX#X#XOX#XoX XOX#X#X#XoX#X X#XoX#X#XoX XoX X#X$X$X$X$X$X=X=X=X3X=X=X$X#X=X|. X X|.=X$XoXE.Q.}.oXoXQ.].&X$X&X&X;X&X&X;X&X$X=X=X-X;X;X-X;X&X&X$X#X#X%X%XoX*X=X X*X*X X X=X X X=X X*X X=X X$X}.].#X;X2X2XwX:X:XwX:X:X:X7X6X2X2X2X2X2X2X2X2X1X1X1X2X1X<X2X2X",
"1X2X2X3X2X2X1X2XqX2X3X1X2XeXeXeXy.T S.H.S.{. XH.].].].].}.}.].E.].E.T.].'.E.'.E.E.'.'.T.G.D.F.g.#X;X2X-X;X;X*X;X=X=X=X=X$X$X=X2X=X=X=X=X=X*X=X=X=X#X=X*X*X X*X X*X#X#X|.=X|. X*X*X#X$X#X#X*X X*X|.|.*X|. X].|.].|.|.|.#X#X#X X X X X X$X*X X*X#X*X*X*X:X:X:X:X:X2X2X2X3X2X2X7X2XdX3X2X7X7X3X:X:X:X=X3X:X2X2X2X2X2X:XwX:X2XuX:X2X2X2XdX2X2X2X2X3X2X3X3X=X=X=X2X2X2X2X2X2X2X2XdX2XdX2X2X2X2X2X2X7X2X2X2X2X;X=X|. X X X}.}.!.Q.Q.!. X XQ.}.Q.Q.!.E.oX}.T.Y.L.Y.R.Y.G.'.H.S.'.1XiX2X1X2X;X=X=X=X=X#XoXoXoX#X$X$XOXoX$XOX XoX}.oXoX}.Q.!.!.}.}. X}.}.}.oX X XoXoXOX X3X$X X X|. X X XoX}.]. X].]. X!.Q.}.}.}.L.c.c.Y. X X X X X]. X].!.Y.P.!.!.T.P.!.T.J.T.Q.OX}.Q.}.!.!.E.!.}.}.oX X X#X$X=X=X;X;X=X;X$X;X=X-X=X=X-X$X=X-X=X=X=X=X;X;X&X;X$X}.Y.D.D.L.F.S.S.D.G.Y.T.T.].].].Y.H.P.Y.].T.T.].].!. X XOX#X$XOXOX#XOX#XoXOXoX#X#XOX X$X#X#X#XoXOX X#X#X#XoX#X$X$X$X$X$X$X#X$X$X&X&X$X$X|. X}.}.oXoX#XE.oXOXoXoX+X.X].%X&X$X&X&X-X;X-X&X;X;X;X;X:X;X;X0X;X%X$X#X%X@X#XoX X*X X X|.|.|.#X#X#X X*X*X#X X*X$X|.[.#X;X0X:X:X:X:X6XwX6X:X6XwX2X2X2X2X2X2X1X1X1X2X1X1X2X2X1X2X",
"1X1X1X2X1X1X1X2X2X3X=X3X3X3X2XfX2XH.F.S.S.H.'.{.].}.].].].E.].T.].].'.T.T.].T.].T.Y.E.T.G.Y.Y.L.Y.:X;X*X;X:X*X:X=X=X#X#X#X=X3X3X X$X=X#X#X*X$X=X=X X=X X=X=X#X$X=X X|.|.|.=X#X*X X*X X*X=X X#X#X#X X#X X#X|.|.].|.|.|.|. X*X$X*X#X$X=X=X#X#X X*X*X*X*X:X:X*X:X:X2X2XdXdX2X2X7X2X7X7X2X3X:X*X:X:X2X3X:X:X:X2X2X2XuXwXwXuXuX2XuX2X2X2X3X2X2X2X2X3X2X3X=X=X*X:X3X2X3X2X2X2X2XdXdX2X2X2XdX2XdX2XdX2X2X2X2XiX2X|.|. X#X X}.Q. X!.Q.}.!.W.T.Q.}.oX}.E.E.E.Y.D.S.F.Y.K.S.S.H.'.$X2X2X1X=X1X3X3X#X#X#X*X&X#X XoXoX$X$X#X$X#XoX].}.}.}.].E.!.].}.}.}. X XOX XOX#XOX X XOX$X X X$X X|. X X X X}.}.!. X'.!. X!.G.c.g.u.J.OX$X X$X X'.J.'.!.!.T.T.!.}.}.}. X!.!.Q.oX XOX X!.Q.}.}.}.}.}.}.}.#X#X$X=X=X;X=X=X-X;X-X-X;X;X;X;X-X=X=X$X-X=X-X=X1X$X$X#X].L.F.G.Y.L.D.S.D.Y.Y.T.T.T.T.J.P.H.J.T.T.!.!.].'.!.}.#X#XOX$X#X#XOX#XOXoX#XoXOXOX#X#XoX#X#X#X#X#X#X#XoX#X#X#X#X$X$X$X;X$X#XOX$X&X&X&X$X=X#X XE.}.$XoX XoX#XoX.XoXoXoXOXOX#X%X;X;X;X1X1X1X2X2X:X:X:X0X;X;X:X@X%X#X%X%X#X*X X#X#X$X|.$X|.*X#X X*X$X=X=X#X$X}.'.|.;X2X:X;X:XuX2X:X:X7X:X:X2X2X2X2X2X2X1X1X3X3X1X1X2X<X2X2X",
"2X3X1X1X1X1X2X2X2X2X2XeX2X2X1X2X3XH.S.S.{.J.H.'.'.].].].E.].T.T.'.T.].Y.T.].E.'.].T.].].G.Y.].Y.F.;X2X*X;X;X|.;X;X=X|. X#X=X X X X|.=X=X=X$X#X=X=X=X*X X X*X*X*X*X*X X|.|.#X#X|.*X X*X X#X*X#X=X|.*X|.#X|. X|.|. X|.|.|.*X=X=X$X$X$X$X X*X X*X=X*X:X*X:X:X*X*X:X7XdX2X2X2X2X2X7X7X3X3X:X:X:X3X7X:X:X:X:X:X2X2X2XwXuXuX2X2XuX:X2X2X2X2X2X2X3X:X=X3X3X=X*X*X*X3X2X7X3X2X2XdX2X2XdX2XdX3XdX2X2X2X2X2X2X2XiX2X=X#X|.$X X}.}.Q.Q.}.Q.P.P.!.Q. XOX}.!.Y.T.Y.D.S.L.{.].1X=X$X=X1X3X=X|.$X#X#X#X#X|.|.$X$X#XoX}. X#X#XoX#XoXoX}.oX}.].T.Y.T.E.!.}. XOX#X#X#X$X X$X$X#X$X X=X X=X#X|. X X#X X X X X|.'. XP.J.]. X X X X X$X$X X X!.'.!.T.T.!.T.T.Q. XOX X}.oX X!.Q. XQ.J.J.T.Q. X}.Q. X X$X$X=X3X3X1X=X-X;X=X=X;X=X;X=X-X$X-X-X*X$X-X=X;X$X$X$XoX].Y.G.G.Y.G.H.L.Y.T.E.T.T.T.T.T.T.T.T.T.!.T.].].E.'. X#XOX#XOX#X#X#XOX#X#XOX#X#X#XOX#XoX#X$X#X#XoX#X#X X$X$X$X#X#X$X$X&X$XOX}.OXOX&X&XOX&X$XoX}.oXOX$X@XoX+XoXXX%X$X%X;X%X&X-X;X;X0XwX0XwX2X2X0X1X:X;X;X6X&X&X#X%X%X%X$X=X$X*X X*X#X#X=X*X X|.#X=X=X*X#X X].].|.;X:X0X2X:X:X:X:XuX:X6X:X2X1X2X2X2X2X1X3X1X3X3X1X1X1X<X2X",
"2X2X1X3X2X3X2X1X1X3X<X3X1X1X2XfX2XS.H.F.S.S.|.{.T.'.T.T.T.T.T.].E.T.T.E.T.T.'.E.].T.E.Y.g.G.E.D.S.:X2X=X;X;X#X;X;X*X X X#X X'.'.'. X#X3X=X=X*X X#X#X=X=X#X$X X=X#X X X|.$X*X#X X$X*X X*X#X X*X X X*X*X#X|.*X X X*X|.|.=X#X#X X*X$X=X=X=X=X$X#X=X*X*X:X:X:X:X:X:XdX3XdX2X7X3XdX3X3X7X:X:X*X:X3X7X:X2X:X2X2X2X:X7XuX2X2XuXuX2XuX:X2X2X2X2X2X2X=X:X3X=X*X*X3X|.=X2X2X7X3X2X2XdX2X2X2XdX2X2X2XdXdX2XdX2X2XiXiX2X*X X$XOX X XQ.!.!.Q. X}.}. XoXQ.T.J.Y.].].{.{.XX;X:X#X=X|.|. X3X3X;X;X=X*X#X X X|.*X}.oX$X$X#XOX#X#X#X}.}.#X#XoXT.L.J.T.'.]. XOX#X#X#X X X$X#XOX$X#X=X X=X X$X#X X X#X X#X|. X X].'.Y.J.J. XOX}.T.Y. X].T.J.'. X].Q.!.Q.!.P.!. X XQ.OX<X XT.Y.Q.T.c.t.x.!. X}.}.OX#X$X;X1X=X;X=X=X=X-X;X;X-X;X-X;X;X-X*X=X$X=X=X=X=X$X$X#X XT.G.G.G.D.G.G.Y.E.].E.Y.'.T.J.T.T.J.T.Y.'.T.T.!.T.J.}. X#XOX#XOXoXoX#XoXoXoX XOXOXOX#XOX$X#X$X$X$X#X$X#X1X$XOX#X#X$X$X&X$XOXoX}.OX$XOXOXoXoXoX(.oX#X@XoXoX$XoX.X+X$X$X&X;X;X;X1X:X:X:X;X:X:X:X:X0X:X2X:X;X;X&X#X$X$X$X%X=X$X*X=X$X*X#X*X X*X*X#X X=X#X X].].].#X;X:X0XwXwX:X:XuX:X:X6X6X2X1X2X2X1X1X1X<X=X1X<X3X3X1X3X3X",
"3X2X<X2X1X=X2X3XeXJ.2X2X2X3XfX2Xr.r.S.y.S.'.'.'.'.T.T.T.T.].].].].].].T.Y.].].].T.T.Y.L.G.L.Y.Y.F.0X;X|.1X2X=X2X#X$X X X'.!.'.'.'.|.=X=X=X$X=X*X*X*X#X$X X*X#X#X#X X X#X X#X X*X X*X#X*X X X*X#X=X=X=X#X X X#X*X*X=X*X=X*X=X=X=X$X=X=X3X=X$X=X=X=X;X:X:X:X:X*X:X3X2XdX3X2X2X2X2X2X2X3X2X2X2X3X3X:X:X:XwXwX6X2X:X:X:XwXwX2XuXuX2X2XdX2X2X2X3X=X3X3X:X*X*X|.*X:X3X3X:X2X2X7XdX2XdX2XdX2XdXdX3XdX2X2X2X2XdXdX2X:X[.|.*X X X}.}.}.Q.Q.}.E. X#X XE.G.G.].Y.H.].;X*X*X$X$X=X=X=X;X;X=X=X=X=X|.|.|.[. X#X#X#X}. X}.}.}.}.#X$X|.].].T.Y.}.].'.'.}.#X#X#X#XOX#XOX#X X$X$X3X=X=X=X X=X$X*X#X X#X#X=X=X|. X}.].}.}. X}.E.T.'. X$X X}.'.E.T.T.}.].Y.}.oXH.2.t.c.!.T.T.T.T.J.c.G.P.}. X X#X#X=X&X=X-X*X*X;X;X3X;X=X=X=X=X3X=X$X=X=X=X=X$X3X;X$X;X=XoXT.H.G.D.L.H.Y.T.].].E.T.T.Y.Y.Y.Y.Y.Y.Y.Y.T.T.].E.Y.].#XOX XOX#XoXOX XoXOX#XoXoXoX#XOX$X$X$X$X$X$X#X#X#X$X#X$X#X#X$X$X$X1X+XoXOX$XOXOX$XOX$X#X#XOXOX@X$X%X%X%X%X5X5X6X0X;X6X6X0X6X;X6X0X2X:XwX:X2X:X2X:X6X;X&X%X$X$X-X-X;X;X;X-X=X*X$X$X*X#X#X$X*X*X#X*X#X}.|.$X2XwX0X;X2X6X2XwX:XuX:X7X2X2X2X2X2X1X1X1X=X=X=X=X$X=X$X=X",
"1XeX3X2XiX1X2X$X1X1X X1X2X2XfXg.S.S.S.S.H.'.'.'.'.'.T.T.E.'.E.].T.].E.Y.T.E.'.'.T.T.E.T.T.Y.Y.Y.f.-XiX2X=X'.g.G.'.'.'.H.J.!.'.'.|.|.=X=X=X=X$X X X=X=X X*X#X X=X*X*X*X X*X*X|. X#X X*X X*X#X X*X X=X=X#X#X*X X#X X X*X=X*X X*X=X$X X$X$X=X$X$X=X=X;X;X;X:X:X:X:X2X2XdX2XdX2X2XdXdX2X2X7X2X2X2X2X:X2X:X2X2X:XwX2XuX2X:X2XuX:XwX:X2X2X3X2X3X2X:X3X:X3X=X:X=X=X:X3X7X2X*X:X7X3X2X2X2X2X2X2X2XdX2X2X2X2X2X2X2X:X=X X*X*X X X}. X}.Q. X}.E. XQ.g.J.'.T.}.'.'.|.;X*X#X3X=X=X;X3X;X=X$X*X*X|. X|. X X*X}.}.#X$X$X=X=X$X}.oX}.].'.'.].#X}.}.}.}.}. X#X=XOX#X#X$X$X$X$X$X=X X X*X X*X=X X=X$X=X#X#X|.$X=X$X<X$X XoX}.}.'.E. X#X#X XOX X}. XOX XQ.!.}.J.g.G.Y.T.J.J.P.T.T.}.}.T.T.Q.Q.$X&X&X$X-X-X;X;X;X=X$X=X=X=X=X3X=X3X=X=X3X=X=X=X=X3X$X$X#X].Y.L.G.Y.Y.T.E.].}.}.}.].].].E.Y.T.E.T.T.Y.Y.T.T.Y.Y.].#X#XOXoX XoX#XoX#X$X#XOX#X#XOX$X$X$X$X$X$X#X#X#X#X$X#X#X#X#XoX#X#X<X}.}.oX&XoXoXOXOX$XOXOXOXOX$X$X$X%X&X;X&X5X;X0X0X5X5X;X0X6X;X6X:X:X:X2X:X0X;X2X0X;X;X;X$X-X;X;X;X;X:X-X;X-X-X*X*X#XXX*X*X#X#X*X$XoX|.=X1X2XwX:X:XwX:X:X:XuX7X:X2X2X1X2X2X2X1X3X3X=X=X$X=X=X=X=X",
"1X2X3X2XwX1X2X;X=X3X}.|.2XfX2Xy.F.S.S.H.H.'.'.'.'.T.T.T.'.T.Y.Y.T.T.E.].E.E.Y.Y.L.Y.Y.Y.T.Y.H.G.f.r.S.=XE.^ / }.T.H.H.J.J.].].T. X#X=X$X=X#X=X*X X*X*X#X X*X X*X*X$X*X=X#X*X#X#X#X#X*X*X#X#X=X#X#X=X=X X*X*X#X=X=X*X=X X X*X X*X X3X=X$X$X=X=X$X:X*X;X;X:X:X:X:X2X2X3XdX2X2XdX2X2X2XdX2X2X2X2X2X2XwX2XwXwX2X2X:X2XwX:X:XwX2X:X:X2X=X:X3X2X=X3X=X=X:X3X2X3X2X2X2X:X:X:X*X:X:X3XdX2X2X2XdX2X2X7X2XdXdXdX2X7X2X:X*X=X*X|. XOX#X XE.!.}.'.#X}.J.]. XT.'.'.].*X;X*X*X=X=X;X3X2X1X;X=X3X*X|.|.|.|.|.|. X|.$X;X;X=X*X X X[.].].H.J.].=X].oX|.|.}.oX#X;X=X$X=X=X=X=X=X=X X=X*X*X X=X=X*X=X3X3X$X X#X=X3X2X3X3X$X#X X X X}. X XoXOX#XOX X}.}.}.E.P.J.P.J.Q.}.}.].E.Q.oXOX X}.T.G.J.T.oX$X-X$X*X;X;X:X-X*X=X#X$X$X=X=X=X=X;X3X=X$X=X=X=X;X#XoX}.T.L.L.Y.E.].].}.#XoX#X#XoX].}.].].].].E.Y.Y.Y.Y.E.T.T.].$XOX#XOX#XoX#X#XOXOXoX#XOXOXOX$XOX$X&X$X$X$X$X#XOX$X$X$X$X#XOX XoX$X}.}.OX$XoXoX$X$XOXOX$X$X&X&X&X;X&X6X;X6X0X6X0X6X;X6X:X:X:X6X2X2X:X2X:X2X:X:X:X0X2X;X;X;X;X;X;X:X;X0X;X;X;X;X;X*X#X#X*X*X#X|.#X#X#X#X#X-X2X0X6X2X:X:X:X:X:X6X:XeX2X2X1X1X2X1X3X1X=X3X=X=X;X3X=X",
"3X1X1X1X3X3X2X2X=X#XaXfXiXfXr.y.F.S.S.H.'.H.H.'.'.'.'.'.].E.T.T.T.T.].].'.Y.Y.L.H.L.Y.T.T.Y.L.G.Y.>.L ^ y.Y.Y.f.T.J.T.J.'.!.!.J. X=X=X=X X=X#X*X=X=X X=X$X*X*X X=X#X X=X#X$X*X X X#X*X X=X*X X=X=X=X=X=X#X X*X X X=X X*X X*X=X=X$X X=X=X=X=X=X=X*X;X:X=X:X:X:X2X2XdX2X2XdX2X2X2XdXdX2XdX2XdX2X2XuX2X:XuX:XwX2X2XwX2X2XwX2X:X:X;X:X3X:X:X=X2X2X=X=X=X:X3X=X:X3X3X:X:X:X*X:X2X2X2X2X2XdX3X2XdX2X7X2X2X2X2X*X*X|.*X=X=X#X|.oX$X XE.T.Q.E. X#X}.#X'.H.L.H.|.:X*X*X;X|.|.=X;X3X1X=X=X3X*X[.[.|.|.|.|.|.#X=X=X=X=X|. X#X|.].].'.H.'.=X|.|.|.|.|.#X=X=X=X=X=X=X=X=X=X=X=X=X X X*X X=X3X3X3X3X=X=X=X3X3X=X$X$X$X#X#X#X$XoXoX}. X}. X}.}.!.!.T.T.L.J.T.}. XOXOXOXOX$X<X<X$XOXOXOXoX$X;X;X$X$X$X=X-X;X*X%X=X=X=X$X$X#X$X=X$X$X=X=X#X*X|.|.}.].'.T.Y.{.].}.}.#X$X$X$X#X#X$X$X$X$X#X#X].T.Y.L.P.Y.T.Y.E.].$X#XoX#XOX#XOX#XOX$X#XOX#X#X#X$X$X$X$X$X$X$X$X$XOX=X$X$X&X$X$X#X#XOXoXoX$X&X$X$XOX$X$X$X$X3X<X;X;X0X5X5X0X;X;X5X6X6X6X;X6X:X:X:X:X:X2X:X2X:X2X2X:X:X:X2X;X5X;X0X;X:X0X:X;X1X;X:X;X;X*X$X*X-X#XXX#X X#X|.|.$X-X:XwX:X:X6X:X:X:X6X:X2X1X2X1X2X2X1X3X1X;X;X1X;X3X=X1X",
"2X2X1X1X2X2X;X|.;X'.'.S.y.H./ |.F.S.S.{.'.H.H.'.Y.'.E.].].].T.Y.T.T.T.'.T.T.T.Y.'.].T.].].T.T.Y.g.G.E.G.>.t.J.G.H.J.T.T.J.T.J.T.|.=X=X*X#X#X=X X=X*X X=X*X$X#X$X X#X X*X X*X#X*X X*X*X X X=X$X*X X=X=X$X*X#X#X#X=X=X*X*X*X*X*X=X$X$X=X$X=X3X=X=X:X:X:X*X*X*X:X:X2XdX2XdX2X2X2XdX2XdXdX2X2XdX2XdX2XwX2X2XwX:XuX:XuXwX2X2X2X:X:X:X3X3X2X2X2X2X3X3X=X:X=X=X*X*X X=X3X3X3X*X7X7X7X7X2X7X7XdX3X2X7X2X2X2X:X:X*X*X=X=X X#X#XoX#X$X XE.!.!.T. X XH.T.J.{.'.'.#X:X-X*X:X3X;X1X;X;X=X X|. X'.'.'.|.*X X X|.|. X*X#X=X=X*X[.'.'.|.|.T.'.=X#X].].[.#X=X*X#X*X*X-X*X$X=X=X$X=X*X*X=X*X=X3X=X2X3X;X=X=X3X:X=X|.=X<X$X$X#X#X#X#X}.oXQ.}.Q.E.E.Q.E.E.oXoXQ.}.&X XOX$X&X3X&X&X&X@X$X<X1X1X,X;X;X-X$XoX[.XX*X*X*X=X$X=X=X$X=X=X$X=X=X3X=X$X X].!.T.].T.].E.].}.}.#X$X;X$X$X#X$X;X#X%X#X$X$XXX].{.Y.Y.Y.Y.R.].].$XOX#X#XOX$X#XOX$X#X$XOXOX$X$X$X$X=X$X$X$X$X$X$X$X$X$X$X$X=X=X=X$X|. X X=X;X$X$X$X#X#X=X$X;X1X2X;X0X0X5X6X6X5X;X6X:X5X:X:X:X:X:X:X2X:X2X:X:X2X:X2X:X:X:X0X;X0X:X;X5X;X6X0X;X:X;X;X:X-X$X-X-X#XXXoX}.}.|.|.#X$X;XwX:X6X6X2X:X:X:X:X2X1X2X2X2X2X1X1X;X1X1X3X=X1X3X1X",
"qX1X1X1X2XeXT.y./ y./ y.S.f.S.G.F.F.H.{.'.H.H.T.Y.T.Y.].E.T.'.E.G.H.L.Y.T.T.E.E.].].].E.T.T.T.].$XD.G.#X].S.h.J.J.J.T.Y.J.J.!.'.]. X$X=X$X=X=X X$X$X=X#X X*X*X=X=X*X=X#X*X X X#X#X X#X$X=X*X=X$X$X=X=X*X|.|.#X X*X X X X X*X X=X$X$X$X3X=X=X=X;X:X=X=X*X*X:X:X:X2X2X2XdX3XdXdX2X2X2X2X2X2X2X2X2XuXuXwXuX2XwX:XuX2X2XwX2XuX2X:X-X3X2X2X2X2X2X2X2X2X3X3X=X*X*X=X=X*X*X3X7X3X:X3X3X2X2X2X2X2XdX2X2XnX2XdX:X7X:X2XdX[. X X|.#X#X X}. XT.J.$X!.y.G.;X X|.*X;X:X:X=X:X2X1X;X1X=X=X=X|. X[.|. X X=X*X*X#X#X*X X#X X#X#XT.'.|.#X$X|. X;X#X[.].[.*X;X-XoX$X$X$X$X=X=X*X*X=X*X*X X*X=X:X=X;X=X=X=X=X:X=X*X3X2X2X2X;X X}.].#X}.}.}.oXE.Q.}.oX}. X$X&X$X$X&X&X&X$X&X$X$X$X&X<X$X$X$X$X$X$X$X$X$X#X[..X[.XXoX X X$X=X=X=X3X3X;X3X3X#X|.'.'.J.E.'.].}. X#XoX#X#X$X$X&X$X$X$X$X#X#X#X*X$X$X$X|.].Y.R.{.Y.].].%X#XOX$X$XOX#X#XOXoXOX$X$X$X#XOXOX$X$X$X$X$X$X$X$X#X$X$X$X$X$X$X|.=X=X=X=X=X=X=X=X#X*X=X3X1X1X2X2X6X;X5X;X5X;X6X;X6X5X:X:X:X6X:X:X:X2X:X2X2X:X2X:X;X:X;X;X1X;X;X:X6X;X;X6X5X:X5X;X-X$X%X-X*X[.[.[.oX}.}.|.oX*X;X;X:X:X:X:X:X:X6X:X2X2X1X2X1X2X1X1X1X2X;X;X1X=X1X;X",
"2X=X2X=X2X2XG.>.H.'.y.y.H.S.'.F.F.J.{.H.H.T.'.'.Y.{.Y.T.E.T.Y.T.L.Y.Y.T.].].].].E.].].].T.H.J.'.G.T.}.T.J.T.}.H.H.Y.J.J.J.!.!.E.'.|.*X#X X=X=X=X=X=X=X=X=X$X X X X=X X=X#X=X*X X#X X*X*X#X=X X3X=X*X=X=X|.|. X|.|.|. X|. X X3X*X$X X$X$X=X;X=X;X*X*X*X:X*X:X:X:X2X7X2X2XdX7X2X2X2XdX2X2X2XdX2XdXuXuXwX:XwX:X2XwX2X2XwXuXuXuX:X:X3X2X2X2X2X2X2X2X2X2X2X:X=X*X=X=X7X*X*X7X:X3X7X2X2X7X7X7X2X2X7X2X:X:X:X:X:X:X:X:X'.[.|.#X#X#X#X#X}. X'.#XT.S. X2X=X:X3X2XuX2X;X:X3X;X=X=X;X;X=X;X3X;X=X=X=X X X[.1X-X=X#X#X|.|.].].|.|.|.=X=X=X;X*X[.[.[.$X;X-X$X*X$X$X*X*X$X$X-X*X=X=X:X3X=X=X=X=X:X;X:X;X:X;X=X2X2XiX2X=X#X X}.].}.}.oX}.E.Q.oXoXOX$X$X$X$X$X&X0X1X&X&X<X$X&X1X0X2X1X1X&X,X;X1X-X-X-XXX[.{.].].'.'.|. X X=X#X$X$X#X X].T.T.{.'.].].}.}.#X$X$X$X$X$X$X$X$X$X$X$X$X%XoX%X%X$X$X%X].E.R.{.'.{.].%X$X$X$XOX$XOX$X$X#X$X$X$X$X@X$X$X$X$X$X=X=X$X$X=X$X$X$X$X$X$X=X=X$X=X:X=X;X-X=X=X=X=X1X2X2X2X2X0X;X6X5X5X5X5X6X5X-X6X6X:X6X:X6X:X:X2X2X:X:X2X:X:X:X:X;X6X;X;X;X:X;X6X;X6X5X:X;X6X;X-X*X-X-X%X|.[.}.|.|.|.*X*X;X:XwX:XwX:XuX:X:X:X1X2X1X2X2X2X2X;X3X2X3X;X;X;X;X;X",
"3X1XfX3X3X1XJ.S.H.y.S.S.'.S.H.H.J.{.{.H.H.{.T.Y.H.H.Y.Y.Y.Y.Y.Y.E.].].}.].].].].].}.#X}.T.Y.'.!.].'.'.}.'.Y.J.G.Y.J.J.G.J.Y.J.J.'.].|.=X*X=X$X#X=X X=X#X=X*X=X*X=X$X=X*X=X#X=X*X#X*X X#X=X=X=X=X*X*X=X#X|. X[.|.|. X].[.[.[.3X*X$X3X3X=X=X3X1X3X*X*X*X=X:X:X:X:X2X2XdX3X3X2XdX2XdX2X2XdXdX2X2X2XuXuXwXuX2X:XuXuX:XwX2XuX2X2X:X;X2X2X2X2X2X2X3X2X=X3X2X2X:X=X*X*X7X3X*X*X*X7X7X7X2X3X2X2X3X2X2X2X:X:X:X:X2X:X:X=X{.'.#X|. X#X$X$X}.1X XY.H.|.3X X*X=X-X=X:X:X:X2X3X3X=X#X$X*X=X=X=X=X=X=X*X*X|.3X=X$X#X*X X X|.|.2X;X=X X|.=X=X|.#XoX|.%X=X-X-X-X*X*X*X$X-X=X=X-X=X=X:X3X2X3X:X:X3X2X2X3X;X;X3X2X1X2X2X1X=X$X X#XE.}.}.oXQ.E.E.}.Q.$X;X;X&X$X&X1X;X$X&X1X0X1X$X1X&X&X&X$X;X&X&X;X;X;X;X#X{.{.Y.Y.H.H.'.'.].].'.'.'.T.H.H.G.H.'.].oXoX}.#X$X$X=X&X1X$X$X$X;X;X;X$X;X*X#X#X#X#X%X$XXX].{.{.R.].].oX$XOX$XOX$X$X$XOXOX#X@X$X$X$X$X#X$X$X$X$X$X$X$X$X1X;X;X$X$X$X=X=X=X-X;X=X=X=X=X=X2X2X2XwX2X2XwX;X6X5X6X6X;X6X6X6X6X:X6X6X:X6X:X:X:X:X2X:X2X:X2X:X:X:X;X:X0X6X1X6X5X6X6X6X6X:X6X:X0X;X-X:X;X*X*X*X#X|.|.#X*X-X;X;X2X7X6X2X:XuX7X6X1X2X2X2X2X2X2X3X1X;X;X3X;X;X3X;X",
"1X1X;X&X2X=XL.t.f.G.F.L.'.L.D.T.J.F.J.J.Y.Y.Y.T.H.Y.G.S.'.].{.[.'.[. X[.].]. X'.].].|.].].].[.'.].'.'.'.'.'.'.'.{.{.H.H.J.{.J.'.H.'. X*X$X$X$X$X=X=X=X$X#X=X$X$X*X X*X#X X X*X#X X|.=X=X=X=X$X X*X*X*X[.[.[.[.3X[.[.[.'.[.[.3X*X=X X*X=X3X3X*X*X3X3X=X=X3X3X7X3X2XuXwX:X2X:XuX:XwXuXuX:X2XwXwXuX2X2XuX2X2XdX2X2XgX2XdX2X2X2X2X2X:X:X:X2XuXwX2X2X2X2XuX2X:X*X*X[.3X*X3X3X:X3X2X3X2X2XnX2X2X2X2X2X3X:X:X:X3XdX3X3X'.y.{.:X:X*X*X*X=X=X#X X|. X|.[.=X=X*X3X:X3X7X:X=X=X=X=X:X3X*X*X*X3X*X3X=X*X3X|.*X|.[. X X X=X3X3X3X3X3X3X3X3X[.*X*X=X=X*X=X=X=X3X3X*X*X3X*X3X3X*X:X3X7X3X7X3X3X2X2X3X;X;X;X1X;X&X$X}.}.}.oX}.}.}.E.E.Q.E.}.}.T.$X=X;X;X=X=X3X2X;X=X=X=X=X=X3X;X;X;X;X=X=X3X=X;X=X1X1X=X}.H.H.H.H.Y.Y.Y.L.G.F.H.D.G.L.Y.}.#X$X#X$X#X$X#X$X$X1X1X$X$X$X$X$X$X$X;X&X=X$X1X$X$X#X#XoX].'.T.].}.}.].OX$XOX$X$X$XOXoX&X$X$X$XOX$X#XOX$X%X$X#X*X$X*X*X$X=X-X;X-X-X;X=X;X*X*X*X*X:X:X:X:X:X2X6XwXwX:X2X:XwX:XwX:X6XwX:X:X:X:X6X2X:XwXwX:X:X:X6X:X6X:X-X6X6X6X6X6X6X:X6X6X6X6X6X6X-X6X6X:X:X2XuX:X;X*X*X[.[.[.*X-X-X:X:X:X:X2X:X2X2X2X2X2X2X2X2X2X2X2X3X1X;X$X1X$X<X;X;X",
"1X1X1X1X;X=XL.r.f.H.G.G.T.Y.G.T.F.J.H.H.J.H.J.H.H.H.S.H.'.[.[.[.].].[. X|. X'.[. X].[.].].].'.'.'.'.'.'.{.J.'.'.'.'.'.J.H.'.'.'.'.'. X#X=X$X=X=X3X$X3X=X=X$X=X$X$X=X#X=X$X*X*X X|.#X#X$X=X=X=X=X*X*X3X3X|. X*X[.[.[.[.[.'.[.3X[.=X*X*X*X*X X*X=X*X=X3X:X7X2X2X3X2XwX:X2X:X2X:XwX2XwX:XwX2X2XwXwXuXuXuXdX2XdX2X2X2X2X2X2XdX2XdX2XwX:X2X2XwX:X2X:X:X:X2X2X:X=X*X*X7X:X*X:X=X:X2X2X3X2X2X2X2X2X2X2X2X3X=X2X2X7X3X:X{.{.3X*X[.3XdX*X|.$X*X#X|.|.*X*X:X=X3X:X=X3X3X=X:X:X=X=X3X:X3X3X:X3X*X*X:X=X*X[.*X X*X*X*X*X=X=X*X:X*X:X*X*X3X3X=X=X*X=X*X*X*X=X3X:X*X*X*X3X:X=X3X:X:X:X:X3X3X7X2X2X1X3X;X;X=X=X#X}.}.E. XoXoX}.E.T.E.}.E.E.Q.E.=X=X;X;X:X=X3X3X=X=X:X3X3X=X;X3X;X;X;X3X;X1X;X;X3X;X=X=X|.|.'.'.G.L.Y.Y.Y.Y.T.E.E.].}. X#X$X$X$X$X$X$X$X$X;X&X1X1X$X&X$X$X$X$X$X;X&X;X&X$X$X$X#X#XoX].].].].].E.oX#X$X$X$XOX$XOX$X$XOX$X#XOX$X$X*X$X$X%X%X$X*X*X-X-X=X;X;X;X;X;X;X;X-X*X*X:X:X:X:X:X:X:X:X:XuX:X:X:X:X:XwX:X:XwX7XwX:X2X6X:X:X:X:X:X:X6X6X:X6X6X6X6X6X6X5X6X6X6X:X6X:X6X6X6X6X6X:X:X:X:X:X-X*X*X*X|.|.*X=X=X-X:X2X:X2X:XuX2X2X2X2X2X2X2X;X2X1X1X1X3X1X1X1X1X&X1X",
"1X&X1X&X$X$XT.*.h.Y.Y.G.T.].Y.T.J.S.G.G.H.H.H.G.T.G.S.H.{.#X-X*X[.].].[. X|.[.'. X'.[.'.'.'.'.'.'.'.'.J.{.'.'.[.'.].'.'.{.{.'.{.'.].]. X$X=X3X=X$X$X=X$X=X3X$X=X=X=X=X=X*X X#X*X*X$X=X3X3X=X=X=X3X3X*X X3X*X|.*X3X[. X[.[.3X X*X=X$X|.|. X X*X=X3X*X=X:X3X2X7X2XwX:X:X:X2X2XwX2XuX:X2X2X2XuXwXuXiX2X2XdX2X2X2X2X2X2X2X2X2XdX2X2XwX2X2XwXwX2X:X-X:X:X:X:X:X:X*X[.3X7X:X=X*X*X3X2X2X2X2X2X2XnX2X2X2X2X3X2X2X3X:X*X:X[. X3X X*X3X3X=X=X=X=X3X|.*X=X=X:X*X=X:X3X:X=X3X:X:X=X=X:X3X3X3X3X*X:X3X=X*X*X X X X3X=X=X=X=X:X*X*X:X*X7X*X:X=X=X*X*X*X*X*X X=X=X*X*X3X*X:X=X:X3X*X3X3X2X2X3X:X;X3X1X3X=X=X$XoX}.oXoXoXoX}.Q.Y.T.}.oXE.'.}.].=X=X;X=X=X=X;X;X;X:X:X=X=X:X:X3X1X;X2X3X1X;X1X2X2X=X$X=X=X$X}.'.Y.Y.H.L.Y.].].}.].#X$X$X$X$X$X$X-X$X&X$X$X;X;X1X$X;X$X$X$X$X$X$X$X&X;X$X$X$X$X$X#X X}.].].].].}.}.oXOX$XOX$X$X&X$X$X$X$X@X$XOX$X*X%X%X$X$X%X*X;X;X;X;X;X:X;X:X:X*X:X:X:X:X:X:X2X:X:X:X2XwX:X:X:X:X:XwX:X:X:X6X:X6X:XwX:XwX:X7X:X:X:X7X:X6X-X6X7X6X6X6X6X6X6X6X6X6X5X:X6X6X:X:X6X:X2X:X:X:X=X*X*X*X*X[.*X;X;X;X:XuX:X2XuX2XuX2XdX2X2X2X3X3X;X;X3X;X;X=X1X&X1X&X;X",
"<X#X1X;X#X;X}.:.D.T.E.Y.Y.T.T.G.J.J.H.J.J.J.H.G.H.F.'.'.{.|.-X*X|. X]. X|.#X[.[.].[.'.!.'.J.'.'.].'.'.'.'.'.].].]. X X'.'.'.'.'.'.'.'. X$X3X3X=X X=X$X3X$X=X;X3X3X=X3X=X$X=X=X X*X*X=X=X=X3X=X=X3X=X*X*X*X|.3X3X[.[.3X X*X|.*X[.=X$X*X X|.|. X=X*X*X=X*X:X:X3X7XwX2XwX2X2X6X2X:X2X2X:X2XwXwXuXuXiXdX2XiXfX2XdXdX2XdX2XdX2X2X2X2XuXuXuXuXuX:X:X:X:X;X:X;X:X=X[.[.3X3X3X:X:X=X=X2X3X2X2X2X2X2X2X2X2X2X:X2X3X3X:X:XdX3X{.'.[.3X3X3X=X*X|.'.{.'.[.3X3X3X3X:X=X=X:X=X3X=X:X:X:X=X=X:X*X:X=X=X=X3X*X|. X*X*X=X=X=X*X X:X:X7X*X3X3X*X3X=X=X=X=X*X=X=X=X=X=X:X:X*X*X:X3X3X:X:X:X2X3X2X7X3X1X2X2X2X;X=X X#XOX$X$XoX].E.T.E.Q.#X$X'.E.}.}.=X=X:X;X:X;X;X1X3X:X=X:X3X:X;X2X3X;X;X;X;X3X;X3X2X=X=X|.=X=X|.'.].Y.G.G.L.T.T.].].#X;X$X$X$X&X$X1X$X;X$X1X$X1X&X;X&X1X;X=X$X$X$X;X$X$X;X$X$X$X$XoX#X}.}.E.].}.}.E.oX$X&X&X$X$X&XOXoXOX#X$X$X$X$X$X$X*X$X*X$X*X;X:X;X;X2X2X:X:X:X:X*X:X:X:X:X7X:X:X:X2X6X:X2X6X:XwX6X:X:X:X:X2X:X2X:XwX:X:X:XwX:X:X7X7X7X6X6X6X6X6X6X6X6X6X6X6X6X6X6X6X6X6X6X6X:X:X:X:X:X:X*X*X*X*X[.*X=X;X:X2X2X2X2X2XuX:XuX2X2X2X2X2X2X3X=X=X=X=X=X$X=X$X$X&X$X",
"&X#X&X;X#X;X#Xt.g.L.].'.Y.Y.T.Y.J.J.J.H.Y.Y.H.G.S.S.].*X*X[.*X*X|.|.].].|. X X].].[.'.'.'.{.'.'.'.].'.'.[. X'.].].]. X].'.'.'.J.J.J.'.|.=X1X=X$X=X=X$X=X=X1X=X;X3X3X=X=X$X$X=X#X X*X=X=X$X=X$X*X*X3X*X*X3X[.*X*X3X[.3X[.*X[.[.3X=X=X#X#X*X=X X=X[. X*X3X:X:X3X3X:X:X:X2X2X2XwXuX2X:X2XuX2XuXuXuX2XiXiX2XdX2X2X2X2X2X2XdX2X2X2XdXuXwX2X:XuXwX2X:X:X:X:X=X:X=X[.[.*X:X3X3X=X=X=X2X2X2X2X2X2X2X2X2X=X:X=X:X3X*X3X2X3X2X3XJ.{.3X:X[.*X[.'.{.{.'.=X=X3X7X:X:X:X*X*X:X2X2X:X2X:X3X3X:X:X3X*X3X3X*X3X|.=X$X=X$X X=X=X=X:X3X:X3X:X3X3X:X*X*X*X*X*X=X=X=X=X3X:X3X:X3X:X:X:X:X2X3X2X2X2X2X;X2X2X2X1X1X$X#X$X$X$X&XoXT.T.E.}.oX&X$XE.E.}.#X=X=X3X=X=X3X3X;X;X3X;X3X3X3X2X;X:X;X3X1X3X;X3X;X=X=X=X#X=X#X X|.}.].Y.G.L.Y.Y.T.}.$X;X;X;X;X1X1X1X&X1X;X&X1X;X<X1X&X$X$X$X$X$X$X<X$X;X&X1X$X$X=X#X#X#X}.].E.].].E. X$X&X$X$X$X$XoX#X@X$X$X$X$X$X-X$X$X$X$X-X;X;X;X;X2X:X:X:X:X:X:X:X:X2X2X:X:X:X2X:X:X6X6X:X:X:X:XwX:XwX:X:X:X:X6X2X:X:X6X2X:XwX6X6X6X6X6X6X6X6XrX6X6X6X6XrX6X6X6X6X6X6X7X6XwX6X:X:X2X:X:X=X*X=X*X*X*X=X2X2X2XuXuXwXuX:X2X2X2X2X3X2X2X:X X=X*X#X=X$X$X$X$X$X$X$X",
"$XoX#X$XoX&X#XJ.g.S.T.].Y.Y.E.T.H.H.J.H.Y.J.F.y.y.S.'.#X*X*X#X*X|.|.].[.|.|.[.].[.'.!.[.'.'.'.'.].'.'.].'.'.]. X].].[.]. X'.'.'.'.'.].=X=X=X=X=X=X=X=X3X;X=X3X;X;X;X;X3X=X=X#X=X*X*X X X=X$X$X#X*X*X*X3X*X3X*X3X[.3X[.3X[.3X3X*X X$X=X=X=X=X=X=X3X*X*X*X*X*X3X7X:X:X:X2X:XwX:X:X:XwXwX2X:XuXwXwX2XdXiX2X2XdXaX2X2XdX2X7XdX2X2X2X2X:XwXwXwX2X2X:X:X;X;X:X:X:X*X*X*X*X2X3X:X:X2X3X2X3X2X3X2X2X2X2X*X=X=X=X:X=X3X3X3X7X:X[.{.{.J.{.[.{.{.{. X3X2X2X2X3X3X:X3X3X=X=X3X3X3X2X:X:X=X=X*X3X3X*X*X*X*X3X3X;X=X#X3X*X=X=X3X:X3X:X3X:X*X*X*X X*X X X3X=X3X:X:X3X3X3X:X=X*X3X:X:X3X3X2X2X3X3X1X1X1X1X<X$X#XoXoXoXoX}.T.T.Q. X$X&X$XT.T.oXoX3X=X=X=X=X1X=X=X;X;X;X;X;X;X:X3X3X1X1X;X1X1X;X1X=X$X=X=X=X=X=X=X#XoX].Y.Y.T.E.T.}.$X1X;X&X1X$X&X$X1X$X&X1X$X;X;X$X;X;X$X$X$X$X$X;X;X$X$X$X&X&X$X&X$X$XoX}.].T.T.E.E.oXoX$X$X#X XoXOX$X$X$X$X$X@X$X-X%X=X-X-X;X;X;X6X;X:X;X:X:X:X:X:X:X:XuX:X:X:X:X:X:X:X:XuX6X2XwX7X6X:X6XwX:X:X2X6X:XuXwX:X2X6X6X6X6X6X6X6X6X6X6X6X6X6X6X6X6X6X6X6X6X7X6X6X:XwX:X:X:X:X:X:X:X=X:X;X*X:X:X:X:X2X:X2XwX2X:X:X:X:X2X2X|. X[. X|. X#X#X#X#X$X$X=X$X",
"#X}.}.oX#X#X#X].Y.g.G.].T.Y.E.T.J.J.G.G.J.G.g.y.S.G.H.'.[.*X[.#X X|.[.].].].].].'.'.'.].'.'.'.'.'.'.'.'.'.'.[.'.].'.[.'.'.[.[.'.'.}.|.=X=X=X=X=X$X3X=X=X3X;X;X;X=X=X=X=X=X=X$X#X#X$X$X*X X$X#X=X|.3X*X*X3X[.*X*X3X[.[.[.3X|.3X|.=X$X$X=X=X=X=X=X3X*X3X*X*X*X:X:X:X:X:X2X2X:X:XwX2XwXwX:XwXwXuX:X2X2XiXdXdXdX2XdX2X7X7X2X7X2X3X2X:XuX:XwX2X2X2X:X-X;X;X:X=X=X*X*X3X3X*X:X3X3X2X3X2X3X3X2X2X2X3X;X3X=X3X:X=X:X=X3X:X:X*X=X3XS.y.{.J.F.S.H.|.=X2X=X3X3X*X*X*X3X3X:X:X=X3X3X3X3X=X=X*X*X3X*X*X=X3X*X3X=X=X*X*X*X*X*X3X:X*X3X:X3X:X=X=X=X*X=X*X:X3X:X:X3X=X:X:X:X3X3X=X:X:X:X3X3X3X:X1X1X;X&X&X$X#X#X#X}.oX X'.Y.E.OX$X#X&XoXY.T.oX$X3X=X=X=X1X;X=X=X=X;X3X;X;X3X;X;X3X;X;X3X;X;X1X;X$X$X=X=X3X=X3X=X$X$XoX].T.Y.T.T.T.}.oX$X$X;X$X$X;X&X1X1X1X&X&X1X$X&X$X&X=X$X$X$X&X$X=X1X&X;X=X&X;X$X$X$X#X X].T.E.T.T.E.}.oXoXoXoX#X#X$X&X$X$XOX=X$X&X$X;X;X:X;X;X;X0X:X0X:X2X:X:X:X:X:X:X:X:X:X:X6X:XwXwX:X2X:X:X:X:XwX2X:X6X2X:X:X:X:X:X:X:X2X6X6X6X6X6X6X6X6X6X6X6X6X6X6X6X6XwX6X6X6X6X6X6XwX:X2X2X:X:X:X:X:X:X:X:X:X:X;X:X:XwX2X:X:X:X:X:X=X2X3X X[. X X|.].].].}.}.oX#X#X#X",
"#X}.].}.oX}.}.&X#XS.D.T.T.H.T.L.{.J.H.G.J.G.g.y.H.H.F.H.[.*X{.*X].[. X[.].].'.].'. X].].'.'.'.'.'.'.'.'.'.'.!.[.]. X'.[.'.[. X'.|.|.=X=X$X$X=X3X=X=X=X3X=X=X1X;X=X=X$X=X$X=X=X$X=X X#X*X=X*X*X X*X*X3X3X[.3X[.3X[.3X3X[.[.*X*X*X#X$X*X X*X=X3X3X7X:X*X3X3X3X3X:X;X:X:X2X:XuX2X:X2X:XwXuXuXwX2XuXdX2XiX2X2X2X2X2X2X2X:X2X2X2X:X2X2XwX:X2XwX2X:X:X;X:X;X*X*X[.*X[.*X:X*X*X3X2X2X2X2X3X3X2X2X2X2X;X|.=X=X:X=X3X:X:X|.3X*X3X7X3X{.F.'.{.{. X=X2X2X*X:X:X*X3X|. X*X3X:X3X7X:X*X3X=X*X*X=X*X3X*X=X3X*X$X$X*X#X|.[.3X X*X:X:X3X=X:X3X*X3X3X:X2X3X3X2X2X:X3X3X:X=X3X*X*X=X*X=X=X:X=X:X=X1X1X$X$X$X#X#XOX$XoXoXoXE.L.}.&X$XOX#X}.L.T.oX&X2X;X=X=X;X;X3X=X=X=X=X=X;X=X;X=X=X;X;X=X;X;X;X3X3X=X=X$X=X$X=X$X&X;X$X}.T.Y.Y.Y.L.T.}.#X&X1X1X;X1X$X$X;X&X1X;X&X$X=X$X=X-X&X$X$X&X;X&X$X1X$X;X$X$X#X#X$X&X&XoX}.T.Y.G.G.E.oXOXoXoX$X@X&X$X$X$X#X%X$X=X&X-X&X;X:X6X;X:X0X2X2XwX:X:X:X:X:X:X:X:XuX:X:X:X:X:X:XwX7X:X:X:X:X:XwX:XuXuX:X6X2X:XuX:X6X6X6X6X6X6X6X6X6X6X6X6X7X6X6X7X6X6X6X6X6X6X:XuX:X:X:X:X:X:X:X2X:X:X*X*X*X:X:X:X:X:X:X2X:X:X=X*X*X<X X X*X:X=X[.{.'.'.T.].].}.oX X",
"T.].oX}.}.}.}.oX#X}.Y.g.G.T.T.F.Y.T.T.H.G.g.S.S.'.{.H.H.H.{.[.[.'.]. X|.|.'. X|.].'.T.Y.H.'.{.'.'.'.'.'.'.'.'.'.[.[. X[. X[. X*X|.#X#X*X*X-X-X;X-X;X;X-X;X;X$X=X=X=X=X=X X*X=X$X=X=X=X=X*X*X$X X*X*X3X*X3X X|.*X*X|.*X X|.*X*X|. X=X=X=X=X$X=X=X=X3X2X:X=X2X=X*X:X-X;X:X:X2X2XuX2XdX2XuX2X2X2X2X2X2X2XdX7X2X2X7X2X2X7X3X7X7X:X:XuX2XwXuX:X:X:X:X=X:X:X*X*X|.*X*X*X|.=X=X[.*X3X3X3X;X;X2X2X2X;X=X X*X=X=X=X=X:X3X:X3X3X3X*X*X*X*X3X[.[.[.3X*X:X3X3X:X:X=X3X*X*X=X3X3X2X:X=X=X*X=X*X*X*X*X*X=X=X3X=X$X=X#X#X#X#X=X=X=X:X=X=X=X=X:X3X2X:X:X:X3X:X3X3X2X:X=X*X*X*X3X*X=X=X3X1X=X$X=X1X#X#X$X$XoXoX$X$XoX].Q.E.].}.$X$XOX}.#XP.oXOX$X=X;X=X1X=X1X=X1X=X=X1X=X3X=X1X1X1X3X;X;X=X;X;X=X=X=X=X#X X$X=X*X$X$X=X$X X].E.T.T.Y.L.'.#X;X;X$X$X$X&X$X$X$X$X=X&X$X1X$X$X;X$X$X$X;X;X1X1X&X;X;X$X#X$X$X#X$X$X$XoXT.L.Y.E.}.oX$XOX$X$X$XoXoX$X#X$X=X&X&X-X1X;X0X1X:X:X2X:X2XwX2X:X:X2X6XwX:X6XwXwXwXuX:X:X2X6X2X:X6X:X:X:X:X:X:X:X2X:XwXuX:X:X2X6X6X6X6X6X6X6X6X7X6X6X6X6X6X6X6X6X6X6X6X6XwX6XwX:X:XwX:X2X2X:X=X=X=X*X:X=X:X:X2X:X:X=X=X*X*X*X*X*X=X=X*X|.|. X|.}.[.].T.Y.L.Y.T.",
"E.].}.}.].].|.oX}.oX}.T.D.D.G.Y.J.J.H.G.G.G.H.T.'.{.J.{.{.'.[.[.].'.|.|.|.|.].].'.'.H.H.Y.J.H.Y.'.].].].[.'.].'.'. X[. X[. X X*X*X#X$X$X*X-X=X;X:X;X;X:X;X-X;X-X=X=X=X=X=X=X X=X=X#X=X X X=X*X=X*X3X*X*X*X*X[.3X X*X|. X|. X|. X X#X=X=X$X=X$X3X=X:X:X3X2X=X:X=X;X:X;X:X2X2X2XuX:XdX2XuX2XuXuX2XdXdX2X2X2X7X2X2X2X3X:X:X3X3X:X:XwXwXwX2X2X2X:X:X:X:X:X=X*X*X*X*X*X X=X=X[. X2X3X2X1X;X1X1X1X2X2X:X:X*X*X3X*X3X[.*X*X[.3X*X3X*X3X[. X[.3X*X[.3X:X=X:X*X*X3X*X=X=X3X=X=X=X=X=X3X*X X|. X|. X*X=X=X=X$X$X$X=X=X$X=X=X:X=X=X:X3X:X:X2X3X3X=X:X=X3X=X7X3X:X=X*X*X:X3X=X=X=X:X=X=X=X=X$X$X$X$X#XoX#X$XoXE.T.E.}.oXOX$X#XOX}.OXT.$X&X<X1X1X3X=X1X=X1X;X=X3X=X=X1X;X1X=X;X2X2X;X3X=X=X3X=X=X X#X=X*X$X X$X&X-X$X#X}.].E.T.Y.L.Y.}.$X&X$X1X;X1X1X;X1X&X$X;X$X$X;X;X$X$X$X#X$X$X$X;X&X&X$X1X1X1X&X1X$X$X$X}.E.J.L.Y.P.T.T.E.}.oXoXOX#X$X&X&X-X-X-X&X;X;X:X;X;X2X:X2X:X:X2X:XuX:X:X6XwX2X7XuX:X:XwX:X6X2X6X:X:X2X:X:XwX:X:XwX6X:X7X:X:XwX6X6X6X6X-X6X6X6X-X6X6X6X6X6XrX6X6X6X7X6X6X6X6XwX6X6X2X:X7X:X:X:X:X*X:X:X=X:X:X:X2X:X:X=X*X*X*X*X*X=X3X=X=X=X=X=X#X].}.}.|.oX].'.L.",
"].}.].}.].].}.oX}.#X&X#XY.D.D.Y.!.Y.J.J.G.G.Y.'.J.{.'.'.{.{.[.#X|.|.|.|.].].|.].'.H.H.H.H.{.H.H.!.'.].]. X'.'.].'. X X[. X|.*X*X*X#X*X=X=X-X;X;X;X;X;X;X;X;X-X;X=X=X$X X=X#X#X=X#X=X*X$X X=X=X$X3X|.*X[.3X3X[.[.|.*X*X*X|.[.[.[.|.#X=X=X$X=X=X=X=X=X:X3X3X3X2X:X:X:X:X2X:X2XuX2X2X2X:XnXuX:XuX:X2X2XdX3X7X2X2X2X2X:X:X:X7X3X7X3XuX:X:XuXuX2X:X:X:X:X:X;X*X[.*X|.3X*X=X3X X[.*X3X;X3X1X=X=X3X3X1X:X3X3X3X|. X[.[.*X[.3X[.[.3X*X*X3X[.[.[.[. X[.*X*X*X3X3X3X*X=X:X*X=X=X*X=X=X*X*X|.*X*X X|.*X X*X=X<X=X=X=X=X=X3X=X=X=X:X=X:X=X2X:X:X:X=X:X3X3X:X:X3X=X=X3X*X*X3X*X3X=X=X1X=X3X$X$X$X<X$XoXoXOX$X XE.T.E.oX#XoX#X#XoX}.$XE.#X&X1X;X&X&X1X=X1X;X;X=X1X$X1X1X&X1X1X2X3X3X;X;X;X=X=X3X=X X*X*X$X=X=X;X;X$X&X$X$X}.}.E.Y.Y.Y.].}.#X$X&X1X1X$X1X$X&X;X;X$X1X$X$X&X$X$X$X$X&X1X1X;X;X-X$X;X$X1X1X$X$X#XE.Y.J.L.Y.P.L.Y.T.E.}.}.oXOXOX$X-X$X&X;X;X;X;X0X0X:X0X:X:X:X2X6XwX:XwX:X:XuXwX:X:X:XuX2X2X6X:XuX:X:X:X:X:X:X2X:X:X:X:X:X:X:X6X2X6X6X6X6X6X6X6X6X6X6X6X6X6X6X6X6X6X6X6XwX6X6X6XwXwX2XwX:X:X:X:X=X=X:X*X:X:X2X2X2X:X:X*X*X|.*X*X*X=X:X2X=X;X3X;X$X X|.|. X$X#X].Y.",
"].}.}.].].].|.#X#X}.#X$X#XE.Y.L.!.T.H.J.H.H.J.H.H.J.'.'.{.{.[.*X|.|.].].|.|.|.|.|.'.'.'.'.H.H.H.{.'.'. X'.'.'.[.[.[.[. X|. X*X*X*X=X-X=X-X;X;X;X;X:X;X:X;X;X-X-X=X3X=X=X$X*X*X=X=X X#X=X=X#X=X=X[.3X*X3X[.*X[.3X X*X*X|.[.'.[. X#X#X#X=X=X$X=X=X=X=X=X3X:X3X2X2X;X:X:X2XuX2XuXuX2X2X2X2X:XuX2XuX2X2X2X7X2X2X2X2X:X:X*X:X3X3X7X7X2X:XwX2X:XwXwX2X:X:X:X*X*X*X|.*X3X*X=X2X=X[.|.3X=X;X1X=X=X$X=X$X=X3X7X:X*X*X3X*X3X[.|.*X3X*X*X|.3X[.[.[.3X|.3X3X3X*X|.*X|.*X3X3X=X=X=X=X:X=X3X:X=X*X=X X*X*X*X=X=X=X=X=X=X=X=X=X=X=X=X3X3X2X2X3X=X3X=X=X=X=X*X=X3X:X=X=X*X3X*X3X*X*X=X=X=X=X&X3X#X;X&XOXoX$X$XoXE.T.E.].oXOX#XoXOX}.oXOX}.}.$X,X$X1X1X$X1X&X<X;X1X$X1X$X$X1X1X=X;X1X2X;X1X;X3X;X3X=X=X=X X*X X*X$X$X$X$X-X$X$X}.}.].T.L.Y.T.}.#X=X;X$X$X$X$X1X1X1X1X&X1X;X$X$X$X$X=X&X$X<X$X#X$X$X$X$X$X$X#X#XOXE.T.H.L.Y.L.T.T.Y.P.Y.T.E.E. XOX&X$X;X-X;X;X;X;X;X:X:X2X:X2X2X:X6X:X:X2X6X:X2X6X:XwX:X6X:X:X:X:X:X:XuX2X:X6X6X2X:XwXwX:X2X6X2X6X6X6X6X6X6X6X6X-X6X6X6X7X7X6X6X6X6X6X6X6X6X7X2X:X6X6XwX:X:X=X:X:X:X*X:X=X:X:X:X:X:X=X*X*X*X*X*X*X=X=X;X;X=X;X=X=X#X|.].}.}.oX|.].",
"].}.}.].}.].oXoX$X}.}.=X;X}.Y.G.J.G.G.J.T.!.'.'.H.H.'.'.[.[.|.*X|.}.'.}. X|.|.|.|.'.'.'.{.J.J.H.'.].]. X X X|.].[.|.|.|.|.[.3X*X&X;X;X;X;X;X:X-X;X;X;X;X;X-X=X=X$X=X=X=X=X$X X X*X X*X X=X=X=X X*X3X[.*X*X X3X|.*X*X*X|.'.'. X|.#X#X#X*X X=X=X#X*X*X3X3X:X2X2X2X:X:X:X2X2XuXwX2X2X2X2X2X2X2XdX2XdX2X7X2X2X2X2X7X:X:X:X2X:X2X7X7X:XwX2XwX2X2XuX:X2X2X2X:X-X*X#X#X3X;X;X1X=X|.|.;X=X1X;X=X#X$X=X=X3X3X2X3X3X3X:X*X3X[.*X[.*X3X*X[.[.[. X[.[.3X*X:X3X[.*X*X*X3X*X:X:X=X3X:X:X2X3X=X3X:X*X*X=X=X=X=X=X$X$X=X=X=X=X3X:X=X3X2X2X3X2X2X3X3X=X=X:X=X*X*X*X3X3X*X3X*X=X3X3X=X=X*X*X3X=X$X$X$X$XoXoX$X XE.L.T.}.oXOX$X$X<X$XoX$X$X}.}.$X&X1X1X;X<X;X1X&X&X;X&X1X&X1X&X1X1X1X3X2X1X1X3X1X=X;X=X=X$X#X=X#X$X$X$X$X$X$X$X$X#X#XoX}.T.Y.Y.'.}. X#X$X&X;X;X;X$X&X;X1X$X$X=X$X$X$X&X$X$X$X$X$X$X;X&X&X&X$X$X#X#XoXE.T.L.L.G.T.E.L.G.x.G.Y.L.E. X*X$X-X;X;X;X:X;X:X:X:X2X:X2X2XwX2X:X:X:X7XwX:XwXuX:X:XwXwX7XwX:X6X2X:X6X2X6X:XuX6X:X:XwX6X2X:X:X6X6X6X6X7X6X6X6X6X6X7X7X6X6X7X6X7X6X6X6X6X6XuX:X2XuX:X:X:X;X:X;X:X=X*X;X;X*X:X*X:X*X=X*X*X=X*X*X*X=X:X=X=X;X=X=X#X XoX].].}.oX#X",
"].].].].}.oXoX|.oX}.#X$X$X].L.G.J.G.J.T.!.].J.H.'.{.'.'.[.[.[.[.|.|.|.|.|.$X|.|.'.'.'.'.'.'.'.H.'.'.]. X].].].|.'. X|.|.*X*X*X*X-X;X-X-X-X;X;X-X;X-X;X-X;X-X*X*X$X=X$X=X$X=X=X*X=X$X=X=X#X=X*X=X*X X3X*X3X*X*X3X*X*X3X|.[. X|.=X*X#X X#X#X=X=X X*X=X*X*X=X:X;X2X:X:XwX2XuX2XuXwX2X2X2X2X2X2X2X7X2X2XdX2X2X3X7X3X3X:X:X3X7X2X2XdXwX2XuX2XuXuX2XuX2X2X2X:X;X-X*X*X;X1X=X;X3X#X|.=X=X1X=X X X=X1X1X2X3X2XdX7X3X*X:X*X*X3X*X3X3X3X3X[.[.'.3X3X[.[.=X[.3X*X3X*X:X=X3X=X3X2X2X2X3X2X:X:X=X3X*X X*X*X=X=X$X=X=X$X3X3X=X:X2X2X2X2X2X2X3X2X2X:X:X=X=X3X*X[.3X3X*X*X*X=X=X=X X*X*X*X X$X$X$X$X XoX#XoXE.G.E.oX&X$X#X#X$X&X&X#X&X$XoXQ.$X&X1X$X;X;X&X1X;X1X&X1X&X;X1X1X1X1X;X1X1X1X2X1X=X1X3X;X$X=X*X=X=X#X$X#X$X$X$X;X$X$X$X$X X].T.T.E.E.Y.E.#X;X1X1X&X$X;X<X&X1X;X<X;X$X;X;X&X&X&X-X$X&X;X$X$X#XoX].].].}.T.L.G.D.G.E.oX$XQ.T.T.T.Y.Y.E.oX%X$X-X;X;X;X:X;X0X0X;X2X:X6X2X:XuX2X6X2X6XwX:X:X:XuX:X:X:XwX:X2X:X6X2X:X:X:X:X:XwX:X:X2X7XwX:X6X6X6X6X6X-X6X6X6X6X6X6X6X6X6X6X6X6X7X6X6XrX:XwX:X:XuX:X:X*X;X;X:X:X:X=X=X:X*X:X=X=X:X:X:X*X:X*X=X3X3X=X;X1X3X=X#X$X#X#X#XoX#X$X",
"}.].].oX].|.].|.}.#X#X#X XoX'.G.!.T.T.'.T.T.H.H.'.'.'.'.{.|.[.[.|.|. X|.#X|.|.'.'.'.T.Y.{.J.J.{.'.'.'.'.'.[.].].[.|.[.*X3X|.*X*X;X:X-X;X;X-X-X-X-X;X-X-X-X*X=X#X X=X=X=X=X=X=X X$X*X*X$X=X=X$X=X*X*X=X*X*X3X*X*X*X3X X|.*X*X=X=X$X#X X|.#X*X*X X X=X*X=X=X=X3X2X:X2XwXuXuX2X2XwX2XdX2X2X3X2X2X2XdX2X2X2X2XdX2X2X7X3X2X2X3XdX2X2X:XwX2XwXuX:XuX:X2X:X2X:X:X:X;X*X$X;X$X#X;X$X|.#X$X1X$X#X X-X-X#X:X=X3X7X2X=X*X=X3X[.[.3X[.*X[.[. X'.[.3X3X[.[.3X[.3X*X3X3X:X:X3X=X=X2X2X2X3X3X:X3X=X*X*X*X*X=X=X=X$X=X=X=X=X;X1X3X3X2X2X2X:X3X:X:X3X:X=X=X3X*X3X*X3X*X*X=X=X=X=X*X*X X|. X#X#X$XOXoXoXOXOX].G.h.}.$X&X&X$X$XOXoX,XoX1X$X$XE.&X&X;X&X&X1X;X&X&X1X;X;X&X1X1X1X1X<X3X2X3X1X1X1X;X=X3X=X=X=X*X#X=X$X$X$X$X$X$X$X$X$X$X$X#XoX}.].].T.J.Y.E.}.#X$X=X=X&X;X&X$X;X&X&X$X$X$X$X$X#X XoX}.}.].T.Y.Y.Y.L.H.L.G.G.D.G.L.}.<X0X$X#X$XoXE.T.T.].oX#X$X;X;X;X0X2X;X:X0X:X2X2X:X:XwX:XuXuX:X6X:X6X2X6XwX:XwX:X:X:X6X:X:XuX:XwX:X:XwX7X2X:X:XwX:X-X6X6X6X6X6X6X6X6X6X6X6X6X6X6X6X6X6X6X6X6X6X6X6X:X:XuX2X:X-X-X;X*X:X=X:X:X:X:X:X:X:X=X:X:X=X=X=X=X:X2X3X3X2X;X=X#X=X#X$X$X#X#X#X",
"].].].].oXoX}.}.#XoX].}.$X;X#XH.J.T.T.E.'.'.'.'.'.'.].].{.{.{.*X=X#X|.|.#X*X|.'.}.'.'.'.{.{.H.H.'.'.'.[.'.].[.|.[.[. X X[.*X*X3X-X-X;X-X;X-X&X;X$X-X=X-X=X%X*X#X*X=X X$X=X=X=X=X$X=X=X=X X#X*X X*X3X3X*X*X*X=X*X|.*X|.*X X=X=X=X=X#X*X|. X X*X#X*X X*X*X*X=X:X3X:X2X2XwXuXuXuXwX2XdX2X2X:X2X2X3X2X2XdX2X7X2X7X7X2X7X2X2XdX2X2XdXuX2XuXwXuX2X2X2XuXuX2X2X:X:X:X;X X1X$X X;X=X}. X#X$X1X$X$X$X].G.*X*X*X3X3X*X=X3X3X*X*X3X*X*X3X X[.[.[.[.*X[. X[.[.*X*X*X3X*X*X3X:X2X2X2X2X2X3X3X:X3X*X3X$X=X=X=X=X3X=X;X3X;X1X1X=X:X:X3X3X:X=X=X=X=X=X=X3X*X*X*X*X*X3X*X:X=X=X3X X X*X X X*X#X$X$XoXoX$XoXP.h.g.T.}.oXoX@X,X<X&X&X}.,XOX$XT.$X&X<X1X;X&X;X<X;X&X;X<X;X,X;X&X;X1X;X1X2X2X2X1X3X=X2X;X=X#X$X=X#X#X$X$X&X;X$X$X$X;X$X#X#X#X#X#X].E.L.G.F.G.P.}.$X0X&X;X;X1X&X;X=X&X$X#X X].Y.Y.G.D.L.J.G.G.F.G.H.L.L.G.G.G.h.L.}.1X$XoXoX&X;XoXE.}.].oX#X&X-X5X;X:X;X:X:X:X:X:XwXwX:X:X:X:X:XwX2XuX:XwX:XuX:X:X2X6XuX:XwXuX:XwX6XwX:X:X2X6XwX:X:X6X6X6X6X6X6X6X6X6X6X7X6X6X6XrX6X6XrX6X6X6X6XwXwX6X:XuXwX6X:X*X-X;X:X=X:X:X:X2X2X2X:X:X:X:X*X:X=X:X=X2X3X:X;X3X;X=X;X#XoX X#X$X#X#X",
"}.].}.].|.|.|.|.].|.|.#X=X=X=X$X'.{.Y.'.'.'.'.}.'.'.'.'.'.].|.|.=X X[.|.#X=X=X*X'. X|.'.'.'.'.'.[.[.[.[.3X[.[.[.'.[. X X3X*X3X3X;X=X;X=X=X=X=X:X=X*X=X*X=X:X3X3X3X*X*X*X3X*X*X3X3X*X*X*X*X*X3X[.*X*X*X*X:X3X3X*X3X[.|.3X3X*X:X:X=X#X X*X X|.|.=X=X=X=X3X3X=X=X;X2X0XwXwXuXwX2X2XuX2X2X2X2X:X2X:X2X2XdX2XdX2X2X2X2X2X2X7X2XdX2XdX2X2XdX3XdX2XdX2XdX2X2X7X2X3X2X:X=X1X$X#X XoXoX}.$X=X1X$XE.#X$XG.{.2X2X=X|.1X#X|.$X#X#X$X=X=X|. X X[.[.'.[. X[.[.3X3X3X*X3X:X3X3X:X=X2X3X2X3X2X3X3X2X=X3X3X:X=X=X3X3X3X3X2X2X2X2X3X3X2X2X;X*X#X=X=X=X=X*X X*X#X=X$X=X;X<X;X;X=X$X X#X#XoX XoXoXoXoXoX@X&XOXP.x.L.x.x.E.&X,XOXoX&X&X+X&X,XQ.Q.OX$X<X&X&X<X&X,X1X,X;X&X5X&X5X5X;X0X1X2X;X;X;X;X-X;X;X-X-X=X*X*X*X$X$X$X&X$X$X$X$X$X1X$X1X1X$X#X X].Y.Y.L.Y.Y.T.}.&X&X&X&X&X$X;X$X$X$X}.J.g.h.D.G.x.g.g.G.L.E.}.Q.}.oXoX+XoXoXOXOXOXoX$X,XOXOX}.Q.P. XE.T.OX&X1X&X&X1X1X2X:X;X;X0X6X:X2XuXwX2XwXwX2X:X2XwX2X:XuX:X2X:XwX2X:XuX:XwX:XuX:X:X2X:XwXwX:X:X:X:X:X:XdX2X:X:X:X7X2X:X:X:X:X:XuXuX2XdX2X2X:X2X2X7X2X:X*X*X=X=X:X2X2X2X2X2X2X3X2X2X3XiX2X3X3X3X3X3X3X=X3X;X=X=X#X|.#X=X=X=X=X",
"].].].].'.|.'.}.|.|.|.|.|.=X$X#X X}.].|.].'.'.'.'.}.'.'.'.].}.|.|.|.|.|.$X=X$X X|. X|.|.|.|.|.}.[.[.[. X[.[.[.[. X[.[.3X[.3X*X3X=X=X;X-X=X:X=X3X=X=X=X*X=X=X*X*X*X*X3X*X3X*X*X*X X*X*X*X3X3X*X3X X3X3X:X*X3X|.3X*X3X*X*X*X*X*X3X=X X=X X#X#X#X#X=X*X=X3X=X=X=X1X:X2X0XwXuX2XwXwXuXuXdX2X2X2X2X2XdX2X2X2X2X2X2X2X2X7X2X2X7X2X2X2X2XdX2XdX2X2X2X2X2X2X2X2XdX3X:X:X1X;X1X#X#X}.}.}.T.T.&X;X].].}.].F. X3X=X|.3X=X=X=X*X$X=X3X3X=X=X|.[.'.[.[.[.[.3X3X[.3X3X3X3X:X3X:X:X2X2X2X3X2X2X2X3X3X=X:X=X:X=X2X3X2X2X2X2X2X2X3X3X3X2X;X$X#X$X=X=X X=X=X=X=X=X=X=X&X1X;X$X#X#XoXoXoXoXoXoXoXOXoXoXOX$XOXQ.Q.(.P.p.p.E.8X&XoXOX@XoXOX&XoXE.}.@X<X1X<X&X&X&X&X,X&X&X&X8X&X4X4X4X;X;X6X;X;X:X;X;X;X;X;X;X;X*X*X-X;X;X;X&X;X&X;X;X$X&X1X$X1X$X#XoX}.].Y.Y.Y.Y.E.#X=X$X#X$X$X$X#X}.L.D.h.g.G.P.T.E.}.}.}.OX$X&X&X<X<X&X$X$X,X,X&X$XOX$X$X@X$XOXQ.T.}.}.}.E.}.$X1X1X1X1X:X0X6X6X6X0XuX2X:X2XuX:X:XuXwX:X:XuXwX2X:X2X:X:X6X:X:X:X6X:X:X2X:X6X:X:X:X2X:X:X:X:X:X:X:X:XuXwX:X7X7XwX7XwX2X2X:X:X:X2X2XdX2XdX2X2X*X*X:X:X:X:X3X2X2X2X2X2XiXiXiXiXiX2X2X3X3X3X3X3X;X;X2X2X2X3X;X1X2X3X3X$X",
"'.}.|.|. X|.|.|.|. X X|.*X X#X*X=X|.|.|.|.'.'.'.].].|. X|.|.|.'.'.|.=X=X=X#X#X=X=X*X X|.|.$X|.|.[. X*X X X[.[.[.[.[.[.3X*X[.*X*X=X=X=X=X=X3X=X=X=X=X=X:X*X*X=X:X=X=X*X3X*X=X3X*X*X=X3X*X*X=X*X3X[.3X*X*X=X=X=X=X*X3X|.*X:X3X:X:X$X=X$X#X*X#X#X#X=X|.=X=X=X=X=X1X:X0XwX2XwXuXwXwXuXuX2X2X2XdXdX2X2X2XdX3XdX7X2X2X2X3X7X2X2X2X2X7X2X2XdX2X2XdX2XdX3XdX3XdX2X7X2X2X1X$X$X=X#X'.E.}.Y.G.].$X].H.T.oXH.J.3X=X=X;X*X=X=X=X=X3X;X1X=X=X3X[.[.[.[.[. X[.*X*X[.:X3X3X3X2X3X2X2X2X2X2X2X2X2X3X3X*X*X:X3X2X3X2X2X2X2X2X2X2X2X2X2X3X;X$X$X$X=X*X=X*X=X=X=X$X$X=X&X;X$X$XoXoX}.oXoX$X#XoXoXoX@XoXoXOX$X@XOX&XOXQ.L.x.oXqXqXoX&XoX$X8XOXE.Q.&X1X<X&X,X&X,X&X,X4X&X1X&X4X0X0X;X;X2X:X;X;X:X;X;X;X:X;X;X;X;X-X;X;X1X;X;X1X1X1X&X&X;X1X$X&X;X$X$X$X#X].E.G.G.Y.].#X}.].].}.}.T.Y.g.G.P.E.}.#X$X$X&X&X&X&X1X1X,X1X,X&XOXOX&X,X$X@X$XOX$XOX$X$X}.P.T. X XT.T.oX1X;X;X0X1X1X;X:X6X0XuX:X:X:X:X2X2X2X2X:X2XwX2XwXwX2X6X2X:X:X:X:X2X6X:X6X6X:X7X:XwX6X:X:X:X:X:X-X:X:X:X:X:X:X2X6X2X:XuX:X2XuX2X2X2X2X2X2X2X:X:X*X:X:X=X2X2X2X2X2X2X2XiX2X2X2X3X2XiX2X2X3X3X3X;X;X;X;X3X=X=X=X;X;X=X X",
"|.|.#X#X=X;X1X3X=X=X*X#X=X$X*X#X*X|. X|.|.|.|.|.|.|.|.|.|.|.|.].'.|.|.$X$X=X=X=X=X*X X|.$X=X*X X[.3X[.[. X3X X*X3X[.3X[.[.3X[.3X*X=X=X=X=X=X=X*X=X:X=X=X=X3X*X3X3X*X3X*X*X3X3X|.=X=X3X3X:X*X3X=X*X*X*X3X=X=X:X=X*X*X3X*X3X:X=X3X=X=X=X*X X X|.|. X|. X=X$X=X3X1X2X2X:X:X:X2XuXuX2XuXdX2XdX7X2XdXdX2X2XdX3X2X2XdX2XdX3XdX2XdX2X2XdX2XdX2X2XdX2X3X2X2X2X2X2X2X*X:X;X#X$X&X$XE.Y.'.#XT.L.T.].L.Y.].'.F.2X=X=X=X X#X$X=X=X=X=X=X=X$X|.3X|.[. X[. X[.[.3X*X*X3X3X2X2X2X2X2X2X2X2X2X2X2X3X3X*X=X3X2X2XdX2X7X7X2X2X2X2X2X3X3X3X=X$X$X$X*X*X X*X*X*X#X$X=X=X$X$X#X#X}.}.}.|.#XOX#X$XOXOX&XoX(.OX$XOXOX@X$X8XoXa.a.(.&X(.$XOX@X8X&XU.T.&X&X,X&X<X,X&X1X<X&X4X4X;X&X&X5X5X;X:X;X:X;X;X:X-X:X;X;X;X;X;X;X;X;X&X;X<X&X;X&X1X=X1X&X1X1X$X1X1X;X;X$XoXY.G.G.Y.].}.}.}.].].Y.G.T.E.$X$X&X&X&X&X&X&X&X&X&X&X$X$X&XOXOX$X$X$XOX XOXOXoXoX@X$XoXE.G.Q.}.}.Q.#X&X$X-X;X;X6X6X:X:X0X:X2X2XuX:X2X6X2X2X:XuX:X:XuX:X2X2X6XuX:X:XuX:X2XwX:X2X:XwX:X:X:X:X:X:X:X-X:X:X:X7X:X:XuX:X2X6X:XuX2X:X:XdX2X2X2X2X2X:X:X:X=X*X=X=X3X2X2X2X2X2XnX2XfX2X2XiXiX3XiX2X2X2X2X=X X'.'.}.].}.|.|.*X$X#X",
"|.|.#X=X=X=X3X=X*X$X#X=X=X=X X X|.|.=X$X=X|.|.|.].[.|.'.|.|.|.|. X}.|. X#X=X=X=X=X#X|. X*X=X#X X[.[.[.[.[.[.[.[.[.[.3X[.[.3X[.3X*X*X=X=X=X*X*X=X:X=X=X*X=X*X3X*X3X*X*X*X=X=X=X=X=X3X:X3X2X:X=X=X=X:X*X*X=X:X=X*X3X3X3X:X*X=X:X3X3X=X=X#X X|.|.].|.|.|.=X=X$X=X1X2X;X:X:X:X2XwXwXdX2XdX2X2X2XdX2X2X2XdX2X2X7XdX2X7XdX2X2XdX2X2X2X2X2X2X2XdX2X2XdX2X2X2X2X3X:X*X:X=X#X#X<X$XE.T.].$X}.T.Y.E.].].T.*XF.2X3X=X=X X=X$X=X=X=X=X#X#X*X3X X|.|.*X X*X=X*X:X3X3X2X3X2X2X2X2X2X2X2X2X2X2X=X=X3X3X3X2X2X2X3X2X2X2X2X3X2X3X3X:X=X3X=X=X&X1X*X*X*X*X$X=X=X=X$X=X$X$X#XoX}.}.}.}.#X$X$XoX$X$XOXoXoXoX@X$XOXOX&XoXoXE.L.h.P.&XOXOX+X,X@XL.N.&X<X&X,X,X,X1X1X,X5X&X4X&X5X5X4X;X:X;X;X;X;X;X;X;X;X:X;X;X;X-X;X-X$X1X&X;X&X&X=X<X;X;X1X;X$X1X$X1X&X1X1X$X}.T.G.D.T.].$X#X}.E.T.Y.oX$X&X1X,X&X&X&X&X$X&X$X&X$X$XOXOX&X<X&X@XOXOX$X$XOXoXOX@X$XOXQ.P.T.Q. X#X#X$X$X&X-X;X1X6X5X;X6X2X2X2X2X:X2X2X2X2XwXwX2XuX:X2X6X:XwX:X:X6XwX:X:X2X6X2X:X7X:X:X2X:X:X:X:X-X;X:X:X2X:X6X2X:X:X:X6X:X:X2XuX2X2X2X2X2X2X:X:X:X*X*X:X3X3X2X2X2X2XnX2X2X2X2X2X2X2XdX7X2X1X;X=X|.'.Y.H.Y.'.'.'.}.|.|.$X",
"|.|.|.$X=X$X#X*X X=X#X=X$X X|.|.$X=X=X$X|.|.|.].].}.}.].'.|.|. X|.|.].'.|.*X#X=X=X#X|.|.#X#X|.|.3X[.3X[.[. X[.3X[.3X[.[.3X[.*X*X=X=X=X=X=X=X=X:X3X=X:X:X:X3X3X*X*X=X*X3X=X=X=X:X:X3X3X3X:X:X:X:X:X3X3X3X=X:X=X:X*X:X=X=X:X3X:X*X=X=X=X$X#X|.].].|.|.|.|.*X$X3X1X0X0X0X;X:X2X:XwX2X2X2XdX2XdX7X7XdX2X2X2XdX2X3X2X2X2X2XdXdX2X2XdXdX2XdX2XdX2X2XdXdX2XdX7X7X:X:X*X;X$X$X1X$X}.'.}.S.T.].T.T.].E.]. X'.3X=X*X:X*X;X=X=X=X$X#X#X X$X*X*X*X*X*X=X=X=X:X3X2X3X2X7X2X2X2X2X2X2X2X2X2X2X=X=X3X3X2X2X2X2XdX2X2X2X2X3X:X=X:X=X#X=X=X3X$X1X X3X3X*X$X$X=X=X=X$X$X$X#X}.}.E.oX#X$XOX$XOXOX$XOXOXOX$X@X&X&X@X&XOX&X&X}.L.G.P.(.$X$X&X&XE.L.&X,X,X<X,X,X<X,X,X&X4X;X4X4X&X4X;X;X;X:X-X;X:X;X-X-X-X;X-X=X;X;X;X1X$X1X=X;X;X;X1X1X;X&X&X&X$X;X=X;X;X1X1X$XoXY.S.L.]. XoX'.T.T.].$X&X&X,X&X<X;X1X&X&X$X&X&X&X&X$XoX$X,X<X$XoXOX$X&XOXoXOX$X$XoXoX X!.Y.}.}.oX$X1X$X&X;X6X;X6X6X6X:X2X:X2X2X2X:X2X:X:X2X:XwX2X:XwX:X:X:XuX2X:X:XuX6X:X:XuXwX:XwX6X:X:X:X:X:X:X:X:X:X:X:X:X:X:X:X:X:X2X:X:X:X2X2X:X:X2X:X:X:X=X:X=X2X3X2X2X2X2X2X2X2XdXnX2XdXdX3X:X3X3X|.].'.'.].[.'.H.H.H.H.'.'.].",
"'.|.|.=X*X=X$X X*X X X*X*X=X#X#X1X3X3X*X|.$X|.'.|.|.[.[.|.].|.|.].|.}.|.].|.|.=X|. X|.#X#X X*X#X|.3X[.[.|.|.[.[.[.3X[.*X*X[.3X3X3X=X=X*X=X3X3X2X:X:X3X:X=X:X3X3X=X*X*X=X*X=X:X3X:X:X=X:X=X3X3X3X3X*X3X*X:X3X3X2X*X:X:X3X*X3X3X:X=X=X=X=X*X#X X X|.|.|.=X#X#X3X2X:X2X:X2X:X:X2X2X2X2X2X2X2XdXdX2XdX2X2X2X2X2X2X7X2X7X2X7X3X7XdX2X3X2X2X2X2XdX2X2X3XdX7X2X3X:X:X*X;X&X;X$X#X}.].E.e.G.L.G.T.].T.}.'.=X=X=X X3X=X;X X=X=X=X X=X=X=X*X=X=X=X*X*X=X2X7X7X2XdXdX2XdXdX2X2X2X2X2X2X2X3X3X2X2X2X2X2X2X2X2X2X2X2X:X:X2X:X3X*X*X3X1X=X;X1X=X X X=X=X=X;X&X;X&X$X$XoX}.}.}.oX$X$XOX$X$X$X$XOX$X&X&X&X&X&X&XoX<X<XoXQ.}.L.2.T.OX@X$X&XQ.E.&X&X,X,X,X1X1X,X&X&X4X;X;X&X5X;X&X;X-X-X:X-X;X;X:X;X-X;X;X;X;X;X;X1X=X1X1X=X1X1X;X3X3X;X;X1X;X;X=X&X1X&X&X;X&X].L.G.Y.E.Y.Y.Y.].oX&X&X1X,X<X1X1X1X&X$X&X$X&X&X&X$XoXoXOX$X+XoXOXOX@XoX}.oXOX}.}.}.$XOXE.P.E.}.$X$X#X$X;X;X6X;X5X0X2X:X:X2X:X2X2X:XwXwX2XuX:X2X2X2XuX:X:X:X:XwX:X:XwX:X:XwX:X:X:X:X:X:X2X:X-X-X*X*X:X-X:X:X:X:X:X:X2X:X2X2X2X2X2X2X:X:X:X:X*X:X*X:X3X2X2X3X2X2X2XgX2X2XdX2X3X3X3X|. X X].'.'.'.|. X'.H.{.H.H.H.H.J.",
"T.'.'.|.#X=X=X$X3X=X$X*X=X=X=X=X3X2X;X#X|.#X*X X X|. X|.|.}.|.'.].|.|.|.'.}.|.|.|.|.|.|.#X]. X#X[.3X|.3X|.|.[.[.3X[.3X3X3X3X7X3X3X:X=X*X*X*X3X3X3X3X3X3X:X:X*X*X=X=X*X*X=X3X:X2X3X:X=X=X=X=X:X:X*X3X[.*X3X3X7X3X=X:X:X:X*X*X3X3X*X=X=X=X=X=X=X X#X|.#X$X*X=X=X2XwX:X0X:X:X:X:X;X3XdXdX2XdX2XdX2X2X2XdX2XdX2X7X2X2X3X2X2X2X2X2X2X2XdX2XdX2X2X2X2X2X3X7X3X7X:X:X*X=X1X;X#X}.].E.Y.D.G.g.F.}.oX'.}.'.2X X=X=X3X|.|. X X=X#X*X#X=X=X*X:X3X3X3X3X=X:X3X3X2X2X2X2X2X2XdX2X2X2XnX2X3X3X2X2X2X2X2X2XdX2X7X2X2X2X2X3X3X=X3X:X=X=X3X;X$X$X=X=X=X=X=X=X&X1X$X$X$XOXoXoXoX}.#XOX$X#XoX#X@X$X$X&X1X&X$X&X&X<X1X&X&X;X&XOX}.Q.g.Q.oX(.OXE.P.&X,X,X,X<X,X,X,X,X&X&X&X5X%X&X%X;X;X;X;X;X;X;X;X;X;X;X;X;X;X;X;X;X1X=X;X3X=X1X=X=X=X;X;X1X;X3X3X:X1X;X$X#X;X;X$X].Y.T.Y.Y.Y.E.oX&X1X1X&X&X,X$X#X@X&X&X&X&X&X&X$X$XoX+XOX@X$X$X$XOXoX}.Q.oX(.!.E.}.OX$X XJ.P.}.$X#X#X%X;X;X6X6X;X:X:X2X:X:X2X:X:X:X:X2XwX:XuX:X6X2X:X:XwX:X6X:X2X6X:X2X6X:X2X6X:XuX:X2X2X:X*X*X*X*X:X:X;X:X:X-X;X-X:X:XuX2X2X:X2X:X:X:X:X:X:X=X:X=X2X3X3X3X3X2X2X2XdX2X2X2X2X3X'.{.].'.}.].'.'.'.T.].'.'.'.H.H.H.H.",
"].|. X|.|.=X=X=X=X=X|.|.|.=X;X;X3X2X=X X|.|.|.=X X[.[. X[. X[.[. X[.[.[.].|.|.|.[.].[.'.[. X X*X[.[.3X[.[.[.[.[.*X*X=X X*X*X:X;X:X*X3X X*X=X=X:X3X3X3X2X:X:X:X=X:X=X*X*X3X2X3X:X3X2X2X=X*X*X=X=X3X*X*X=X:X3X:X2X3X3X:X:X3X3X3X*X=X=X=X$X#X#X=X$X|.|.|.|.$X;X1X=X1X2X2X3X2X2X2X2XdX2XdX2XnXnX2X2X2XdX2XdX2X3X2X2X7X3X2X2X2X2X2X2X2X3X2X2X3X:X:X:X:X3X2X2X2X3X:X*X$X=X$X}.}.}.].Y.D.}.T.}.>.G.T.}.'.1X=X|.=X=X X=X;X*X X*X=X=X=X=X=X3X2X3X3X2X3X2X3X2X2X2X2X2XnX2X2X3XiX3X2X3X2X3X3X2X2X2X2X2X2X2X2X2X2X2X3X2X3X:X=X=X=X;X=X;X$X&X3X=X=X=X3X;X$X$X$X$X&XOX X}.}.E.OXOX#X$XOX#XOXoX&X&X<X1X&X&X=X$X&X&X;X&X&X$XOXoXoXQ.}.Q.oXQ.P.@X,X$X<X,X0X0X,X&X&X4X5X&X&X%X;X;X;X;X;X;X;X;X;X:X;X;X;X;X;X;X-X;X3X;X3X;X3X;X;X;X3X1X;X;X;X;X3X;X1X$X&X$X$X1X$X].L.;X}.Y.#X$X&X1X&X<X<X1X8X1X&X&X1X,X1X&X&X&X&X&XOX@XOXOXOX$X$X,X&X@X}.oXOXoX}.Q.E.}.Q.T.T.L.T.;X$X-X;X;X-X:X;X-X:X:X:X:X2X2X2X2X2X:X:X2X:XuXuX2X6XwX:X:X7XwX:X:X6XwX:XuX:XwX:X:X:X:X;X-X-X%X;X-X:X;X5X;X5X:X:X:XuX2X:X:X:X2X:X2X7X3X:X:X*X=X=X:X3X:X2X:X3X2X2X2X3X2X2X*X{.{.'.3X X'.[.].[.].'.'.'.'.'.'.}.'.'.'.",
"|.|.|.|.[. X].].#X|. X|.|.|.#X=X=X=X=X=X#X|.|.|.3X[. X|.[.[. X X|.]. X].[.|.]. X[.]. X[.'.'.|. X3X*X[.[.[.3X3X[.*X=X=X*X*X=X=X3X:X*X*X*X=X:X:X3X3X7X:X:X3X2X3X3X3X=X*X:X3X2X3X:X2X2X3X:X X*X*X=X3X*X:X=X:X:X3X3X3X3X3X3X*X*X:X*X$X=X$X=X*X$X#X*X*X|. X X$X=X3X1X2X2X3X2X2X2X2XnX2XdX2XdX2X2XdXdX2XdX2X2XdX2X2X3X2X2X2X2X2X2X2XdX2XdX2XdX7X3X:X2X2X7X7X2X2X2X:X:X;X;X$XoX}.}.].T.T.].].$XS.Y.D.}.=X2X;X=X=X#X'.*X=X=X$X=X3X3X1X3X:X3X:X:X3X:X=X:X2X2X2X2XgX2X2X2XfXiXiX3XdXiXiX3X2X2X2X2X2X2X2XdX2X2X2X3X3X3X:X3X1X3X=X;X1X1X;X&X=X=X=X=X&X1X;X&X$X$X$XOXoXQ.Q.Q.oX#XOX$X$XOX#X#X$X$X&X,X1X;X&X&X$X&X&X;X<X$X$XoX$XQ.(.}.}.E.P.$X,X,X,X,X,X,X0X,X&X&X%X;X%X;X;X%X=X:X;X-X:X-X;X;X;X*X:X;X;X;X;X;X;X;X1X;X;X;X3X;X2X;X;X;X;X3X3X2X;X&X;X1X1X1X$XL.].=X].oX1X;X1X2X&X&X&X&X&X1X1X,X&X1X<X&X&X&X&X1X$X$X$X#X$X@X@X$X$XOXOXOX@X$X$X@X}.OX X!.T.L.T.$X$X-X;X-X;X:X5X;X:X:X:X2X2X:X2X:X:X:X:X:X2X2X:XwX2X:X:XuX:X:X:XwXwX:X:X:XwX:X:X:XdX:X;X-X;X;X;X:X:X-X-X:X;X:X:X5X:XwXuX2X2X:X2X:X3X=X:X=X*X:X*X:X3X3X=X:X:X2X2X2X:X2X=X{.{. X3X{.]. X[.[.].[.].'.'.|.[.}.|.'.}.].",
"#X|.|.].].[.].'.].].].|.|.|. X#X=X=X=X=X=X*X X|.[.[.|.|. X X[.[.]. X].|.]. X|.[.].].[.].].].|. X3X[.[. X3X3X[.[. X=X*X*X=X=X=X3X3X3X=X3X=X3X3X2X2X:X2X2X3X2X2X2X3X:X=X=X3X2X2X:X:X2X3X3X*X*X*X=X*X*X:X=X:X:X:X2X:X=X*X=X*X*X*X:X=X3X=X=X$X=X X=X|.|.|.#X=X=X;X;X3X;X2X2X2X2X2X2XdX2XdXdX2XdX2X2X2X2X2X2X2X2X3X2XdX3X2X3XdX2X2X2X2X7X2X7X7X2X2X2X7X2XdX2X3X:X*X:X=X&X#X}.].].].T.oX].].#XF.T.D.qX3X=X=X|.*X X X#X=X=X=X=X;X2X1X1X3X2X2X3X:X2X2X2X2X2X2XfX2XgXfX2XiXiXiXiXfXiXfXiX2X2X2X2X2X2X2X2X2X2X2X3X:X:X3X:X1X3X3X1X1X2X<X1X=X=X=X<X;X&X$X$X$X$XOXoX}.E.oX}.#XOX$X$XOX$XOX$X$X1X1X$X;X=X=X=X$X=X=X;X&X=X&X$XOX}.}.E.P.P.L.@XOX>X,X,X,X&X&X$X&X&X%X&X-X;X-X4X;X-X;X-X=X;X:X:X;X-X;X-X-X:X-X:X1X=X=X3X:X;X=X3X3X3X=X3X3X;X;X3X&X=X1X1X$X1X$XY.}.].E.<XwX$X&X;X$X$X$X$X&X1X,X;X&X&X,X&X1X<X1X,X,X&X,X$X<X$XOX@XOX X}.oXoXOX@X$X#X<X#X}.E.Y.E.#X$X&X;X;X-X;X:X-X:X=X:X:X:X:X:X:X:X:X:X:X:XwXwX2X:XwX:X:X:XwX0X2X:XuXuX:XuX:X:X6X:X7X:X:X:X5X5X5X;X5X-X5X-X;X:X-X2XwX:X:X:X2X:X2X:X:X:X*X=X:X=X:X=X=X3X2X2X3X3X3X3X=X'.H.{.3X3X{.]. X X].[.'.].].|.|.].|.|.|.|.|.",
"|.#X|. X]. X].[.'.'.'. X|.|. X*X X X=X3X:X*X X X[.3X|.|. X[.[.3X|.|.|. X].[.].|. X|.].].].].[.|.3X X[. X[.3X3X3X*X X X*X=X=X=X:X3X*X*X*X3X2X2X2X2X3X3X2X2X3X:X:X2X2X3X=X2X2X2X3X2X3X3X3X*X*X=X=X:X3X3X:X3X3X2X3X:X:X=X*X3X3X*X3X=X$X=X=X X*X*X X|.=X#X#X$X=X3X=X;X;X2X2X2X2X2XgX2XdX2X2XdXdX2XdXdX2XdXdX2XdX2XdX2XdXdX2X2X2X2XdX2X2X7X2X7X3X2X7XdX2X2X2X7X:X*X*X;X$X#X}.}.].].E.].}.#X}.G.L.g.aX2X$X$X=X|. X#X*X#X#X=X=X;X3X;X;X2X3X2X3X3X2X2X2X2X2X2X2X2X2X2XfXiXiXfX3XiXiX3XiX2X2XdX2XgX2X2X2X2X2X2X2X=X3X:X:X1X2X1X1X2X1X1X1X3X=X=X=X&X<X&X$X$XOXOXoXQ.}.Q.oXoX$XoX$X$X$XOX$X=X&X$X1X1X$X3X=X3X=X=X1X=X1X&X$X$XoXOXE.E.L.x.oXQ.Q.,X8X,X@XOXOX&X&X5X&X&X%X;X-X;X;X;X;X;X;X;X;X:X;X;X;X;X=X;X;X;X1X;X;X3X;X3X3X;X;X;X;X=X=X:X3X1X$X&X$X$X1X1X}.T.T.E.1X1X#X<X$X&X&X$X&X&X&X1X,X&X&X1X1X&X&X&X1X<X<X,X,X$X$XOX$XOX@XOX}.}. XOX@X$X<XOX}.}.Y.Y.}.$X-X;X;X-X-X:X-X:X:X=X:X:X:X;X:X;X2X:X;X:X:X:X2X:X:X:X:X:X:X:X6X:X:X2X6X:X0X:X:X:X:X:X6X:X;X:X6X;X-X:X;X5X:X;X5X:X2X:X2XwX:X2X:X:X:X=X:X:X=X:X*X=X:X3X2X2X3X:X*X=X'.F.'.[.[.{.[.].|.[. X'. X[. X|. X|.|.|.|.|.|.",
"=X*X X X X*X|.#X].].[.'.].|. X#X X*X*X*X=X=X X[.[.*X[.|.[.3X[.[.|.|.|.].[.]. X X X[.'.[.].].[. X X'.[.[.*X=X3X*X*X X*X*X:X:X=X=X*X*X*X3X2X2X2X2X7X2X2X2X2X:X=X:X2X3X:X:X:X2X3X2X:X3X3X:X:X=X:X:X3X2X3X2X3X2X:X:X7X3X:X*X3X*X*X*X=X=X$X=X*X*X#X X$X#X*X=X=X=X=X=X;X;X:X0X2X2X2X2X2X2XdX2X2XdX2XdXdX2X2X2XdX2XdX2X2X2XdX3XnX2X2X2X2X2X2X2X3X7X2X2X7X7X*X:X:X|.*X3X=X#X#X#XoX#X}.#XL.}.;X#X].T.f.E.2X3X1X1X#X X*X X X#X#X=X;X3X;X;X3X2X3X3X3X2X3XiXfXfX3X2X2X2XfX2X3XiXiXiXfXiXiXfXfX2X2X3X2X2X2XfX2X2X2X3X:X:X;X2X2X3X1X2X1X2X1X3X1X$X=X&X;X&X$X$X$X$XOX(.}.Q.}.+XOXOXOX$X$X$X$X&X=X3X;X=X;X3X;X-X;X;X:X=X3X=X1X&X&X&X,XOXQ.T.x.oXQ.(.<X<X&XOXoXOX%X&X=X&X;X-X;X5X;X;X;X;X;X-X;X:X;X;X;X;X;X;X-X;X;X3X=X3X:X:X:X=X;X;X=X3X:X=X:X=X;X;X&X$X$X1X1X}.G.].#X2X1X$X0X&X,X1X&X<X&X,X1X,X&X1X1X,X&X&X$X&X&X@X&X@X$X$X#XOX&X&X$XOXoXoX#X$XOX<X X X}.E.Y.}.$X;X;X;X&X;X;X-X*X:X:X=X:X=X=X:X:X:X:X;X;X;X:X2X:X6X:X:X6X:X:X:X:XwX:X:X6X:X:X:X6X;X6X6X:X5X6X6X;X-X5X;X;X6X6X;X:X:X:XuX:X:X:X:X=X:X=X:X:X=X:X:X3X3X2X2X2X2X:X*X|.{.J.[.|.{.{.3X|.].|.|.].].|.|.#X|.#X|.|. X|. X",
"=X*X*X|.|. X|.|.|. X].].'.].].|.*X*X X[.|. X|.[. X X3X|. X[.[. X|.|.].|. X[.[.].'. X[.!.].[.].'.'.'.'.[.3X=X=X3X=X=X*X3X3X2X3X:X*X X|.*X3X2X2X2X2X2X2X2X2X:X3X=X2X3X2X:X:X2X2X2X:X=X:X3X2X3X3X3X3X2X2X:X:X2X3X2X2X*X3X3X*X3X=X*X=X=X=X=X*X|.#X#X#X=X$X=X=X=X3X1X;X;X:XwX2XnXnX2XdXdX2X2XdX2XdX3X2X2XdX2X2X2X2X7XdX2XdX2X2X2X2X2X7XdXdX7X7X2X2X7X3X7X*X7X:X3X[.[. X}.].oX#X|.oX}.T.#X'.E.}.oXT.D.=X1X1X=X*X#X#X=X=X#X=X=X;X3X3X;X2X3X2X2X2X3XfX2X3X2XfX2XaX2X2XfXfXiXiXiXdXfXiX3X3XiXdXfX2X2X2X3X2X2X2X2X3X;X2X3X;X1X;X1X1X1X1X1X&X1X&X=X&X;X&X$X$X#XoX}.Q.Q.oXoX$XOX#X$X$X$X&X&X=X;X=X1X;X=X;X;X;X;X3X=X;X3X$X1X$X&X<XOX(.E.x.U.).Q.(.).OXoXOX&X&X%X$X&X-X;X-X-X;X-X-X=X;X;X;X;X;X-X-X;X;X;X;X;X;X;X:X:X3X=X:X3X3X;X=X=X=X=X:X3X=X&X;X<X$X;X}.G.D.$X1X&X$X&XwX1X0X,X1X,X1X1X,X1X1X,X8X1X&X&X@X$XOX$X$X@X#X@XOX@X$XOXOXOXOXOX@X$X#XOXoXoX XE.Y.}.#X-X;X=X-X-X;X&X:X=X*X:X:X:X:X=X;X:X:X;X;X-X:X:X:X:X:X:X:X2X:X6X:X:XwX:X6X2X:X:X;X5X;X;X:X;X6X;X;X;X:X:X6X;X6X6X2X:X2X2XwX:X:X;X:X:X:X*X=X:X*X*X:X2X2X2X2X2X*X|.H.[.3X[.[. X X[.|.|.|.|.|. X#X#X#X|. X|.|.|.|.#X",
"=X=X|. X X].]. X|.*X|.].'.[.].'.|.'.'.'.|.|.|.[.*X|.[.|.3X[.[. X|.|.|.].].].[.]. X].[.[.]. X].'.'.[.'.[.[.*X*X3X*X*X=X=X3X2X3X=X*X[.*X*X3X2X2X2X3X2X2X2X2X2X3X2X2X:X2X3X=X=X:X3X:X3X:X3X2X:X:X:X3X:X3X2X3X2X3X:X:X3X|.*X3X=X3X*X=X;X3X1X=X X#X X X$X=X=X=X=X;X1X;X:X2XwX2X2X2XdX2XdX2XdXdX2X2XdX2XdX2X2X2X2X7X2XdX2X3X2X2X2X2X2X2X2X2XdX7X2X7X3X7X3X*X:X7X[.[.*X X].}.#X#XoX}.#X}.#XG.Y.T.}.1X'.H.=X;X X=X=X#X=X=X=X$X=X=X=X;X;X3X2X3X2X2X2X2XdX2XfX2XfX2XeX2X2X3XiXiXiXiXiXfX2X2XiX2X2X3XiX2X2X2X2X2X2X2X2X:X;X2X1X1X2X1X1X1X;X;X$X$X&X&X&X$X$XOXOXoX(.}.Q.oXoXOX$X$XOX$X&X;X;X3X;X;X3X=X;X;X;X=X=X=X=X=X=X=X=X$X$X&XoXoXE.L.Q.(.W.Q.OX@XOX$X;X$X%X*X-X%X;X;X:X;X:X;X;X;X;X;X:X;X*X;X;X;X;X;X;X;X:X;X:X:X3X;X=X;X:X=X=X3X=X=X=X=X$X1X1X$X&X}.g.G.1X1X$X1X$X1X;X1X<X1X1X1X1X1X1X<X1X1X1X1X$X$X&X$X$X@X$X@XOXOXoXOXoX}.oXOX$X@X$XOXOX XoXoXE.T.E.$X&X;X-X-X-X-X-X=X:X=X:X=X:X:X:X;X:X:X-X=X*X-X6X:X:X:X:X:X6X:X:X:X:XwX2X2X:X:X:X:X5X5X;X5X;X;X;X;X5X;X5X0X6X6XwX2X2X2X2X2X;X-X;X:X*X:X=X:X:X:X:X2X3X2X2X2X3X*X'.{.|.*X'.{.3X[.[.|.|.].[. X|.#X*X#X*X*X|.|.$X#X#X",
"=X=X|.|.].[.[. X'.[.].|. X].[.].J.{.J.{.[.|. X[. X|.|. X X[. X[. X|.|.|. X[.].].|. X[.].].[.'.'.[.[. X|.[.|.*X*X*X X3X*X=X:X=X*X3X3X[.3X3X3X2X3X3X2X3X2X2X2X2X7X:X3X:X3X:X3X:X3X3X:X:X:X3X=X=X:X2X2X3X:X7X3X3X:X*X X|. X*X*X*X3X;X;X2X3X3X=X*X*X X#X=X=X=X;X;X;X0X2XwXwXdX2X2X2X2X2XdX2X2XdXdX3X7X2X2XdX3XdX2X2X3X2X7X2X2X2XfX2XdXdX2X2X3X:X:X=X:X:X3X7X:X3X[.*X$X#X#X;X1X$X#X$X}.$XT.oX].H.eX}.H.2X2X|.=X=X X=X=X X#X|.$X=X=X=X3X3X3X2X2XdX3XfX2X2X2X2XiX2X2X2X3XiX3XiXfXdX3XfX2X3X3XfX2X2XdX2X2X2X2X2X2X2X3X;X1X1X2X3X2X2X1X1X1X1X1X$X&X&X$XOX#XoXOXoX}.oXoXOXOX$X$XOX$X$X&X1X=X;X=X=X=X=X;X-X;X:X:X=X=X=X=X<X&X&X,XOX@XOXE.oXQ.B.!.>X,X@XoXOX$X%X&X&X-X-X-X;X;X;X-X;X-X;X;X:X;X:X;X;X;X;X;X;X3X;X3X;X=X3X:X:X;X;X=X:X:X=X3X:X1X1X;X-X$X$X#XG.].qX&X$X2X1X;X0X&X&X<X,X0X0X0X1X&X,X1X1X,X&X&X$X&X@X$X$XOX#X#X X&XOXoXOX&X&X$XOX#X$XoX X$X}.Y.].$X-X;X;X=X-X-X%X:X=X:X:X=X:X;X:X:X:X;X;X*X=X;X6X:X:X:X:X:X;X:X;X:X6X:X6X:X6X:X;X5X;X;X5X6X5X;X5X6X;X0X6X0X5XwXuX2X:X2X2X:X:X;X-X=X:X*X:X:X=X*X:X2X2X2X2X2X3X'.J. X|.[.'.*X*X X[.*X X].]. X#X#X X=X#X|.$X|.|.*X=X",
"}. X|.}.].|.|.#X3X[.*X3X[.[.{.[.[.J.F.{.3X3X[.{.[. X[.[.[. X3X[.].]. X].[.[.[. X].|.]. X].[. X].'.[.].|. X#X;X3X X|.=X=X=X#X*X#X[.*X*X3X*X7X3X3XdX3X3X3XdX3X3X3XdX3X:X*X:X3X:X:X*X:X:X:X:X;X*X*X:X:X=X:X:X3X:X:X*X*X#X*X=X:X=X;X=X;X;X;X;X*X#X*X=X;X;X-X=X=X;X2X:XwX2X2XdXiX2XdX2XdX2X2X2XdX2X2XdX2X2X2XdX7X3XdX2X2XdX2XgX2XfX2X2X2X2X2X1X1X$X#X*X=X#X=X;X=X*X3X=X=X$X$X#X#X#X*X=X=X X X|.|.#X=XT.g.0X;X#XoX$X$X;X$X#X#X#X#X#X#X1X2X:XwXwXwXuXwXiXwXiXwXuXwXuXuXdXiXiX3XiX3XiXiXfX3X2X2X2X2XfX3X2XfXiX3X2X2X2XeX1X3X1X1X2X1X1X1X1X1X;X1X1X;X$X$X$XoX}.oXoX}.oXoXoX%X*X$X*X-X&X-X;X;X-X&X;X;X-X;X:X*X;X;X=X;X;X&X%X&X&X4X$X+X+XoXOXQ.P.!.oX&X&XOX&X$X$X1X=X=X=X2X:X=X3X=X3X:X:X=X3X3X3X:X:X3X;X3X$X;X;X&X;X1X;X<X=X&X3X$X=X$X=X$X$X<X0XOX$X$XL.L.$X$X1X,X&X&X&X;X,X;X<X1X,X1X,X1X&X,X&X$X&X1X&X1X&X&XoX XOX#X$X$X$X&X&X$X&X$X$X$X$X<X#X}. XoX].Y.OX;X1X=X$X=X;X;X;X-X;X-X:X;X:X:X5X:X;X6X6X;X%X;X;X-X1X;X;X;X1X1XiXrX:X0X0X;X1X0X0X;X6X;X5X:X6X:X:X-X-X6XwX6X6X6X:XuX2XdX:X:X:X:X:X:X=X=X*X:X:X:X3X7X3X7X7X{.F. X X[.[.[.[.[.[. X X|.|.|. X=X*X=X X X X*X$X*X X X",
"}.}.|.].].].|.|.|.3X[.[.[.[.[.[.{.{.{.[.3X3X3X[.[.[.3X[.3X[.[.[.].|.].[.[. X].'. X].[.].].].].].'.[.'.|.|.|.=X;X*X*X=X=X=X*X*X#X|. X*X*X*X3X3X7X3X2XdX3XdX3X7X3X2X3X:X*X:X=X=X:X;X:X;X;X:X;X:X=X:X:X:X:X:X:X:X=X*X*X*X=X:X:X:X:X=X:X:X;X;X;X-X*X3X2X:X;X=X=X;X:X2X2XdX2XdX2X2X2X2XgX2XdXdX2XdX2X2XdX2XdX2X2X7X3X3X2X2X2X2X2X2X2X2X2X2X1X<X#X#X#X X=X=X=X:X:X:X3X3X=X=X=X=X=X=X=X=X*X#X X|.|.|.|. XG.T.].}.$X;X#X-X#XoX#X#XOX#X#X2X2X:XwXwXuXuXuXwXuXwXuXwXuXwXwXiXiXiX3XiXiXiX3X3XiXfX3XiX2X3XiX2X3X2X2X3X3X2X3X2X1X2X1X2X1X;X;X3X;X=X;X;X3X=X$X#X#XoX XoX#XoX}.#X$X$X*X-X&X-X&X&X;X;X;X&X;X;X;X*X:X;X;X-X-X&X-X5X&X&X%X@X+X+XoX>X(.W.W.oXOX@X&X&X&X$X&X1X=X3X1X:X;X:X:X3X=X:X3X:X=X:X:X;X3X:X=X1X&X;X;X1X;X1X&X$X&X;X1X$X$X$X&X$X&X1X$X&XoXL.Y.$X<X1X,X&X&X&X,X&X&X;X,X;X,X1X1X1X1X,X,X&X<X1X,X&X$X$XOX#X@X&X$X$X$X$X$X$XoXoXoXOX X}.}.}.oX}.Y. X$X;X=X*X-X;X-X-X;X-X5X5X;X-X5X;X-X;X;X;X;X:X6X$X$X&X;XrXeX2X1X$X-X;X;X;X;X1X1X;X0X5X6X;X%X$X-X6X5X5X6X6X6X6X6X:X2X2X2X2X2X:X:X:X:X=X:X:X=X*X:X7X7X7X7X3X{.H.[.[.[.[.[.[.[.[.[. X|.].].#X X X#X#X*X#X X X#X X].",
"].].].'.'.[.|.=X[.*X|.[.|.[.[.[.[.{.[.[.*X7X3X[.[.[.[.[.[. X[.[.|.|.].]. X].]. X'. X[.[. X[.'.'.'.'. X|.|.|.|.|.|.#X*X*X#X#X X X[. X3X3X=X=X:X2X2X2X2X2X3XdX3X7X2X3X:X:X:X:X:X:X2X2X:X;X*X:X=X:X:X:X:X=X:X:X:X=X*X*X*X*X:X:X:X:X;X:X:X2X;X;X;X;X2X2X2X2X;X;X2XwXuXuXuXuXdX2X2X2X2X2XdX2XfXdX2X3XdX2XdX2X2X7X3X3X*X3X2X2X2X2X2X2X2X2X3X<X X'.]. X'.=X2X=X:X2X2X2X2X2X3X;X=X=X=X$X=X#X#X#X|.|. X].$X].g.T. X$X;X#X$XoX X#X#X X$X=X:X2X2X:X2XuXwXuXiXuXiXuXiXiXwXuX3XiXiXiXiX3XiXiX2XiXiX2X2X3XiXdX2X2X2X2X2X2X2X2X2X2X2X1X1X1X3X3X1X;X3X1X1X=X;X$X#X XoXoXOXOX#XoX$X%X&X%X-X&X;X;X;X;X&X;X;X;X&X;X=X:X-X-X;X;X$X;X&X%X&X&X&X@X%X@X,X@X+XQ.E.Q.OX$X&X$X&X$X;X1X1X;X3X:X3X;X3X:X=X=X:X3X=X=X;X:X1X=X;X1X,X1X1X1X1X1X;X;X;X$X$X;X;X1X,X&X&X&X&XoXG.E.$X&X1X1X&X&X&X1X&X1X&X1X,X1X&X1X2X0X1X<X&X&X&X&X&X$X$X$X$X$X$X$X@X#XoXoXoX}. XoX}. XQ.}.}.oX}.].].#X$X=X=X-X=X-X-X;X-X;X-X:X-X;X:X5X5X-X-X;X6X;X;XeXiX;X}.E.=XiX2XqXeX1X;X;X;X;X1X-X#X&X6XrXuXuX:X6X6X6X6X5X6X6X:X2X2XuX2X2X2X2X:X:X:X=X:X:X:X:X7XdX3X3X3X{.{.3X[. X[. X X[.[. X].|. X X X*X*X#X=X X=X*X|. X].].",
"].].'.'.'.'. X$X3X[.3X3X3X3X3X*X X3X[.3X*X3X3X3X3X[.3X3X[.[.[. X#X|.[.].].[.].].[. X'.[.[.[.'. X'. X|.|.|.].|.].|.|. X X X].|.].[. X*X*X=X*X:X2X2X2X2X2X7X3X3X3X2X3X:X:X:X:X:X:XuX2X2X;X-X:X:X=X:X=X:X:X:X=X:X:X*X*X*X*X:X:X:X=X:X:X2X2X0X2X;X2X2X2X2X2X:X:X2X2XiXuXuXuXdX2XdX2XdX2X2X2X2X2XdXiX2XdX2XdX7X2X3X3X*X2X2X2X2X2X2X2X3X3X<X XT.H.J.{.H.=X3X=X=X3X2X2X3X2X2X3X3X=X$X=X=X*X X=X=X=X|.|.].$XG.#XoX#X#X$X$X$X$X$X#XOX$X1X2X:X2XwX2XwXwX2XwXuXwXuXwXuXwXwXiX3XiXiXiXiXiX3X2XfX3X2X2XiX3X2X2X2X3X3X2X3X3X3X2X1X2X1X3X3X=X=X;X3X=X;X1X;X$X$X#XoXoXoX#X#X#XoX&X&X-X;X;X;X;X&X&X&X-X;X%X;X;X:X*X:X;X;X;X=X;X&X&X;X;X4X&X;X&X@X<X>X@XoXQ.Q.}.OX&X,X1X;X=X1X1X=X;X:X;X;X:X:X3X:X:X=X:X3X=X;X;X=X1X1X1X1X1X1X1X1X;X&X&X1X$X$X&X;X1X$X1X&X&X].h.}.&X&X<X&X<X&X&X&X,X;X<X&X&X&X&X&X1X,X1X&X&X$X$XOX&X$X#X@X$X$X$XOX$X$X#XoX}.oXoXoX XQ. X}. X#X XoX].oX$X=X-X=X;X=X;X-X;X;X:X;X5X:X;X:X;X-X;X6X-X[.].g./ L T ^ >./ D.G.G.E.].}. X#XG.K.D.D.K.].*X:X5X6X6X5X-X6X6X6X7X2X2X2XdX2X2XdX:X=X:X:X:X:X:X:X3X3X7X3X X{.{.3X[. X X[. X[.[. X].[. X#X$X*X X#X=X$X X#X*X X[.].",
"}.].'.'.'. X#X=X*X*X*X3X*X7X*X*X3X*X|.3X[.3X3X3X3X3X[.[.[.[.[.[.|.|. X[.[. X'.]. X].]. X X].].].].|.|. X|.].].].].].].].|.'.}.|.|. X|.*X*X*X=X3X3X2X2X2X2X2X2X2X:X*X=X=X*X*X=X:X:X2XuX:X*X;X:X2X:X:X:X:X:X:X=X:X;X-X=X:XwXuX2X;X:X:X2X:X:X:X2XwX2X2X2X2X2X2X2X2X2X2XdX2X2XaX2X2XdX2X2XgX2XnXnX2XdX2X7XdX2X:X*X*X=X3X2X2X1X1X1X1X&XoX].T.T.Y.G.L.F.|.1X=X:X2X;X;X2X3X3X;X=X=X$X=X$X#X X|.$X=X=X|.Y.#XH.=X#XoX$X$X=X$X$X$X$X$X<X1X:X:X2X:X2XwX:XuX2X2XwXwXwX2X:X:XiX3X3XiXiXiX3XiX3XiX2XiX2X2X2X2X2X1X1X1X3X3X1X1X1X;X;X=X1X=X=X=X;X=X3X1X=X1X$X$X#XoX}.oXOX$XOXoX;X;X;X;X;X;X&X;X;X;X;X;X&X;X&X-X=X:X*X:X;X-X;X-X;X&X&X4X&X&X&X&X@X&X$XoXoXQ.Q.E.$X;X1X,X=X=X1X<X;X3X;X;X1X=X3X=X=X3X3X;X;X=X=X;X1X1X1X1X1X1X1X1X1X1X,X<X;X$X&X$X1XOX$X&X$XE.G.oX&X&X<X&X&X&X<X1X1X,X&X&XOX$XOX#X&X&X&X$X&X$X&X$X$X$X@X$X&X$X$XOX$X$XOX XoXoXoX#XoX(.}. XoXoX X X].}.|.=X=X-X$X-X;X-X-X;X;X6X;X;X;X-X:X-X;X&X'.S.T L ^ ,.g.J.G.S.>.T ^ S.J.g.g.g.r.f.S.f.:.:.f.K.:X5X6X5X7XpX6X6X:XwXwXwX2XuXwXwX*X:X:X:X:X3X2X2X3X3X3X3X[.{. X X[. X[. X[.[.[.[.]. X X*X*X#X|.|.#X*X X*X*X X X].",
"|.}.'.'.|.|.=X-X*X*X*X7X*X3X3X7X|.3X:X3X7X3X3X*X3X3X[.[.[.[.3X3X|.|.|.].[.'.'.[.[.].[.].[.[.]. X].].|. X].'.[.].'.}.].|.|.|.|.|.|.[. X|.3X*X=X:XiX2XdX3X2X2X2X2X:X=X:X*X=X:X=X*X*X:X2X:X:X2X2X2X:X:X2X:X=X:X:X=X:X;X;X:XuXuX2X:X:X:X:X2X:X:X:X:X2X2X2X2X2X2X2X2XnXgX2XgXdX2XdXdX2X2XnX2X2X2X2X2XdXdX7X3X3X:X:X*X-X3X2X;X;X3X=X X}.Y.G.P.T.Y.Y.Y.F.oX;X=X=X=X:X;X=X;X;X3X3X=X=X=X=X|.|.|.|.=X|.=X}.].J.}.#X$X;X$X$X#X$X X#X X$X2X:X2X:X2X2XwX2X:XwXwXuXuXuXuXwX2X3XiXiXiX3XiXiX3XiX2XiX3XdX2X2X3X=X1X3X1X3X3X3X<X3X=X=X=X$X;X3X=X;X=X=X=X1X=X$X$XoX#X}.oX X#X$X$X%X;X%X;X;X5X;X;X;X&X&X;X&X-X;X;X:X*X:X*X;X-X;X&X;X;X;X%X-X%X4X&X&X@X@X@X@X+XQ.T.OXOX&X&X1X$X&X;X;X;X;X3X;X;X1X1X:X3X;X;X1X3X3X1X1X1X1X1X1X1X1X&X2X1X1X1X&X1X1X$X1X$X&XoX}.T.J.$X1X&X&X;X&X;X&X&X&X1X&X&X&X$X#XoXOXOX$X&X&X,X<X&X&X&X$X&X&X&X&X$X@X#XoXoX XoXoXoX X XoX X}.}. X X].]. X=X;X=X=X;X-X;X;X;X;X;X;X;X;X:X;X;X-X].F.e.:.g.].'.y./ / u.G.t.>.y.f.y.y.g.G.K.L.L.L.F.f.i.XX;X6X6X6X7X7X6XuX2X2XuXwXwXwXwX*X:X:X:X2X2X2XdXdX3XdX2X[.{.[.[.[.[.[. X|.[. X[.|.#X X*X=X X|.|. X X*X X*X$X*X#X",
" X}.'.|. X*X=X=X3X3X*X*X3X3X3X3X3X*X:X7X7X:X[.*X3X[. X[. X[.3X[.|.|. X|.|. X[.'.[. X[.].].].].].|.|. X'.].'.'. X'.'.}.}.'.|.|.|.|.[.[. X3X3X2X3X2X2XgX2XfX3X2X2X2X:X:X:X=X:X2X:X*X;X:X:X:XuXwX-X:X:X2X:X:X*X*X:X-X;X;X:X2X2X:X:X2X2X:X:X:X:X2X2X2X2X2X2X2XdX2XfX2XnX2X2X2XdX2XdX2XgXdX2XnX2X2XnX2X2X7X7X:X:X*X*X;X;X;X;X3X;X$X].E.G.G.T.T.L.G.Y.J. X*X=X3X=X#X=X$X#X=X=X=X=X=X=X=X=X$X|.$X|.|.|.#XH. X|.#X-X1X$X=X$X=X#X X#X=X1XwX2X:X2X2XwXuX2XwXiXiXaXaXuXuXwXiXiXiX3XiXiXiX3X3XiX3XiX2X2X2X2X=X3X1X=X3X3X<X<X=X=X$X=X=X=X=X3X=X3X=X1X=X=X$X$X#X#XoX}.oXOX&X&X;X&X;X;X&X;X;X-X;X;X;X-X5X%X;X&X:X*X=X=X;X;X;X;X;X&X;X%X&X&X&X&X&X$X@X@X$XOX X}.oXT.E.$X1X&X$X;X;X1X;X;X;X3X1X=X=X;X3X:X1X3X1X2X1X1X1X1X1X1X1X;X1X1X&X;X1X;X;X<X&X&XOX}.E.T.L.&X&X&X$X&X&X,X1X,X&X&X,X<X&X&X$XOXoXoX$X$X$X&X&X$X&X$X$X$X$X&X$X$XoXoXoXoXoXoXoXoXOXoX}. XoX}.}.OXoX].|.$X-X$X=X;X%X;X&X;X;X;X;X1X0X;X;X1X}.g.e.e./ r.y.y.u.u.g.g.G.g.u.y.u.g.J.].].L.F.{.#X[.F.e.L.*X6XrX6X6X7X7XwXwXwXwX:XuXwX:X:X:X:X2X2X2X2X2X3X3X3X3XJ.{.3X[.[.[.3X[.[.|. X X|.*X=X*X*X#X X X|.*X#X*X=X=X*X X",
"oX}.}. X|.#X=X$X7X*X3X7X3X*X3X3X*X*X|.3X X[.[.[.[.[.[.[.[.3X X[.|. X*X=X#X#X X X[. X].]. X[.].]. X|.[.[.[.].].|.|.'.'.'.'.'.].].*X[. X X2X2XdX7X2X2X2X2X2X2X2X2X7X2X=X:X:X:X:X=X:X2X-X;XwXuX:X[.:X2X:X:X:X:X=X=X:X:X2XuXwXwX:X:X2X2XwX2X2X:X:XwX2X2X2X2X2X2X2XnXnX2XgX2XfX2XfX2XdX2XfXnX2XfX2XnXdX2X3X:X:X*X:X:X:X3X3X1X2X1X XE.T.Y.Y.E.T.G.G.Y.'. X#X=X3X=X|.#X|. X#X X$X=X$X$X=X=X=X=X=X|.|.|.$XG.2X=X#X$X=X#X;X=X=X=X#X#X=X2XwXwXwXuXwXuXwXuXwXwXuXiXuXuXwXwXiXiXiXiX3XiXiXiXiX2XiXdX2X3X2X2X=X;X=X;X;X=X3X$X1X=X3X=X=X=X3X=X=X=X=X=X3X;X;X$X#XoX}.}.}.$X&X&X%X;X&X-X&X;X&X;X;X&X&X;X;X;X;X;X*X:X*X:X-X-X-X-X;X;X;X&X%X&X&X$X@X,X&X$X@XOX$X@X}.x.G.oX1X<X$X;X;X3X;X3X;X;X=X1X=X3X;X3X2X2X2X2X1X,X1X1X1X1X&X&X$X$X#X$X$X1X&X;X&X$X$XQ.T.P.Y.&X1X&X&X&X&X&X&X1X&X&X1X1X1X&X$X$X}.}.oX#X$XOX$X$X$X#XOXOX#XoXoX#XoX XOX#X#XoX#XoX<X XOXOXOX XOX$XoX}. X$X-X=X-X;X;X&X;X&X;X;X;X;X;X%X-X#XF.*.Y r.t.g.J.J.G.g.G.J.J. X XT.J.J.T.J.Y.E.|.oX].{.{.].S.XXrXpX6X6XrXrXuX2XuX2X:X:X:X:X:X:X:X3X:X7X2X2X:X3X*X XF.{.[. X[.[.[.3X*X*X3X*X#X=X=X=X#X X#X*X#X#X X$X=X=X=X*X",
"oX|.[.|.#X=X*X#X=X=X:X=X3X3X*X3X:X3X*X[.3X[.[. X[.[. X[.[.3X[.[.|.*X=X|.#X=X|.|.|.[.'.].].|.|.#X].].'.'.'.[.'. X{.'. X].'.|.|.|. X[. X X=X1X2XwXeXiX2X2X2X2X2X2X:X3X:X=X*X|.|.:X7XdX2X:X2XuX2XwX=X:X:X:X:X;X:X:X*X:X:X:X2XwX:XuXwXuX:X:X2X2X7X7X2X2X7X2XdX2XnX2X2XgX2XnX2XnX2XfX2X2XzX2X2XnX3X2X2X2X:X:X:X:X;X-X;X=X=X3X$X}.E.Y.].P.L.Y.L.L.J.Y.T.E.$X;X=X#X X=X|.=X|.|. X*X=X#X=X X*X=X=X$X|. X'.|.=X;X X#X3X3X;X=X|.|.=X=X3XeX:X:X:X2XwXwXwXwXuXuXiXiXiXiXeXeX3XiX3XiXiX3XiXiX3X3XiXiXiX3X3X3X=X=X3X1X1X=X$X=X=X=X$X=X*X#X*X=X=X;X1X=X$X=X$X$X$X X}.oXOX$X$X&X-X;X&X&X;X-X%X;X;X&X&X;X;X;X;X-X=X:X=X:X*X*X;X;X-X;X;X;X-X;X=X;X&X&X&X8X<X,X#XOXoXE.E.}.$X&X$X$X;X=X;X=X3X1X1X=X$X:X2X;X2X1X=X1X1X1X1X0X1X1X&X&X1X=X&X1X$X1X;X$X$X&X}.E.].E.E.&X&X&X$X<X&X&X<X1X$X&X<X,X1X&X&X$XoXoXoX XoXoXoXOX&X$X$XoXOX#X#XoXoX$X$X$XOX#X$X$X$XOXOX$X$X&X<X=X=X$X#X;X-X=X=X:X1X$X#X$X1X0X1X&X&X#X1XY.P ^ f.S.G.G.Y.T.J.J.J.Y.E.J.J.H.J.J.J.].E.}.#X#X].T.].[.K.[.;XwXuX6X6XwX;X:XwXwX2X;X;X:X;X;X:X;X2X2X2X2X=X[.J.S.{.'. X[.*X X|.3X|.*X*X*X*X$X*X$X*X#X*XXX X*X*X*X=X*X$X$X",
"oX[.}.|. X*X#X=X X=X*X*X|. X[.[.3X|.3X|. X[.[. X[. X[.3X[.[.[.3X|.|.|.|.|.|.#X X'.]. X|.|.|.'.'.].'.].].[.].'.[.'.'.|. X|.}.|. X[. X|. X$X$X;X3X2X2X2X2X2X2X2X2X:X2X:X:X:X*X*X2X2X2X:X:XwXuXuXuX=X:X:X:X:X;X*X:X=X:X2X2XwX2XuX2X2X2X2X:X2X2X2X7X2X2X3XdX2X2XfX2XgX2XnX2XnX2XnXgX2XnX2XnXnX2X2X2X2X2X:X2X2X:X:X;X;X=X=X;X$X X'.!.E.L.L.Y.T.Y.L.Y.;X$X#X$X=X=X#X$X#X|.|.$X#X#X=X=X$X=X=X=X=X=X|.$X}.'.#X;X=X=X:X;X=X$X#X;X=X;X2X2X:X2X2XuXwXwXuXwXiXuXuXiXuXiXuXuXfXiXiXiXfX3XiX3XiXiXiX3X3XiX2X3X;X=X;X;X=X1X3X;X=X=X$X=X=X$X=X$X=X3X1X=X=X=X;X$X#X}.].oX#X$X&X,X;X&X;X;X&X5X;X;X;X;X;X-X&X&X;X&X:X*X:X=X=X;X;X-X;X;X;X;X;X-X;X;X&X&X,X&X&X$X$X@XoXoX'.E. X1X1X&X&X3X=X1X=X;X;X;X;X;X X X3X1X1X1X;X<X1X0X1X1X1X;X$X;X;X$X;X&X&X;X$X$XE.T.}.E.E.&X<X&X;X&X&X1X&X&X$X$X$X$X$X$XoX$X#X$X$XOXoXoX#X$X}.Q.E.}. XOX$X$X#XOX$XOXoXOXoX$X XOX<X$XOX X$X3X].].|.=X;X=X#X$X$X&X1X1X1X$X$X#X1X$X1XF.Y y.J.G.J.J.!.!.J.Y.T.!.T.J.T.J.J.T.].!.}. X#X|.].].].|.#X{.R.XX:XuXuX:XeXwX:X-X#X$X$X*X*X*X#X*X:X3X:X*X{.{.{.{.[.[. X[.|.*X*X*X*X=X3X*X*X*X$X=X#X*X|.|.|.|.%X*X*X=X*X%X",
"|.}.|.|. X*X*X X=X*X X*X[.{.'.'.|. X[.[.[.[.[.3X X[.[.[.[.3X*X[.|.|. X|.|.|.#X|.'.].|.|.|.'.'.'.'.'.[.].].].].].].|.|.|.|.|.|.|. X#X|.#X#X#X|.$X2X2XiX2X2X2X2X2X:X:X=X*X:X*X*X:XnX2X2X:X2XuXaXdX:X2X:X=X;X:X:X:X:X2X2XuXuX2XwX2X2X2X2X:X2X2X2X2X2X2X2XdX2XnXdXdXnX2X2XnXgX2X2XnX2XgXnXgXfX2X2X2X7X:X:X:X2XwX;X-X=X=X$X$X#X X}.}.P.L.J.L.P.L.Y.P.Q.}.oX$X$X#XoX].#X X*X#X*X=X*X*X|.#X$X X|.|.#X|.].].#X=X=X=X3X*X=X*X#X;X3X2X2X2X2XwXuXuXuXiXiXuXuXeXiXiXeXuXuXuXiXiXiXiXiXiX3XiX3XiX3XiXiX3XiX2X3X1X1X;X1X=X=X1X=X=X=X$X$X=X=X=X1X;X;X=X1X1X-X#X#X}.E. X$X&X&X&X;X;X;X&X;X;X;X;X&X;X&X;X-X;X;X;X=X*X:X*X:X*X=X;X:X;X;X;X;X;X;X-X,X&X,X<X,X@X@X#XoX@XQ.P.E.&X0X,X;X&X;X$X1X<X;X;X1X$X].E.$X1X1X1X1X1X1X1X1X1X&X$X$X$X$X1X$X;X1X1XOXoXT.Y.!.}.}.&X&X&X&X&X&X&X,X1X&X&X&X$X@X$X$X@X$X$X#XOX XoX#X$X}.oX XoXoX#XOXoX$X$X$X$X#XoX$XOXOX<X<X$X#X X#XOX;X#X#X#X=X-X;X;X1X1X&X$XOXOX$X$X#XE.T.>.^ G.E.g.G.J.H.Y.Y.J.T.].T.Y.T.Y.E.'.].].}.}.}.].].E.].|.*X{.F.Y.#X:XuXwXuX:X*X#XXX#X#X#X*X|.|.=X=X|.{.{.S.{. X[.3X[.[. X*X X X=X=X=X=X*X-X-X=X$X*X*X#X#X|.#X*X*X*X*X#X#X",
"|.}.|.}.#X X#X*X=X*X=X X X[.{.{.[.[.[.|.3X[.[.[.[.[.[.3X[.3X[.3X#X#X X|. X|.*X#X|.|.].'.'.'.'.].[. X].[.|.]. X].|.|.|. X|.|.|.|.#X#X#X#X#X#X X#X3X2X2X2X2X2X2X2X=X:X:X*X*X*X*X=X2X2X2X2X2X2XuXdX2X2X2X3X;X:X:X:X2X2X2XuXuX2XwXwX2XdX2X2X2X2XdX2XdXdX2X2XdX2XdX2X2XfXfX2X2XnX2X2XnX2XgX2XnX2XfXnX2X2X:X:XwXuX;X*X=X|.#X$X X X}.}.P.L.G.L.J.L.L.J.T.}.;X1X&X$X#X&X*X*X#X#X X*X X X|.|. X X|.$X=X|.].].#X3X=X;X3X=X$X X*X=X2X2X3X:XwXwXuXiXaXaXuXeXeXiXuXiXaXuXiXeXiXiXiXiXiXiXdXfXiXiX3XiXiXiX2X3X2X2X3X;X=X;X3X=X3X=X=X#X$X$X=X=X1X3X3X=X=X1X&X X}.].E.oX&X;X&X&X&X;X-X;X;X%X;X&X&X;X;X;X&X;X&X;X=X:X*X:X=X;X;X-X-X;X;X*X;X;X;X-X&X,X&X,X<X$X&X&XoXoX}.P.L.Q.&X<X$X1X&X1X;X;X;X<X2X;X}.}.&X2X&X1X&X1X1X;X<X;X;X&X&X$X$X$X<X;X&X&X&X}.P.Y.E. XOX$X&X&X&X&X&X&X&X&X,X&X&X&X$X$X$X$X$XOX#XoXoXoXoX$X&X&X&X&X&X$XoXoX$XOX$XOX$XOX$X$X$X<X<X,X1X1X3X X;X$X XoX#X*X=X-X0X$XoX}.$X$XoX].x.y.t.^ *.G.P.g.g.G.J.H.Y.Y.!.].'.E.T.T.'.T.T.T.}.'.'.{.L.L.'.].{.].{.{.{.[.*X-XoX[.#X#X#X=X*X*X:X*X*X:X*X{.{.{.{.'. X3X[.[.[.3X|.*X*X*X=X3X*X3X=X;X-X-X*X*X%X$X#X#X#X*X*X#X#X*X",
"#XoX X|.#X|. X*X=X*X*X=X X'.'.[.[.[.[.[.[. X[.[.[.3X[. X3X[.[.[.|.|. X#X#X|.|. X=X#X|.'.'.'. X X X|.|.].].|. X*X=X=X X X X|.|.|.oX#X$X#XoX#X X#X3X2X2X2X2X2X2X2X:X:X:X*X*X*X*X*X2X2XdX2X2X:X2X2X2XdX2X2X2X:X2XuXuXuXuXwX2XuXwXuXdX2XdX2X2XdX2XdXdX2XdX2XdXdXdXdXnX2XdX2XdX2X2XnX2XgXfX2XnXnXfX2XnX2X2XwXwX:X*X#X$X X#X$X$X}.E.].E.T.P.G.G.L.P.H.].oX#X#XoX#X#X&X X*X#X#X#X|. X[.|.|.]. X*X3X=X X[. X:X3X:X=X3X3X=X*X=X=X:X:X2X3X:XwXuXiXaXiXiXuXuXiXaXuXiXaXuXiXiX3XiXiXiX3XfX3XiX3X3XdXiXiX3XiX2X2X2X3X3X3X=X1X3X=X=X$X=X=X3X1X;X3X;X=X;X1X$X}.}.E.].OX&X&X&X&X&X5X-X;X;X&X;X&X;X;X;X;X;X;X;X;X;X-X;X-X:X*X:X*X*X:X=X:X:X*X;X;X,X&X&X<X,X&X&X@XOXoXQ.Q.T.P.Q.$X;X&X;X$X&X1X&X;X1X1X&X$X1X1X&X;X&X1X&X1X;X;X&X$X;X$X1X;X;X$X;X$X&XE.Y.T.}.oX$X$X,X&X$X&X&X&X&X1X$X$X&X&X$X$XOXoXoXoXoXoXoX$X$X&XOX#X$X$X&X&X$X$X$XoX#X$X$X&X$X&X<X<XOX$X XOX$X$X}.}.|.=X-X;X;X-X X X X$X<X}.G.y.f.>.t.t.f.P.J.G.F.L.Y.].}.'.E.'.].T.T.T.'.Y.T.T.E.!.T.H.J.Y.T.].{.].[.].{.F.F.{.].[.#X-X-X*X=X-X:X;X;X:X XJ.{.|. X[.[. X[.[. X3X X*X*X=X=X=X*X#X-X-X-X;X=X*X$X*X#XXX#X*X%X#XXX*X",
"#X#X=X|.#X|.#X#X X*X*X=X|.[.'.[.|.|.[.3X3X[.3X[.[.[.[.[.[.[.3X[.|.|.|.#X|.[.'.}.|.|.=X|.=X$X#X*X*X|.|.|. X*X=X=X=X=X*X#X|.|. X X XoX#X$XoX#X$X$X1XeXtX2X2X2X2X2X=X:X=X*X=X*X*X*X:X2X2X2XdX2X2X2X2X2XdX2X2X2X2XdXuX2XwXuXuX2XwXwX2XdX2XdXdX2XdX2XdXdX2XdX7X2X3XdXfX2XdX2X2XnXnX2XnX2XgXnXfXfXnX2X2XnXiXwXwX;X*X#X$X#X$X$X$X}.E.E.}.}.Q.T.P.T.T.Y.L.L.E.}.$X;X#X].#X X X X[.].[.[.].'.'.'.|.=X=X|.|.|.2X2X=X=X2X3X=X=X=X3X=X=X2X2X2XwXwXiXiXiXiXuXiXuXiXiXaXuXaXuXiXfXfX3X3XfX3XiX3XiXfX3XfX3XiXiXqX2X1X2X1X1X3X3X1X1X3X=X$X=X=X=X;X;X1X=X=X=X#X}.}.].oX&X1X<X&X1X;X;X;X&X;X;X-X;X;X%X;X&X;X=X&X-X;X;X=X;X*X:X=X:X:X;X:X=X;X:X;X;X;X,X,X&X&X&X&X&X&XoX X$XoXP.T.$X&X&X&X1X;X&X1X;X$X2X2X1X1X1X$X;X1X1X;X1X&X&X$X;X&X;X&X$X$X$X$X$X$XT.L.E.Q.#X$X$X$X&X&X&X&X&X$X&X$X&X<X&X&X$X$XoX$X$X$X&X&X&X&X,X$X@X$X$X$X&X&X$XOXoX$XOX$X&X$X$XOX$X}.J.y.>.g.G.D.D.F.S.H.].oX$XJ.T.}.E.G.g.t.2.f.2.u.G.Y.J.g.Y.T.E.].].}.E.E.T.Y.T.Y.].T.E.T.T.'.'.!.Y.Y.T.].].[.].{.{.{.].{.[.oX$X;X*X#X#X$X;X=X;X;X=X'.{.{.*X[.{.[.{.[.[.[.[.*X X|.*X=X=X#X[.$X*X-X&X-X%X-X%XXX*X%XXX#X*X*X#X",
"#X$X$X$X#X#X#X$X=X=X=X:X*X[.'.[.|.|.[. X[.[.3X[.3X[.[.[.3X[.3X[.#X X|.|.|.].'.'.|.}.|.=X=X=X#X X X X|.]. X=X=X=X;X=X*X#X=X=X=X#X#X$X&X&X$X$X;X1X2X2X2X1X2X2X2X3X=X:X:X*X:X:X*X=X:X2X2X2X:X:X:X2X:X:X2X2X2X:X2X2X2XuX2XuX2X2XuXuX2X2XnX2XdXdX2XdX2X2XdX2X7X2XdX2X2X2X2X2X2X2XnX2XfX2XgX2X2XnXnXnXnXdXdXeX2X;X#X#X$X$X$X$X X X}.}.oXoX(.Q.Q.Q.E.P.J.E.}.oX#X$X X]. X].[.].'.'.'.'.'.].|.].|.#X|.'.=X*X3X2X2X2X2X2X3X;X2X2X3X=X3X2XuXwXuXiXiXiXaXiXiXaXiXiXiXiXiXuX3X3XfXiXfXfX3XdXdXiX3XiX3XiXiXiX2X2X2X2X1X2X1X2X2X1X1X3X=X=X;X3X=X;X;X=X$X=X#X].].}.OX1X0X<X&X,X;X&X;X;X&X;X5X;X&X;X;X;X;X;X-X=X*X;X*X;X*X:X=X:X*X:X:X-X;X-X;X:X;X,X&X;X;X<X,X&X&X$X$X@XoXQ.Q.oX&X;X$X1X1X&X;X<X;X0X1X<X1X&X$X<X;X$X1X$X$X;X;X&X;X;X&X;X$X$X$X$X}.G.G.T.E.oX<XOX$X&X&X$X$X&X<X&X&X$X&X&X&X&X&X$X$X&X&X1X;X&X&X1X1X<X&X$X&X&X&X$XOX$X$X&X,X$XOX X X!.g.,.^ T / :.>.>.:./ Y r.f.S.G.G.G.u.,.,.y.c.y.u.G.G.E.E.G.T.E.].].].].].T.'.R.R.Y.Y.E.{.'.]. X!.}.E.'.'.].|.].].{.[.[.*X*X*X-X;X;X-X$X$X$X-X;X-X-X#X{.{.{.3X{.'.[.[.|.[. X[.*X*X|.*X=X*X#X*X*X#X$X$X-X=X-X-X*X*X*X*X*X%XXX*X",
"$X$X=X$X*X|.*X=X3X=X:X3X=X[.'. X|.|.|.[.[. X*X*X[.3X3X3X3X*X*X3X=X|.|.|.|.'.].|.'.'.|.$X=X#X*X#X|.|.|.*X*X#X=X:X3X;X*X#X;X;X;X:X;X1X0X1X1X;X2XeX2X2X2X1X3X2X3X<X*X:X:X*X:X:X=X:X2X2X2X2X:X:X:X:X:X:X2X2X2XdX2XdX2XuXuX:XwXwXuXuXnX2X2XdX2XdXdX2X2XdX3XdXdXdX2XdX2X2X2X2X2XnX2XnX2XnX2XnXfX2X2XfX2XnXsXdX2X-X*X#X;X$X#X$X$X#X XoX}.oXOX}.}.oXE.L.T.}.E.f.^ >.S.].].].'.'.'.'.].].'.=X;X*X X|.=X|.2X:X3X2X2X2XnX2X3X2X2X2X2X=X3X2XuXuXuXuXaXiXaXaXuXiXiXaXaXiXiXeXfXiXiXiXiX3XdX3XiX3XiX3XiX3X3X2X2X2X2XqXeX2XeX2X2X2X1X1X1X;X=X=X$X3X1X=X$X#X}.].E.}.$X1X1X&X&X1X-X;X&X&X;X-X%X;X;X;X;X%X-X;X;X:X-X;X;X;X=X*X:X*X:X;X=X:X;X:X;X;X;X;X&X,X&X,X&X<X@X&X$XOXoX}.(.oX<X$X1X$X;X;X;X&X1X1X&X&X;X;X&X1X1X1X&X$X1X$X;X$X$X&X$X$X=X&X;X$XE.g.x.E.E.$X1X$X,X$X$X$X&X&X;X&XOX$X#XoX$XoX#XOX$X&X&X<X<X&X$X&X,X&X$X@X$X$X&X$X&X$X$X&X<X&XOX}.T.g./ ^ ,.y.t.>.>.y.D.S.S.e.r.Y u.>.>.>.t.y.g.x.y.g.J.c.T. XE.].].T.{.].R.].].}.].[.].].R.'.T.E.].].].'.].}.].].].|.|.|.[.[.[.XX$X#X-X;X;X;X;X&X;X;X=X}.[.'.{.{.[. X3X|.[.[.[.3X|.*X|.|. X*X*X|.XX#X%X-X&X-X-X-X*X*X%X*X%X*X*X%X",
"=X X$X*X#X#X X*X$X=X3X=X*X X|.|.[.[.*X|.[.[.*X:X=X=X:X:X:X:X:X:X=X=X|.].'.[.[.|.|.|. X*X*X|. X*X[.3X3X[.=X=X=X3X X*X*X*X X3X2X2X:X2X2X2X2X2X2X3X2X2X2XdX2X3X*X*X;X*X:X:X;X=X-X:X:X2X:XuXwXuXwXuX:X:XwX:XwXuXwXwXwX2X2XwXwXuXuXiX2XnXnX2XnXdX2X2X:X:X:XdXdX2X3X2X2X3X2X2XiXiXdX3XiXiXiXnXnXdXnXiXnX2XnX2X2X2X2X2X-X*X*X#X$X$X$X#XoX XoX}. XoXoXoX].}.T.g.g.L.]. X}.E.Y.T.].].'.'.|.|.|.|. X*X=X=X3X3X2XfXnX2X2X3X3XiXiX3XiX3X3XiXuXiXaXaXaXaXaXaXaXiXaXuXiXeXiXiXiXiXiXiXfX2X3XfX3XiXiX3X2X3X2X2X2X2X2XgX2XfX2X2X2X2X1X3X1X3X1X$X$X&X1X$X#XoX].E.}.$X<X,X1X&X$X,X&X;X-X;X;X-X-X;X;X;X-X;X5X-X:X;X:X;X-X:X;X-X:X;X;X&X;X&X;X;X-X;X;X;X;X;X&X5X&X4X&XOXOX&XOXOX XQ.&X&X&X;X&X&X%X%X5X&X;X4X4X&X&X&X%X&X&X&X&X&X&X&XoXoX$X$X$X$XoXoXh.D.G.L.OX&X&X;X1X&X$X$X&X&X$XOX$XOXoX$X$X&X&X$X&X<X1X&X&X&X$X&X$X<X<X$X$X,X<X}.1XQ.$X1X<X$X Xa.^ / / 2.t.u.u.t.t.t.a.g.g.y.y.u.r./ t.u.S.G.G.S.S.G.H.J.'.'.].].'.].].].[.[.].[.'.'.'.'.'.'.]. X'.].'.'.'.|.'.].]. X|.].[.|.=X*X*X3X*X|.=X=X:X=X*X2X X*X3X{.{.'.[. X X|.|.[. X[.|.#X*X#X*X X X*X*X#X*X#X#X#X*X#X*X*X*X#X*X*X#X%X",
"*X$X*X=X#X X*X#X#X=X=X=X=X=X|. X[.[.*X*X*X|.*X*X:X:X:X:X:X=X=X:X3X=X=X X X X[. X|. X|. X|.|.*X|.[.[.'.[.=X*X*X3X2X*X'. XgXbXvX2X2XnX2X:X3X3X2X2XdXdXdX2XdXdX2X*X;X;X:X2X:X-X:X2X:X:X2X2X2X2XwXwXuX2XwXuX2X2X:X:X2XuXwX2XwX2XiXiX2X2X2XnX2X2XdXdXdX2X3X:X2X=X=X3X2X2X2X2X3X3XiXiXiXiXiXiXiXiXiXnXnXnXfX2XnX2XnX2XdX2X;X-X;X;X=X;X#X#XOX#XoXOX#XoXoXoXQ.L.L.E.Q.E.'.E.Y.Y.Y.T.'.'.'.'. X X*X*X=X=X2X3XfXnXiXdX2XfX3X3XiXiXiXiXfX3XiXiXaXfXaXaXaXiXiXaXiXaXiXaXuXuXiXiXiXiX2X2XdX2XiX3XiXiXdXfX2X3X2X2X2X2X2X2X2X2X2X1X2X;X=X1X&X;X$X1X<X$XOX}.E.].Q.$X$X&X1X&X$X;X:X-X:X-X5X;X:X-X-X:X-X5X-X;X;X-X:X-X;X:X;X;X;X;X-X&X=X-X&X&X4X&X5X;X5X-X&X;X;X&X&X#X$X@XoXQ.Q.L.#X#X&X%X%X&X&X;X&X&X%X;X;X&X;X&X&X&X&X&X&X&X&X$X$X$XOXoXOX&X}.L.p.g.g.Y.$X&X$XOX$X,X,X$X$X$X&X$X$X$X&X$X$X&X&X&X$X&X&X&X$X$X&X$X$XqX$X<X$X1X,X1X<X X<XOXc.2.>.L ^ / / 2.t.t.t.u.a.g.c.x.G.c.g.g.S.S.S.G.H.J.H.G.J.H.J.{.'.}.}.].'.].].].]. X X]. X[.].'.'.'.'.].].'.].].].'.}.].'.|. X].].#X*X=X*X3X3X*X=X:X:X:X3X2X[.*X3X'.[.[. X*X|. X[.[.[. X|. X#X#X#X=X$X*X#X*X$X*X%X$X*X*X*X$X%X*X*X$X#X*X",
" X=X#X X X*X*X*X#X=X=X=X=X$X=X=X|.*X*X*X*X=X=X:X:X:X:X=X=X=X:X2X3X2X:X*X*X*X*X X*X|. X*X|. X X X3X3X X*X3X*X X X X[.3X3X2XnXfX2XnXnX2X2X2X2X2XfX2XnX2X2X2XnX2X2X:X:X2X2X2X:X:X2X2X:X:XwXuX2XuX2XwXwXuX2XuX:X2X:XuX2X2XuXwXuXiXwX2XnX2X2X2X2X2X2XdX3X:X=X:X=X2X2X2X2X2X2X3X2XdXiX3XnXiXiXdXiXdXiX2XnXnXnXgXdXfX2XaXiX:X:X-X;X;X-X#XoX#XoXoXoX XoX}.}.}.T.Y.].E.E.].T.T.L.Y.Y.'.'.'.|.*X=X=X3X=X=X2X2X2X2X3X3X2X2X3XiX3XiXiX3XiXiXiXaXaXaXsXaXaXaXaXiXaXiXaXuXiXiXiXiXiX2XiX3XfX3X3XfX3XiX2XiX3X2XfX2X2X2X2X2X2XfX2X1X1X;X;X1X&X$X<X&X&X$X}.E.Q.].}.$X$X&X1X&X&X&X;X5X-X;X-X;X;X5X;X:X;X;X-X;X5X-X;X:X;X*X:X*X-X;X$X;X;X&X&X&X5X;X5X;X5X;X5X;X&X5X5X$X&X&XOX}.T.x.&X&X&X&X&X&X&X5X&X%X&X;X;X&X0X&X;X;X&X&X&X$X$X$X$X&XOX].$X0XoXg.p.h.G.E.&X0X#XOX$X$XOXoX$X8X&X$XOX&X&X&X$X$X$X&X$X$X&X&X$X&X&X&XOX2XOXOX$X$X!.}./ / u.y.^ L / >.2.>.u.t.t.u.g.f.G.G.G.G.c.g.g.u.S.S.S.G.H.H.H.H.'.'.J.'.'.|.|.|. X].|.]. X[.].[.].].'.'.'.'.'.'.'.'.].[.[.].[.].].|.|.|.|. X=X3X3X*X3X:X=X:X3X3X7X3X[. X X[.3X[.*X|.[.[.[.|. X X#X#X#X|.*X=X$X=X#X*X#X=X*X-X*X*X*X*X$X$X*X*X#X*X",
" X*X*X#X*X X X*X X$X$X*X#X*X=X=X*X*X*X*X*X:X:X:X*X=X:X=X:X=X:X;X3X2X2X3X3X=X=X*X*X*X*X|.*X|.|.[.|.{.[.|.=X*X X3X=X2XzXbX2X2XaXgX2XdXnX2X2XnX2XnX2X2X2X2X2XdXdX2XuX2X2X2X2X:X:XuXwXwXwX:XuXwX2X2X2XuXwXwX2X2X:X:XwXwXwX2XuXwXuXiX2X2XnX2X2XdXdX2X2X:X=X:X:X2X2XnX2X2X2X2X3X2X3X3XiXiXiXiXdXdXdXiXnX2X2XnX2XgXgX2XaXiXwX:X;X;X-X&X$XOXoX}.}.oXoXOXOXOX}.T.L.T.T.T.].].T.Y.Y.T.}.#X=X=X2X2X2X3X:X=X2X2X2X3X3X3X3X2XiX3XiXiXiXfXiXiXiXaXaXaXaXaXiXaXiXaXiXaXaXiXiXaXiXiXfX3XiXdX3XfX2X3XiXiXiXiXiX3X2X2XgX2X2X2X2X2X2X1X3X;X;X;X1X$X;X&X$XoXoX}.}.oXoX&X&X$X1X0X&X&X-X;X;X:X:X-X-X;X-X-X5X-X;X:X-X;X;X-X;X:X;X:X;X;X;X-X&X-X;X&X&X&X;X5X;X;X;X;X&X;X&X&X&X&X@XOXQ.g.oX%X&X&X%X&X%X&X&X&X;X4X4X;X&X&X&X&X&X&X$X$XOX$X#X$XoXoX$X&X}.g.f.J.Y.E.$X&X$X&X<X&X$X#XOX$X$X&X$X$X&X&XOX$XOX&X&X&X&X&X&X$X&X&X<X<X}.}.1X!.2.^ >.^ ^ / ^ / u.g.u.t.y.u.f.g.c.c.J.J.G.c.c.g.y.a.y.S.G.H.H.H.J.'.'.'.H.'.].|. X X]. X|.|.].[. X].]. X'.'.'.'.'.].'.!.[.].].|.}.].|.].'.]. X=X=X=X*X*X3X=X=X3X:X3X2X*X[. X3X[.[.[.*X3X|.|. X|.*X|.|.|.|.|. X*X=X X|.#X*X|.$X*X$X*X$X-X$X*X$X#X*X#X",
"*X=X X*X|.#X|. X*X X=X*X#X X*X=X:X*X=X:X:X:X:X=X|.*X*X:X:X;X:X:X2X3X2X2X2X3X2X3X=X3X:X*X*X3X|.3X*X*X7X7XnXgX2XbXnXnXnXnXgXdXaXdXdXdXgXdXnXnXfX2XnX2X3X3X2XdX2XnXuX2X2X2X2X2X2XwXuXwXuXwXwXuXwXuX2XuX:X2XwX:XuX2X2X2XuXuXuXwXuXwXnXnX2X2X2X2XdXdXdXdX3X:X2XdX2X2X2X2X2X2X3X3XiXiXiX3XnXdXiXdXfXdXnXnXnX2XaXaXaXfXaXiXwXwX0XwX:X;X1X&X$XoXoX#X#X$X#X$X#XQ.Y.L.G.L.E.T.T.T.T.}.#X=X:X3X3X;X=X*X=X=X2X2X2X2X3X2X3X2X3X3XnXfXiXiXiXiXaXaXaXaXaXiXiXiXiXuXaXiXiXiXiXiXiXiXiXiXiXiX3X3XdXiXiXiXiX3XiXiX2X2X2X2X2X2X2X2X2X1X1X1X1X;X=X;X&X&XOXoX}.oXoX#XoX1X1X&X,X1X&X&X-X;X;X-X;X;X;X-X;X;X;X;X:X-X;X;X=X:X*X:X;X=X;X;X;X-X&X;X;X;X;X;X%X;X-X-X&X;X&X%X&X$X,X&XOX<XQ.a.L.].$X$X&X&X1X&X;X&X&X;X&X&X$X$X&X&X$XOXOXoX#XoXoXoXoX$XoXE.G.G.f.P.T.T.E.}. X$X$X1X0X0X&X}.}.&X&X$XOX$X$X&X$XOX<X&X&X,X&X&X&X<X1X<X1XQ.<Xy.^ I ^ L ^ ^ ~ ^ / ,.g.c.g.G.G.x.x.G.g.c.g.G.G.x.G.G.H.H.{.H.Y.H.Y.{.H.J.'.'.|.|.|.|.].[.|.|. X X].|.[.'.'. X'.'.|.'.'.'.].[.|.[.[.].[.].{.].|.;X=X*X=X*X=X=X=X3X:X=X2X X3X[.{.[.3X[.*X*X*X X*X*X X[.|.}.|.|. X#X X#X#X#X#X*X*X$X*X#X*X$X*X#X*X%X*X#X",
"#X#X*X X#X#X*X*X#X*X=X$X*X X X|.*X*X:X:X2X:X=X*X[.*X*X:X:X:X:X:X2X2X2X2X2X2X2X2X2X3X3X=X*X*X*X*X[.3X:X7XgX2XgXzXdXdX2X2XaXaXiX2XgXgXgX2X2XnX2XnX2X2X:X2X2X:X2XnXdXuX2X2XwX2XuXwXuXuXuXuXuXwXwXwXwX:XwX2X2XwX2XuXuXwX2XwXwXwX2XuX2X2XnX2XdX2X2X2X2X2X2X2X2X2XnX2XnX2XfXgXiXiXnX3XiXiXnXiXfXdXiXdXgX2XnXnXdXsXaXdXiXiXwXuXeXwX:X;X1X&X$XoXoX#X$X$XL.T.}.}.].E.Y.Y.T.T.T.T.].|.=X=X=X=X;X=X=X=X3X2X2X2X3X2X3XiX2X2XfXiXiXiXiXiXiXiXaXaXiXiXiXiXiXuXuXeXuXuXiXiXiXuX3XiXiX3XdX3XiXiXiX2XfX3XiXiXiX3XfX2XiX2X2X2X2X2X2X3X1X3X;X1X1X=X&X$XoX}.}.oX#XOX}.,X0X<X1X,X&X&X;X;X;X;X;X;X;X;X;X;X;X;X;X;X-X;X:X=X:X:X-X:X;X;X=X;X;X$X-X=X=X;X;X-X5X&X;X%X&X%X<X&X,X$XOX$XE.t.T.oX&X&X&X,X0X&X&X&X&X$X$X$X#XoX&X$X$X#XoXOXOX#X$XOX&X&X}.G.h.L.g.T.Q.T.T.T.E.oXQ.Y.E.&X0X;XoXQ.&X$XOX$X&X&X&X$X,X1X1X1X&X&X$X&X<XOXqX XT.~ / / ^ ,.u.g.g.f.g.J.J.J.J.P.J.J.G.G.G.G.G.J.J.J.J.Y.Y.'.'.'.Y.H.Y.Y.H.'.'.}.|.|.|.'.|.|.].|.[.[. X].'.[.[.'.|.}.'.}.'.].].[.[.[.[.[.oX].{.[.*X;X-X*X=X=X=X=X:X=X=X:X:X'.[.[.{.'.[.3X*X|.|.|. X*X|. X|.|.'.|.|. X*X*X|.#X#X$X*X*X*X#X*X*X*X*X#X*X*X#X",
" X*X#X X#X X#X X X=X=X$X#X#X|.|.*X*X:X:X*X*X*X*X|.*X=X:X:X:X:X:X2X3X3X2X2X:X2X3X2X3X:X*X3X|.*X*X3XdXnXdXbXgX2XnX2XnXnXgXiXaXsXsX2XgXfX2XdX2XdXdX2X2X2X2X2X2X2XdXiXuXuX2XwXwX2XwXiXuXuXwXuXwXwXwXuX2X:X2X2XwX2XwX2XwXuXuXwXuXwXuX2X2X2X2X2XdX7X2X2X2X2X:X2XnXdXdXfXfX2XfXiXiXiXnXiXiXiXiXdXnXnXiXnXgXgXgXsXsXdXsXiXuXuX2XwXwX0X;X&X$X&X$X#X#XoXoXL.Y.E.}. X X].E.T.Y.T.]. X$X=X=X:X3X;X=X3X2X2XiX2X2X2X2X3X3XiX3X3XiXiXiXiXiXiXiXaXaXiXiXuXuXuXuXuXwXeXuXiXuXuXiXiXiXiX3X2XiXfX2XdX2X3XiX2XiX3XiX3XdX2XiX2X2X2X2X1X3X=X=X=X3X;X$X$XoXoXoXoXoX}.].T.&X0X1X<X&X$X&X;X&X;X&X-X;X;X&X-X&X;X-X;X;X;X;X*X;X-X;X;X*X-X;X;X-X;X;X;X;X-X;X-X-X;X-X&X%X;X&X&X&X<X$XOX,X!.t.oX&X2X,X&X;X1X&X&X&X&X&X$XOX$XOX&X&X$XOX XOX#X#X$X$X$XOXE.G.h.G.g.E.}.T.T.T.L.G.D.h.g.J.oX1X$XL.&X$X$X&X&X&X&X&X,X;X&X<X&X&X&X&X<XoX3X$X>.~ / 2.^ y.G.c.g.y.p.g.G.J.H.Y.Y.J.Y.J.T.T.T.T.'.J.Y.L.H.T.{.J.Y.{.{.'.H.'.|.|.}.|.'.}.].]. X|.].|.|.|.].].].].'.|.].].{.[.[.].].oX[.|.XX[.}.#X;X-X=X;X:X:X:X3X:X=X2X:X:X{.[.3X{.3X[.[. X|.*X X X[.|.|.|.|.|.].|.|.#X#X*X*X=X-X-X=X$X%X$X-X*X#X*X*X#X*X",
"#X#X#X*X|.|. X#X*X#X3X=X=X#X*X|.*X=X*X|.[.[.[.*X*X=X:X:X:X:X:X2X2X2X2X:X3X=X:X:X=X*X*X X|.3X X X XdXnXdX2XgXgX2XnXbX2X2XdXaXaXiX2XgX2XnX2XnXdXdX:X:X2X2X2X2XdX2XaXuXwXuXwXuXwXuXwXiXwXiXuXuX:X2XuXwXuXwX:X:X2X:XuXwXwXuXuXuXwX2X2X2XnX2X2XdX2X3XdX2XdX7X2X2XnX2X2X2X2XfXiXiXiXiXiXiXiXnXfXdXfXdX2XgXnX2XdXgXfXfXfXsXaXaXaXiXuXeX$X;X1X1X;X=XoX}.;X$X}.#X$X$X}.T.E.T.].].$X$X=X$X;X;X1X3X3X2X2X2XgX2X2X2XiX3X3X3XiXiXiXiXiXiXiXiXaXiXiXuXiXwXwXwXwXuXwXwXwXiXwXiXiX3XiXiXiX2X2X3XfX3XfX3XiX3XiXiX2X3XiX2X2X2X2X2X=X=X$X=X$X=X$X$X@X#XoX X}.}.E.T.G.OX0X&X&X&X&X&X;X&X;X;X;X;X;X&X;X;X;X&X&X-X&X;X;X;X;X;X;X:X;X;X=X;X-X-X;X&X-X;X5X:X;X;X;X;X;X;X&X,X1X$X<X2XOXt.Q.$X<X$XoX$X<X,X&X&X&X&X&X&X&X$X1X&X$X$X$X@X$X$X}.oX].Y.G.J.G.f.f.Y.Y.P.T.P.g.t.g.}.oXx.f.T.oX}.oX$X$X$X$XOX$X<X&X&X&X&X&X$X&X1X0X X!.1X/ / ^ / ,.c.G.g.f.J.G.G.G.G.G.H.Y.E.'.].J.T.T.E.'.E.'.E.'.'.'.H.'.T.Y.Y.'.|.|.|.].'.|.|.].].].].|. X[.[.].].|.].}.'.'.'.[.{.'.[.oX[.#XXX].[.#X-X=X$X-X2X2X2X2X3X2X3X3X3X3XH. X[.'.3X3X[.*X*X|. X[.[. X*X|.|.|.|.|. X#X#X*X*X-X;X;X=X*X$X$X*X%X*X$X#X*X#X",
"*X X$X X X|.*X#X#X*X X X*X X|.|.*X|.[.[.*X:X*X*X;X:X:X:X=X:X:X2XiX2X3X2X2X2X=X|.3X3X[. X:X[.|.dXdXdXgXgX2XdXfX2XdXaXsXdXaXsXsXaXnX2XnX2XnXnX2X2X:X2X2XdX2X2X2X7XuXuXwXuXwXwX2X2X2XiXiXwX2XwXwXwX:XwX2XwX:X2X2X2XiX2XuXwXuX2XuXwX2XnX2X2X2X2X2X2X2XdX2X2X2XdXdX2XdX2X2XeXaXiXuXiXfXdXfXfXnXdXfXnXnXnXnXnXnXgXnXnXfXgXfXaXiXiXeXwXwX&X$X;X1X$X$X&X=X&X;X$X1X&X$X$XoX'.T.}.$X$X=X1X3X1X=X;X2X2X2XiX3X2X2X2XiXiX2XiX2XfXfX2X2XfX3XfX2XuXwXiXwXwXuXwXwXuXuXiXiXuXuXwXiX3XiXiX3XfXiXiXfX3X2X2XdXfX2XiXdXiXiX2X2X2X3X3X;X;X*X#X=X=X;X&X$X$XoX}.}.}.E.Y.L.&X&X X$X1X&X0X1X;X&X;X1X&X&X;X1X;X$X1X1X1X;X&X;X-X;X;X;X-X;X-X;X;X;X;X;X-X;X;X:X-X;X;X;X-X;X-X$X$X&X&X1X1XE.y.$XQ.$X<X#X1X1X<X$X!.G.J.T.T.G.G.P.Y.L.P.L.E. X$X&XT.J.g.p.G.J.t.Y.G.g.h.T.oX$XoX$X XQ.E.G.g.D.E.E.#X$X$XOX$X$X&X1X&X&X;X1X,X0X0XOX1X$XJ.t.t.g.y.!.E.T.J.G.x.c.h.L.Y.Y.Y.T.T.].].}.E.'.'.E.'.'.'.].{.{.].].{.[.].[.|.[.|.oX].[.].[. X[.'. X X|.].[. X].[.].'.'.'.].[.[.[.[.[.XX#X$X*X%X:X-X;X5X:X3X:X:X2X2X2X3X:X*XS. X*X'.*X|.|. X|.|.|. X|. X|.|.|.[.|. X|.=X|.-X;X-X*X*X%X*X$X*X$X*X#X*X$X*X%X",
"#X*X*X#X*X X#X*X=X=X*X*X*X*X#X*X*X[.*X*X*X:X=X*X*X*X*X=X=X:X:X:X3X;X=X*X*X|.|.*X X3X|.[.:X X3XnX2XdXgXnXnXgXdXgXaXdXaXaXdXaXdXdXfXnX2XfXfXfX2X3X2X2X2X2X2X2X2XdXuXwXwXwXuXuXuXaX2XuXuX2X:X2X2X2X2XwXuX:XuX:XwX:X2X2XwXuXwXuXuX2X2X2XdX2XdX2XdX2X:X:X2X:X2X2X2XdX2X2X2XeXiXiXuXiXdXiXdXfXdXfXdXfXnX2X2XfXfXfXfXfXdXfXfXsXaXfXfXaX2X1X$X3X1X1X&X;X$X&X$X1X$X1X$X$X$X}.}.$X;X&X=X1X1X3X1X1X2X2X2XuX2X2X2X3X3X2X3XiX2XfX2XfXfX3XiXiXwXuXiXuXwXwX2XuX2XwXwXiXiXiXiXuXiXiX3XiXiX3XiX3X2XfX2X2X3XiXfX3XdX3X3XdX2X3X3X2X1X;X=X=X3X3X&X;X$XOXoX}.}.E.Y.L.L.#X$XOX$X$X&X&X&X&X1X&X;X1X1X;X$X&X$X$X&X;X&X&X-X;X;X-X;X;X;X;X;X;X;X;X;X=X:X=X-X:X-X-X;X;X;X-X1X1X<X&X$XOXY.u.>.^ f.!.<XqX XY.x.y.,.t.t.u.u.g.,.y.g.G.G.G.G.h.h.h.D.L.P.T.T.h.Y.L.H.E.oX&X&XOX$X$X$X$X}.E.}.$X}.$X<X&X$X$X&X1X&X1X&X<X$X&X&X<X$X<X Xx.u.u.c.x.Y.P.Y.J.G.G.J.J.Y.Y.Y.Y.T.'.E.].'.E.E.'.'.E.].!.].[.].].[..X].].|.XX|.XXXXXX].[.[.'.'. X].[.[.].].[.].].}.].|.[.XX].XXoX#XXX%X%X%X-X;X-X;X-X-X:X3X:X=X3X3X2X:X:X=XS.[.|.[.|.*X*X]. X|. X'. X[.|. X|.'.|.#X#X=X=X;X$X-X*X*X*X#X#X$X*X*X%X#X*X#X#X",
" X#X*X#X*X X=X#X#X|.|.|. X|. X X[.[.*X;X:X*X=X:X:X:X*X*X*X*X|.[.#X=X=X=X*X|.*X*X!.3X3X3X3X3X=X2XdX2XnX2XsX2XdXdXpXiXiXaXaXaXaXaXnXgXfX2XnX2XnX3X2X2XdX2X2X:X2X2XwXwXuXwXuXuXiXiXwXwXwX:X:X:X:X2XwX:X2XwX:X:X:X2X2XiX2XdXwXuX2XwXdX2X2X2X2XdX2X2X:X:X:X2X2X2X2X2X2X2X1XwXuXuXiXiXdXfXdXgXdXdXdXdXfX2XnXnXnXfXfX2XaXsXsXsXfXfXsXiXqX2X1X1X2X2X1X1X=X=X=X=X1X;X=X=X;X$X#X;X1X;X=X;X3X1X1X3X3X2X2X2X2X2X2XiX2X2XiX3X2X2X2XfX3X2XiXdXiXwXiXuXuX2XuXwXuXwXuXiXiXiXiXwX3X3XiX3X3X2X3X3XiX3X2X2X2X3XdXfXiX3X2X2X2X2X2X3X;X3X;X;X1X;X=X$X$XOXoX}.Q.E.Y.L.E.E.&X0X;X&X,X&X$X$X&X<X&X<X&X&X&X<X&X&X&X$X&X<X&X;X=X=X-X-X;X;X-X;X;X;X=X:X=X:X;X;X-X:X;X;X;X;X;X1X1X&X$X<XOXQ.#XJ.c.G.T.Y.u.u.y.y.g.c.c.a.a.f.h.g.f.f.t.t.p.f.g.L.Y.E.OX}.T.L.L.L.E.oX&X1X&XOXOX&X&X&X$X$X$XOXE.oX$XoXoXoX$X&X$X&X&X&X$X$X$X&X1XOXL.g.f.g.G.G.J.J.P.Y.P.J.Y.J.H.Y.'.'.].].].].'.'.'.'.'.'.}.]..X[..X[.[.].XX|.[.oXoX[.[.[.[.[.[.].].].|.|. X].[.]. X[.|.|.|.|.#X%X$X*X*X-X%X;X*X-X:X;X5X-X;X:X2X:X2X3X:X:X=X:X=X{.[.[.'. X X|.].|.[.].'.'.[.].[.].|.|.=X=X=X=X$X=X$X*X#X*X$X$X%X*X#X#X*XXX|.#X",
"*X X X*X=X$X=X=X]. X[.].].].|.].[.*X:X:X*X*X=X:X:X:X[.*X*X*X*X[.[.{.{.'.[.|.|.*X3XfXnXnXnXdXdXdX2XdX2XnXdXaXaXaXdXiXiXpXaXpXpXaX2XnX2XnXfXnXnX2X2X2X2X2X2X2X2X2XwXuXuXuXwX2XwXwXuXuX2X:X:X:X:X2X:XuXwX2X2XuX:XwXiX2XdX2XwX2X2X2X2X2XdX2X2X2X2X2X:X:X:XdXdX2X7X2X2X3X2X2XiXeXiXaXdX2XfX2XdXfXdXnXnXnXnXfXfXnXnXnXsXgXfXfXfXaXiXwX2X2X1X1X1X1X1X3X$X;X3X=X=X1X=X=X0X;X$X;X<X=X=X;X1X3X1X1X2X2X3X3X2X2X2X2X2X2X3XfXfX2X2X2XdXgXfX3XiXuXiX2X2XwX2XuXwXuXeXiXuXwXwXuXiXiX3XiXfX2X3XiX2X3XiX2XiXiXiX3X3XiXiX3X2X2X3X2X3X=X=X=X=X$X#X XoXoX}.}.].T.Y.L.J.G.}.1X$XOX$X$X$XOX$X$X$X&X&X&X&X1X1X&X&X$X&X1X&X-X=X$X$X&X:X-X;X;X;X;X:X*X:X:X-X;X:X;X;X;X;X;X&X1X1X;X3X1X1X1X<X].J.g.x.t.! y.c.x.P.Y.J.g.u.g.f.y.t.,.t.g.H.E.].#XoXoX$XoXY.E.Y.E.E. XoX$X&X&X$X0X1X&X$X1X$XE.E.}.oXoXoXoX#XoX$X,X,X$X$XOX$X$X1X}.G.g.g.f.x.J.P.T.E.!.!.T.Y.P.H.T.'.'.].].].[.'.].'.].|.].}.|.[.[.[.[.[.[.].XXXX[.[.oX[.].[.[.'.].]. X|.#X|.[. X[. X].|.|.=X=X-X*X-X-X-X-X-X:X;X:X:X;X:X;X5X;X3X2X2X=X:X=X3X3X XJ.'.[.[.|. X[.[.]. X[. X[.'.[.|.|. X|.|.=X|.|.#X$X*X$X*X*X=X=X*X*X*X$X#X#X*X[.",
"|.#X X#X=X=X=X$X|.|.*X X*X|.|.|.*X*X*X=X=X*X:X:X*X[.].[.*X*X*X*XJ. X3X X{.'.3XnX2XnX2X3X=X2X2X2XuXuXiXiXaXaXiXiXaXuXpXiXpXdXaXpXnX2XfXnX2XfXgX2X3X2X2X2X2X2X2X;X;X:X2XuXuXwX2XwXiXwX2X:X:X:XwXwX2XwXwX2XwX2XuX2XnX2X2XdX7X2X7X3X:X:X7X3X2X2X2X2X:X:X2X2XuXuXuXwX2X:X0XwXuXuXwXaX2XgX2XnXdXnXnXnXfXnXnX2XfXfXgXfXgXfXfXfXfXaXeXwX2X2X2X2X1X1X;X;X;X=X=X1X;X;X1X=X1X;X$X;X&X;X=X;X3X1X1X1X2X2X;X;X3X2X2X2X2X3XfX3X2X2X2X2X2XfXfXaXiXiXuXuXwX2XuXuXuXuXiXuXuXuXuXwX3XfX3XfX3X2X2X2X2X2XiX3X2X2X2XdX2X2X2X3X2X2X2X3X2X=X=X$X#X#X#X#XOXOXoX}.E.T.L.G.T.L. X0X&X$X1X&X#X#XOX X X#XOX$X$X&X<X&X$XOX$X&X;X&X&X&X&X-X%X&X;X;X;X;X;X:X:X*X:X:X-X:X;X;X;X;X;X;X;X&X<X1XOX XG.g.J.T.].g.^ t.y.2./ ^ / >.>.t.x.J.L.E.'.}.oXOX$X&XoX}.$X}.T.oX}.}.oXOXOX#X&X1X<X0X,X$X$X1X&XE.].oX$X$XOX$X#XOX$X,X&X$XoX$X&X&XOX!.G.x.g.g.g.L.E.E.}.!.!.E.Y.T.'.{.].].].[.].].XX].[.].].].[.]..X{.[.{.].[.[.XX[.XX[.[..X.X{..X[.'.[.]. X X#X|.|.|. X|.|.=X=X;X;X:X-X-X;X5X-X;X;X5X6X6X:X;X5X:X3X2X2X:X:X3X*X3X{.{.{.|.|.[.[.[.].].|.[.].'.].].].|.|.*X#X X X|.*X*X%X*X-X-X=X;X=X-X*X*X*X#X#X|.",
"*X#X#X=X=X3X=X#X|.#X*X X*X|.=X=X=X*X*X*X:X:X;X*X[.[.|.;X:X*X|.[.3X X X3XnXmXnXdXbXnXnX2X2XdXnXsXuXiXiXpXiXdXaXdXpXpXaXiXaXiXiXaX2XnX2X2XnXgXbX2X2XaXnXdXdXdX2X;X-X:X:X2XwXiXuXuXiXuXwXwXuX6XwXwXuX2XwX2XuXwXuXwX2X2XdX2X2X7X2X:X*X:X2X2X2X2X7X3X:X:X2X2XuXuX2X2XuXwXeXiXeXwXwXuXdX2XgX2X2X2XdXnXfXnXnXnXnXnXnXiXuXuXuXdXeXwX0X2X1X2X2X1X3X2X3X=X3X=X=X=X;X1X3X;X&X1X$X$X$X$X=X1X3X2X2X2X2X2X3X1X2X3X3X2X2X2X2X2X2X2X2XfXfXaXfXaXiXiXuXwX2XwXwXwXuXuXwXwX2XwX2XwX2X2X2X3X2X2X2X3X3X3X2XiX2X2X2X2XdXdX2XdX2X2X2X2X3X3X$X|. X#X$X#X#X#X XE.T.L.J.G.E.T.oX1X,X&X&X&XOX X X}.}. X$XOX&X<X1X<X<X$X$X<X&X;X;X5X5X;X;X;X-X;X-X:X:X;X=X:X;X-X*X:X-X:X;X;X1X1X&X1X1X1X X'.E.J.P.E. XE.a.g.J.G.h.J.J.!.}.}.$X$X,X1X&X$XoX X$XOXoXOXoXE.T.oX}.oX#X$X$X#X$X$X&X;X&XOX@X&X$XE.E. X$XOX$X$X$XOX$X&X&XOXOX&X1X$X XT.G.J.G.c.G.J.T.T.Q.}.}.].!.E.'.'.[.].XX].[.].].[.{.[.'.].].{.{..X.X[.].XX[.[.oX[.|.XXXX[.[.{.'.'.'.].|. X|. X|. X|. X=X=X;X;X;X;X;X-X-X;X-X:X:X;X;X6X;X:X-X5X2X2X2X2X3X3X:X[.H.{.{.[.|.'.[.'.[.].].|.[.].'.].'.}. X#X*X|.#X|.#X#X#X*X*X*X-X-X*X*X$X*X#X*X#X*X",
"*X X#X=X;X3X=X$X|.#X#X X X X#X|.:X*X*X:X*X:X=X*X=X#X=X2X:X*X|.#XF.3XnXnXnX3XdXbXnX2X2XnXdX2XuX2XiXpXpXpXpXuXdXiXpXpXpXpXpXpXsXpXnX2X2XnX2XnXnX2XdXgXgXgXgXdXaXiX2X2X;X:X2XiXuXwXiX2X2XuXuXwXwXuXwXwXwXuXwXwXuXwX2XdX2X7X2X2X:X:X:X:X2X2X2X3X2X2X2X2X2X2X2XuX2X2XwXwXeXiXuXwXwXiX2XgX2XdXdX2XdX2X2XnXnXnXfXnXfX3X:X-X:X2X0X2X2X2X2X2X2X2X3X1X1X=X3X=X=X=X;X3X;X3X1X1X1X$X=X;X=X1X2X2X2X2X2XiX2X2X3X2X3X2X3XiX2X2X2X2X2XfX2XgXaXaXiXiXuXwXwX2X2XuXuXwXwXuX2XwX2X2X2X2X3X2X2X3X2X2X3XiXiXiX2X2X2X2X3X2X2X2X2X2X3X2X=X=X#X$X$X#X#X#X}.}.}.T.L.L.G.L.G.L.L.Y.E.T.T.E.Q.E.}.Q. X}.oX#X&X<X&X<X1X<X$X#X&X$X&X5X;X;X;X;X:X;X-X-X=X:X:X=X:X-X:X*X;X;X;X;X1X=X;X1X1X;X XT.T.c.J.P.J.}.!.Q.T.T.}. XOXOXoX X}.}.}.Q.}.OX#X$X$XoX$X1X}.G.T.#XOX#X$XOXoXoXoXoXoX$X$X$X$X$XoXE.T.E.].}.oXOX&X$X&X&X&X$X&X1X&XoX!.P.J.G.G.G.G.P.T.E.].}.!.}.E.!.].[.].[.].[.].[.].{.].{.].{.[.].].]..X{.[..X[.#X].XXXX[.[.{.].[.'.'. X X*X#X#X|.#X|.*X=X=X=X3X;X:X5X:X-X-X-X-X-X-X-X-X6X6X-X:X5X3X2X2X2X7X3X3XF.F.[.{. X*X'.|.'.'.'.]. X[.[.].|.|. X#X#X#X*X#X=X#X#X#X#X#X*X*X*X$X$X*X#X*X*X*X#X",
"=X#X$X-X3X3X=X X|.|.#X#X#X*X|.*X*X*X*X:X:X=X*X*X-X*X*X-X:X-X:XaXnXnXnXdXnXnXdXdXnX2XdXnXdX2XdXsXuXuXiXpXpXuXuXuXpXaXpXpXdXpXpXdX2XzXfXnX2XfXnX2X2XsXdXgXfXnXnXgXfXdX;X-X2XwXuX2XuX2X:XwXuXwXwXrXwXuXuXwXuXuXuXuX2XdX2X2X2X3X:X*X:X3X2X2XdXdX2X7X2X2X2X2XdX2XwXwXuXwXwXiXuX2XwXuXdX2XgX2XgX2X2X3X3X3X2X2X2XnX3X3X:X;X:X0XuXwXwXqX1XeXeX2X1X2X1X=X=X=X=X;X;X1X1X1X1X1X1X1X;X3X1X1X2X2XfXeXsXiXwXwX3X3X2X3XfX3XiXdX2X2XgXgXgX2XiXiXaXiXuXuX:X2X2XuXuXuXwXwX2X:X:X:X2X2XiXiXdXiX2XiXiX3XiXdX2XiX2X2X2X2X2X3X2X3X3X3X#X#X|.|.#X|.}.}.T.E.Y.P.G.L.Y.T.J.E.L.G.T.P.G.T.J.T.Q.}. XOXoX XOX#XOX$X$X@X XE.oX#X&X&X;X5X;X&X;X;X:X;X:X*X*X:X:X;X=X:X;X-X;X;X1X=X<X;X$X}.Y.J.g.x.<X1XOX X}.!.,X<X1X<X@X X}.}.OX$X#X$XOX#XOX$XoX}.&X<XL.g.E.$X<X&X#XoX}.oX XoX$X$X&X;X<X$X}.E.T.E.E.E.E.#X&X1X$X<X&X$X&X1X$XT.T.G.h.g.G.J.P.J.!.!.].!.Q.!.T.].|.[.oX].}.XX].[.].].].{.].[.].[.[.{.[.].[.[.[.XXoX|.XX[.[..X{.{.[.'.].*X#X=X=X=X=X*X=X=X=X;X;X;X:X-X;X-X;X-X-X-X-X5X5X6X-X:X-X:X3XdX2X3X7X2X[.S.J.3X{. X*X'.|.[.'. X X|. X X|.|.=X=X-X=X#X X X|.[.[.#X[.#X#X#X#X*X%X*X#X#XXX#X#X",
"=X X X$X;X$X#X#X}.#X#X*X$X*X;X-X:X-X*X-X:X:X:X*X:X*X*X7XsXdXaXsXnXnXnXdXiXaXiXdXaXdXdXaXaXiXuXuXpXiXdXpXiXuXiXiXdXaXiXdXiXpXiXiXnXgX2XzXdXfXdXnXiXfXfXnXfXnXfXnXsXsXwX;X-X;X1X$X#X XoX;XwXuXpXuXuXuXiXiX2XfX2XnX2X2X2X2X2X2X2X3X2X2XdX2X2X2X2X2X2X2X2X2XwXiXiXwXwXiX2X2XiXaXfXfX2XfX2X2X2X2X2X2X;X1X1X=X}.H.T.|.;X1X2XqXeXeXqXfX2X2X1X2X2X2X=X*X=X3X1X;X=X=X=X3X2XwXuXeX2X:X2X2XuXuXuXiXeXuXuXiXnX2X2XnX2XaX2X2XiXdXsXsXaXaXaXiXuXuXiXwXwXwXwXuXuXiXwXwX:X:XwXwXdX2XdX2X2X2XgX2XgXdX2XdX2XiX2X2X2X2X2X2X2X2X3X3X<X XQ. X}.oX}.].E.E.L.Y.P.L.Y.P.T.T.E.E.}.E.E.T.oX}.oX XoX}.oX}.Q.oXoX}.oXOX}.T.Y.].$X$X$X1X1X;X&X&X;X<X=X1X1X&X;X;X;X;X2X1X,X&X&X1X&X#XE.G.h.D.T. X$X$X$X1X1X&X<X&X1X#X X}.}.}.#X X}.}. XOXOX$X#X}.1X<Xg.g.OXOX$X$X#XoX}.].}.$X$X X;X$XoX$XT.].}.oXOXoX}.oXoX$XoXOX$X&X&X&X#XQ.G.G.G.G.J.H.J.E.].].].}.}.}.].E.oX|.|.]. X'.].'.'. X].].'.].'.].'.].].]. X].].|.|.[.[.[.].].{.].[.[.[.*X*X*X*X*X=X:X=X:X:X3X:X:X-X-X-X;X-X*X-X*X*X:X:X:X:X:X:X:X=X:X=X$X;X].S.S.].[.].[.[.].].].].[.$X=X-X=X-X=X;X*X*X#X#X#X#X#X[.|.#X#X#X X|.#X=X=X X*X=X$X X*X",
" X}.}.#X$X#X#X#X$X#X#X|.[.XX*X*X*X*X:X:X:X:X:X*X:X:XdXnXaXuXpXsXnXdXdXdXdXiXiXiXiXiXuXuXdXiXiXuXiXiXiXiXpXdXpXiXpXpXaXpXdXiXiXpX2XnXnX2XiXfXfXdXdXiXiXdXdXfXfXiXhXhXuX:X$X*X#X}.$X#X*X;XwXrXuX7XuXdXdXiXnX2XnX2X2XnXnX2X2X2X2X2XdX2X2XdX7X2X2X2X2XdXdX2XwXuXuXwXiXaXaXiX2XaXaX2X2X2X2X2X2X2X2X2XaX1X}.Y.Y.'.].].eXeX$X#X2XeXqX2X2X2X1X1X;X=X$X#X=X=X3X1X3X1X1X2X2XwXuXwXwXwXwXwXiXuXuXiXiXuXiXuX2XdX2X2X2XaXfXaX2XaXiXsXaXaXiXaXiXaXiXwXwX2XwXuXiXuXiXuX2X2XuXuX2XfX2XgXgX2X2XgXgX2XiXiXiX2X2X2X2X2X3X2X2X3X2X3X<X X}.}.oX X#X}.E.T.E.T.].}.}.}.E.E.}.}.}.}.oX}.oXoXoXoXoXoXoX}.}.}.}.}.oX#X}.L.].oX$X XoX&X;X&X;X1X1X1X1X1X=X1X=X;X<X=X&X&X<X1X&X&X#XE.G.h.G.L.OX$X;X#X#X;X1X1X1X1X1X$X#X#XoX#X$XOX<X3X<X$XOX X<XOX<X!.g.J.<X<X$X].Y.].#X$X;X&X1X$X;X&X;X$XY.'.E.}.$X&X$X$XOX$X$X$X&X<X1X&XoXY.y.g.G.H.Y.T.T.J.!.!.].}.]. X!.}.|.|.|.'.].'.].[.'.'.'.'. X'.'. X].'. X].[.|.|.|.[.[.[.].XX].XXXX[.[.[.|.*X=X=X*X=X=X:X:X:X:X=X:X:X;X:X*X-X;X;X*X:X*X:X*X:X:X:X:X:X:X;X-X;XY.S.K.[.[.[.].XX].[.[.XX#X=X;X=X;X=X;X;X*X$X*X*X*X[.[.|.|.|.#X*X X*X#X=X#X=X*X#X=X=X X",
"}.}.}.OX$X$X$X$X;X;X-X*XXX*X*X*X*X-X:X:X:X:X:X:X;XdXnXnXuXuXpXaXnXnXdX2XiXdX2XaXiXuXdXiXiXiXaXuXiXiXiXiXiXiXiXiXaXaXiXpXiXpXiXiXfX2XfXfXfXdXdXdXdXdXfXdXfXfXnXiXaXhXkXhXsXhXfXfX;X$X-X2XuXpXuXpXaXdXiXiX2XnX2X2XfXnX2X2X2XnXdX2X2X2X2X2XdX2X2XdXnX2X2XdXuXaXiXwX2XfXeXaXaXsXaXuX2X2X2X2X2X2X2X2X}.'.L.G.Y.T.G.p.}.2XeX1X1XwXqX0X2X2X2X1X=X=X$X=X=X3X1X1X1X1X2X2X:X2X2XuX2XwXuXuXaXiXaXiXiXiXiXiX2XgXnX2XaXeXaXaX2XiXaXaXaXaXaXaXaXaXaXeXwX2XwX2XuXiXiXwXwX2XwXwX2X2X2XnXgX2X2XgXaXiX2X2XuXuX2XuX2X2X2X2X2X2X2X2X|. X X XoX#X#X#XE.E.}.}.}.oXoX#XoXoXOX$X$X$X$X$XOXOX XoXoXoX}.}.oX}.E.}.oX#XE.G.].oX}.].oX;X1X;X;X1X1X1X1X1X&X;X&X&X1X&X&X$X&X1X&X$XE.J.h.L.E.}.#X1X1X$X$X&X2X1X2X1X&X&X$X;X$X$X1X,X<XOXOX$X$X@X<X<XQ.f.u.T.$XOX1X}.G.Y. X#X#X}.1X;X=X$X;X].f.G.P.E. X$X$X#XoX$X$X&X&X&XoX].J.g.y.f.G.T.Y.T.T.T.].].'.}.}.].}.]. X].].].]. X X'.'.'.'. X'.'.'.'.'. X'.[.[. X|.*X[.[.|.[.XX|.XXXX[.[.*X*X:X:X:X:X:X=X:X:X2X:X:X:X;X:X-X:X:X*X-X*X:X:X:X:X*X:X:X:X;X2X:X=XXXF.S.{.|.#X#X[.[.XX|.XX#X*X-X-X;X$X-X;X;X-X#X#X*X$XoX[. X$X=X|.*X#X$X|.=X=X#X X=X*X#X X",
" X}. X$X$X$X$X=X#X#X[.XX[.*X*X*X-X:X2XuX:X:X:X:XdXnXdX2XuXaXsXaX2X2XdXdXiXiXdX2XiXuXiXaXdXaXaXaXaXpXdXdXpXpXdXaXdXaXdXaXaXpXdXiX2XfXnX2XiXfXiXfXfXfXnXfXnXgXdXnXpXsXlXhXaXeX0X;X;X=X*X0XpXpXpXpXiXaXdX2XfX2XnXnX2X2X2XnX2X2XdXdXnX2XgXdX2XdXdX2X2XdX2X2XwXiXaXeX2XfX2X2X2X2X3X;X2X2X2X3X3X X X X].].'.E.Y.J.Y.].p.}.1X1X1X1X1XwXtX2X2X1X$X X=X=X1X1X2X2XqX2X2X2XuX2X2XwXuXwXuXuXeXiXiXuXiXuXiXiXgX2XnX2XaXdX2XaX2XiXiXiXaXaXaXaXaXaXiXuXuXuXuXuXiXaXaXiXwX2XuXuXnXfX2X2X2XgXgXfX2XiXiXiXuXwXuX2X2X2X2X2X2X2X2X2X=X$XoXoX#X#X#X#X}.}.oX#XoX XOX#X&X&X&X&X$X$X&X$XOX#X$XoX#XoX}.oXoX}.].}.#XoXE.G.Y.T.T.E.}.;X1X;X$X$X=X&X1X$X1X&X,X<X1X1X&X&X1X&XOX}.L.g.D.T. X$X#X$X$X$X1X1X1X$X1X;X$X$X&X1X;X$X1X,X$X$X XOX$X$XOX$XJ.2.g.T.}.$X1X1X&X$X$X#X#X&X$X&X#X$X&XT.f.L.T.E.].}.oXoXoX$XoX&X1X}.L.p.t.p.c.G.L.J.J.J.T.'.].!.}. X!.].}.].].].].'.'.'.'.].'. X'.'.'. X'.'.'.'. X X X].|. XoX#XoX|.[.[.[.[.[.[.*X*X:X=X:X:X:X:X:X:X:X:X:X:X:X-X:X*X*X:X*X:X-X:X*X:X:X:X:X:X-X2X2X|.{.F.K.[.XX#X*X#X].].oX*X$X*X=X$X-X=X=X-X-X*XXX#X*X*X#X[.|.|.|.$X#X|.#X=X X=X#X=X#X*X#X|.",
" X}.}.#X#X}.|.#X|.[.[.[.*X-X-X*X-X:XuX:X:X0XwXuXnXaXuXuXaXaXaXdX2XnX2XnX2XfXdXaXaXdXaXdXdXaXdXiXpXaXiXiXpXiXdXiXaXaXaXaXaXpXpXaXnXfXiXdXiXdXiXfXfXgX2XgXdXnXfXgXhXvXlXaXwX1X1X$X;X$X=X;XuXuXuXpXiX2XgX2X2XnX2X2XnX2X2X2XnX2XnX2XdX2XdXdXiXuXuXuX2X2X2X3X2XiXuXwX2X2X2X1X;X=X|. X[.|. X[.!.'.'. XG.g.D.Y.F.t.t.G.D.G.G.].;X1X;X1X2X2X1X=X X|.$X1X2X2X2X1X2X2XeX2XwXwX2X2XwX2XiXiXuXeXuXuXiXuXiXiX2XfXgX2XgX2XaXaX2X2XiXfXiXsXaXaXaXiXiXiXiXuXiXiXiXaXaXiXwXwXuXuX2X2X2XnX2X2X2X2X2XwXwXwX2XwXwX2X2X2X2X2X2X2X1X2X=X=X#X#X#X#XoX|.oXoXOX$XoXoXoXOX&X$X$X$XOX$X#X#X$X$X$X$X#XoX#XoXOX}.}.oXoXoXP.G.G.L.L.{.].$X&X&X1X<X;X1X;X&X;X1X&X;X1X<X1X&X#XoXT.Y.D.g.G.E.#X$X#X$X;X1X3X2X=X=X<X&X$X$X;X;X$X$XOXOX<X1X<X#X}.!.}.}.G.g.P.T.}.1XoX$X=X;X$XoX#X;X X$X$X=X*X{.H.'.}.E.].oXoX}.oX#X$X$XoXT.D.p.g.g.H.Y.J.L.G.H.T.}.}.].].}.}.].}.}.'.'.'.'.'.'.'.'.[.'.'.'.'.'.'.'.].[.[.'.|.|.|. XXX|.oX[.XX[.XXoX*X*X*X:X=X:X:X:X=X=X:X:X:X=X:X:X:X*X*X:X:X:X*X:X:X:X-X*X:X:X:X:X;XwX:X].S.K.[.[.#X*X*X|.[.[.[.*X$X*X#X#X*X*X-X-X$X#XXX#X*X*X$XXX|.|.#X#X|.#X|.=X*X=X X*X=X*X X X",
"oX X}. X}.}. X|.*X*X*X:X:X:X:X:X:X:X:XuXuXuXdXhXaXuXdXsXsXuXuXdXgX2X2XnXnX2X2XaXiXiXpXiXaXiXiXiXdXiXpXaXaXaXpXiXaXdXaXdXaXdXaXpXiXiXiXiXdXfXdXiX2XgXnXnXfXdXnX2X6X6X6X*X$X;X2XqXqX1X1XeXaXaXpXuXaXdX2XfXgX2XgX2X2X2XnXnX2X2X2X2X2XdXaX2XiXiXiXuXfXnXaX2X2X2X0X:X3X3X=X3X1X3X2X3X=X=X X{.J.S.H.J.Y.F.Y.oX}.D.e.t.g.G.Y.oX1X&X#X&X3X3X1X$X#X$X3X2X2X2XxX2X2X2X2X2XuXwXuXwXiXiXuXwXwXuXeXiXiXaXiXaXfX2X2XgX2XgXdXfXaXiXdX2XaX2XaXaXaXuXuXiXuXaXaXiXiXiXaXiXuXwXwXwX2X2X2X2X2X2XfX2XwXwXuXwXwX2X2XwX2X2X2X2X2X2X2X3X1X=X$X#XoXoXoXoXoX#XoX#XoX#X$X$XoXOX$X&X&X&X&X&X$XOX$X$X$XOX#XoX#XoXoXoX#X}.E.T.T.T.'.]. X$X&X$X1X1X1X1X1X;X$X$X&X$X$X&X&X$X}.Y.L.L.L.G.L.}.$X$X1X=X$X$X;X;X3X:X1X;X;X;X$X1X1X;X3X<XOXOXOX}.!.T.T.T.G.J.!.J.T.<X].]. X#X$XoX XoX=X;X#X$X'.F.J.J.T.T.].#X$XQ.T.E.#XE.x.G.G.L.L.G.H.Y.Y.Y.'.'.'.'.E.].E.}.].}.].].].].].'.'.[.'.'.'.].].'.'.].'.'.].].[. X].|.|.|.[.[.[.|.#X$X$X&X*X:X=X:X:X:X=X=X:X:X:X:X:X:X:X=X:X:X:X:X:X-X*X:X-X;X:X:X;X:X:X;X:X:X;X{.S.{.*X[.[.#XXX|.[.[.oX#X#XXX#X|.#X*X$X*X#X#X|.*X*X*X#X#X|.#X|.|.|.|.|.=X X#X=X$X$X X|.|.",
"OX X}. X|.].|.#X*X|.|.*X*X:X-X*X:XwXuXuXiXiXsXsXuXaXgXsXaXuXiXiX2X2X2X2X2X2XdXaXiXiXiXaXaXaXdXpXaXaXpXaXdXaXaXaXdXaXaXaXaXaXaXdXiXiXiXdXfXdXfXnXnXgX2XzXnX2X2XnXvXvXaXeXwXiXfXeXaXeXeXaXhXfXsXdXdXdXaX2X2XnX2XnX2XnX2X2X2X2XnX2XdX2XiXiXdXiXiXiX2XfX2X2X2X2X;X$X X!.'.|.=X;X;X2X/ r./ S.S.J.{.[.].G.f.t.t.t.y.f.y.'.;X1X;XoX].oX1X3X3X1X;X;X2X2X2X2X2XxX2X2X2X2XuXwX2XuXiXiXiXuXuXuXiXaXaXsXsXsXfXnXfX2XgXdXfXgXaXaXaXaXaXaXeXaXiXiXwXuXiXaXaXaXuXiXaXiXwXwXwXuX2X2X2X2X2X2X2X2X2XuXuXiXuX2X2XwX2X2X2X2X1X2X2X;X1X=X$X#X XoX#X X#XoXoXoXOX$X$X$XoX$X$X$X&X&X&X&XOX$X$XOX$XoXoXOXoX}.oXoX$XoXoX}.}.#XoX#X#X#X$X;X&X;X&X;X;X$X$X&X$X$X$X$X#X].T.L.J.T.T.Y.T.}.OXoX*X|. X|.=X=X3X3X1X1X1X;X1X=X;X;X1X$X XJ.J.Y.T.E.J.Y.P.J.T.T.Y.}.$X X|.;X;X;X=X=X;X|.'.'.S.S.'.S.T.L.'.oX X'.L.Y.T.F.h.G.T.T.T.Y.'.Y.Y.T.'.].'.'.].].].].].[.].].]. X'.'.'.'.'.'. X'.[.'.].'.'.'.]. X X|. X#X#X|.#X#X#X%X*X-X-X-X:X=X:X:X=X:X:X=X=X:X:X=X=X:X:X=X*X:X:X*X:X-X:X:X-X:X-X:X:X:X:X:X;XoX[.{.K.].*X].|.|.|.|.oX#X#X*X#XXX[.*X#X*X*X#XXX#X*X*X%X|.[.#X|.|.|.|.|. X#X#X=X#X#X=X*X*X|.'.",
"}.E.'.}.].'.'.|.*X*X[.*X:X:X:X:XwXuXuXdXpXdXaXaXdXvXgXuXuXsXsXiX2XnXnX2X2XnXdXdXiXuXpXaXsXdXsXsXaXaXdXaXdXaXaXaXaXsXdXaXaXdXaXaXfXfXfXfXiXfXdXfXnX2XgXnX2XnXnX2XpXpXuXiXiXaXqX2XeX0X2XeXsXsXsXpXfXgXfXdXnX2XfX2XnX2XnX2XnXnX2X2X2XiXiXaXdXiXaXiXdXfXdX2X1X=X}.{.'.'.J.'.'.T.'.'.G.F.S.S.F.H.H.S.G.Y.G.f.t.D.G.h.g.}.oX].}. X].T.<X<X<X3X;X2X3X2X2X2X2X2XeX2X1X2XuX2XwXwXiXaXiXwXiXuXaXaXaXfXfXlXgX2X2XgXdXfXaX2XaXsXfXaXaXdX2XaXaXuXuXeXiXiXiXiXeXuXiXiXuX2X2XuX2XnX2X2X2X2X2XnX2XuXuXuXuX:XuX2X2X2X1X2X2X1X1X1X;X=X#X X#X#X#X#X$XoX X}.oX#XOXoX}.}.OX$XOX#XoX XoXoXoX#XoX#XoX XoX}. X$XoXoX#X$X#X}.#X|.}.}.#X$XoXoX$X$X$X&X;X&X&X&X;X$XoXT.Y.P.D.Y.Y.L.G.T.].Y.H.{.'. X=X;X3X=X;X1X1X3X$X$X=X3X#X X'.Y.H.H.J.Y.g.J.E.Y.Y.T.Y.H.Y.'.}.|.#X X$X-X X'.J.{.S.J.2XS.].T.E.].}.T.T.E.D.G.T.].].Y.T.].].'.H.Y.'. X].'.].].].].|.].].].].].].'.'.'.'.'.]. X].].].'.'.!.|.|.|.|.#X#X#X*X*X*X*X*X*X-X-X-X=X:X=X=X:X:X=X:X:X:X:X:X:X:X:X:X:X:X:X:X:X:X:X:X;X;X:X-X:X:X:X:X:XY.K.].{.].].[.XX[.#XXX%X*X#X*X*X*X#X#X*X#X#X[.#X$X;X=X#X[.[.%X|.|. X|.|.|.|.=X X=X$X=X#X|.|.|.",
"[.'.!.'.'.J.J.[.[.*X=X:X2XdXdXsXpXaXiXiXpXdXsXsXsXsXsXsXaXdXsXaXuXuXuXuXuXuXuXuXuXpXaXdXaXaXiXdXaXdXaXaXaXdXaXsXaXdXaXaXiXaXaXaXzX2X2XnX2XfXfXdXgXgXfXsXsXsXsXaXhXpXpXaXrXeXeXeXqX2XaXjXsXsXhXsXnXfXgX2XgX2XaXaX2XgX2XnX2X2XnX2XaXaXaXiXaXiXiXiXaXaXeXeX-X].F.L.'.H.H.H.G.F.f.f.S.S.y.S.H.S.G.H.Y.P.L.Y.G.G.D.D.S.}.}.G.g.]. XE.$X|.=X2X=X2XeX=X<X2X3XqX2X2X2X2XwXaXaXuXwXiXuXuX2XiXuXaXdXfXfXvXsXaXaXiXiXiXiXdXaXaXfXdXfXdXfXaXaXiXuXuXaXaXiXaXiXaXuXuXwX:X2XwXwXwX2X2XwX2XuXwXaXsXaXaXaXwX2X:X2X3X2X2X3X1X;X3X1X1X;X#XoX#X$X$X$XOXOX#X$X$X$X#XoX XE.T.G.J.Y.E.E.E.T.E.T.T.P.T.Q.}.}.oXOXoXoX XoX#X|.|.oXoX#X#X}.#X&X;X$X#X$X;X#X&X=X$X].L.F.S.G.D.D.D.G.G.L.G.H.S.y.F.{.{.[.=X2X2X;X X[. X X*X}. X}.].T.Y.Y.Y.H.J.L.Y.Y.T.].].'.'.].[. X|.[.'.F.J.J.[. X[.J.S.g.G.T.].].T.H.G.T.Y.L.H.H.T.T.].{.'.[.{.].].[.].].[.[.XX].].[.[.[.XX].{.].].].{.'.'.].{.].[.].]. X X|.|.|.=X#X XXX#X=X-X-X-X;X:X:X:X:X:X=X:X=X:X:X=X:X:X:X:X:X=X:X:X:X:X:X:X*X:X*X:X:X:X:X:X-X:X*XY.F.].oX[.[.#X[.|.#X#X#X#X[.[.|.#X#X#X[.#X*X*X*X$X*X$X%X[.].].|.|.|.|.|.|. X X#X*X=X=X$X#X].].",
"'.'.!. X[.'.'. X{.'. X=X:XuXiXaXaXaXdXiXaXaXsXsXsXsXaXsXsXaXaXaXuXuXiXiXiXiXuXuXiXpXsXaXpXpXaXaXaXaXaXpXpXaXsXaXsXdXaXdXiXaXdXaX2XgXnX2XnXgX2XfX2XfXfXdXdXsXsXdXdXjXpXuXeXeXwXqXeXwXaXaXaXsXsXsX2XnX2XgX2XfX2XdXnX2XzX2X2X2X2X2X2XuXuXaXiXuXwX2XeXiXiXrX#X{.Y.{.H.H.G.G.H.H.F.S.S.y.y.S.H.F.H.H.Y.Y.Y.Y.Y.L.G.D.D.f.g.F.G.g.Y.#X|.}. X=X=X1X1X=X1X3X2X2X2XqX3XqX2XdXaXiXiXaXiXiXuXuXaXsXfXfXgXfXaXiXuXaXaXaXaXaXaXaXaXsXaXaXaXeXaXiXiXiXiXaXaXiXiXuXiXuX2X2X2X2X2X2XuXiXaXiXaXsXaXsXsXaXiXuX2X2X2X3X2X3X1X1X1X;X;X1X<X$X#X#X$X$X$X}.}.$X,X&XoXE.G.P.T.T.E.H.G.h.}.}.}.}.}.}.}.oXE.}.}.oX#XOX#XOXoX XoXoX|.}.}.].}.oX$X$X$X$X&X;X#X XT.G.g.g.J.T.Y.Y.G.F.G.G.D.F.H.J.H.J.{.H.H.H.H.'.].[.]. X].'.g.D.F.G.J.Y.T.E.F.G.F.G.G.L.H.Y.].].'.'.'.J.F.S.'.'. X*X=X=X[.'.e.D.Y.E.H.G.Y.E.T.T.H.L.Y.Y.T.T.{.'.{.].].XX[.].[.].[.].[.].[.[.#X#X#X[.[.[.XX].'.'.[.].[.].[.[.|.|.|.|.|.|.#X X#X$X*X*X$X-X%X;X:X*X*X:X:X*X:X=X*X:X:X:X:X=X:X:X*X*X:X*X:X-X:X*X:X:X:X:X:X:XuXdX[.{.Y.[.*X|.[.#X#XXXXX#X*X[.#X#X[.#X#X*X*X#X%X*X*X*X*X$X#X[.[.].}.}.|.|.|. X#X*X X X*X=X=X X X'.",
"[.!.[.[.[.[.3X X:X2XuXdXdXdXsXdXdXaXaXpXpXaXdXsXaXsXsXaXaXaXdXaXiXpXpXaXuXpXiXiXdXsXsXaXaXpXaXdXpXdXdXiXaXaXdXdXsXaXaXaXdXaXdXaXnXfX2XnX2XnXaXdXnXdXdXdXdXaXaXaXpXpXpXuXwXwX0XwX0XqXeXuXaXaXsXgXnXnXgX2XnX2XdXdX2XnX2XnX2XgXnX2XwXuXiXaXiXiXwXeXrXiXtX-X].L.L.Y.G.F.D.D.G.G.D.g.y.u.y.S.G.G.H.Y.T.T.T.Y.Y.G.F.D.G.t.t.L.G.e.p.'.|.|.|.|.2X2X3X1X1X2X2XqX2X2X2XeX2XaXaXaXaXaXaXiXwXaXaXfXgXgXsXaXiXwX2XuXiXfXaXaXdXaXaXfXfXfXaXaXaXeXuXiXaXaXaXaXuXuXuX2X:XwXwXuX2XuXiXaXaXaXsXfXfXgXsXaXuXuX2X2X2X2X2X2X3X1X1X3X;X1X1X$X#X#X$X#X$XOXOX$X#X XE.L.E.E.P.Y.H.P.Y.L.T.L.P.T.T.T.T.E.E.E.}.}.oX#X#XOX$X#X#XoXoX}.].].].].].].}.].}.}.'.Y.H.F.F.G.'.'.T.Y.H.H.H.H.H.G.{.J.J.'.'.J.J.J.S.H.'.'.'.].'.{.'.T.'.'.].|.oX|.H.T.Y.{.T.T.Y.H.'.'.'.'.'.{.J.J.[. X*X=X3X=X*X|.|.*X;X$X|.'.'.|.'.T.{.Y.'.'.'.'.{.].{.{.[.*XXX].[.|.[.[.XX[.#X#X#X#X#X|.oXXX[.].{.].[.[.|.XX[.].|.|. X X=X#X#X X#X*X*X$X$X%X=X*X=X:X*X=X:X*X:X=X:X=X:X:X:X:X*X*X*X:X-X:X=X:X:X-X:X:X:X:X6XuX7X:XK.{.[.].[.XX[.|.|.*X*X|.*X#X#X#X#X#X#X%X%X$X*X*X;X*X*X#X#XoX[.[.|.].|.|.|.|. X#X|. X=X=X=X|.].'.",
" X[.[. X|.=X2X2XdXdXdXaXaXuXuXuXaXdXiXaXaXdXaXsXsXsXsXsXaXdXdXaXdXiXdXiXiXpXpXaXsXsXsXsXdXaXaXaXaXaXaXaXaXdXaXsXdXaXaXaXaXdXaXdX2XfXgXfX2XfXaXsXdXfXfXaXaXdXaXaXaXaXpXuXwXwX0X2X1X2XeXuXaXsXfXvXgXgXfXnX2XnXdX2XnX2XgX2XnX2XnX2XaXuXeXuXuXiXiXaXwXeX;X].F.F.L.F.Y.H.G.G.G.F.S.g.S.y.S.G.L.J.G.Y.Y.T.Y.Y.G.S.g.f.g.S.G.Y.Y.g.f.f.S.H.G.J.=X1X=X1X1X2X2X2X3X2X3X3X2X2XaXaXaXaXaXuXuXiXaXsXfXsXaXiXuX2X;X2XuXaXaXaXfXfXdXfXdXdXsX2XaXiXiXiXiXaXaXaXuXeXuXwX2XwXwXwXuXuXiXiXuXuXsXsXgXfXaXiXwXwX:X2X3X2X3X3X2X1X2X2X1X2X1X$X$X$X$X#XoX$X&X$X}.E.E.}.#X].L.G.P.E.}.#XT.T.E.T.E.'.E.E.].E.}.oX XoXoXoX$X$X$X$X#X}.].].].].T.T.T.T.Y.Y.G.H.H.H.'.'.H.H.L.H.H.H.H.{.T.Y.'.J.{.'.'.{.'.[.'.'.'.'.'.'.'.'.#X}.].|.|.|.].].|.|.|.|.|.|.|.|.|.].'.'.'.[.[.[.'.'. X*X*X*X|.3XH.G.S.H.'.}.'.{.{.'.Y.'.'.'.H.{.Y.Y.Y.].XX%X*X].[.[.[.[.].oX#X*X[.#X*X#X#X*XXX].{.'.[.#X*X#XoXXX].|. X$X$X#X*X#X*X#X*X%X*X*X*X=X:X=X:X:X:X:X:X:X*X:X=X:X=X=X*X=X:X*X:X:X:X:X:X:X:X:X;X:XdXuX*XF.F.L.[.[.].#XoX[.#XXX#X|.XX#X#X*X#X*X*X*X*X=X*X=X;X-X#X#X[.[.[.[.|.|.|.|.|.|.#X=X*X*X=X#X#X X].'.",
"'. X|.=X3X2XdXfX2X2XdX2XaXdXaXuXaXaXdXpXaXdXaXdXsXsXsXaXsXaXsXaXpXpXiXiXuXaXaXaXlXsXsXdXdXsXaXaXiXdXdXpXaXaXsXaXsXaXaXaXdXaXaXiXnX2XnXfXaXdXaXsXaXdXaXdXaXdXpXaXpXdXaXuXeXwX0X0X$X1X2XqXgXgXfXnXfXzX2XnX2XnX2XnX2X2XdX2X2XgX2X2XuXuXuXuXwXeXuXuX2X;X].D.S.K.K.K.E.E.'.E.T.Y.L.G.D.F.G.L.L.H.H.L.L.H.G.F.F.S.g.g.f.S.G.Y.Y.Y.G.S.S.H.G.H.=X3X;X2X2X2X2X2X1X2X3X1X:XwXaXaXaXaXiXuXuXiXiXuXaXaXiXuXwX2X:X:X2XdXaXsXdXaXaXfXfXaXaXaXiXiXiXuXiXaXaXaXiXuXeXwXuXuXiXiXiXiXiXwX2XiXaXfXfXdXdX2X2X:X;X-X2X3X2X2X1X2X2X2X2X2X2X1X$X$X$X#XoX$X&X$XoX}.#X$XJ.L.T.E.oX$XoXoXoXoX}.Q.}.}.}.E.}.E.}.}.}.Q.}.}.#X#X#X$X#X#X}.].}.].E.T.T.E.T.H.'.H.G.F.H.H.Y.H.H.H.H.H.'.T.'.'.[.'.{.{.{.J.{.{.'.'.{.J.{.'.[.=X[.[.].[.#X#X|.[.|.#X#XXX$X#X#X#X#X|.|.[.'.'.'.{.J.[. X*X|.|.|.*X'.'.'.'.=X=X#X|.'.T.'.'.'.'.Y.Y.F.{.{.{.[.*X*X'.[.[.[.[.[.[.[.*X*X*X-X*X$X-XXX[.{.{.[.#X#X#X[.[.].'. X*X=X*X#X=X*X-X=X$X-X-X;X-X=X:X=X:X=X=X:X:X=X:X:X=X*X:X=X*X*X:X:X:X:X*X:X*X:X:X:XuX:X*X{.S.Y.{.[.[.].$X*XXX[.#X[.oX#X#X#X$X*X*X$X*X*X-X=X-X;X-X=X#X[.|.[.|.|.|.|.|.#X$X=X X=X$X=X=X X|.'.'.",
" X X:X3X2XdX2X2XiXdXiXaXdXsXsXsXaXdXaXaXaXaXaXaXaXsXsXsXaXdXaXpXiXiXuXiXaXaXdXsXsXsXsXaXaXaXdXaXaXaXaXaXaXaXaXdXaXsXaXaXiXaXiXsXfXfXfXiXaXaXsXaXaXaXpXaXaXaXdXpXsXaXaXpXeXwX1X1X1XwX1X2XgXgX2XnXnX2XbX2XdX2XnX2XnXnX2XdX2X2X2X3X2XuXuXaXaXeX:X;X#X].K.g.F.Y.Y.R.'.].'.'.'.E.Y.Y.J.L.Y.Y.H.H.H.L.G.G.L.H.G.L.H.G.L.D.D.L.Y.H.L.Y.H.H.H.'.#X=X3X2X2X2X2X1X1X1X2X2X;X2XaXaXaXaXiXuXwX2X2X2X2XiXuXwXiX2X:X;X2XiXaXfXaXaXaXfXaXfXaXaXaXaXiXaXaXaXiXiXiXiXuXuXuXiXiXiXiXuXuXwXuXaXaXfXdXaXuX2X:X-X;X-X3X2X2X2X2X2X2X2X2XeX1X1X$X$X$X#X&X$X#XOX$XoXE.L.T.E.}.OX$X$XoX}.oX}.}.E.E.E.E.T.].E.Q.Q.E.].].E.}.].oXoX}.}.}.].].].'.E.].].'.E.'.'.T.Y.'.H.'.H.H.{.H.Y.'.'.'.'.'.'.{.'.'.'.J.{.'.'.{.{.{.'.[.|.[.#X#X*X-X;X;X;XXX#X#X*X*X$X*X*X;X=X|.|.[.'.'.J.J.'.[.*X*X*X|.|. X|.$X|.'.H.H.Y.'.'.H.'.'.H.{.Y.{.{.F.F.'.XX[.[.[.[.[.[.[.[.XX*X-X-X-X-X-X-X#X[.XX[.[.|.XXXX[.|.|.].|.*X=X#X#X=X;X*X*X*X-X;X:X;X:X:X:X:X:X:X:X=X:X:X*X:X:X*X:X:X*X:X*X:X:X*X*X:X:XdXiX:X[.{.F.{.].[.[.{.[.%X$X|.[.#X#X|.[.*X#X=X#X#X%X*X=X;X-X=X;X-X$X#XoXXX#X|.|. X|.|.#X*X=X=X=X=X=X|.|.[.'.'.",
" X*X=X=X2X2X2X2X2X2XuXdXdXiXdXuXaXaXaXsXdXaXaXpXsXaXsXaXaXaXdXaXdXiXdXpXaXdXsXgXlXsXaXaXaXaXaXaXdXaXaXdXdXaXaXsXaXdXdXaXiXdXdXgXfXiXiXiXaXdXdXaXsXaXpXaXaXaXaXdXpXdXaXuXwX0X1X;X1XwX=X-XnXvXnX2XnXzXnX2XnX2X2X2X2X2X2X2X2X2X3X3XwXwXwX0X;X-XoX[.Y.F.S.D.K.L.R.E.T.T.E.'.T.Y.T.Y.Y.T.T.Y.Y.Y.Y.Y.Y.Y.Y.Y.Y.Y.T.T.].L.F.G.L.F.G.H.S.S.S.H.H.!.<X<X1X2X1X1X3X2X3X2X:XuXaXaXaXaXaXwXuX2X2X:XwXuXuXwX2XuX2X2X2X2XaXgX2XfXaXdXfXdXdXfXsXaXiXuXiXiXiXuXuXuXuXiXaXiXiXuXaXuXuXiXaXsXsXaXiX2X2X:X:X=X;X;X3X2X2X2X1XeX2XeX2XeX1X1X$X$X;X$X&X&X$XOX}.T.L.G.&X&X$XOXoXoXoXoX;X$XoX}.oXoX}.}.E.T.E.T.E.E.E.}.].].}.].}.].].}.T.E.'.E.].].].'.'.'.].|.|.}.'.'.H.H.H.'.T.'.Y.Y.{.{.'.'.[.[.'.{.'.'.{.[.].'.'.[.[.oX$X%X$X#X*X#X$X*X*X#X*X*X*X-X=X#X|.|.[.[.{.{.{.{.[.|. X|.|.[.'.].|.|.}.'.|. X'.J.'.T.Y.'.H.Y.{.{.{.{.{.[.[.[.[.*X[.[.[.[.[.*X*X%X$X%X#X*X*X#X%XXX[.XXXX[.XX]. X]. X=X=X X#X;X*X*X$X*X;X:X:X:X:X:X:X:X:X:X=X:X:X=X:X*X=X:X:X:X:X*X-X*X-X:X:X:X:X2XuX*X{.F.{.XX[.[.].].[.XX[.[.#XXX*X#X*X*X*X$X*X$X#X*X=X;X-X=X-X=X*X*X*X[.|.#X#X|.=X#X$X=X=X;X;X=X=X|.|.|.|.].",
"*X*X|.|.3X2X2X2XiXdXaXdXdXsXdXdXdXaXaXaXdXaXpXpXsXsXsXsXsXaXaXdXiXaXpXpXsXsXlXlXsXsXpXaXaXdXdXaXaXdXiXiXaXaXaXsXsXdXaXaXaXfXdX2XdXiXfXfXaXaXaXsXdXaXsXaXsXpXhXaXpXiXaXiXwX1X<X$X1X0XoX#XfXvXgXzXbXbXbX2X2X2X:X3X|.:X:X:X:X:X3X3X6X;X*X[.].Y.Y.L.F.j.S.K.Y.Y.L.].'.E.].}.].].E.].Y.E.E.Y.Y.Y.Y.'.].E.E.Y.Y.T.T.T.T.T.Y.G.L.Y.J.F.S.y.H.H.G. X1X3X1X<X3X1X<X<X<X1X2XuXaXaXaXaXaXiXwX2X:X2XwXiXwX2X:X2X2X2X2X3X2X2X2XaXfXdXfXfXaXaXaXaXaXaXiXiXiXuXeXuXeXiXaXiXuX0XaXiXwXiXfXsXiX2X2X2X2X:X:X:X;X:X1X1X2X2X2X2X2XeX2XqX2X<X$X&X;X;XOX;X1X$XP.J.E.#X$X$X$X$XoXoX$X$X$XoXQ.].}.}.}.E.Y.T.T.T.T.].'.}.}.oX].}.}.}.].oX].}.}.}.}.].].'.'.}.'.|.|.'.'.'.T.H.H.H.'.'.'.'.'.'.'.{.'.'.{.{.{.J.J.{.'.'.'.[.[.#X=X-X*X*X*X*X*X*X$X*X#X%X$X$X=X=X|.|.'.{.H.F.{.'.[. X*X X*X|.#X|.].'.'.'.'.'.'.{.'.H.{.J.H.H.{.{.{.F.{.[.[.[.XX[.[.[.[.[.XX*X].[.[.].oX-X-X-X*X$XoXXX].[.[.oX X].].#X=X#X#X;X*X%X#X$X-X:X2X2X2X:X:X:X=X=X:X*X:X=X:X:X=X:X:X:X:X:X:X:X:X:X2XdXuX:X*X[.F.{.{.[.#XXX#X#X[.].[.oX#X*X*X*X*X;X-X-X*X#X#X$X$X-X=X=X*X*X#X#X#X#X#X|.*X#X#X=X=X=X;X1X3X=X|.|.|. X|.|.",
"=X*X|.-X;X;X:X2X2X2XdX2XgX2XdXnXnXnX2XnXnX2XnXnXfX2X2XgXgX2XgX2XsXpXsXaXsXhXlXvXfXfXdXdX2XnXfX2XnXfXgXfXfXfXfX2XaXaXaX2XfXdXaXaXiXfXdXfXiXgXdXfXdXfXaXaXaXaXgXdXgX2XnXgXqX>X<X<X8XqX}.Q.fXkXbXaXfXaXiXiXeX3X=X=X#X}.'.].#X$X#X|.].T.L.F.Y.Y.H.G.F.D.G.Y.T.T.].E.E.'.T.].].].Y.J.Y.Y.E.T.Y.T.T.].E.T.].E.E.].].].].T.T.Y.Y.Y.G.D.H.S.H.H.f.H.=X=X$X=X=X;X=X=X;X;X1X2XeXiXeXfXiX2X1X1X2X2X2X2X2X1X2X2X2X2X2X2X2X2XfXaXfX2XfXfXbXzX2XnX2XnXiXdX2XiXuXdXaXdXdXaXdXaX2XfX2X2X2X2X2X2X2X3X2X3X1X3X1X2X3X1X2X2X2XwXeXeXiX0X:X-X$X*X=X$XOX$XOXY.G.T.OX<X&X&X$X&X&X&X%XoXoXOX$X}.E.E.].].T.].].].'.T.'.'.].|.|.].'.}.'.}.'.'. X[.'.'.[.[.[.'.'.'.}.}.'.'.'.'.'.'.'.T.'.'.Y.'.'.H.'.'.H.'.'.'.H.'.'.H.'.|.].#X*X#X#X*X*X*X%X*X*X-X-X=X-X=X=X*X|.|.'.{.H.{.H.'.|.#X X].|. X|.|.'.'.T.'.'.'.'.'.T.'.H.'.J.H.{.{.'.Y.T.'.|.#X#X|.].].|.[.|.].'.{.!.|.#X=X=X=X=X|.#X|. X|.#X#X].|. X|.|.|.|.#X=X=X$X$X=X;X3X2X7X7X3X7X[.7X7X3X3X3X7X7X2X2X7X2XwX2X2XdX2X:X2X2XdX|.{.H.{.{.[.*X[.*X*X|.[.*X|.*X*X*X*X=X:X*X:X*X*X*X*X:X*X*X*X*X*X*X*X*X|.|.[.*X[.%X$X=X*X$X%X*X#X*X|. X|.].|.|.",
"=X*X*X;X:X;X=X:XdXdXfXgXnXnXnXbX2XnX2XnXfXnXfX2XfXnXfXnX2XzX2XgXaXaXsXhXlXlXlXhXsXsXsXfXfXfX2XgXgX2X2XnX2XnXfXnXfXdXaXaXaXfXaXaXiXiXiXiXfX2XnX2XfXfXdXfXaXaX2XaXfX2X2XgXqX,X1X>X8X9XOXOXkX<XqX&X$X#X1XqXqX1X}.].T.Y.G.H.Y.'.T.Y.Y.G.G.G.G.L.Y.Y.L.L.Y.Y.Y.T.T.'.}.'.].'.T.E.Y.L.Y.Y.Y.Y.T.Y.T.T.'.T.T.'.T.].E.'.].T.T.T.T.T.Y.Y.H.S.H.H.S.'.[. X|.=X$X=X=X=X3X1X2X2X2XeX2XiX2X3X2X3X;X1X2X2X1X3X2X2X2X2X2X3X2X3X2X2X2XfXgX2X2XbXgX2X2X2XdXiXaXiXiXiXuXaXaXaXaXiX2XxX2X2X2X2X2X2X3XqX2X2X3X2X1X<XeX2X1X1X2X2X;X;X2X;X=X=X-X;X;X;X3X XE.J.J.Q.#X$X#X}.Q.}.%X&X#XoX}.oX#X}.}.}.}.].E.'.'.'.T.'.'.'.}.|.|.}.|.'.'.|.[.[.'.].'. X].].'. X].'.'.|.|.'.|.'.'.'.T.'.H.T.'.'.T.'.T.{.T.'.'.Y.Y.'.'.H.'.|.|.#X$X*X#X#X$X*X$X*X*X*X-X$X-X*X*X#X]. X'.J.H.'.'.].|. X|.].'.].}.'.'.'.'.'.'.'.'.'.H.H.'.'.H.J.{.{.'.].'.'.'.|.].].|. X|.|.].'.'.'.]. X#X=X=X=X=X=X=X=X*X#X*X#X=X X'.|. X=X=X=X=X=X=X$X=X=X;X;X3X3X*X7X3X7X7X7X7X7X*X7X2X2XdX2XiXuX2XuXdX2XnXdX:X[.{.{.{.{.[.*X*X[.[.[.[.[.*X*X*X*X=X*X*X:X=X:X*X*X*X*X:X*X*X*X*X*X*X*X*X*X*X[.#X#X%XoXoX].oX#X|.$X=X*X X|. X|.",
"*X:X=X2X:X:X:X2X2X2X2XsXnXnX2X2XnXnXnX2XnX2XnXnXfXfX2X2X2XfXzX2XaXdXlXlXvXlXsXsXsXfXaXiXfX2XfXgX2XfX2X2X2XgX2XnXfXaXaXaXaXdXaXaXiXfXiXfX2XgXiXfXfXdXaXfXfXfXdXaXbX2XzXfXqXqXqX,X9X,X>X@XzX X|.}.T.E. X1XwX$X].G.G.D.D.D.G.G.G.G.D.F.J.G.H.L.Y.].T.Y.T.Y.T.Y.E.E.].'.T.E.E.Y.L.H.Y.T.E.Y.Y.Y.E.E.].Y.].T.E.].].E.E.'.T.E.].E.T.T.H.H.S.H.'.H.H.].|.|. X|.=X=X;X1X2X2X2X2X1X1X1X3X;X;X;X3X1X2X3X1X2X3X2X2X2X2X2X2X2X2XiXaX2XgX2X2X2XnXnX2XsXiXdX2XiXaXuXuXuXuXwXwX2X2X2X2XqX2X2X3X3X2X2X1X2X1X1X1X2X1X2X2X2X:XwX0X;X;X;X-X;X;X;X;X$X!.G.G.T. X$X<X&X}.T.E.%X#X.XR.E.}.oXoX}.}.}.].].'.'.Y.'.'.'.'.].|.|.|.}.|.|.|.].[. X]. X].].'.].'.[.'.|.'.'.'.'.'.'.'.'.'.'.'.'.'.'.'.'.'.'.'.'.'.'.'.'.T.'.|.|.*X*X*X*X#X%X*X=X$X*X-X=X$X*X*X X X X].].'.'.].].|.|.].].'.'.'.'.'.Y.'.H.'.'.'.'.{.J.{.H.'.{.{.'.].].[.'.'.'.'.{.'.'.|.[.'.].].{.{.'.].|.=X=X-X;X;X;X3X;X;X;X=X=X|.|.|.#X3X;X=X=X=X3X;X=X;X;X;X7X7X7X7X7X7X3X7X2X7X7X7X:X2X2XdXuXiX2XuX2XdX2X2X[.{.{.{.[.[.[.[.[.[.[.[.|.*X*X*X*X*X*X:X:X=X=X*X;X*X;X;X;X-X-X=X:X*X*X*X*X*X[.*X$X%XXX[.].].[.oX#X#X|. X'.[. X*X",
"=X3X2X3X;X:X2XuXaXdXnXnXgX2XnXnX2X2XnXnXnX2XfX2X2XnXnXfXnXzX2XzXaXsXlXlXlXlXsXaXdXaXsXdXfXnX2X2XnX2XnXfXzX2XfXgXaXaXaXdX2XfXaXaXiXdXiXiXnX2XfX2XaXaXaXdX2XgXfXaXgXfX2XfXqX,XqXqX1X>X<XQ.zX X}.|.].].}.#X#X}.J.h.g.S.S.h.h.D.D.F.G.G.L.Y.Y.T.T.E.].].].E.T.T.T.Y.T.E.T.T.T.Y.Y.Y.Y.Y.T.T.E.Y.Y.T.Y.E.Y.].].E.].].].E.].].].].].E.H.H.H.G.Y.S.H.|.|.].|.|. X=X=X3X$X3X1X$X3X1X3X1X;X3X;X;X1X1X1X3X;X;X;X2X:X2X3X2X2X2X2XiXnX2XzX2X2X2X2XfX2XaXsXaXuXuXuXuXuX:XuX2X2X2XtX2X2XqX2XeX2X2X2XqX2X2X1X3X<X1XeXqX;X;XwXaXwX2X2X;X-X$X#X}.E.G.h.J.Q.OX#X<X<XoXE.T.XXoX.XY.].}.oXQ.}.oX}.E.}.T.H.H.'.'.'.'.].].].[.'.'.|.|. X[.].[.].].[. X]. X'.'.'.'.'.'.'.'.'.'.'.'.T.{.H.'.Y.'.{.J.'.'.'.'.H.'.'.'.'.].#X#X%X*X#X#X$X*X*X$X-X*X$X=X$X#X#X].'.'.[.[.]. X|.|. X].'.{.'.{.'.'.'.T.'.'.'.'.T.T.H.{.H.'.'.'.'.'.].].'.'.{.J.T.H.H.H.H.H.'.'.H.H.J.{.'.'.]. X#X=X=X;X3X=X;X=X=X=X|.=X=X;X;X=X$X=X=X=X=X=X=X=X3X3X[.7X3X7X7X7X2X7X7X3X:X:X2X:X2X2X2X2X2XdX:X*X{.{.{.{.[.[.[.[.|.[.*X[.[.*X*X*X*X=X*X:X:X:X:X=X:X:X:X*X;X*X*X*X;X*X*X*X[.*X*X|.XXoX}.XXXX[.#X#X|.|. X].'.[.=X2X",
";X2X2X;X*X;X:X:X2XaXgXfXaXaXsXsXnXfX2XgXnX2X2XgXfXdXsXaXfX2XgXgXsXhXfXlXlXkXaXaXaXaXdXaXaX2XgXfXfXgX2XgX2XnXgX2XfXaXaXfXeXaXaXaX2XgXnX2XfX2XnX2XdXfXdXaXaXaXaXaXgX2XfXiX3X3XqX,X,X&XOXx.wX&X$X#X=X$X#XE.Y.F.g.f.f.g.g.S.g.g.D.D.Y.G.L.T.].].].T.'.].Y.T.T.Y.T.T.Y.T.T.Y.Y.Y.T.T.Y.E.].T.'.T.Y.E.].E.].E.].].}.].].].].].E.].T.T.H.Y.H.F.H.S.H.;X|.|. X|.|.=X=X=X X=X=X=X$X=X3X;X3X1X1X;X;X;X1X1X;X;X3X;X3X2X:X3X1X1X1XeXeXeX2XfXnX2X2XdX2XgXdXfXiXuXuXwX:XwXuX2X2XeX2X2X1X2X2X2X3XqX2X2X2X2X1X1X1X2X2X2X2X;X2X2X2X;X=X=X|.].'.T.J.G.J.}.}.]. X<XOX].E.]..XoXoXoX}.Q.}.E.E.}.}.}.].T.H.Y.Y.'.'.'.'. X'.'.'.|.].|. X'.].].[. X].]. X'.'.'.'.'.'.'.'.'.'.].'.'.'.'.J.'.Y.H.'.H.H.'.'.H.'.'.H.H.'.'.[.|.#X*X*X*X%X*X*X*X*X$X*X#X*X#X#X X'.].[.[.'.].].[.].].'.'.'.'.'.'.'.'.'.'.'.'.{.J.'.'.'.'.].].].'.'.'.'.'.'.{.'.H.H.G.H.H.H.Y.F.G.S.S.g.S.H.H.{.'.'.|.|.$X|.|.|.=X=X=X#X X|.|.}.|.|.$X$X#X|.=X3X[.[.[.{.3X[.3X*X=X2X7X2X2X:X:X:X2X2X:X:X:X*X[.H.{.{.[.[.{.[.*X*X*X[.[.*X*X*X=X=X:X*X:X:X:X=X:X:X:X:X*X*X*X*X*X*X;X*X*X*X*X*X|.].XXXX|.#X#X#X#X|. X|.*X*X=X3X2X",
";X:X;X1X:X2XdXdXaXdXgXdXdXuXaXaXnX2XnXgXfXnXnXzXaXfXaXfXfXfXfXfXhXhXsXsXsXaXaXaXaXaXfX2X2XfX2XgX2X2XgX2XgX2XfXnXfXdXaX2XaXdX2XsXgXgX2XgX2XfX2XnXfXfXfXaXaXaXsXfXfXgXfXfX3X3X<X,X8X@X$Xh.E.$X$X}.qXqX1X}.J.h.g.f.g.g.D.D.F.L.G.G.G.F.G.Y.].}.].E.E.T.].T.E.E.Y.Y.Y.Y.E.T.T.].Y.E.Y.T.].].].E.].].].].].].].].E.].].}.}.].'.T.T.].H.H.H.S.H.S.H.=X=X=X*X X=X=X=X=X=X1X3X=X$X3X=X=X=X;X1X2X1X2X3X1X3X;X1X1X3X3X;X2X1X<X3X2X2X1X2XiXfXfX2X2XaXdXfXfXuXwXuXwXuX2XuXuXeX2XeX2X2X1X1X1X3X2X1X2XqX2X1X1X1X3X=X1XeXeX2X=X}.].].'.'.'.T.Y.G.P.}. X}.E.}.OX}.oXoX}..X.XXXoX}.oX].T.E.}.}.].T.T.H.H.'.'.'.'.'.'.'.[.].'.].].[.[. X].[.].]. X].]. X'.'.'.'.'.'.'.'.].'.'.'.'.'.'.'.'.'.'.'.'.'.T.Y.H.'.Y.'.'.].[.[.#X#X*X*X*X#X*X$X*X#X*X[.#X*X].'.'.'. X X].|.].].'.].'.'.'.'.'.'.'.'.'.{.T.H.'.'.'.'.].].|.|.'.T.'.'.H.Y.'.H.S.S.S.H.H.S.S.S.y.y.y.y.S.H.H.H.J.'.'.'.|.}.|.#X#X|.].'.Y.'.|.'.|.|.|. X|.|. X3X3X{.{.{.F.{.J.[.|.*X*X3X2X:X:X;X2X2X2X:X:X|.{.{.{.[.[.{.[.|.*X[.[.[.*X|.*X*X*X:X*X=X:X=X:X:X*X:X:X;X:X*X*X*X*X=X*X*X*X[.*X[.*X#XoXXXoX#XoXXX].'.'.*X=X3X3X2X2X",
"2XwXwXuXiXdXfXfXaXaXdXdXiXfXfXsXgXgXfX2XfXfX2X2XsXfXfXdXdXfXgXzXsXjXsXsXaXaXaXpXaXaXaXaXfX2XgX2XfX2X2XgX2XnX2XnXaXaXdXfXaX2XaX2X2XgXfX2XnX2XfX2XaX2XaXaXfXdXfXdXnXgXfXiX3X<X<X>X0X,X,XE.G.&X$X#XwX1X#XE.G.G.g.g.D.D.G.J.Y.Y.T.P.L.H.Y.E.].}.].E.T.T.'.E.T.T.Y.Y.Y.T.E.].].'.].T.T.].].].].].].].].}.].].}.}.}.].E.}.}.}.].E.].E.Y.H.H.H.S.H.T.H.=X=X#X=X=X=X=X#X=X;X2X1X$X=X=X$X=X1X1X2X2X;X3X2X2X2X1X;X2X;X1X1X3X3X2X2X1X3X1XeXgX2XgXgXaXfXaXdXuXwXuX:XwXwX2XwX2XeX2XqX1X1X1X1X1X1X1X2X,X2X1X,X1X;X=X1X1X1X#X XL.H.G.Y.T.T.T.Y.G.E.}.}.}.Q.}.}.oXoXOXoX].].E.].}.}.E.E.E.}.}.].T.Y.Y.Y.'.'.'.T.'.'.'.].'.[.].]. X[.].'.'.[.'.'.'.[.'.'.{.J.'.'.'.'.'.'.'.'.'.'.'.'.'.'.'.{.'.H.'.H.'.'.H.'.'.'.].XX[.#X#X*X$X#X#X*X*X%X*X#X#XXX*X].'.'.'.].].]. X].[.[.].'.'.'.'.'.'.'.Y.Y.H.H.H.'.'.'.'.].'.|.].'.'.H.H.'.H.H.S.S.F.H.H.H.S.S.S.S.G.F.S.H.H.'.H.H.'.Y.'.'.|.|. X X[.'.H.H.Y.Y.'.'.[.'.].].'.].F.F.F.F.{.{.[.[.{.{.'.[.|.*X*X:X2X:X:X:X*X|.[.{.[.[.[.|.*X*X[.[.*X[.*X[.*X*X*X:X*X:X:X=X*X:X=X*X:X=X;X*X*X*X#X*X=X*X*X*X#X*X*X*X*XoX[.oX[.XX].].[.[.=X:X2X2X2X2X",
"aXaXaXiXuXuX:X=X{.'.H.[.;XfXhXpXfX2X2XbX2XgXnXgXfXdXfXaXsXfXfXgXaXhXaXsXaXsXtXpX2XsX2XaX2XfX2XgX2XfXzX2XgX2XzX2XsXfXaX2XaXaXaX2XgX2X2XfX2XfX2XnXaXaXaXaXaXfXfXdXgX2XfXfX2X<X<X1X0X<XqX0XG.1X$X$X&X#XP.g.g.h.G.g.h.D.h.L.P.T.E.T.Y.].].}.}.].'.].T.E.].].].].Y.Y.Y.E.].].T.E.Y.T.T.E.oX}.}.].oX].oX}.oX|.}.].].}.].}.}.}.].].].].'.S.H.H.H.Y.H.y.=X$X#X#X=X$X#X X#X=X3X=X#X$X=X$X=X3X2X1X2X3X;X;X1X2X1X2X3X2X3X;X3X2X2XeX2X$X3X2X2XgXgX2XfXdX2XaXiXiXwX2X:X:X:X2XqX2XqX2XqXqX0X2X,X1X1X3X,X3X1X2X$X2XqX1XE.F.g.h.H.G.G.G.Y.Y.T.T.G.P.E.!.Q. XOX}.}.oX#X#X%X%XoXoXE.}.}.E.].}.].T.Y.Y.Y.Y.H.T.'.'.'.'.'. X'.].[.].].].]. X'.'.'. X[.'.'.'.J.'.'.'.].].'.'.'.'.].'.|.].'.'.'.'.'.'.'.'.Y.'.'.H.'.'.[.[.[.[.XX#X#X#X#X*X#X#X*X#X#X#X X'.{.'.'.[.[. X[.]. X'.].].'.'.'.'.'.'.'.H.H.H.H.T.'.|.}.].'.].'.'.'.H.Y.H.H.H.H.Y.H.H.H.H.Y.Y.].].|.].H.H.F.S.J.H.H.H.H.'.'.}.|.'.'.'.'.H.H.H.H.H.H.H.H.H.H.H.{.F.F.F.{.{.{.{.{.{.{.H.{.[.*X:XwX:X:X:X*X[.{.{.[.|.[.|.*X*X[.[.*X*X|.*X*X*X*X=X*X*X*X:X:X=X:X*X:X:X=X*X|.*X*X*X*X*X*X*X*X*X*X*X-X%XXX].[.[.|.[.:X:X:X2X:X2X2XdX",
"aXfXaXaX:XY.e.:.r.e.i.e.r.f.].:X;XeXaXsXaXaXaXfXeXaXaXaXfXgXgXgXhXaXjXpXpXaXpXtXiXiXfX2X2XfX2XiXnXgX2X2XaXiXaXaXdXaXdXfXdXaXaXaX2XgX2XnXaXaXaXaXaXaXaXaX2XfXdXaXbXfXfX2XxX1X1XqXqXeX1X}.}.&X$XT.J.f.,.t.f.g.D.L.h.G.J.Y.T.T.E.E.].].}.].}.E.T.E.].].E.].Y.Y.Y.L.].E.].}.E.T.T.T.Y.Y.].].].oX|.}.oX}.oX|.oXoX}.].].].oX].].].].].'.H.S.S.H.H.H.H.H.|.2X=X X#X=X#X;X;X3X2X=X|.$X3X=X=X3X1X1X1X3X;X1X1X2X2X1X1X1X1X2X2X2XeXqX1X2X2XfXzXfX2X2X2XeXeXwXeXqX2X2X2X2X1X0X0X2X1X1XqX0X1XeX1X$X#X;X1X;X;XqX$X}.Y.H.G.y.y.g.c.H.E.!.].E.J.c.J.Q.}.}.}.Q.}.T.E.}.}.E..XoXoX}.E.E.].}.'.E.Y.Y.E.].'.H.H.'.'.'.'.'.'.'.]. X].[.[.'. X].].[.'.].].'.'.J.{.'.'.'.'.].'.].'.'.'.'.'.[.].].[.'.H.'.'.'.'.T.'.'.'.].{.[.[.[.oXXX|.[.[.[.oXoXXX].].'.].'.].].[.]. X'.|.|.|.'.'.'.].'.}.'.].'.'.H.H.H.'.'.}.'.'.'.'.'.H.H.'.H.H.H.'.'.|.}.'.H.H.'.|.]. X|.'.'.{.'.'.'.H.H.{.'.H.H.[.'.'.'.'.H.H.H.H.H.H.H.'.H.'.H.H.J.J.J.J.J.{.{.{.{.{.{.'.{.{.{. X-X*X*X*X[.[.{.[.{.|.*X*X*X[.|.*X|.*X*X*X*X*X*X*X*X=X:X:X:X=X*X*X=X:X*X*X*X*X=X*X:X*X*X|.*X*X*X*X[.*X*X#X].[.*X:X:X:XuXuXdXdXaXpX",
"lXfX:X*X*X;X*X:X*X*X-X:X-XoXY.S.Y.oXwXaXkXkXaXaXeXaXaXaXdXfXgXfXjXhXsXpXaXjXaXaXfXfX2XfXfX2XfX2XfX2X2XgX2XaXaXaXfXaXaXaXfX2XaXeXgX2XgX2XdXfXaXaXaXaXdXaXaXaXaXfXfXgXgXfXeX1X2X2X0X1X&X$X$X#X}.T.p.t.e.h.J.G.G.L.J.L.T.T.E.E.E.].].E.].].].].].T.T.].'.E.E.T.T.Y.].].].}.].E.T.T.T.].].].|.oX].}.].}.|.oX|.oX].].].}.].].}.E.].E.'.T.H.H.F.H.H.S.S.'. X#X3X2X2X=X$X;X2X1X=X=X*X#X#X=X;X1X;X2X2X2X2X2X2X2X2X2X1X1X1X3X1XeXwXwX2XfX3X2XfXfXfXfXeX2X1X2X2X2X2XfXfX2X1X1X1X1X2XqX1X$X}.'.E.}.oX#X#X}.!.J.g.y.a.g.G.g.J.Y.'.].}. X}.}.T.!.Q.}.}.!.}.!.E.}.oX X.X].].oX}.}.E.].E.E.E.Y.Y.Y.T.Y.Y.Y.'.'.'.].'.'.'.'.].].[.'.[.'.].].'.[. X'.'.'.'.'.'.'.'.'.'.].'.].'.'.'.'.'. X X'.'.'.].].'.'.'.'.'.'.].].].].].XX[.].].[.].[.[.[.].{.].]. X'. X].].[.].[.|.'.|.'.].'.'.'.'.'.T.H.H.S.Y.'.|.'.'.'.'.'.'.Y.H.H.Y.H.'.|.|.$X*X X|.].|.=X#X=X#X#X X].|.|.}.H.H.Y.Y.H.'.'.].'.'.'.'.'.Y.H.'.'.'.'.'.'.'.'.{.{.{.{.{.{. X{. X'.'.{.{.H.H.{.{.'.[.[.|.[.{.'.{.*X*X*X*X[.*X*X[.*X*X*X*X*X*X*X:X*X*X*X*X=X:X:X:X=X:X*X*X*X*X*X*X*X[.*X|.*X*X*X#X#X*X#X[.#X;XwX2X2XiXiXpXaXaXaX",
"aXsX;X[.;XuXaXaX2X0X2XwXwX&XE.G.].].XX$X2XwXeXwXaXeXaXsXsXsXgXsXjXsXaXjXaXjXaXkXfXiXfXfX2XfXeXaXdXdXgX2X2XfX2XaXaXfXfXaXfXaX2XaX2XzX2XgXaX2X2XaXaXaXfX2XdXaXaXfXfXfXzX2XtXtXeX2XqX$X X}.L.r.^ :.t.t.a.G.P.L.G.P.T.E.T.E.E.!.E.E.].].}.E.].E.].E.T.T.].].].].].].].].oX].].].].].].].oX].oX].oX].oX|.oX|.oX[.].}.].].}.oX}.].}.E.}.'.H.H.H.H.S.S.H.T.|.|.|.].#X;X X=X2X3X=X=X=X#X#X#X=X;X;X3X1X1X1X1X1X1X2X0XwX0XtXqX2X2X;X$X$X;X2XfXfX2X2X2X2X2X2X2X2X1X1X3X3X1XeX0X1X;X<X$XE.G.J.G.x.G.G.h.h.g.g.f.y.u.g.J.T.}.!.}.].!.!.}.}.}.Q. X X X}.Q.Q.].oX$X$XoXoX]..XXX}.Q.E.T.E.E.T.H.G.H.H.Y.'.Y.'.'.'.'.].'.'. X].].[.].'. X X].'.'.'.'.'.'.'.'.].].'.'.].'.].'.'.'.'.[.]. X]. X|.|.].].].'.'.'.'.|.].].].[.].{.{.].].[.[.[.].[.{.Y. X[.].[.].[. X|.|.|.*X X|.].'.}.'.].'.'.H.H.H.G.'.|.}.'.'.'.'.'.'.H.H.H.T.'.].|.|.=X$X=X X|.|.=X#X=X=X=X X X X|.|.|.'.T.'.H.'.J.}.].].'.'.'.H.'.'.'.'.'.'.'.'.'.{.{.{.{.{.{.[. X'.'.{.'.{.{.{.{.'.'.[.*X*X[.{.{.[.[.*X*X[.[.*X[.*X*X*X=X*X*X*X*X*X*X[.*X*X*X*X:X*X:X*X=X:X*X*X*X*X*X*X*X*X|.|.*X%X#X#X[.*X-XwXpXnXdXdXiXpXsXdXdX",
"aXaX2X-X:XeX;X;X;X;X1X;X-X;XeXaX6X:X$XoX].$X1XeXeXaXfXsXfXfXsXsXaXjXaXaXpXtXaXpXfXiX2XfX2XfXeXfXaXgX2XgXaXdXfXfXfXdXaXaXdXdXfXaXgX2XgX2XaXaXaXaX2XdXfXfXfX2XaXaX2XfXgXfXfXzXfX2X0X$X#XoX].G.G.E.x.h.G.P.L.L.L.T.P.E.E.E.E.Q.E.Q.}.}.}.].].].].].T.].}.}.oX].}.|.oXoX}.|.}.].].}.oX}.].oX].|.].].|.oX|.oX|.}.}.}.}.}.}.].}.}.}.].|.'.'.'.H.H.G.S.H.T.'.|.{.G.H.|.}.=X2X$X X=X=X|.#X=X=X=X;X;X3X1X1X1X1X1X0X1X2X1X1X3X,X1X1X1X1X0X2XfXtX2XeXiX2X1X2X2X2X1X3X$X<X<X$X$X$X&X1X,X$X}.Y.L.G.f.p.y.p.g.G.x.J.P.Q.}. X X}.!.].Q.].Q.!.Q.}.}.Q.}. X}.}.}.oX$X$X#XoX.X.XoXoXE.E.T.T.E.'.T.Y.H.H.H.'.'.'.'.].'.'.].'.[.].'.'.].].'.'.'.'.'.].'.].'.'.'.'.'.].'.].'.'.].'.].].].'.]. X].|.|.].].].}.'.'.'.|.{.].[.].[.].[.].XX].[.[.XX].].[.'.].[.'.].|. X|.|. X|.|.|.'.|.'. X[.'.'.'.'.T.{.|.'.'.'.'.'.T.H.'.H.'.H.Y.'.|.*X|.|.|.|.=X=X=X$X|.#X$X=X*X#X|.#X#X|.|.'.H.H.'.'.'.|.'.'.'.'.'.'.T.H.H.H.H.H.T.'. XJ. X{.{. X[.[. X'.[.'.[.3X3X3X*X[.*X*X*X[.{.{.|.*X*X[.[.|.[.[.[.*X*X*X*X*X|.*X[.[.[.|.*X|.*X*X*X*X*X*X*X=X*X*X*X*X*X*X*X*X*X*X*X*XoX#X*X:XuXpXdXdXaXiXpXdXdXsX",
"sXaX2X2XwX2X;XuX-X1XeXeX;X5X0XtX5X0X0X;X;X;XwXtXiXaXfXfXsXsXaXfXaXjXaXaXaXuXeXrX2XeXeXeXeXeXfXaXaX2XaX2XfXdXgXdXdXfXaXfX2XfXfXaX2XgXgX2XgX2XdXfXfXdXfXdXaXaXaXfXfXfXfXfXzXbXfX3XY.Y.Y.Y.H.L.T.].Y.P.Y.P.L.G.L.T.P.T.E.E.E.}.Q.}.}.].].}.].].}.E.].].}.oX|.}.|.}.oX|.oX].|.}.oX].].].].}.}.}.}.oX|.oX|.|.oX|.].].|.].oX}.}.}.].}.|.'.'.'.'.H.H.G.S.S.H.'.|.'.'.T.'.=X;X|.].#X=X X=X3X=X=X3X1X;X2X1X1X1X1X1X2X1X1X1X1X;X;X&X&X=X$X<X X X3X2X=X].J.y.y.g.S.g.g.S.G.g.G.G.x.G.G.G.G.T.L.L.J.L.L.Y.E.J.P.!. X XoX}.!.Q.}.Q. X}.}.}.}.!.Q.Q.}.}. X}. XOXoXoXoXoX.X.XoX}.}.E.E.'.E.'.'.T.T.Y.Y.'.].].'.'.'.'.'.[.'.'.'. X'.].].[.'.'.'.'.'.'.].'.].]. X'.'.'.'. X'.].'.]. X'.'.].].'. X]. X].[.'.'.].'..X{.[.].|.[.[.].].oX].|.oXXX[.[.].].'.].].]. X[.|.|.#X|. X].].[.[.[.].].'.'.].|.}.'.'.'.'.'.'.'.'.H.'.'.'.'.|.|.#X X#X=X=X=X=X=X#X*X3X3X=X=X$X#X=X=X$X'.G.G.H.'.'.'.}.'.}.'.'.'.'.'.'.H.Y.{.'.'.{.{.{. X[.{. X[. X X{. X[.[. X[.[.{.[.*X|.[.[.[.*X=X:X*X|.[.[.[.[.*X*X*X[.|.[.*X[.[.[.|.|.[.|.[.[.|.*X*X*X*X-X=X:X=X:X=X*X=X*X*X*X#X#X*X-X:XuXpX7XjX7XhXdXhXhXdX",
"fXaXiXdXsX2X;XiX;X1X1X1X0X0X5X&X&X0XrX0X0X1XrXaXeXfXgXlXfXsXgXfXsXjXaXaXrXuX0XwXeX2XeX2XwXeXeXeXaXfXfX2XaXaX2XaXaXaXfXdXaXdX2XaXgX2X2XgX2XgX2XaX2XaX2XaXsX2XaXdXnXfXfXfXgXgX2X X'.|.}.'.Y.Y.G.D.L.P.T.!.P.L.L.P.L.Y.P.T.E.}. XoX}.}.}.}.].].].].].}.}.oXoXoXoXoXoX|.|.|.oXoX}.}.E.].}.].oX}.}.|.oXoX|.oX[.oXoX}.}.oX].}.oX].oX].'.'.].'.'.'.H.H.H.S.S.G.H.H.T.|.T.|.|.].]. X#X*X=X=X3X=X=X$X=X;X3X,X;X;X1X1X1X&XtX1X;X XE.T.G.S.c.u.u.S.J.H.S.y.G.S.G.H.H.H.J.J.Q.oX}.T.L.x.G.G.L.T.E.E.Q.].].}.T.E.E.!.E.E.E.E.!.!.}.}. X X}. X X X}.}.Q.}.Q.Q.].oXoXoXXXoX].].Q.}.}.}.Q.'.}.}.].].T.'.'.].'.'.'.'.[.].'. X'.'.].].'. X'.'.'.'.'.'.'.].'. X[.'.]. X'.'.'.'.].].].'.[.'.[.'.'.[.[.].'.[.'.'.'.'.[.XX].XXXXoX|.XX].[.[.[.|.|.#X[. X[.].|.[.[.]. X|. X#X#X[.[. X].]. X].].}.[.].|.[.'.'.'.].'.'.'.'.Y.'.'.'.'.}. X=X=X$X=X=X=X#X X#X=X=X=X3X3X=X=X=X=X=X].H.F.H.'.'.'.'.'.'.'.'.'.'.'.'.{.'.Y.J.T.J.{. X{.[.[.3X X[.[. X{. X[. X[.[.[.].[.*X[.[.*X*X=X:X*X*X*X*X[.|.[.[.|.[.[.[.[.[.[.[.{.{.{.[.[.[.[.*X*X*X*X*X:X=X*X*X*X*X*X*X*X*X$XXX*X-X6XuXuXhX7XhX7XpXpXdXdX",
"aXfXsXfXfXaX1X;XaX0X1X0XrXtXtX0X0X0X0X;X<X1XeXfXaXfXfXlXgXgXsXgXaXjXaXjXpXtXeXeXiXqX2XqXwXeXeXeX2XaXaXaXaXaXaXaXfXaXaXaXaX2XfXaX2X2XgX2XgXdX2XaXaXaXaXaXaXaXsXaXfXfXdXnXaXiX-X[.H.'.'.T.Y.T.P.G.G.L.P.T.Y.P.J.G.G.L.L.P.E.Q.oXoXoX}.}.].oX].}.].}.}.#X#X#X|.#X X}.].oX|.#XoX|.].].].oX}.oX|.|.oXoX#XoX|.|.}.oX}.}.oXoX|.|.oX].}.'.|.].'.'.H.H.'.H.H.F.y.r.t.H.|.H.'.].|.|.|.*X;X=X=X=X=X$X#X*X=XOX X#X$X1X1X;X$X X}.T.G.G.G.Y.G.S.u.r.u.g.G.G.Y.J.H.G.Y.T.H.J.T.L.T.T.Y.Y.E.E.].T.E.].}.oX].].E. X}.}.Q.T.E.!.}.E.T.!.}.Q.Q.}.Q. X}.Q.}.}.}.].!.}.}.}.oXoX.X].E.E.'.Q.'.E.}.].].].].'.'.'.].'.'.'.].].].'.[.!.'. X].[.'.[.'.'.'.'.'.'.'.'.'.'.'.].].].[.'.[.].].'. X].'.'.[.[.'.].[. X].'.'.'.'.[.].XX[.|.#X[.|.[.[.].XX#X|.[.].[. X|.|. X|.[.].|.|.#X|.[. X].|. X].].].].].|.|.|.].'.'.}.'.'.'.'.'.T.'.'.|. X=X=X=X=X#X$X|.|.|. X|.#X$X=X=X*X#X;X=X=X=X].H.H.T.'.'.|.'.'.'.'.'.T.H.H.H.H.H.{.Y.J. X{.[. X[. X X[.[.3X[.[.3X3X X[.[.[.*X*X*X*X*X=X:X:X*X[.*X[.[.[.[.[.{.[.[.|.[.[.[.[.{.{.[.{.[.|.|.*X[.*X*X*X=X*X*X*X*X*X*X*X*X=X-X*X*X5X6X7XjX7XjX7XhX7XhX7XhX",
"sXgXaX2XsXlXfXeXeXrXwXrX0X;X0X5X4X6X;X0X2XeXfXaXaXfXvXvXgXfXgXgXaXjXkXaXjXaXaXeXeXeXeX2X0XwXeXeXfXdXaXaXaXaXaXaXdXfXaXaXaXaXdXaXfXfX2XgX2XdXfX2X2XfX2XsXaX2XaXfXiXfXgXgXsX2X;X X'.'.Y.L.Y.L.Y.T.P.L.L.x.G.J.P.P.x.G.G.L.P.E.Q. XoX}.}.].].].].oX].oXoX#X|.#XoX#X}.|.oXoX#X#X}.].}.}.oX#XoX#X}.].#XoXoX|.oX}.|.[.oX|.}.[.oX].oX}.|.}.|.'.'.'.'.'.'.H.H.S.S.F.D.g.H.'.].|. X|.|.;X3X=X=X$X X|. X|.E.'.}.oX&X<X&X$X X}.L.D.D.G.Y.L.u.u.y.y.y.f.g.J.J.H.G.J.T.T.T.'.T.T.E.T.E.E.E.T.}.}.E.}. XoXoX#X#X X XQ.!.E.!.'.!.}.Q.'.Q.}.!.}. X}.}.}. XOX}.!.].].oXoXoXoX}.E.Y.E.E.}.'.E.E.}.].].].'.'.'.'.'.].'. X'.].].'.'.'.].[.'.!.'.'.'.'.'.].'.'.'.'.'.'.[.'.'.'.'.'. X'.[.].'.'. X].].[.|. X X|.}.].'.[.[.].oX[.|.XX|.XX|.#X#X*XXX|.[. X|.|.*X#X X[. X|.|.|. X|.].[.|.|. X|.|.|.|. X].|.|. X|.|.'.}.'.'.'.'.'.'.}.*X3X#X=X=X=X|.#X|.|.*X X#X$X=X=X=X=X;X|.$X3X=X'.G.H.'.'.'.}.}.'.'.'.'.'.'.T.'.'.H.'.'.{.{.{. X[.[.[. X3X X[.[.3X[.{.{.{.'.[.*X*X*X:X*X:X*X*X[.[.|.[.[.{.{.{.[.*X*X*X*X*X*X*X*X|.|.[.*X[.[.*X|.*X*X*X*X*X*X*X*X*X*X*X*X*X*X:X6X7XjX7XjXcXhXhXcXcX7X7X",
"aXsXsXaXaXaXaXuXpXaXrXwX0X0X0XrX0X:X:X:XuXaXsXsXaXsXlXvXlXsXsXlXaXkXaXaXaXjXaXpXeXrXeXrXwXrXrXeX2XaX2XaXaXaXaXaXiXaXaXaXaXaXaXiXaXiXiXaXiXdXaXiXaXiXaXiXaXaXaXsXfX2XnXzXkX;X].E.Y.Y.Y.P.Y.Y.T.P.Y.G.g.g.G.Y.Y.J.h.G.L.T.Y.Y.Q.'.].E.].Y.T.T.E.]. X#X#X$X#X#XoX#X#X#X#X XoX#XoX X X#X#X X#X}.#X}.|.oXoXoX#X#XoX|.|.oX}.|.oX].oX|.oXE.].].E.].E.E.'.T.Y.D.D.D.G.H.F.H.{.'.[.|.[.'.'.{.{.'.[.#X*X|.}.oX#X=XoX].L.Y.T.T.Y.L.D.D.g.f.S.H.J.f.f.D.L.G.G.G.Y.E.'.Y.L.Y.T.E.E.'.].T.].].].}.oX}.|.}.oX|.|.oX#X].].E.].].}.'.'.'.E.}.}.}.oX}.oX}.}.}.}.}.].].].}.].E.].T.T.].}.].oXoXoX].].].E.T.T.T.E.E.'.[.'.'.'.'.'.'.'.'.|.'.'.'.'.].'.'.{.'.'.'.'.'.'.'.'.T.'.'.|.}.'.'. X].].].[.'.'.'.'.].|.].'.'.[.].[.[.[.|.#X[.*X#X#X|.|.|.XX#X#X|.#X|.#X$X*X#X#X#X|.|.'.].|.'.|.|.|.|.|.#X|. X[.|.#X}.|.|.|.'.{.Y.L.{.[.*X:X;X*X*X*X#X#XXX#X#X[.#X#X*X;X-X-X=X=X$X*X-X=X#X{.F.'.'.'.'.'.].].'.].'.{.J.'.'.J.H.'.'.'.'.}.$X=X|.3X[.*X*X|.|. X[.'.'.[.[.*X|.*X*X*X*X*X*X*X*X|.[.[.{.[. X=X2X3X3X3X3X3X3X3X3X:X*X[.#X#X#X|.#X*X*XXX#X$X*X*X*X$X*X:X:X*X-X6XuXpXaXsXdXsXsXdXdXdXpX",
"sXaXaXsXaXpXaXpXpXuXrXeXwXrXtXaXiXuXuXuXaXdXaXsXsXsXlXvXbXfXfXlXsXsXjXsXaXaXjXaXrXrXeXwXrXwXyXtXeXdXfXaXaXaXaXaXaXaXaXdXaXiXaXiXiXiXiXiXiXiXiXiXiXaXiXiXiXaXsXsXfXfXfXzXaX;X].{.].].Y.L.Y.P.Y.J.L.G.h.h.J.P.L.L.L.Y.T.T.T.T.E.}.].].].E.T.T.T.].oX#X$X$X$X#X#X#X X X#XOX X X#X X#XoX XoX#XoX X X|.|.oX|.|.oXoX#X|.#XoX|.|.oXoX|.}.].].}.].].].].}.].T.L.D.D.D.G.F.H.J.F.H.{.J.H.{.{.J.J.H.H.H.H.'.T.].].].Y.H.L.E.].].E.T.Y.Y.G.H.F.D.g.g.D.F.H.T.T.T.T.T.Y.Y.T.Y.E.T.T.T.T.T.].].}.].oXoX}.[.oX|.oXoX}.}.].Q.E.E.E.}.E.].].].}.}.}.}.}.].].].}.}.].].E.E.].T.T.E.].}.].].|.}.].].E.].'.T.].].T. X].].'.].'.'.'.'.].'.'.}.'.'.'.'.'.{.J.Y.'.'.'.'.'.{.'.'.'.'.'.[.'.].].[.[.[.'.'.!.'. X|.}.'.'.].].].[.[.[.XX#X|.*XXX#X#XXX#X#X#X*X*X*X|.=X=X=X3X=X=X|. X|.|.|. X X|.|.$X|.|.|.#X|.|.'.].|.'.'.H.{.[.$X;X;X-X-X*X#X#X#X#X|.[.#X|.XX#X#X*X*X$X$X$X-X-X-X;X$XXX{.|. X'.T.J.'.].'.].'.T.J.J.'.'.'.'.].'.'.'.$X*X|.3X|.3X*X3X|.[.{.[.[.[.*X|.*X[.*X:X:X:X:X=X*X*X[. X|.*X2X2XdXdX2X2X2X2X7X7X2X3X=X*X[.[.[.|.XX#X[.[.[.#X*X*X*X*X*X;X*X;X:XwXuXaXdXsXsXdXsXdXdXdXdX",
"aXsXaXaXaXaXaXaXaXtXpXrXuXpXpXaXsXhXsXaXaXpXaXsXlXsXlXvXvXlXvXgXsXsXsXaXaXjXaXaXeXwXrXrXeXeXtXuXaXaXdXfXaXaXaXaXaXaXaXiXiXiXaXiXwXuXiXwXiXiXiXiXaXaXiXiXiXaXsXfXfXgXnXgXpX;X].{.oX].E.L.J.J.P.J.T.L.D.G.L.Y.L.G.L.T.E.E.E.E.E.}.oX}.oX].].Y.E.T.oX#X#X$X#X#X#X#X#XOX X#X#XoX#X#X XoX X#X XoX}.|.|.oX|.[.}.oXoXoX#XoX XoX|.oX|.oX].].oX].].}.].}.}.oX}.'.Y.G.F.D.H.J.H.F.S.S.H.F.'.[.[.{.H.H.'.'.Y.Y.Y.Y.Y.G.Y.Y.T.].].].}.T.Y.L.G.S.g.D.D.g.D.Y.].].E.'.E.Y.Y.T.Y.Y.Y.E.Y.Y.].'.}.].oX}.oX|.}.[.oX|.oX}.].].].].}.'.}.].].}.}.].}.}.].E.].E.].].}.}.].oX].T.E.T.'.].}.].].}.}.].].E.E.'.].T.E.'.'.'.'. X'.].'.].'.|.'.|.'.'.'.|.'.{.J.'.'.'.'.Y.'.T.'.'.'.'.'.'.'. X[.].!.'.[.'.'.'.[.[.].'.'.].[.].[.|.|.[.#X#X#X[.#X[.[.*X#X*X=X*X X X|.#X$X=X=X$X|.'.}.|.|.}.|.#X$X|.|.|.|. X|.|.].|.|.'.'.Y.Y.].;X6X0X;X=X-X*X%X$X$X*X#X*X#X;X*X*X*X*X;X=X-X=X*X=X-X;X;X*X#X|. X|.}.'.'.{.J.'.'.'.T.'.'.T.'.'.].].'.'.|.#X#X*X3X*X*X*X[.[.[.[.[.[.[.[.{.[.[.*X*X=X*X*X*X[.[.*X:X2X2XdX2X2X2X7X2X2X2X7X2X3X:X*X*X#X#X#X#X#XoX#X#XXX#X$X$X*X*X*X*X:X:XuXdXsXsXsXsXdXdXuXdXiXdX",
"aXsXsXaXsXaXaXaXaXpXtXpXtXtXjXjXaXaXsXdXpXiXsXsXkXdXsXlXbXvXvXgXsXsXaXaXpXaXaXjXwXrXeXwXeXrXrXrXeXaXfX2XfXdXaXaXaXaXaXaXiXaXiXiXuXwXuXuXeXiXiXaXiXiXiXiXiXaXsXfXzXfXfXnXaX%X].Y.].].T.T.Y.P.T.Y.L.G.G.L.L.Y.G.G.T.T.].E.E.E.].Q.].].}.}.].].].]. X#XOX$X$X#X$X$X#X X#X#X#X X XoX X#X#X#X#X XoX X#X#X}.].}.].[.}.}.#XoX|.}.|.oX].}.].].].].E.].E.].].}.].E.T.Y.Y.J.{.H.F.S.H.H.{.{.{.{.{.H.H.H.H.G.G.H.L.H.L.Y.Y.T.E.].].].Y.G.D.D.D.S.h.g.S.h.G.Y.T.'.E.T.T.Y.Y.Y.Y.Y.Y.Y.E.E.].].}.[.oX}.|.oXoX|.oX X}.}.].].].}.}.].].E.].].].].}.].].].T.E.].].}.].].].].'.].E.].}.}.].oX}.].'.].T.T.T.T.'.E.'.'.'.'.[.].'. X'.].}.|.'.|.'.'.J.'.T.H.H.H.'.'.T.'.'.'.'.'.'.'.'.'.'.].[.!.'.!.'.].]. X|.].|.|.#X%X#XXXoX[.[.oX#X#X[.|.XX#X$X$X=X=X*X X|.|. X|. X'.'.'.'.].[.|.|.*X|.|.=X|.|.|.'.}.|.=X#X'.Y.T.*X*X;X:X:X;X;X1X;X;X-X;X;X;X-X;X:X;X;X-X;X;X;X;X*X*X#X$X=X;X;X;X'.'.'.'.!.'.'.H.J.'.'.'.H.H.J.'.E.].].'.'.'. X=X3X*X=X|.[.[.[.[.*X*X|.*X[.[.[.|.*X|.*X*X|.*X[.*X:X2X2X2X3X2X2XdX2X2X2X2X3X7X3X:X:X:X:X*XXX#X*X*X;X*X*X#X#X#X#X|.-X:X:XuXaXsXsXdXsXsXdXaXdXuXdXuX",
"sXpXsXsXaXsXaXaXaXaXaXtXtXpXpXpXuXaXaXaXaXiXdXsXsXaXaXsXlXvXgXsXaXaXpXpXuXaXpXpXeXwXwXrXwXrXrXtXeXiXaXdXaXaXaXfXaXaXaXiXiXaXiXaXiXiXiXiXaXaXaXaXaXuXiXiXaXaXfXgXgXgXgXlX2X3XE.{.}.'.E.E.Q.E.T.Y.G.G.G.G.L.Y.J.L.T.T.].Q.E.'.].}.].].}.}.}.}.}.oXoX#X#X#X#X$X$X$X#X#X#XOX#X#X#X XoX#XoX#X#X X#X#X#X}.}.}.].}.}.oX].|.oX].].].}.}.}.}.}.].].].E.].].].].oX].E.T.T.H.H.J.H.H.F.H.{.J.H.H.J.Y.Y.H.S.D.D.L.G.L.G.G.G.'.].}.].].L.F.D.D.L.L.S.g.D.D.g.F.Y.T.E.E.T.Y.T.Y.T.Y.Y.T.Y.T.].}.}.oX|.|.}.oX|.}.|.oXoX|.].].].].].].].].].].].E.].].E.T.T.T.T.].].].E.].].].].].}.].].].|.oX].E.'.E.T.E.'.E.T.].[.'.'. X'.'.'.].].].].'.}.'.'.'.'.H.'.H.'.H.'.'.'.'.'.}.'.'.'.'.].'.].|.].].].[. X X|.|.[.|.|.[.#X#XXX|.[.#X#X#XXX#X|.#X#X*X*X=X=X=X$X$X X X|.|.|.[.'.|. X|.|.|.|.*X=X#X#X|.|.|.|.=X=X X'.'.|.0X2X-X*X;X;X2X2X;X;X1X2X:X1X;X1X;X-X%X*X$X*X*X#X*X$X%X*X=X=X;X;X|.|.'.H.H.'.'.'.Y.'.'.'.{.Y.'.].T.'.}.'.'.'.].#X[.3X*X3X|.[.*X=X:X;X=X=X;X*X=X:X;X;X;X-X*X|.[.[.2X2X2XnX2XuX2XuXdX3X2X3X2X2X3X:X:X:X;X*X[.XX*XuX:X:X:X*X*X*XXX*X:X:X:XiXdXdXaXiX:XnXnX:XuXdX2XdX",
"aXsXsXsXsXsXaXaXjXaXpXuXuXtXtXtXaXaXsXdXdXpXaXaXsXuXuXsXfXsXsXsXaXiXiXuXeXrXtXuXuXrXeXrXrXuXrXtXaXaXaXfXaXsXfXdXsXaXiXiXiXaXaXaXaXiXaXaXfXaXaXaXiXaXaXaXaXfXfXgXzXgXzXfX2X XR.].E.}.'.}.}.!.!.T.D.G.L.L.J.L.P.T.L.E.E.E.E.E.E.Q.}.oXoX].}.].].oX#XoX#X$X$X$X$X$X$X#X#X#XoX#XOX#X#X#X#X#X#X#XoX}.#XoX}.}.}.].].oX}.oX].].].oX}.].}.oX].}.}.].].].}.}.}.}.].].E.T.{.{.{.{.J.J.H.J.'.{.'.'.'.'.H.H.D.Y.Y.T.Y.Y.Y.G.].].].E.].Y.Y.G.D.Y.Y.g.f.F.G.f.D.L.T.].].].].Y.T.T.].Y.Y.T.E.].].}.].|.|.oX].oX}.oX#X|.oX].].}.].E.'.E.E.].].E.].E.].T.T.].].T.E.E.].].].oX}.}.].|.oX].].oX}.].].].].E.].].].}.].].'. X'.'.[.'.].].].].|.'.'.H.H.'.T.'.'.H.'.'.'.'.'.'.'.'.'.'.'.].].].'.'.|.'.[.]. X X|.|.|. X].[.#X#X#X#X*X-X*X#X#X*X%X$X*X*X=X=X=X;X;X=X=X$X=X$X|.|.'.].[.'.|. X$X#X|. X|.|.$X|.|.|.'.'. X1XwX;X;X;X;X:X;X;X-X;X:X;X;X:X;X;X=X*X|.[.XX#X#X#X$X*X*X*X=X=X-X;X1X;X#X'.H.J.T.'.'.'.'.'.'.'.'.].T.'.'.'.'.'.'. X3X3X[.[. X X*X3X;X:X:X:X:X:X:X2X:X:X:X:X:X:X:X:XdX2X2X2XuX2XdX2X2XdX2X2X2X2X2X2X:XwX:X:X*X*X:XiXuX6X:X:X;X:X:X:X:X2XuXdXaXaXuXuXnXnX2XnXuXuXdXdX",
"aXsXsXaXsXsXsXsXaXaXaXpXpXtXaXuXdXaXaXaXaXaXaXaXsXaXiXdXsXsXaXsXpXaXaXuXuXuXuXuXrXwXuXrXeXeXrXpX2XaXaXaXaXfXsXfXsXaXaXiXiXiXaXaXaXsXaXaXaXdXaXaXiXiXaXsXgXgXgXgXfXgXgXgX1X].'.[.}.'.Q.E.!.!.T.P.J.L.P.T.L.Y.Y.T.T.T.E.].'.'.}.}.|.oX}.].].}.}.}.OX#X$X#X$X#X$X$X X$X#XOX#X#X#X#XOX#X#X#X#X#XoX#X#X#X X}.oX}.].].}.}.].oX].oX].oX}.].].}.].}.}.].}.}.}.].E.].E.].[.'.'.[.[.'.J.{.J.{.{.J.T.H.G.F.Y.'.].T.E.'.].T.T.T.Y.Y.L.H.L.H.G.Y.Y.g.g.D.D.D.G.T.].].].}.].T.T.].T.E.T.T.E.].].].oXoX}.].oX|.].|.oX|.oX].].}.T.'.E.T.E.'.].E.E.'.T.T.T.E.'.E.].].].oX].}.].}.}.oXoX].}.oXoX|.].].].].].].}.].[.].].].'.[.!.[.'.'.].].|.'.'.H.T.J.'.{.H.H.H.'.'.'.'.'.T.'.'.'.'.].].'.|.|.|.[.'. X[.'.|.|.|.|.].[.XX*X*X*X*X*X*X$X*X*X$X*X=X;X=X=X=X3X;X=X=X=X|.=X$X X'.H.'.'.|.|.#X$X|.|.|.#X|.|. X'.'.|.=X2X;X:X:X:X0X;X;X;X;X;X;X;X:X;X;X-X*X*X*X|.XX#X#X#X*X*X$X;X-X-X-X-X=X1X3X=X|.'.H.H.'.H.Y.T.'.'.'.'.T.Y.'.'.'.'.'.|.3X[. X[.*X*X3X2X*X-X:X:X:X:X:X:X:X:X:X2X2X2X2XdX2X2X2X2X2XdXuX:XdXdX2X2X7X2X2X2X:XuXuX6X6XuXwXuX:XuX6X:X6XwX6XuXuXuX:XuXuXuXuXwX:X:X:X2X:XnX2XnX",
"dXaXsXsXsXsXaXjXaXaXaXaXuXaXaXpXaXuXuXpXdXsXaXuXsXaXaXaXsXdXaXaXaXpXaXaXuXaXeXaXuXeXrXuXeXrXwXuXfXaXfXdXaXsXaXaXaXsXiXiXiXiXaXaXaXaXaXaXaXaXaXaXiXaXsXfXlXgXgXgXgXfXgXfX1X].T.].}.].E.T.T.T.T.T.L.T.E.T.Y.L.T.E.T.E.}.Q.}.Q.}.}.}.}.}.].].].}.#X X#X$X$X$X$X$X;X$X$XOX#X#X XOX#X X#XOX#X#X#X|.oX#XoX#XoX|.].}.].[.oX|.oX].].}.].].].E.].}.}.}.oX].].E.].'.T.].].[.'.J.'.'.'.{.'.{.'.'.{.H.H.H.'.L.Y.E.T.Y.T.'.T.T.T.T.L.H.G.G.G.Y.G.G.G.G.g.D.L.T.}.oX}.].].].E.].E.].Y.Y.Y.T.].}.oX].oXoX|.oX|.}.|.oX#X}.}.}.}.T.T.T.T.T.T.].].T.'.E.'.].].].].E.].].].}.}.].E.|.oX#XoX].|.#X].E.].].].].}.}.}. X]. X].'.[.'.'.[.'.!.[.'.'.Y.H.H.{.Y.H.H.H.Y.'.'.'.'.H.T.'.'.'.].'.|.|.].|. X|.[.'.'.'.'.|.|.|.|.#X*X*X*X%X#XoX;X-X*X*X*X*X$X-X3X=X=X=X=X=X=X=X|.=X=X=X|.'.T.'.}.|.|.|.|.|. X|.].|.[.'.|.=X1X=X;X:X0XwX;X-X:X:X-X;X6X2X;X;X-X-X*X#X#X[.#X#X*X[.oX#X=X-X=X$X*X*X;X;X-X|. X|.|.'.H.H.H.H.'.T.{.Y.Y.Y.H.'.'.'.H.'.[.[.[.[.3X:X3X3X*X;X;X:X:X:X:X:X:X:X:X:X2X2X:X2X2X2X2X2XdX2X2X:X2X2X2XdXdX2X7X2XuXwX:XwXuXiX:X:XuXwXwX2X2X6X:X6XuX2XuX:XuXwXuX7X:XdXnX2XdX2XnX2X",
"sXsXdXsXsXsXsXaXaXdXaXaXaXpXaXaXaXpXaXaXaXdXaXaXaXaXpXaXdXaXdXaXaXaXiXiXiXiXuXuXuXuXuXeXrXuXrXuX2XsXaXaXaXfXaXaXsXaXaXaXiXaXiXaXaXaXaXaXdXfXaXdXaXaXfXvXgXaXdXlXhXkXaXeX-XXX].].E.].E.].E.T.T.T.T.T.T.T.T.T.T.Y.P.T.E.].Q.}.}.oX].].oX}.oXoX[.].}.oX#X$X$X$X$X$X#X$X%X#X#X$X#X#X#XXX#XXX|.#X#X[.#XoX|.oX#X#XoX}.}.}.oX].oX}.oX|.].].].].E.}.].].].E.E.].].].].T.'. X|.*X'.'.{.'.Y.T.'.'.'.'.'.'.G.G.Y.Y.Y.E.E.].E.Y.D.F.J.Y.Y.L.Y.L.G.F.D.g.G.Y.].}.|.}.].].E.'.Y.E.'.Y.Y.Y.'.].].].[.oX|.#X|.oXoX|.oX#X|.}.].Y.T.Y.Y.'.Y.].T.].'.E.].'.].].E.].}.].}.E.].].}.E.|.oX].oX[.}.].oX].].].].E.}.].}.'.].].[.'.'.'.'.}.'.}.|.'.'.'.H.'.Y.H.H.H.H.Y.'.'.T.'.H.'.'.'.'.'.}.'.'.].'.].'.'.'.'.'.'.].}.|.#X#X[.#X*X=X=X=X*X$X*X*X*X$X=X=X=X3X2X;X=X=X=X=X=X=X=X*X X'.J.Y. X X|.|.}.|.|.=X*X$X$X=X=X1X1X2X;X:X0X:X1X;X;X;X;X;X0X:X;X;X:X;X-X#X#X#X#X*X#X[.*X*X$X%X*X*X#X*X|.-X;X-X#X[.].].].{.K.H.Y.Y.K.{.G.Y.T.'.'.].|.|.].|.*X=X2X2X2X2X;X-X-X:X:X:X:X2X;X:X:X:X2X2X2XuX:X7XwX:XuXuXuXuXuX6X6XuXwXuX6XuX:XuX6X7XwX7XwXuXrX6X6X6XwX:X6XwXuX:XuXwX:XuXuX:XnX:X:XdX:XnXdXdX",
"dXsXsXsXdXaXaXsXaXaXaXpXaXaXpXaXiXpXsXdXsXaXsXdXaXdXdXaXaXsXaXaXaXaXpXaXdXuXuXuXaXaXuXrXuXrXaXuX2XaXaXfXfXdXaXaXfXdXaXaXaXaXaXaXsXfXaXfXfXfXaXaXfXaXiXaXfXfXaX2XkXkXpX:X#X].].].}.}.oX}.Q.E.E.!.E.E.E.E.T.E.T.E.T.E.}.Q.}.}.}.}.}.oX].}.].oX].].].oX#X$X$X#X$X$X$X$X$X#X#X#X#X#X#XoX#XoXoX#XoX|.#X#XoX|.#X#XoX].oX].}.}.].|.}.].].].].].E.].].T.].].T.].E.].].E.'.[. X[.'.'.{.J.].].'.].[.}.}.].Y.Y.Y.Y.T.T.T.'.T.Y.G.L.Y.Y.Y.Y.Y.H.G.H.F.D.G.Y.}.#XoX|.oX].E.].'.E.].T.Y.Y.E.}.}.}.|.|.#XoXoX|.|.oXoX}.].Y.Y.Y.T.Y.E.Y.Y.T.].'.'.].E.'.E.'.}.}.].].].].}.].}.].oX|.oX|.}.}.oX].].E.}.].}.].}.}.[.[.].]. X'.].'.'.'.'.}.'.'.T.H.H.H.H.H.H.'.'.].'.'.].].'.'.'.'.'.'.|.|.|.|.'.}.'.'.T.'.'.[.|.|.#X*X#X%X-X-X-X*X|.|.oX#X%X*X=X-X=X=X#X X=X;X=X#X=X=X#X X'.'.|.|.#X$X*X#X|.|.$X=X3X1X1X1X1X3X2X2X2X;X;X:X:X;X:X;X;X6X:X;X;X;X;X:X;X$X[.#X*X*X*X#X$X*X#X*X%X*X*X$X|.=X=X=X[.[.[.[.%X].{.{.{.R.{.{.T.T.'.'.'.].|.|.=X=X:X2X2X2X2X3X2X:X:X:X:X2XuX:X:X:X2X2X2XuX2XuX:X:X:XuXwX7X2XuXuXuXuXwXuXuXuX6XuX6XuXrXuXwXwXuX6X6XuX6X:XuXwX6XwXuXwX6XuX:XuXwX:XnXnX:XnX:XnX2X",
"sXsXsXsXsXsXsXsXaXdXaXaXaXpXaXiXpXaXaXaXaXaXaXaXdXsXaXaXaXpXaXiXsXdXaXpXiXiXiXpXuXuXuXuXaXeXaXeXdXeXsXdXfXfXdXfXfXsXaXsXaXaXaXaXsXaXaXdXsXfXfXaXvXlXaXfXgXgXfXuXhXaX:X*X[.].].XX}.oX}.].}.Q.}.}.E.}.Q.].E.E.E.E.E.E.}.}.Q.].}.}.].}.].].}.].].T.].}.|.#X#X#X#X#X$X#X*X#X#X%X%X#X#X#X#XXX#X#X#XXX$X#X|.oX|.#X#X|.|.[.}.].oX].].}.].}.].].].E.T.'.T.T.Y.T.E.].}.E.'.'. X XE.Y.J.'.].].].].|.#XoX#X].T.Y.Y.Y.T.T.T.Y.Y.Y.Y.Y.T.T.E.Y.Y.L.L.L.D.G.Y.}.#XoXoX}.].].].].].].Y.T.T.].}.}.oXoXoXoX|.|.#XoXoX|.].Y.G.G.L.E.T.T.Y.E.T.E.E.}.E.}.E.].}.].].}.}.E.].}.].].].oX|.oXoX}.].|.}.}.}.].}.].}.].].'.'. X'.'.'.[.'.'.'.'.'.'.H.'.{.H.H.H.'.'.'.'.'.'.'.|.'.'.'.'.'.H.'.'.'.|.'.'.'.'.T.T.'.'.|. X#X*X*X#X*X$X;X-X=X*X-X-X=X*X*X-X-X1X2X;X=X#X=X1X1X$X#X'.{.'.'.|.;X$X=X$X<X=X=X3X1X2X2X2X2X2X1X1X1X;X:X;X:X;X;X;X:X;X;X;X;X;X-X;X;X-X=X*X#X#X#X#X*X#X#X#X#X*X#X*X*X|.#X#X*X[.[.[.[.oX[.].].{.Y.Y.Y.T.Y.Y.Y.'.'.$X=X2X2X3X2X2X2X2X2X2X2X:X:X2XuXwXwX2X2X2XuX2X2XuXuX:XuXwX6XuXuX7X6XuXwXuXuX7XuXuXuX7X6XuX7XuX7X7X7X6XrX6XrX7XwX7XwXuX6XuXuXuXuXuX7X:XdX:X:X2XdXdX7X",
"dXsXdXdXdXdXaXaXdXiXaXpXiXaXaXaXpXiXaXdXaXsXdXpXsXaXaXpXdXdXiXiXsXdXdXaXpXpXdXdXaXpXaXuXuXrXrXeXaXaXaXfXsXdXfXfXgXfXfXsXdXfXsXaXaXaXaXfXsXfXfXdXaXfXgXaXaXsXgXfXwX6X%XXX].].}.[.#X XoX}.!.!.}. X}.oX}.E.].E.].E.T.].].Q.].E.E.}.].].].oXoX}.].].].].}.oXoX#X#X$X%X#X#X%X#X#X#X#X#X#X#X#XXX|.oX#X$X#XoX}.}.}.oX|.oXoX|.}.}.].oX].|.oXoX}.}.].].E.].T.T.T.T.'.].].{. X[.'.'.'.]. X].].}.}. X#X#XoX}.].E.Y.Y.E.Y.Y.Y.Y.E.'.E.Y.T.Y.Y.Y.Y.G.G.D.G.T.].}.}.}.].].].].].E.].].T.E.].oXoX|.oX X#X#XoX#XoX#X|.].Y.G.G.T.].].T.T.Y.].].].].'.].].'.E.].}.].].].}.].E.}.].|.oX].].].oX].}.].}.}.].}.].].}.'.[.'.'.].'. X'.'.'.'.'.T.'.{.J.'.'.'.Y.'.'.'.H.T.H.H.H.'.T.H.T.'.'.'.'.'.Y.'.H.H.H.H.'.'.].|.|.#X#X*X*X-X-X=X$X*X#X$X#X#X*X$X*X$X=X=X|.J.'.[. X#X].'.J.H.'.|.;X=X=X3X1X;X1X2X2X2X2X2X3X2X1X3X2X;X;X;X;X-X:X;X;X;X-X:X:X:X;X;X:X;X;X-X*XoX[.[.#X[.#X[.*X#X#X#X#X#X*X#X=X%X#XoX#X#X[.[.[.[.{.{.{.'.T.Y.'.'. X=X3X2X2X3X2X2X2X2X2XuX2XwX2X2XwX2XuX2X2XuX2XuXuX2X:X6X6XuXuXuX2XuXwX7XuX7XwXwXuXuXuXuXuXuX7X7XuX7XrX7X7X7X7X7X6X6X7X2XuX:XuXuX:XuXuXnX:XnXnXnXdXdXdX",
"nXdXdXsXsXdXsXdXaXaXdXaXdXaXaXaXaXpXdXaXaXdXaXaXsXdXpXpXaXaXiXiXdXdXdXaXpXaXaXaXaXaXtXuXiXiXiXaX2XaXdXfXfXsXfXsXgXgXfXsXdXsXfXaXsXgXfXgXfXdXfXfXaXlXlXaXaXsXsXdX$XXX].].[.XX|.[.#X#X}.Q.}.}.}. XQ.}.}.}.'.E.'.E.E.'.].E.E.T.E.].].].].|.oX|.}.].].}.}.oX|.oX#X#X#X#X#X%X%X#X#X*X#X%XXX%X#X%XXX#X#XoX}.}.].}.oXoX#X XoX|.oX|.[.}.oX|.|.}.oX].}.].].E.T.Y.Y.T.].].].E.}.].].E.}.}.}.}.].|.oXoX#X}.#X].T.T.T.Y.T.Y.Y.T.].T.T.Y.Y.Y.Y.L.G.G.D.D.G.T.].E.].].].E.}.}.[.}.].].].}.|.#XoX|.#X#X|.oX|.oXoX#XoX].Y.L.Y.].].T.T.Y.E.E.].].}.E.}.].].}.E.E.].].E.}.].].}.].|.}.}.|.].}.}.].}.}.].].].'.}.'.'.'.].].].'. X'.'.'.'.'.'.'.'.'.'.'.'.Y.'.H.H.H.H.S.H.S.F.H.H.T.Y.'.Y.'.H.H.'.Y.'.'.'.'.'.].|.|.#X%X*X$X=X=X*X$X=X#X*X*X;X;X:X2X=X#X|.T.'.'.'.'.|.].'.'.].|.=X3X<X1X<X3X1X2X1X1X2X2X1X3X1X1X2X1X;X:X;X;X;X:X;X;X;X;X;X;X:X-X;X;X;X:X;X$XXX].].XXXX|.#X*X#X*X|.*X*X$X*X*X*X*X*X*X%XXX#X#XXX[.[.#XoX|.|.|.#X;X1X2X:X=X3X3X2X2X2XnX2XuX2X:XwXwX:X2X2XuX2XwX:XwX:X:XwXuX6XuXuXuXuXrXwXuX7XwXuXuXuXuXpXpXpXuXpX7XuX7X7X7XuX6XuX7X7X6X6X:XuXwX:XuXuX:XdXuXdXdXnX2XnXnX",
"dXsXdXsXdXsXdXsXaXdXaXaXaXpXaXdXiXdXaXdXaXsXsXaXaXdXiXiXiXpXdXiXdXdXaXdXdXaXpXuXuXpXaXuXiXdXiXiXsXaXaXfXgXgXgXfXgXgXfXsXfXsXfXsXfXgXgXgXgXsXfXgXvXlXaXiXaXdXwXXX].{.R.].[.#XoXoX XoX}.}.E.].}.}.}.].E.}.Q.}.!.E.E.E.E.E.E.T.T.E.#XoXoX|.oX|.}.].].].oX|.|.}.#XoX%X#X%X*X#X%X%X%X#X%X#X#XXX#X#XoX X#XoX|.}.}.}.oX#X#X#X#XoXoXoXoX|.oXoX|.}.oX].].E.'.].'.T.T.].].}.}.}.].}.].].}.}.oXoXoX#X#X XoX#X}.T.T.].E.T.Y.E.T.Y.E.T.Y.L.H.T.Y.G.G.D.h.G.Y.E.E.}.].}.}.}.}.oXoX XoXoX|.oXoX#X#X#X}.oX|.}.oX].}.}.].Y.Y.T.].T.E.].E.].].].].}.].}.].].].].].}.].}.].}.E.].].}.oXoX].}.}.].}.E.].].E.}.'.].E.'.[.'.'.[.'.'.].|.'.|.'.}.'.'.'.H.T.{.H.Y.H.H.H.H.H.H.H.H.H.H.'.'.H.H.H.H.'.'.'.'.'.'.'.'.].|.|.|.$X-X=X=X$X%X$X-X-X=X=X-X-X;X;X=X X'.'.|.;X=X'.'.'.].|.*X=X3X;X1X3X3X3X1X2X3X1X2XqX2X2X2X1X1X2X;X;X;X;X;X-X:X:X1X6X;X;X;X1X;X:X;X:X;X*X#X[.[.[.[.#X#X#X*X#X*X#XXX%XXX*X%X%X*X%X*XXXXX#X#XXX[.%X$X$X=X=X;X;X;X=X=X=X:X2X2X2X2XdXuX2X2X2X2X:XwX:XwX:XwX:X2X2X:XwX7XrXuXuXuXuX6XpX6XwXuXuXuXpXuXuXdXpX7XpX7XpX7X6X7X6X7X7X7X7X7XuXuXwX:XuXuXuXuXuXdXdXdXnXdXnXnX2X",
"dXdXsXdXaXsXaXdXaXpXaXaXaXaXaXiXpXiXaXsXaXaXdXaXsXaXuXuXuXaXpXpXuXiXaXdXsXdXaXuXuXaXuXaXiXaXiXaXaXaXdXfXgXgXgXgXgXgXfXdXfXsXfXsXfXgXgXgXsXaXdXfXuX:X*X*X;X#X{.S.{.[.[..X[.#X#X#XoXoXoX}.}.}. XoX}.}.}.}.}.}.E.].E.E.].E.E.T.].].#X#XoXoXoX|.}.].}.oXoX|.}.oX#XoX#XXX#XXX#X%X#X%X%X#XXX%X#X#XoX%XoX#X#X#X}.}.}.oXoXoX#XoXoXoX#X|.#X|.oXoX}.].].T.'.T.T.E.T.E.].}.].}.}.}.}.E.].].}.}.}.|.#X#XoX#X#X}.].E.].}.].E.T.T.Y.T.T.T.Y.L.Y.T.Y.Y.G.D.F.L.T.].].}.].].].].].].].}.oXoXoX}.#XoX}.}.oX}.[.oX}.}.].].E.T.T.].T.T.T.E.].].oX].E.}.].].].}.].].E.].].].}.].}.E.oX].oX}.].}.}.].].E.E.].'.}.!.].].'.'. X[.'. X].|.'.|.'.}.'.'.'.T.H.H.H.H.H.Y.H.Y.'.'.'.'.'.'.'.H.H.H.H.'.'.'.'.'.'.}.'.'.'.].|.[.#X*X-X#X*X#X*X#XXX[.].T.Y.H.F.'.'.J.'. X*X#X].].].}. X=X1X1X;X2X1X2X2X2X2X2X1X2XeX2X2X2X3X2X3X6X;X;X-X;X;X:X:X0X;X:X-X:X2X;X;X;X:X;X:X*X#XoX#X#XXX*X#X%X*X#XXX#XXX|.#X#X*X#X*X[.#XXX%XXX[.XX*X$X$X#X=X=X=X=X$X*X=X3X2X2XnX2X2XuX:X2X2X2XuXwX:XwX:X2XwXwX2XuX2XuXpX7XpXuX7X6X7X6X7XuXpXdXpXpXpXpX7XpX7X7XuX7X7X7XuX7X7X7XuX7X6XuXwXuXuXuXiXuXaXdXdX2XnXnXnXnXdX",
"dXdXdXdXdXdXaXdXaXaXdXaXdXpXaXdXaXaXaXaXsXaXdXaXaXpXiXuXiXaXdXaXuXiXdXsXdXaXuXuXaXaXpXuXiXiXiXsX2XaXsXfXgXgXgXgXfXgXfXsXfXaXaXsXsXsXfXaXaXiXiXiX;X*X*X:X*X].{.K..X.X[.[.[.[.oX#XoXoXOXQ. XQ. XoXQ.}.].Q.].}.}.}.}.}.}.].].E.}.}.}.}.|.|.oXoXoXoX|.|.oXoX}.|. XoX#X#X#X%X#X%X#X*X#X#X*X#XoX%X#X#X#X$X$X#X#X|.#X#X|.|.|.oX|.|.oX|.oXoX|.}.].].E.Y.T.'.E.'.T.].}.#XT.E.].].].].].}.].].}.}.oX#X$X#X#X}.].].oX#X].].].E.Y.Y.T.].E.Y.Y.Y.T.T.Y.G.D.G.T.T.].].].T.E.T.L.Y.T.].|.|.oX X#X#X#X}.}.].}.}.}.}.}.}.].].].E.Y.T.].].].}.].}.}.].}.}.E.}.].E.].}.}.].E.].}.].].oX].}.}.].].].'.T.'.'.'.'.'.'.'. X'.'.'.[.].].'.].].|.|.'.'.'.'.'.H.H.H.H.H.'.H.'.'.}.'.'.H.H.H.H.'.Y.Y.H.'.Y.H.'.'.'.'.Y.'.[.[.#X*X*X*X#X#X[.oX[.[.].{.Y.Y.H.S.|.:X;X|. X=X2X;X=X=X=X3X1X2X2X2X2X2X2X2XtXxX2X2X2X2X2X1X2X1X1X0X:X;X:X;X6X0X0XwX:X;X:X0X6X0X:X;X;X;X;X;X-X*X#X#X*X*X*X*X#X|.#X*XXX#XXXXX*X*XXX*X*X*X*X*X#X#X*X$X#X#X=X=X3X;X=X*X=X3X2X2X2X2X2XwXuX:XwX2XwXuXuX2XuXuX2XuXwXuXuXrX7XpX6XpXuXuXuX7XuXpXpXpXpXpXpXpXdXpX7XpX7X7X6X7XuX7XuX7X7XuX7XuXuXuXuXiXaXaXdXsXsXnXnX2X2XnX2X",
"gXiXdXdXdXiXdXaXdXdXdXaXaXdXaXsXaXaXaXaXaXpXaXdXaXaXaXaXaXaXpXaXaXuXpXaXaXpXdXuXaXaXpXiXiXiXiXpXaXaXsXhXkXsXsXsXaXsXlXsXsXaXsXaXfXgXfXfX2XfX2X<X2X3X#XE.Y.Y.T.].E.T.].}.$X#XoX}.}.oXoXoX|.oX XoX].}.].}.|.'.].]. X X]. X].]. X|.].}.oXoX#X#XoX|.|.}.oXoXoX#XoX#X#X$X$X%X$X$X$X*X&X$X%X#X#X#X#X#X=X$X X*X X#X X*X X*X X|.|.=X|.#X X#X X}.].'.E.'.E.T.'.].!. X].!.].].].}.}.].].].oXoXoX#X#X#X#X#X}.}.oX|.].}.].E.].'.T.T.].}.].Y.T.T.'.Y.H.D.G.G.Y.T.E.T.Y.Y.L.Y.G.F.G.'.|. X|.|.|.=X=X$X|.|.].].oX].}.oX].].].].T.].].}.].}.].].}.}.|.].|.|.].|. X|.].].[.|. X[.].[.[.'.[.'. X'.'.{.{.{.'.'.'.{.'.'.'.}.'.|.|. X].}.'.].'.'.H.H.G.Y.Y.Y.Y.L.L.Y.!.!.J.h.S.J.T.T.'.{.Y.Y.{.[.-X0X0X;X[.Y.K.{.[.XX].].{.[.[.].{.Y.K.{.{.{.{.{.].].].].oX%X*X;X;XwX0X2X:X:X0XwXwXwX:X6X6XwXeXrXwXwXwX2X0X1X1X2X1X1X-X:X:X-X:X:X:X:X-X:X:X:X:X:X:X:X;X2X0X:X-X*X$X-X*X*X#X%X#X#X*X#X[.[.*X|.*X[.*X*X*X*X*X*X*X*X#X%X*X[.[.*X:X:X;X*X*X;X2X2X:X:X:X2X2X:XuX:XuX:XuXwXuX7XuXuXuXuX:XuX7XuXuXuXuXuXuXuXuXuXuXiXsXaXsXaXsXsXdX7X7X7X7X7X7X7X7X7X7XhXdXdXhXdXaXaXaXdXaXdXaXaXnXfX2XnXfX2X",
"dXaXaXaXiXiXiXpXsXaXaXaXaXaXdXaXdXpXdXaXaXdXaXaXdXaXdXdXsXaXdXaXiXuXaXsXuXiXsXuXdXaXaXaXpXdXaXaXiXdXaXsXlXsXsXaXaXsXfXkXsXaXaXsXfXeX2X2X2X2X1X XOX$X X}.E.E.E.}.E.].Q.}.oXOXoX}.oX}.}.oXoX}.oX}.}. X|.|. X].].].|.].[.].]. X].|.}.|.|.oX#X|.oX}.oX[.oX|. X#X#X#X$X#X*X#X$X$X$X$X$X$X$X$X$X#X#X#X*X X X#X X*X#X X X|.#X|.|. X#X#X X X X X}.E.].].'.E.T.T.E.'.].].T.E.].].}.}.oX}.oX|. X#X#X#X#XoX|.|.}.oXoXoX}.].'.E.'.E.}.#X}.T.Y.T.Y.Y.L.F.G.D.L.Y.T.'.Y.Y.Y.Y.Y.H.T.].].'.].|.|.=X=X$X|.]. X].].].].].].E.E.].].].].oXoX}.oX].|.].].}.].|.|.]. X[.].].].].]. X].].!.[.[.[.'.'.[.'.[.'.'.[.'.'.Y.'.'.'.'.|.[.}.'.[.'.'.'.'.'.'.Y.Y.L.S.D.G.T.].<X<X<X$X;X&X$X$XS.S.H.[.:XeXwX:X;X2XwX2X;X*X{.Y.F.H.Y.K.L.F.{.].S.F.L.Y.].%X*X:XuXuXuXuXeXuXeXeXuX0X;X;X:X0X2X0X6X:XwXrXwXuXrXwXwXwX2X2X2X2X2X1X:X:X:X:X-X-X:X:X:X:X-X:X:X:X:X:X;X:X:X;X;X$X=X=X*X*X*X$X*X*X#X#X*X*X*X*X[.[.[.XX[.|.*XXX[.[.{.[.{.{.[.|.*X:X*X;X*X:XwX2XwX2X2X2XuX:X:XuX:XuX7XwXuXwX:XuXuXuXuXuXuXuXuXwXuXuXwXuXuXuXpXdXaXsXaXdXsXdXdXdXdX7XdXdXhX7X7XdX7X7X7XdXpXpXaXaXdXiXaXaX2XaX2XnXnX2XfXnX",
"dXaXaXdXaXaXaXaXaXaXaXaXdXaXaXaXaXaXdXiXaXaXaXdXdXaXaXsXsXaXsXaXiX7XpXdXiXiXaXuXdXaXiXaXpXdXaXdXaXaXsXkXgXsXsXsXsXsXsXaXaXaXaXaXfXfXeXeX2X2X3XOXL.Y.E.}.}.].E.E.E.E.}.}.oX#XoX}.oXoXoXoX}.}.oX#X|.$X#X X|.].].|.].]. X X].]. X|.|.oXoXoX}.|.}.|.oX|.|.oX X#XOX#X$X#X$X$X$X$X$X-X$X$X$X$X$X#X#X#X X*X*X X#X#X=X=X X*X#X X#X X|. X X}.}.].].].!.'.T.Y.Y.T.T.T.].!.T.'.T.E.].}.oX#X|.oX#X#XOX#X#X#XoXoX|.oX#X|.oX}.].].].].oX#X}.T.Y.P.L.L.L.J.F.D.G.Y.T.T.T.Y.T.T.T.'.'.|.'.'.]. X X=X=X|.|. X|.].}.oXoX].'.T.].].].}.}.oX}.}.].}.|.|.'.|. X].].].|.].|.'.[. X'.'.[.[.[.'.[.'.'.'. X'.'.'.'.{.'.{.'.'.'.'.}.|.|.|.'.'.'.'.'.T.T.H.Y.G.S.S.G.T.oX*X,XqX2XxXeXqXqX1XeX2X;X0XaXaXwX;XwXwXuXaXwX;X#X[.Y.{.{.{.].[.;XwXsXaXeXuXeXuXwXuXuXeXwXwX0XwXeXwXaXeX0X:X;X6X:X6X;X6X0XwXwXuXwXwXwX0X2X2X2X1X2X2X:X:X:X:X:X:X:X:X:X:X:X:X:X:X:X:X6X1X2X;X;X=X=X;X-X=X$X*X%X*X$X$X*X*X|.[.[.{.{.{.[.[.[.[.[.{.Y.{.{.{.[.*X:X=X;X:X:X:XuXuXuX2X2XuX:XuXuXuX6XuXwXuXuXuXuXuXuXuX7XuX:XuXuX7XwXwXuXuXuXiXaXdXaXdXdXaXdXpXdXpXdXdXdXdX7XpX7XdXcX7XhXdXaXdXsXpXaXaXaXaXgX2XgX2XnX2X2XnX",
"aXaXaXaXaXdXaXaXaXdXaXdXaXpXaXsXaXdXaXaXaXdXaXpXaXsXaXaXaXdXaXdXuXuXaXaXiXaXsXuXpXiXiXpXiXiXpXaXaXaXsXsXsXkXsXsXaXsXaXhXsXaXsXsXfXeX2X2XfX2X<X!.D.J.T.E.Q.].}.].E.'.].}. XoXoXoX}.oX|.}.oXoXoX}.=X$X#X#X X|.}.'. X].].]. X|. X|.oX|.|.}.}.oX}.oX|.oX|.#XOX#X#X#X#X$X$X#X$X$X$X$X$X$X$X$X#X$X#X#X=X X$X#X*X X X#X#X X#X#X#X#X|.|.|.}.}.].!.].'.!.G.J.T.'.]. X].T.E.E.'.T.].].}.oXoXoX#X#X#X#X#X#X}.#X}.oX#X#X#X|.oXoX}.#X#X#X}.E.T.T.Y.Y.Y.Y.G.h.F.G.L.Y.Y.T.T.T.'.'.].|.|.'.].|.#X;X-X=X#X#X|.|.|.}.}.].].T.T.E.].].oX}.}.].}.}.|.}.|.].].'.'.'.].].].}.].].[.[.'.!.[.!.'.'.'.'.'.'.'.{.{.{.{.J.H.H.T.'.'.'.'.'.H.'.'.'.'.H.S.g.J.G.L.].#X;X;X;X2X2X2X2X0XwX2XqXuXaXeX6X;X;X:XeX2X2X2X:X;X:X;X;XXX{.F.].*X6XeXwXeX:X;X;X:XwX0X;XwXwXeXeXuXaXuXaXaXuXwX:X;X2X2X0X0X6X6XwXrX6XrXwX2XwXwX2X2X1XqXeX6X7X:X:X:X-X-X:X:X:X:X:X:X:X:X:X0X:X1X;X;X-X-X=X;X-X*X*X*X*X=X$X*X|.*X[.[.[.[.{.{.{.{.{.[.].[.{.{.[.*X:X:X;X:X2X:XwXwXuXwXuXwXwXuXuX:XuXuXuXuXuX6XuXuXwXuXuXuX2XuXuXwXuX7XuXuX6XiXaXaXaXdXaXaXaXdXdXpXdXdXdXdXhXpXdXhX7X7XhX7XhXaXaXaXaXaXdXaXdXdXfXdXfX2XfXnX2X",
"aXaXaXuXdXsXaXdXsXaXdXaXaXaXaXdXaXaXaXaXaXaXaXaXaXsXaXdXaXsXdXaXuXuXaXaXpXaXdXuXpXaXuXuXpXaXaXaXdXaXsXsXkXsXsXfXsXaXsXsXsXhXaXfX2X2X1X1X1X=X}.Y.E.].E.].Q.}.}.oX].E.}. XoXoX#XoXoX XoXoX#X|.oXoX=X#X X|.|.].}.|.|.|.|. X|.|.|.|.oX}.|.}.oX X#X#X#XoX#X#X#X#X$X#X$X$X$X$X$X$X$X$X$X$X$X$X$X#X$X#X*X=X#X=X#X X|.|.*X X X*X X|.|.|.oX}.}.].}.E.E.T.L.G.L.Y.].].].}.}.].].E.].].}.oX|.oX#X#X#X#X#XOX#XoX#X X#X$X$XoX#X}.oX#X#X}.].T.E.T.T.T.T.Y.L.F.D.G.G.Y.Y.Y.Y.E.'.'.|.#X|. X|.|.$X3X3X=X=X*X#X X|.|.].].].T.].].}.oXoX[.].].].}.|.|.|.'.'.'.'.{.Y.'.|.[.].|.'.|.[.!.'.[.{.{.'.'.{.J.J.J.{.{.J.J.F.S.G.H.H.Y.L.H.'.H.H.H.S.G.F.G.E.E.}.1XeXqX2X1XeX2X1X1X1X1X1XqX=X:X2XuXwX:X;X;X*X;X:X2XwXuXuX2X$X[.].$X6XeXwX;X2X2X0XeXaXaXaXaXaXaXeXuXwXeXeXeXwXwXwXwXwX0X0X6X0X6XwXrXwXrX6XwXqX2X2XqX2X2X2XeX7X2XwX:X:X-X:X:X:X:X:X:X:X:X:X:X:X2X;X;X;X;X;X-X;X;X=X$X*X-X$X-X*X#X[.#X[.[.].].'.{.{.].].[..X[.'.[.*X:X;X-X=X:X:XwXwXuXwX2XuXuXuXuXuX7XuXuXuXuXuXuXuXwX6XuX:XuXuXwXwXuXuXuXuXuXdXpXaXaXdXaXaXpX7XhXhX7XpXpXpXdXpXdX7XhX7XhX7XpXaXaXaXaXaXdXdXaXaXaXaXaXnXnXfXfX",
"dXdXaXaXaXsXsXaXaXdXaXaXaXdXsXaXdXpXaXdXaXdXaXdXaXaXaXdXaXpXaXpXaXuXaXsXiXpXaXuXaXaXaXaXaXaXsXaXaXsXaXhXsXsXsXsXkXsXaXsXhXsXaXaX2X;X3X2X2X=X}.E.oX XoX].Q.].oXoX}.oXoXOXoXoXOX#X#X|.oXoXoXoXoXoX#X#X|.|.].|.|.|.|.|.|. X|.|.|.|.}.}.oX#X#XOX#X#X#X#XoX#XOX$X#X$X$X#X$X$X#X$X$X=X#X$X#X#X#X$XOX$X X#X X*X#X|.|.}.|. X#X#X X|.|.].#XoX].}.}.}.'.T.Y.Y.G.H.Y.].#X$X X X}.].].].].oX|.oX|.#X#XOX$X X$X#X#X#X$X$X*X$X}.}.}.#X#X}.].].].].].'.].T.Y.Y.F.G.D.G.Y.Y.Y.T.|.|.|.=X#X|.'.|.=X=X3X=X*X=X=X XoX|.oX}.].E.].].].|.oX].}.].E.].'.'.'.'.'.H.{.H.H.'.'.}.'.'.'.'.'.'.[.'.{.{.J.'.{.{.'.'.J.'.H.J.G.D.S.H.H.Y.H.G.T.H.S.f.S.H.'.}.=XOX$X0XeXqX2X0XqXqXqXxXxX2XeXeXaXaXuXaXaXuX;X[.=X;X;X2XwXwXwXwX:X0XuXiXeXwX:XwX0XwXwXwXeXwX0X;XwXeXwX0XwXwXwXwX0XwXwXeXwXwX2X:X6X6X6X6XwXwXwX6X2X2X2X2X2X2X2XqX6X6X6X:X:X-X:X:X:X:X:X:X:X:X-X:X:X;X;X;X;X;X:X-X;X-X;X-X=X=X-X=X#X#X#X*X#X#XoX[.[.].].{.].].{.[.[.[.*X*X-X*X;X2X2X2X2X2XwX2X2XwXuXuXuXwXuXuXuXuX6XuXuXuXuXuXuX:X7XuXuX:XwXuXiXpXaXpXdXiXiXaXaXaXhX7XdXhXdXdXpX7XdXpXpX7X7X7XhXpXaXdXaXdXaXaXiXaXdXaXdXaXfX2XnX2X",
"iXaXaXaXdXsXaXsXaXdXaXaXaXdXaXsXaXaXaXdXdXaXaXpXpXaXiXdXpXpXaXdXuXuXaXaXuXuXaXwXpXuXuXpXuXaXaXaXaXaXsXaXsXsXhXsXsXsXkXhXsXdXaXwX2X1X1X2X1X=X#X#XoX#X}.}.].}.}.}.oX#X#X#X#X X#X#X#XoXoXoX|.#X XoX X*X X|.|.|. X|.=X|.*X X#X|.|.=X X#X#X#X#X#X#XoX#X#X#X$X#X#X$X$X#X#X$X$X$X$X$X$X#X$X#X$X#X#X$X$X#X#X#X=X*X#X#X|.=X|.=X#X|. X|.].#X}.].].}.}.'.E.E.T.Y.Y.E.}.oX#X#X#X X].].].}.].}.}.oXoX#XoX X#X#X#X|.oXoX#X#X$X}.].].}.}.].E.].].E.].E.E.T.T.T.H.F.H.L.Y.T.T.T.$X X|.#X|.'.|.|.=X=X=X=X*X=X#X X|.oXoX}.].].].}.}.}.].].].'.].].'.'.'.J.'.J.H.H.H.{.'.'.'.T.H.H.J.{.[.[.'.{.{.'.{.J.'.'.'.'.{.F.G.G.S.F.H.L.H.J.H.G.G.G.H.}.$X1X2X<X<X1XqX0X1XqX1X1X<XxX2X1X1X1XeX2X;X-X2XuX6X:X2X;X:X-X:X:XwXwX:XwXuXwX:X;X;X0X:X:XwXeXiXaXaXaXaXeXeXiXuXaXaXaXwXwXeXwX:X2X0X6XwX6XwXrXrXwXrX6XqX2X1X1X2X2X1X2X2X:XwX:X-X:X:X7X:X:X:X:X:X:X:X=X0X;X:X;X;X:X;X;X;X;X=X=X=X-X*X=X*X#X*X#X*X$XoXXX[.[.].{.{.{.{.].[.[.*X=X:X:X:XuX2XwXwX2XwXuXuXwXuXuXuXuXuXuXuXuXuXuXuXuXuX7XuX:XuXwXwX7XuXuXaXaXiXaXpXaXpXaXaXaX7XhXhX7XhX7XdX7X7X7XpX7XhX7X7XhXiXaXdXpXpXaXaXaXaXiXdXaXdXdXdXdX",
"aXaXdXaXsXaXsXsXsXaXdXpXaXaXaXpXdXaXaXaXpXaXaXaXiXpXiXiXaXiXiXiXpXwXuXaXwXwXuX6XwXuXwXwXeXuXuXaXsXaXaXhXaXfXaXkXsXkXaXsXsXaX6X;X3X;X3X2X1X$XoX#X#X#X$X$XOXoXoXoX#X$X$X$X#XOX#X#XoX|.#XoX X#XoX#X|.|.|.|.|.|.#X*X=X=X#X#X*X#X#X|.OX#X$X$X$X#X#X#X X#X#X#X#X$X$X$X#X$X$X$X$X$X$X$X#XOX$X#X$X$X$X$X#X#X=X=X;X=X=X*X=X=X=X=X-X=X|.|.oX].].].}. X}.'.].].}. X#X#X#X].#X#XoX}.}.].].}.}.}.}.|.|.oX XoX#XoX].}.}.|.oX X#X].}.}.].E.Y.T.T.'.].].T.T.].}.Y.L.L.P.Y.T.T.T.|.|.|.|.'.'.|.;X$X=X*X*X#X=X#X|.|.oXoXoX}.}.}.oX].oXoX].E.T.E.'.'.'.{.'.H.H.H.H.H.J.'.'.H.H.H.H.J.'.'.[.'.J.J.{.{.[.'.'.{.{.J.S.G.D.f.g.S.F.G.G.F.G.T.}.#X=X1X1X2X&X1X1XqX1X2XqXqXqX1X1XqX1X1XxXwXuXuXwX2X:X:X:X-X:X2XwXuXuXwX2XeXwX2X0XwXeXuXeXwXuXiXiXwX0XrXaXeXuXeXuXeXrXeXeXiXaXeXeX0X:XwXuX0X6XwXwXwX6XwXwX1XeX1X2X2X2X2X2X:XuX:X:X:X:X:X:X:X:X:X:X:X:X:X:XwX6X;X;X;X2X;X-X;X-X-X$X$X-X*X*X*X*X#X*X*X#XXX].[.{.[.].].{.[.].[.[.|.*X*X;X:X2XuXuX:XuXwXuX2X2X7XuXuXuXuXuXuXuXuXuXuXuXuXuXuX:XuX6XuXuXiXpXsXsXiXdXiXpXaXdXdXdXdXdXpXdXdXhXpXpXhX7XpXpX7XhXhX7XdXaXaXaXdXaXdXaXiXsXaXaXaXgX2XfX",
"aXsXaXsXsXsXsXsXaXsXaXaXaXsXaXsXsXaXaXpXaXaXaXdXdXaXuXuXpXpXpXuXuXrXuXpXpXtXrXwXwXwX6X5X6XeXuXjXaXsXaXsXsXhXsXlXdXfXlXsXaXwX:X;X2X;X=X;X3X=X$X}.oX#X#XOXoXoXoX}.#X#XOX#X$X$X$X$X X#X X#X X#X X#X#XoX[.[.|.#X$X-X=X=X=X-X=X-X=X;X$X$X$X#X#X#X XoX#XOX#XOX#X#X$X$X#X#X$X$X#X#X$X$X$X$X&X$X=X$X&X$X$X=X;X;X;X-X*X*X=X=X=X-X*X*X#X#X#X[.].].].].].Y.[.].]..XoXoXoX%X#X#XoX#X#X}.E.T.].]. X#XoX#X}.oX#X X].E.].}.}.].#X].E.}.}.E.Y.T.}.].E.T.T.T.Y.Y.].G.D.L.G.T.].].|.'.T.H.J.'.*X;X;X=X*X$X X*X X#X#XoX}.}.oX#XoX}.}.}.].E.E.'.E.].'.].'.'.H.H.H.H.S.S.S.H.H.S.S.H.H.{.'.'.'.'.'.'. XJ.H.H.Y.J.G.L.f.G.G.f.f.G.D.f.u.T.2XqXqXqX2X<X1X;X&X,X1XqX1X1XqX2XqXqXxXeX1X1XwX0XwXuX6X;X;XwXwX:XwX0X;XeXwX6XwXwXeXuXuX2X:XeXwXeXuXuXeXeXeXwXwXwXwXeXwXuXiXeXeXuXuX0XwXwX0X6X6X:X;X6XwXrXwXwX0X0X0X:X2X2X1X1XwX:X:X:X:X:X:X;X:X:X;X:X:X;X=X:X6X;X;X;X;X;X;X-X;X;X;X*X*X-X;X-X%X*X*X*X-X$X%X#X[.].{.[.R.Y.{.[.[.[.;X:X:X;X:X:X2X2X2XuXuX2XwXwXuXuXuXuXuXwXuX7XuXuX2XuXuXwXuXuX6XwXuXuXpXpXaXdXsXdXiXdXpXaXdXsXpXpXhXpXpX7X7X7X6X7XjX7X7X7XjXjXaXpXpXpXpXpXpXhXiXiXaXsXsXaXaXpX",
"pXpXaXsXaXsXaXdXsXaXdXpXdXaXdXaXsXaXaXaXpXdXaXaXsXaXaXaXdXpXiXuXeXuXtXpXpXpXrXaXwXwXwXwX6XrXpXpXaXaXaXsXsXfXsXsXsXlXsXaXuXwX:X:X1X1X3X1X;X=X#X|. X#XOX$X$X$X$XOX$X$X$X$X#X$X$X#X#X#X#X#X#X|.#X}.[.|.|.[.oX#X=X=X=X=X;X-X;X=X-X$X&X$X$X$X#X#X#X#X#X#X#X#X#X#X$X$X$X$X XOX$X#X#X#X$X$X$X$X$X;X$X;X-X;X;X;X;X:X;X*X-X-X;X;X-X*X#X#X&X%XoXoXoX].].R.Y.].[.%X#X#X[.].].].oX X|.}.}.].oX#X#X#XoX}.}.}.].}.].E.].oX#XoX].].].].}.].}.}.Y.Y.].}.}.].E.Y.].Y.Y.T.].E.T.D.S.S.S.H.'. X=X3X=X=X$X=X=X=X=X=X;X=X#XoX|.|.].].'.E.Y.T.'.].}.oXH.|.|.G.y.S.H.S.T.S.y.H.G.G.y.S.S.S.F.H.H.H.Y.Y.'.'.'.E.T.x.y.r.g.G.D.g.f.y.y.,.}.$XqX1X2X2X0X1X<X,X&X1X,XqXqXqXeXqX1XqX1XqXqX1X1X1XuXeX0X:X;XeXaX;X0XwX0XrX:XeXwX2X0XwXwX:X0XeXwXwXwXeXuXeXuXeXwXwXeXeXeXiXeXuXuXeXwXwXwXwX0X6X6X5X5X6XwX0X6X6X;X6X:X:X1X2X2X2X2X:X:X:X2X:X:X2X2X2X:X:X:X:X:X:X2X:X:X1X:X:X;X;X;X-X*X$X$X*X%X*X*X*X*X-X=X$X#X[.#X[.[.].XX#X#X$X*X:X2X2X:X:X:X:X2X:X2XwXwXuXiXwX7XuXwXuXuXuXuXuXuX:XuXuX7XuXuX:X7XuXuXiXaXdXaXaXpXdXiXiXpXaXpXjXpXhXhXhXjXjXjX7X6X7X7X7XjX7X7XhXaXaXaXsXaXsXpXpXaXdXaXsXpXsXdXaX",
"aXdXdXaXaXsXdXaXaXdXaXaXpXsXaXsXaXdXaXaXaXaXaXdXaXaXaXdXsXaXiXuXwXrXrXuXpXrXeXrXwXrX6XwXwXwXrXuXaXaXaXsXfXlXlXsXvXkXdXwXwX:X:X:X=X3X1X1X;X$X|.#XoX#XOX$X&X&X&X&X$X=X$X=X*X$X=X#X=X#X$X#X#X X|.#X#XXX#XXX*X*X-X;X=X-X=X=X=X=X;X=X$X&X=X$X#X#XOXOXOX#X#X#X$X$X$X$X$X#X#X#XOX#X#X$X$X$X$X$X$X$X1X&X;X;X;X;X;X;X;X;X;X;X;X:X;X-X-X%X-X#X#XXX#X#XoX].].oX#X&X;X$X%XoXoX#X#X$X$X$X$X$X-X$X$X$XoX|.].}.oX#X}.].Y.Y.Y.G.T.T.].E.E.].].].].T.Y.G.F.L.E.}.G.F.G.T.oX$X$X#X$X|.|.|.=X=X#X#X=X=X$X#X=X=X=X#XoX].].].}.#XoX}.}.].T.Y.Y.Y.Y.Y.|.H.H.|.].S.y.G.S.S.y.H.S.'.G.S.H.{.'.{.'.'. X;X[.'.J.G.h.g.g.h.T.h.,.*.>.c.oX0X0X0X0X1X<X0XqXqX&X,X,X1XqX1XqX2XxXqXqX1XqXqXqXqXrXrXeXrX;X&X%X&X%XOXeXrXaXxX;X&XwXwXwXeXwX0XwXiXeXwXeXeXeXeXwXeXrXwXeXiXaXeXuXeXaXeXwXwXwXwXwXwX6X6X6X0X6X6X:X:X:X;X;X;X3X1X1X2X:X2XwX:X:X:X:X:X:X:X2X:X:X:X;X:X;X;X;X;X;X6X2X;X;X*X$X#X#X$X#X#X$X$X$X$X-X$X*X-X$X[.].oX;X:X-X;X:X2X2X2X2X:X:X:X-X:X:X2XwXwXuXuXuXuXuXuXuXuXuXuXuXuXuX6X7XuXuXuXiXiXaXdXaXdXaXdXuXuXiXiXpXaXpXuXhXhXpXpXpX7X7X6X7X6XjX7X7X7X7XjXdXpXpXpXpXpXjX7XdXiXdXdXdXaXpXpX",
"aXaXaXaXsXaXaXaXsXpXsXaXaXaXaXsXsXdXaXdXiXdXaXpXaXdXaXsXdXaXuXwX6X6XwXeXwXwXwXrX6XwX6X0XwX0XwXwXpXaXsXsXfXsXsXkXlXaXuXwX6X6X:X:X=X;X2X2X=X$X$X X#X#X$X$X$X&X&X&X=X=X=X$X=X=X X$X X$X#X#X#X#X#X|.|.*X$X$X-X*X$X;X-X;X;X-X-X;X;X-X1X;X;X&X$X#X#X X$XOX#X#X#X#X$X$X$X$X$XOX#X#X$X#X$X$X$X;X;X1X$X1X;X-X;X-X;X-X;X;X;X;X;X;X;X;X;X%X=X*XoX#X$X-X-X%X-X-X$X%X-X$X-X;X$X&X;X;X$X&X1X1X1X1X1X&X#XoXoX|.].#X$XoX}.oX#X#XT.].].Y.T.].].Y.Y.T.].oX}.T.G.D.D.H.L.G.T.].].}.|.#X#X=X=X=X$X=X=X$X#X=X$X=X*X X$XoXoX}.].].T.Y.].T.Y.T.T.T.Y.L.H.'.T.S.y.S.S.g.f.3X2XiXS.S.y.T.S.S.H.H.H.Y.'.}.'.'.g.u.g.N.E.oXT.}.1XxXfXeX,X&X<X1X1X1X0X0X1X1X&X&X,X0X1XqXqX9X1XqX1XqX1XqXxXqX0X;X&XOXoXoX.XE.].$X6XoX#X0X0XrX0XwXwXwXwXwXwXuXwXwXeXwXuXuXwXeXeXaXuXeXeXaXaXtXaXiXwXwXwXeXeXeXrXwXwXeXrXwXwX0X;X;X:X;X1X1X2X2X:X2XwX:X*X|.*X=X;X:X;X;X;X;X:X=X;X-X-X;X;X;X;X;X;X;X=X=X*X*X*X$X*X$XXXoXoX$X;X;X$XoXXX$X;X;X1X0X:X:X:X:X2X2X2X:X:X:X2XwXuXuXiXuXuXwXuXuX6XuXwXuXuXuXuXuXuXuXuXuXiXaXpXdXaXiXpXiXuXuXiXaXaXpXpXuX7X7XjXpXpXpX6X6XjX7XjX7XjX7X7XjXpXpXpXpXuXpXrXpXiXaXiXpXpXpXpXpX",
"dXaXdXsXaXsXaXaXsXaXdXaXaXaXdXsXsXaXaXpXiXaXaXaXaXsXaXsXdXiXiXuX0X6X6XwX6XwXwX6XwXwX0XwX6X0X6X6XuXuXiXaXpXaXsXsXiXuXwX:XuXuX6X:X;X1X1X3X$X#X#X#X#X$X$X$X$X$X$X$X;X=X=X=X$X#X*X*X*X X|.*X X|.|.|.#X%X*X*X-X-X;X-X;X-X;X-X;X-X;X-X1X;X&X&X$X$X#X#X X#X XoX#X#X$X$X$X$X#X$X$X$X$X$X$X$X$X&X&X1X1X$X;X;X-X-X-X-X-X-X-X;X:X-X;X;X-X;X-X$X%X%X%X-X5X:X-X-X%X%X%X$X;X;X;X;X$X$X#X#X#X#X$X&X-X$X#XoX|.}.].}.oX].'.T.T.Y.Y.E.T.T.'.}.].Y.L.G.Y.T.E.Y.D.f.h.T.T.Y.].].].oX|.#X=X=X#X|.=X-X#X*X|.=X=X$X$X X}.}.}.}.}.E.Y.G.f.g.L.].#X$X$X#X|.'.J.'.S.>.G.iX2XiX3XeX3XfX XG.{.|.2X2XeX2X$X#X&X<X1X<X1X,X,X1X$XOXOX1X1XOXoX$XoXoX$X1XqXqX1X,X<X,X,X1XqXqXqXqX,XqX1XqXxXqX2X1X&XoXE.E.E.R.L.j.R.oX%XE.].+X@XtX0X0XwX:X:X0X2X:XeXwXwXeXeXrXuXaXeXaXtXaXaXaXtXaXaXeXwX0XwXuXeXrXwXuXtXaXrXaXrXaXeXwXwXwXwX2X2X2X2X2X2X2X=X#X=X=X3X2X3X2X:X3X2X2X;X;X;X;X;X;X;X:X;X;X*X-X-X=X;X-X1X-X#XoX].].].].oX|.#X-X;X;X1X0X2X:X:X:X2X2X2X2X2X2XuXwXwXuXuXuXuXuXwXuXuXwXuXuXuXuXuXuXwXuXuXuXpXiXiXpXiXuXuXuXuXuXaXaXpXhXpXpX7XpX6XpX6XjX6X6X7X7XjX6X7X7X6X7XpXuX7XpXrX7XrX6XrX7XuX7XpXpXpXpX",
"aXpXaXaXsXdXsXsXsXsXaXpXaXdXaXaXsXaXaXaXpXdXaXdXdXaXsXaXdXuXuXuXwXwXrXwXwXwXwXwXwX5X6X0X6X6X0X;X6X0X6XuXuXuXuXuXwXuX6XwX2XwXwXuX3X1X;X=X$X#X#X$X$X$X$XOX$X$X@X$X=X=X=X=X$X=X X#X X#X X*X|.=X$X#X*X*X-X*X-X-X&X-X-X;X-X;X-X;X-X;X;X<X1X&X1X#X#X#X X#X|.oX X$X#X#X#X$X$X#X#X$X$X$X&X;X1X$X;X$X&X;X;X;X;X-X-X;X;X:X-X;X;X-X-X-X:X-X;X;X;X%X-X-X%X;X&X&X%X;X-X-X-X-X$X$X#X#XoX}.].].].}. X|.|.}.}.].#X#X}.Y.D.f.t.r.h.D.G.Y.Y.'.T.T.].Y.G.J.Y.].}. Xg.Y.D.t.g.L.].<X2X2XeX3X=X X X#X X|.#X*X=X=X=X=XT.T.T.Y.T.T.H.G.D.Y.}.#X;X;X;X$X=X1X=X X|.1X2X=X#X2X2X2X$XeX2X2X=X2X2XnX2X1X<X$X}.oX$X@X@XOXQ.E.$X$X$X1X0X1X1X0X$XoX#X&X1XqX1X1X1X,X,X0XqXqX1XqXqXqXqXqXqX,X>X<XoXoXE.E.E.L.j.*.,.p.Y.%X&XE.R.tXuXaXiXwXeXeXwX0XuXuXeXeXwXuXeXaXaXuXaXtXtXtXaXaXeXeXwXwXeXrXuXaXwXrXpXpXpXuXtXaXuXeXwX0X2X2X1X2X2X2X2X2X;X;X:X:X3X2X2X2X2X2X2X2X6X:X;X;X6X;X;X;X;X;X-X-X;X;X;X;X$X$X-X;X-X#XXX].XX#X*X;X;X;X1XwXuX2X:X:X2XuXuX:XwXwXwXuXuXuXwXuXuXuX7XuXuX7XuXuXuXuXuXuXuXuXuXuXiXpXuXiXuXuXuXuXuXuXpXaXpXjXpXpXpX7XpX7X7X6X6XpX6XjX6X6X6XjXjX7XuXuXpX6X7X7X7X7X6X7X6X7XuX7XpXpX",
"uXuXuXaXdXaXaXaXaXaXsXaXaXaXsXsXaXdXdXiXaXdXaXpXaXsXaXpXuXuXuXuXeXrXwXwX0XwX0XwX5X6X5X0X6X0X;X6X:X:X:XwX:XuX:XuX:X6X2X:X:XwX:XuX2X3X=X*X$X$X#XoX$X$XOX$X$X$X$X$X=X=X$X$X X*X X=X#X X#X X=X=X=X=X-X$X-X$X-X*X*X%X5X;X;X-X-X;X;X;X;X;X&X;X$X$X#X#X#X|.oXoX|.|.#X#XOX#X#X$X$X$X$X$X1X;X&X;X1X&X;X$X;X-X-X-X-X;X;X-X;X;X-X;X;X5X6X;X;X;X5X;X&X-X&X&X%X-X;X;X;X:X%X$X$X#XoX#X#X|.].Y.].E.E.T.T.].].oX}.oX].].T.T.T.L.g.F.Y.T.L.F.L.Y.Y.oX1XtXeXqX1X1XaXkX1XT.#X$X&XeX=X=X;X3X=X=X=X=X X|. X#X*X#X X|.|.].T.Y.H.G.G.G.#X$X;X;X$X#X#X#X=X].|.2XaXiX3X XeX2X1X1X3X2X1X3XnX2X2X3X=X1X1X1X1X0X1X,X&X,X0X0X,X&X$X&X$X$X$XOX1X&X$X<X1X0X1X0X0X8X1X0X1XqXqXqXqXqXqXqX2X<X>X>X@X+XoX^.^.^.b.p.b.b.b.d.I.P.I.tXaXaXaXaXaXaXeX;XaXeXuXtXuXeXaXtXeXaXaXaXaXeXeXuXuXwXwXeXwXuXuXeXrXuXpXjXtXpXtXpXeXeX0X6X2X1X1X1X2X2X2X2X2X2X2X2X2X2X2X2X2X2X2X2X2X;X:X:X:X0X0X:X;X;X;X-X;X;X-X=X#X#X-X-X;X-X$X$X#XoX#X-X0X0XwXeXuXwXuX2XuX2X2X2XwXuXuXwXuXwXwXwXuXuXuXuXuXuXuXuXuXuXuXuXuXuXuXuXuXuXiXiXuXuXwX7XuXuXiXpX7XhX7X6XpX6X7XjXpX6XpX7X6X6X6X6X6XjX6X7XpX7X6X7X7XrXrX7X7X6X7X6X6X6X6XrX",
"6XuXuXuXpXaXpXaXsXdXaXaXdXdXaXaXsXdXaXaXaXaXaXaXaXaXdXpXuX2X2XuXwXwXwX5X5X6X5X5XwX6X5X;X;X6X5X0X6X:X:XwXwXwXuXwX:XuXuX6X:X:X6XwX2X3X$X#X*X#X$X#X&X#X$X$X$X$X&X=X=X$X=X#X*X#X*X X*X*X*X=X=X=X=X=X-X-X-X-X-X$X-X%X:X-X-X:X5X;X;X;X=X$X;X&X3X$X$X#X|.#X#X#X#X|.=X#X#X#X#X#X$X$X1X$X1X1X1X1X$X;X$X;X$X-X*X%X$X&X%X-X%X;X-X;X;X;X;X;X%X;X%X;X;X&X-X;X=X-X&X&X&X$X$X%X X}.}.}.oXoXE.H.T.T.Y.L.Y.T.].#X].].E.Y.Y.].Y.L.Y.'.oXoXL.g.g.T.Y.#XwXtX0X;X;X1X;XeX1X XwXeX;X1X2X2X1X2XiXiX3X=X#X|. X]. X'.'.{.G.D.D.G.'.$X1XwX$X&X;X$XoX X$X;X|.2XiX2X2X2XeXeX1X2X2XeX2X1X2XfX2X2X3X2X2X2X1X&X&X,X1X@XoX,X,X,X&X<X,X1X,X1X1X&X,X&X&X0X0X0X1X0X0X0X0X,XqXqX1XqXqXqXqX2XqX,X<X<X(.oX+X(.+X&X4X&XoX0X%Xd.b.E.K.E.eXeXtXeXrXuX0X&XaXaXeXeXaXeXaXaXaXtXeXaXeXaXeXaXwXwXwXwXeXuXeXeXuXpXjXaXpXtXaXjXuXaXuXeXeXwX2X2X2X2X2XgX2X2X2X2X2X2X2X2X2X3X:X;X;X;X;X;X2X:X0X:X1X:X;X;X;X;X-X*X&X$X$XoX#X$X%X&XoXoX#X$X2XrXwXuX:X2X:XuX:XuX2XuX2X2X2XwXuXwXuXuXuXwXuXuXuXwXuXuXuXuXuXuXuXuXuXuXuXuXuXuXpXuXuXuXuXuXuXuXjX7XjX7XpXjXpX6X6X6X5X6X7X6X6X6X6X7X6X6X6X6XuXrX7XrX7X7XpX7X6X6X6X6X6X6X",
"2XuXuXuXiXdXdXsXsXsXaXdXsXaXsXsXpXsXpXhXpXhXpXpXdXpXuXuXwXuXdX2X0X6XwX6X0X6X6XwX0X6X6X6X5X;X6X:X:X6X6X;X0X6X6X6X0X;XwX0X6XwX0XwX0X-X#XoX#X*X#X#X*X-X$X$X*X$X#X*X$X*X*X#X#X*X#X#X$X$X$X;X-X;X-X$X$X;X;X*X$X$X-X-X;X;X;X;X;X;X;X-X;X;X:X;X-X;X:X*X=X:X*X*X*X*X*X|.$X$X#X#X#X%X;X:X$X*X$X&X$X%X$X$X#X$X$XoXoX[.%X$X;X;X;X&X;X-X&X;X;X;X1X;X3X=X=X*X=X=X=X#X*X|. X*XoX|.].|.|.|.'.{.H.T.'.T.'.'.'.|.[.].{.{.].{.Y.Y.{.{.].].#X;XwXuXuX1X-X*X:X0XwX;X2X:X:X;X;X:X:X2X2X2X1X3X2X2X2X2XeX X!.T.'.'.H.S.S.{.*X:X2X0XuXiX2X;X;X=X;X;X2X2XwXwXuXwXeXeXwXwXwXwXwXwXwXwX0X0X2X2X2X2X;X0X:X0X;X$X;X0X#XoX$X5X0X:X;X:X;X;X&X;X&X;X4X&X&X0X8X0X0X5X0X0X0X0X0XyX9XqXqXqX,X<X@X@X$X@X@X$X@X,X,X,X>X&X,X@XQ.P.B.g.h.rXeX0XeXrX0X$XtXtXtXeXaXaXtXeXeXeXaXeXaXaXaXaXeXwXwXwXwXuXeXeXaXaXaXpXaXpXaXaXuXwXrXuXuXwXwXuXgXgX2XfXwXwXwXwX0X2X2X2X:X:X;X:X;X:X;X;X:X;X;X;X;X;X:X;X;X;X;X$X$X#XoX&X$XoX&XoX%X%X%X-X0XwX0X6XwX:XwX:XuX:XuX:XuXwX6XwX6XuXwX2X6XuX2XdXdXdXiX2XpXuX7X7XdX7XpXdX7X7X7XrXpXpX6X6XjX7X7X7XjX7XjXhXjX7X7X6X6X6X:X6X:X:X:X:X:XwX:XuXrXrXwXwXuXwX6XwX:X6X6X6X6X6X:X:X",
"6X:X:XuXuXdXaXaXaXsXaXaXaXaXsXaXhXpXpXdXpXpXaXaXdXiXuXuX2XwX2XuX6X0X5X0X6XwXwX0X6X6X;X5X:X:X:X5X6X;X;X6X;X6X6X0X6X0X6X0XwX6X6X6X1X&X#XoX#X%X*X#X$X$X%X$X%X#X$X%X#X*X#X*X*X#X%X$X*X*X=X;X;X-X=X=X=X-X;X=X*X-X;X=X;X;X;X;X;X;X;X;X;X:X;X:X:X=X;X:X:X:X:X=X*X#X*X[.#X#X[.oX#X$X-X-X;X;X:X-X;X-X;X-X;X-X;X-X$X$X-X-X;X-X;X;X1X;X;X-X;X=X=X3X=X3X=X=X#X=X#X*X#X*X|.|.|.].].|.#X|. X].'.'.'.'.'.'.T.'.].R.{.Y.].{.'.Y.{.XX;XeXtXaXwX;XaXiX0X2XwXuXeXwX0X2X0X:X2X:X0X:X2X2X2X1X1X1X1X3X1X3X=X X'.H.S.y.;X2XaXaXaXuXaXaXiXiXuXwXuXuXuXiXwXwXwXuXwXwXwXwXwX0X0X2XwX0XwX;X3X2X1X2X0X:X;X;X;X:X-X0XwX;X;X0X2XwX0X0X:X0X6X0X&X5X&X5X0X5X0X5X4X4X0X0X0X0XqX0XqXqXxXqX>XOX@X<X>X>X$X@X$X@X@X$XOX@X,X,XOX@X@XQ.h.&XyX0XyXyXeX&XrXtXaXeXtXaXtXeXaXtXeXaXaXaXaXiX0XwXeXwXwXeXuXaXsXaXaXaXaXaXaXaXuXuXuXuXuXuXuXwX2X2XfX2XwXwXwX1X2X0X0X:X:X0X0X;X:X;X;X;X;X;X:X;X6X;X:X0X;X;X;X-X&X$XOX&X#XoX5X%X$X%X%X6XwXwXwX6X7X:X:XwX2X6X6XwXwXuXuX:XwX:X6XuXuXuXdXdXdXdXdXuXuXpX7XuX7XpXuXpXuXuXpXrXpX7XpX7X6X7XjX7X7XjX7X7X7X7X6X6X:X:X:X6X:X:X:X:X:X2XwXuXwXwXwXwXwXwXwX:XwX:X6X7X:X6X7X:X",
"2X:XuXuXuXuXpXaXdXaXaXaXdXaXaXaXpXdXpXjXpXsXdXaXiXuXwXuX2X2X2X:X:X6XwX6XwXwX6X0X6X5X6X;X:X;X5X:X6X6X6X;X;X5X6X6X0X6X0X6X0X6X6X;X6X;X$XoX#X%X*X%X%X$X$X%X%X#X#X%X#X*X#X%X#X*X$X*X*X-X=X-X=X;X-X=X=X-X=X=X;X2X;X-X;X-X:X;X;X-X;X;X:X:X;X-X:X=X*X:X*X:X=X:X:X;X*X*X}.oX#X#X*X;X1X2X2X0X0X2X0X2X;X:X;X:X;X;X;X;X=X-X-X;X;X:X;X6X;X&X=X3X=X=X=X$X#X*X X*X#X#X X#X X#X].'.'.}.|.|.|.'.H.'.'.'.'.'.H.H.{.[.[.{.{.].].XX-X;X:XwXeXuXeXwXaXeXwXwX2XwXwX:XwXwXwX:X0XwXwX0X1X1X1X3X1X3X3X3X3X1X3X!.g.S.H.'.:X2XwX2X2XwXuXiXaXiXiXiXaXiXiXuXuXwXeXwXwXwXwXwXwXwX0XwX0X0X0X:X;X;X1X1X:X;X;X;XrX;XY.F.].#X&XeX0X0X2XwX0X0X0X;X;X&X8X5X8X0X0X0X0X0X0X5X0X0XyXyXqXxXqX0X,X<X<X,X$X>X$X>X$X>X@X@X@X@X,X,X$X,X,XoXI.oX;XeX0X0XtX0X0XeXtXeXtXtXaXtXtXaXtXaXtXaXeXwXwXwXwXwXwXeXeXuXaXpXaXsXaXaXaXpXuXuXaXuXuXuXuX6X2XfX2X2XwXwXwXwXwX2X0X:X2X6X2X:X:X;X;X;X;X6X;X:X;X:X:X:X;X:X;X&X&X&X#X$X.X].;X-X-X%X%X;XwXrX6XwXwXwXwX:XuX7XwXwX6XuXwX:X:XuXwXuX2XdX2X2XdXdXuXuXuXuXpX7X7XpX7X7X7XrXpX7X7XrX7X7X7X7X7XjX7XjX6X6X6X6X7X-X-X6X:X:X:X:X:X:X2XwX0XwXwX0XwX6X0X6X:X:X:X:X6X:X6X6X6X6X",
":XuX:XuXwXuXuXuXpXaXsXdXsXsXsXdXhXaXhXhXhXpXsXpXiXuX:X:X:X:X2X:X;X6X6XwXwX6X0X6X0X;X-X:X;X5X;X:X;X;X5X;X6X;X;X6X6XwX6XwX6X6X6X;X1X-X*X$X#X$X$X$X#X*X#X#X#X#X#X#X*X#X*X$X*X*X=X-X$X=X;X=X;X-X-X*X;X;X-X;X;X;X;X;X-X:X;X;X;X:X:X;X:X-X;X;X*X=X:X*X:X*X;X:X=X*X*X:X$X*X*X:X2X2X0XrXeXwXuXwXwXwX0X2X;X;X;X6X;X-X=X;X*X;X;X;X;X;X-X;X;X=X=X=X=X$X*X X#X X*X|. X*X#X#X|.|.|.].].}.'.'.'.'.'.'.'.H.T.'.[.[.#XoXXX$X-X:XuX0X6X;X;X2XeXaXwXwXwX0X:X:X0X:XwX0X0X:XwX2X2XwX1X2X1X1X;X1X$X#X3X2X3X!.S.'.=X2XuXwXwXuXaXaXaXaXuXiXiXiXuXiXuXwXuXuXuXuXeXuXwXeXwXwXwX0XwXwX0X0X6X1X1X0X0X0X;X:X;X0X$X%XaX;XoX-X;X:X0X0XwXwX0X0X4X;X4X1X&X0X0X0X0X0X0X5X8X0X0XeXqXqX0X,X<X>X>X<X@X$X>X&X,X@X$X@X,X&X,X@XoX@X>X(.E.(.&XxX0X0XfX0X0XrXtXtXtXtXaXkXaXaXaXtXtXiXeX0XeXwXeXwXwXwXeXeXaXaXaXsXsXaXuXaXuXaXpXuXuXwXwXuXfX2X2XfXqXwXwX2XwX2X2XwX0X0X;X2X:X0X;X6X6X;X;X0X0X:X0X1X:X;X;X;X$X$XOX$XE.R.&X%X-X$X#X;XuXrXuX6X:XuX6XuX:XwX6X2X2XwXwX7XuX:XwX:XuX2XdXdXuX2XdXuXuXpX7X7XpX7X7XpXpX7X7XpXrX7XpXrX6X7XjX7X7X6X6X6X6X6X:X6X-X:X:X:X:X:X:X:X:X:X2X2X:X0X0X6X6X:X:XuX:XwX6X6X6X6X6X7X",
"wX6X:XwXwXuX6XuXuXiXiXpXsXaXaXdXpXdXpXjXpXjXpXpXuX:X:X:X:X2X:X:X6X6X0XwXwX0X:X:X:X6X;X6X;X5X:X5X;X5X;X6X;X5X6X;X5XwXwX5X6X6X;X;X;X;X&X%X$X$X$X=X$X%X#X#X%X#X#X#X*X$X*X-X*X$X*X*X-X-X;X;X;X;X;X-X;X:X;X=X$X$X-X:X;X;X0X;X;X2X;X2X:X:X:X*X:X*X:X*X*X:X*X*X-X-X;X:X:X:X2XwXwXeXwXuXeXeXuXeXwXwXwX2X0XwXwXwXwX0X2X;X:X;X;X-X*X;X;X;X=X=X=X$X*X X#X*X X X|.*X#X#X X X;X=X#X|.|.|.|.'.'.'.'.'.H.'.T.'.].XX*X$X#X;X:XwX2X0XrXeXiXeXeXwX0XwXwXwXwX2XwXwX:X2X0X:X2XwX2XwX1X1X1X3X;X=X=X$X<X2X2X<X3X3XfXfXaXaXaXaXaXaXiXuXuXuXiXiXaXaXiXiXuXuXuXeXwXeXwXwXwXwXwX0X0X0X:X;X0X1X0X;X6X0XwX0X;XuX0X0XkXeX$X:X2X0X0XwX0X0X0X6X1X5X5X0X4X0X0X0X5X0X0X4X0X8X0XyXxX8X,X@X>X>X,XOX@X>X@X<X>X>X>X>X>XOX>X>XoX>X,XoXoXoX@XxXrX0XfX0X0XeXaXeXeXtXaXfXaXaXaXaXaXuXuXeXwXwXwXwXeXwXwXwXpXaXaXaXaXaXpXuXaXaXuXuXuXuXrX6X2XeXiXeXeX2XwXwX2XwX2XwX:X:X2X;X;X6X;X;X;X;X:X:X:X:X1X6X;X;X;X-X#X&X$X$XE.Y.$X$X-X%X%X:XwXuX6XrX6XuX2X2X:XuX:XwXwX:XuX:X:XuXwXuXuX2X2XdXuXuXuXuXuXuXpXrXpX6X6XpXjX7XjX7X7XpX7XjX7X7X7X6X7X-X-X6X6X5X6X6X:X-X6X:X:X;X:X:X:X:X2X2XwX:X:X:X:X:X:X:X6X5X5X6X6X6X6X6X",
"wX:XuX:X6XwXwX:X:XwXuXuXuXuXaXiXpXjXpXpXpXpXuXuXuX:X:X:X:X:X:X:X;X0X6X6X0X6X6X6X6X;X5X;X;X6X:X;X6X;X;X5X5X;X0X;XwX6XwXwX0X;X;X5X0X;X&X%X$X*X%X$X*X#X%X$X#X#X$X#X*X*X-X*X=X=X-X$X-X;X-X=X;X;X;X:X;X;X;X;X*X#X-X0X2X:X:X:X0X;X:X;X*X=X=X:X*X:X:X=X:X*X*X*X;X:X2XwXeXwXeXeXeXwXeXwXwXeXeXwXwXwXwX2XuXwXwXwXeXwXwXwX0X1X;X;X-X=X:X;X=X$X=X$X*X X#X X*X#X X#X X*X*X*X=X|.#X|.|.'.'.|.|.}.'.'.H.H.H.'.{.#X;X*X*X:X0X0X:X2XwXaXiXeXwXwX2X0XwXwXwXwXwXeX2XwXwXwX0XwX0X:X1X;X;X1X=X=X=X$X3X3X2XfXfXfXeX3XiXuXuXiXaXuXwX2XiXiXiXiXaXaXaXiXuXiXuXwXwXwXwXeXwXwX0X1X1X1X;X;X0X0X;X;X;X;X0XwX0XeX;X$X;X0X;XtX:X0X0XwXwX0X0X0X1X0X8X0X0X0X5X0X0X5X0X5X;X4X0X0XqX,XOXOX<X<XOX(.(.oX_.OX<X>X@X,X,X+X@X@X@X@XOXQ.%X%X$XrXrX0XtXrXeXtXeXeXeXtXaXtXaXuXpXtXtXaXeXwXwX0XwXeXeXwXwXwXpXaXpXaXaXaXaXuXaXuXuXuXwXuXuXuXeX2X2XeXeXeXwXwXwXwX0X:XwX2XwX0X2X:X1X;X:X2X;X0X;X2X:X2X0X;X;X-X$X&X$X$XE.E.*X#X;X%X*X:XrXwX6XuXwXuXuX6XwX:XuX:X:XuX2X6XwX:X6XuX2X2XdX2XuXuXuXuXuXpX7XpXpXpXpX7X7X7X7XrXrX7XpX7X7X7X7X6X6X6X7X6X6X6X5X6X:X:X:X:X:X:X:X-X:X:X2X:XwX2X2X:X:X:X:X:X6XrX6X6X6X6X6X6X",
"uX:X2XuX:XuX:XwX:X:X:XwXwXwXuXuXpXuXuX7XuXwXwXwX:X:X:X:X:X2X:XwX6X;X6X6X6X0X6X6X0X;X6X;X6X;X;X6X6X6X;X;X:X6X6X6XwX6XwX6X0X6X6X6X;X;X-X-X$X-X-X&X$X$X*X$X*X$X%X#X*X*X$X-X*X-X*X;X;X;X;X;X;X;X;X;X;X;X;X2X;X-X:X2X0X:X2X;X:X-X;X-X*X=X:X*X=X:X;X:X;X;X=X;X;X2XwXuXeXeXeXwXwXwXwX0XwXwXeXwXwXwXeX2XwX0XwXwXeXeXwXwXeXwX0X2X;X:X:X;X=X=X#X#X X#X*X X*X X*X#X X#X X*X X|.|. X}.'.'.'.|.].].'.H.'.'.'.].*X;X;X:XwXwX:X0X2X2X:X2X0XuXiX2X:X2X0X2X0X6X2X2X0XwXwXwXwXwX0X1X1X,X1X1X1X=X3X3X2XqX3XeXeX3XqXiXiXsXfXfXfXsXsXaXdXdXaXaXaXaXaXaXaXiXuXeXeXeXeXeXwX0XwX1XwX6X;X2X2X:X;X0X0XwX0X;X0XeXaXaXeXwX0XwX0XwX0X2X0X0X0X0XwX0X0X5X0X4X8X4X5X5X4X&X0X8X0XqX8X$XOX>XOX XQ.(.(.(.oX+XOX@X>X,X@X,X@X_.(.Q.L.oX&X%X0XeX0XyX0XeXtXqXwXwXiXtXrXeXwXwXeXaXeXuXeXwXwXwXwXwXwXwXwXuXuXuXuXuXaXpXaXuXuXrXuXwXuXuXuX2X2XaXiX2XeX2XwXwX0XwXwXwX2X:X0X:X1X1X:X;X0X:X;X0X:X2X:XwX:X;X;X$X1X$X$X].].%XoX;X*X%X;XrXuXpXuXwXwXuXwX6XuX:XwX:XwX:X:X:XwXuXwXdX2X2XuXuXuXuXuXuXuXpXrX7XpX7XrX7XpXrX7X7XpX7XjX7X7X7X6X6X-X6X6X-X6X-X7X:X:X;X:X:X:X:X:X:X2X:XwXwX:X:X:X:X:X:X0X5XwX5X6X6X6X5X6X",
"6XuXuX6XwX2X6X:XwXwX6X2X6X6X6XwX6X6X6X6X6X6X:X6X:X:X;X;X:X2X2XwX0X6X0X;X:X6X0X0X6X0X6X6X;X6X0X6X5X;X6X6X6X;X0X6XwXwXwX6XwX0X6X;X;X1X;X-X$X$X$X&X*X$X$X%X$X*X%X#X$X$X$X=X-X;X;X;X;X;X;X;X;X;X:X;X-X*X-X0XwX2X;X2X;X2X;X;X;X-X-X*X*X*X*X*X:X*X:X=X*X;X:X2X2XuXiXiXuXeXuXeXwXwXwXuXwXwXwXwXwXqX2X2XuXwX0XwXeXiXuXeXuXuXuXwX0X2X;X:X=X$X*X#X*X#X#X=X#X=X#X*X=X#X*X*X#X=X|.|.|.'.'.].'.'.].'.'.'.'.'.].=X2X:X0XuXeX:XwXwXwXwX0XuXwXuXeXwXwX2X2XwX0XwXwXwXwXeXwXwXwXwXqX2X1X2X2X2XqX0X3X3XqXeXfXeXqXfXiXaXaXsXsXaXaXaXgXfXfXfXgXfXsXsXfXsXaXaXiXeXaXaXiXuXeXwXrXwX0X1X0X0X0XwX0XwXeXeXuX0X0X0X;X1XrX6XwXeXeXwX0XwX0X0X0X0X0X0X0X,X1X0X5X4X0X5X8X1X,X0XqX0X,X&X X).Q.Q.(.Q.(.(.).oXOXOX>XOX@X,X@X<X+XP.E.@X+X;XtXyX0XrXtXeXrX1XwXqXrX1XwXwXwXwXeXeXeXwXwXwXwXeXuXwX0XwXwXuXeXuXuXuXaXaXuXuXwXwXwXuXwXuXeXeX2XeXiXwXeX2XwXwX0XwX:X0X2X:X:X0X:X;X:X:X:X:XwX2X0XwX0X:X:X;X&X&XOXoXE.{.&XXX-X*X%X:X6XrX7X6XuXuX6XuXwX:XwX6X6X:X:XwXuX:X6XuX2X2XuX2X2XuXuXuXuXuXpX7XpX6X6X6XpX7X7X7XrX7XpX7X6X6X7X6X6X7X7X6X6X7X-X6X:X-X:X:X:X:X:X:X:X:X2X2X2XwX2X:X:X:X0X6X6X6X5X6X5X5XrX6X",
"uXwXwXwX6X0X6X6X6X6X;X6X6X0X6XwX6X6X6X6X5X:X:X6X;X;X6X5X1X;X6X2X6X6X6X0X:X0X:X:X;X0X6X6X6X2X0X;X;X6X:X:X6X6XwXuX5X6X6X0X0X0X6X;X;X5X;X&X$X%X-X-X*X*X$X*X$X$X=X%X*X$X$X;X;X-X-X;X*X:X;X;X*X:X;X-X;X:X;X0X:X:X;X;X:X;X0X:X;X;X;X;X:X:X*X*X=X-X2X:X2X:X2X2XiXiXuXwXuXuXuXeXiX2XiX2XiXuXuX2X2XiXiXiXuXwXuXiXiXiX2X2XiXuXwXuX2X2X2X;X=X=X=X$X=X X*X#X=X=X#X=X*X X#X X#X#X|.|.|.|.|.'.'.'.].'.].'.|.'.;X:X0XwXwX2X2XwX0X6X0XeXwXeXwXeX0XwXwX2X0X:XwX2XwXwX0XwXwXwXwXwXeXeX2XqX2X2X2X3XqX2XqXqXeXeXeXfXiXiXaXaXsXsXsXfXsXsXaXsXfXsXgXgXsXaXsXaXiXaXaXaXiXaXeXwXwX1X1X0X1XwXwX0X0XrXtXtXuXrXwX0XwXrXeXwXwX0XeXrXwX2X0X1X0X0X0X0X0XyX0X0X0X0X4X5X0X0X4X$XqXqX>X>X<X(.OX(.Q.OX_.P.B.(.>XOX@X>X>X,X@X>X_.U.$X+X$X0XeX0X0XrXyXeXeXeXrXrXeXeXeXeXuXuXeXeXwXuXwXwXeXuXuXeXwXwXuXwXeXuXwXwXuXuXuXrXuXuXwXuXuX6XeXwXwXeXwXwXwX0XwXwXwXwX:XwX:X2X2XwXwX0XwX2X2XwX;X:X:X0X0X:X;X:X1X#X$X0XF.].-X#X6X%X*X*X:XuXuX7XuX6XwX:XwXuX7XwX:X6X:XuXwX6XwX6XdX2XiXiXuXuXiXpXiXuXuXuXpX6XrX6X7X6X7XpX7X7XjX7X6X6X6X6X7X6X6X7X6X6X6X6X-X-X6X:X:X:X:X:X:XwXuXuX;X;X0X;X:X:X;X6X0XrXrX6X5X6XrXrX",
"wXwXwX6XwXwXwX5X5X;X0X6X6X0X0X6X6X6XrX6X5X6X6X;X6X6X6X;X6X;X;X0X:X0X0X6X6X6X;X6X6X0X0X6X0X6X6X6X6X6X6XwX6X;X6X0X0X6X6X0X6X6X;X:X0X6X;XoX[.oX$X*X$X#X%X#X%X$X$X*X;X-X*X;X-X*X=X;X;X=X;X0X:X$X*X2X:X;X:X2XwX:X;X;X;X:X2X0X6X;X;X;X:X*X*X*X2X2X2XuX2X:X2XwXwXiXuXwXeXuXuXuXiX2XiXiX2XiX2X2X2XiX2XiXuXuXuXiXiX2XiXiXuX2XuXwXiX2X2X:X3X=X$X*X$X=X=X=X=X X=X X#X*X*X X|.#X X|.].'.'.|.'.|.'.'.|. X|.=X:X:X2XwX0X:X0X2XwXwXwXwXwXuXrXwXwXwX0XwXwXwXwXwXwXeXuXeXwXwXwXeXeXqX2XeXqX3XqXqX2XxXeXeXqXeXfXqXiXiXaXaXfXgXfXgXfXgXgXfXgXgXgXgXgXfXsXsXaXaXtXaXeXeXrXwXwX0XwX0X1X1X0XwXwXwXeXeXwXwX1X0X0XwXwXwXwXwXwX0XqX0XrX0XrXrX0XyX0X0X0X0XyX0X5X4X0X0X&X@XqX,X<X<X X(.(.(.(._._.U.P._.>X>X>X>X@X@X>X>X(.B.&X&X4X0X0X0XrXrXtXtXrXeXeXeXeXeXuXwXeXeXuXwXeXwX:X0XwXwXeXwXwXwXuXuXuXrXuXuXuXwXuXuXuXuXuXwXwXuXwXeXwXwXwXwX2XwXwXwX2XwX0X:X0X2X0X2X:XwXwXwX0X2X2X:X2X:X2X0X2X;X1X$X$X1Xg.E.;X=X-X-X*X-X:X:X6XuXwXuX:XuXwX:XwXwXuXwX:X:X:X6XwXuXdXiXuXiXuXuXwXwXuXwXuX7X7XrX7XpXpXjX7XpX7X7X6X7X6X6X6X6X-X6X6X-X6X6X6X-X7X6X:X6XuX:X:X;X:X:X2X:XaXaXaXrX0X0X5X6X%X#X5XrXaXjX6X5X",
"eX0XwX6X0XwXrX6XwX6X6X0X6X6XwX0X6X6X5X6X6X5X0X6X;X6X6X5X2X;X:X:X;X6X0X6X6X;X6X6X:X6X6X6X;X6X0X2X0XwXwXwX0X6X:X6XwX6X0X6XwX6X6X6X;XwX;X].Y.].$X%X%XoX#X$X%X*X*X$X*X%X*X=X;X;X-X1X0X;X-X6X;X%X*XwX0X2X0XwX0X2X2X;X;X2XwX:X:X;X;X;X*X;X:X:XwXuXwXuXuX2X2XwXwXuXuXuXiXuXuXuXiXiXaX2XiXuXuX2X2X2XdX2XiXuXiXiXiXdXiXiXiXwXwXiXiX2X2X2X3X$X|.#X=X=X=X X#X=X$X*X=X X*X#X*X#X|.|.'.'.'.].'.'.'.|.#X3X2X2X2X0XwXwX:X:XwXwXuXwXeXwXeXwXwXwXwXwXwXwXwXwXwXwXeXeXuXwXeXeXeXeXeXtXtXqXqXeXqXqX2XqXqXqXeXqXqXfXiXaXaXsXfXgXgXgXgXgXgXgXgXgXgXgXlXgXgXfXfXfXaXaXrXwXrXwXrX0X2X1X;X0X1XwX0XwXeXwX0X0X1X2XwXwX0X0XwX0XwXwXwXwXqX0X0X0X0X0X0X0XrX0XyX5X6X0XyX0X5X&XqX>X>X<X>X(.(. X(.OX_.(.Q._.@X>X>X>X@X>X8X>X(.P.@X&X0X0XqX0XyXtXyXtXrXeXeXeXeXeXeXeXeXeXeXeXwXeXwXwXwXwX0XwXwX0XwXuXuXuXuXuXuXuXuXuXuXuXuXuXwX6XeXwXuXwXwXwX:XwX2XwX:X0X0X:X:X2X:XwXwX0X:XwX2XwX0X0X2XwXwX2X:X:X1X&X$X;XF.{.2X=X*X*X:X-X-X:X7XpXuX:X:XuX6XuX:XuXuX:X:X:X:XuXwXuXiXiXiX2X6XwX6X:X6XwX6X7X6XpXuXpXpX7XpX6X6X6X7X6X6X5X6X6X6X6X6X6X6X6X6X6X6X6X6X:XwX:X:X:XwXuXwXwX0X1X0X0X6X0XyX6XtXtXuXpXpX6XuXhX",
"6X6X5X6X6XwX6XwXwXwXwX0XwX0X6X;X6X5X6X6X6X;X6X;X5X;X6X1X;X:X;X0X6X6X;X0X0X0X6X0X0X6X2X:X0X6X6X6XwX0X0XrXrXwXwX:XrXwXwX6XwXwXwX0X;X0X;X].Y.XX$X$X#X#X#X%X$X#X%X*X$X*X#X*X-X;X;X2X;XwX1X*X*X:X0X:XwX2X:XwXwXwX0X:X6X1X:X:X;X;X:X2X:X2X2X2XuXuXwXwXuXwXwX:XwXwXiXiXiXiXuXeXaX2XiXiXaXaXiX2X2X2XaXaXuXuXeXiXiXiX2XiX2XwXuXwXiXiXdX2X1X=X|.|.#X=X=X=X=X*X X#X#X=X=X$X=X|. X'.}.|.|.].}.|.|.;X1X2X2X2X2X0X:X0X2X0XwXwXeXwXeXuXuXwXeXwXwXeXwXwXwXwXeXeXuXtXuXeXuXuXuXrXeXqXeXeXfXeXqXqXqX2XeXqXqXqXeXfXiXaXsXfXgXgXgXgXgXfXgXgXfXfXfXaXgXfXfXsXaXaXtXeXaXuXeXeXwX2X1X&X;X0XwXeXwXqXwXwXwXwXwXrXqXeXqXwXwX0X0XwXwXwXqXeX0XwX0X0XyX0X0X0X0XyX0X0X0X0X0X4XqX1X,X>X<X<X>X>XOX_.@X>X@X+X(.@X@X@X@X@X@X9X+XQ.R.oX,X0XyX0XeXtXeXtXrXeXeXeXiXeXaXuXeXuXuXrXuXeXeXeXwXwXwXwXwXeXuXuXuXpXaXaXuXuXuXuXwXuXwXwXuXwXuXwXwXwXwX0XwXwX0XwXwX2X:XwX0X;XwX0X:X1X:X0X0X:XwXwXwXwXwX0X0X;X&X1X-X:X].oXuX=X#X;X:X;X-X:X6XpX2XuX:XwXwX:XuX:XwXwXwX6XwXwXuXpXwXuXwXuXuXwXwXwXwX6X6XrXpX6XuXuX7XjX6XpX7X7X6X6X5X6X6X6X7X-X6X6X6X6X6X6X6X6X:X:X2X6X:XwXuXuXwX2XtXaXtXrXwX5XwXwX6XrXpXjXpXpXpXjX",
"6X;X;X:X6X6XwXwXrXwXrX6X6XwX0X6X5X6X6X5X:X:X6X6X;X6X6X;X0X;X6X1X;X6X:X0X6X6X6X6X6X0X6X0X6XwX6X0XrX0X6XwXaXjXuX0XrX6X0XwXrXwXwXwX-XwX1XoX].[.oX|.#X%X#X$X#X#X#XoX;X;X;X;X-X;X;X-X;X:X;X*X;XuXuX;XwX0XwXwXwXwXwX:X0X2X;X;X;X;X:XwX2XdXuX2XwX2XwX2XuXuXwXwXwXuXuXiXuXiXiXiXiX2X2XdXuXaXaX2XiXiXdX2XwXuXiXdX2XdXdX2XuX2X2XdXdX2X2XiX2X3X$X#X$X=X=X=X X*X*X=X#X*X$X*X=X|. X|. X*X|.|. X<X1X3XeX2X2XeX:X2X0X:X:X2XeXuXwXuXeXeXuXeXwXwXuXwXwXeXeXeXuXeXeXeXuXeXeXeXwXrXeXqXxX2XxX2XqXxXqXqXeXqXqXeXqXfXfXfXgXsXfXsXfXsXgXfXsXsXaXaXaXaXgXgXfXsXaXtXeXeXeXiXeXeXwX0X1X;X;X0XeXeXeXeXrXeXwXrXeXtXaXtXeXwX0X0X0X0X0XwXeX0XrX0X0XqX0XyX0X0XyXyXyX0X0X0X0X0XqX,XqXqX9X,XqX,X>X@XOX@X@X).(._.).OX_._.(.(.`.oXb.E.&XrXeXyX0XtXrXeXeXeXeXeXrXeXtXiXiXtXiXeXrXuXuXeXeXwXwXwXrXeXuXaXpXaXaXaXaXaXuXaXeXwXuX6XwXuXeXwXwXwXwXwXwXwXwX0X6XwXwX2X1X:X2X0X:X2X:XwX0X2X:XwX0XwXwX1X0X2X1X2X$X2X;X|.aX-X-X-X-X:X:X:X6XuXuX:XwX6X:XwX:XuX:XuXwXuXuXuXuXuX2XwX2X0XwXwXuX6X6XwX6XwX6XrXrX6XpX6X7XjX6X6X6X5X6X6X6X-X7X6X-X7X6X6X6X6X6X6X:X-X:XuXuX:X-X#X[..XL.E.^.$X-XyXpXlXlXkXpX7XjXhXhX6X",
"6X6X5X;X5X6XwX6XrXwXwXwXwX5X6X0X6X6X:X:X-X6X6X;X6X;X6X;X:X;X;X0X6X;X6X6X0XwX6X0XwX6XwX6X0X6X0X6XwX6X6XuXsXkXsXrXrXwXwXwXwXrXwX6X0XeXwX;X$X#XoX].#X#X#X%X%X#X#X#X*X;X;X;X2X2X0X2X;X$X$X6XuXwX0XeXuX2X:X0XwX0XwX:XwX0X:X;X-X:X0XwX2X2XuX2X2XuXwXuXuXuXuXwX2XwXuXaXiXaXdX2XiXiXiXdX2XiXdXiXdX2X2X2XuXwX2X2X2X2X2X2X2XiX2XdXdXiXiX2X2X2X=X$X X=X=X=X=X#X$X X$X=X X=X=X|.|.|.=X=X=X X3X3X2XfXeXeX2X2X0X2X2X:X2X0XwXiXwXwXeXwXwXeXeXwXeXwXeXwXwXuXaXuXeXeXeXuXuXiXeXeXeXqXqX2XqXqX2XxXqXeXqXqXeXeXqXfXfXgXfXsXfXsXsXfXgXgXfXsXfXsXsXdXsXfXgXfXfXaXaXiXwXeXeXeXeXeXrXwXrXwXeXeXtXeXeXeXeXtXeXaXaXaXtXeXeXeXwX2X0XwX0XrX0XrX0X0X0XwX0XyXyX0X5X0X0XyX0X0X,X,X,X,X,X,X,XqX8X>X>X_.).(.(._.Q.+X>X(./.E.U.(.K.].4XyXeXyX0X0XrXrXeXeXeXeXrXeXiXaXtXuXiXaXuXeXaXaXuXeXeXuXuXiXuXuXaXhXhXaXsXaXuXuXwXuXwXuXwXuXwXeXwXeXwX0X0X2X2X2X0X2X:X:X:X0XwX2X2X:X:X:X:XwXwX2XwX:XwX1XwXwX2X2X$X1X:X'.aX:X:X:X-X-X:X:X6X:X:X:X:X:X:X2X6X:X:X:XwXuXuXuXrXwXwXwXwXwXwXwX0X6XwXrX6XrX6X6X6X6XjX7X7X6X6X6X6X6X6X6X6X6X6X6X6X6X6X6X6X6X6X6X6X6X0XwXuX:X*X[.{.].E.^.E.P.b.f.s.i.4X6XhXhXpXuXuX6X",
"5X6X;X6X0X0X0X0X6XwXwXwX5X6X0X6X5X5X5X5X5X5X-X5X;X5X;X0X;X;X6X;X;X6X0X:X0X6X0X6X6X0X:X0X6XwX6XwX0XrXrXaXkXlXjXhXuXpXaXaXpXuX6X6XeX;X;X1X:X$XoXXX[.oX|.#X$X%X#X%X*X;X;X0X2XwXwX2X-X=X;XeXaX;X2XuXwX0X2X2X2X2X6X0XwX0XwX2X1X:X0XwXuX2XaXuXiXwXiXiXiXiXiXwXuXwXuXiXaXiXiXiXdXdXiX2XuXiXiX2X2X2XdXdX2XiXuXdXiXdX2X2XdXdX2X2X2X2XiXdXeX2X2X3X*X*X$X=X X=X#X=X*X X#X#X|.|.$X=X$X#X$X#X3X1X2X2XiXeXeX2XwXwXwX0X0X:XwXwXwXwXwXwXeXwXeXwXwXwXeXwXeXuXeXrXtXiXaXeXiXaXiXtXeX2XxXxXxX2XxXqXqXeXqXqXeXfXfXzXfXfXsXfXsXfXsXsXgXgXgXfXfXsXaXfXsXsXfXfXaXaXeXeXrXwXeXeXeXeXeXeXwXrXeXuXeXeXtXtXtXeXtXtXaXxXtXtXtXeXeXrXwXwXrXqX0XrXeX0X0XyX0XyX5XrX0XyX0X0X0X8X,X,XqX,X,XqX,X9X8X9X>X+X_._.@X+X(._.@X_.(.W.U.U.R.oX&X0X0X0XrXyXeXeXeXeXeXeXiXeXeXeXuXeXeXeXeXeXaXuXeXeXeXwXeXrXeXuXaXaXhXaXaXpXaXuXuX7XwX6XuXrXwXeXwXwXwXwX2XwX2XwX0X2X2X:X:X;XwX:X1X1X;X2X2X0X0X2X:X2X2XwX2XwX2X2X$X2XwXH.2X:X:X:X:X:X:X7X6X:X:XuX6X:X:X6X:XwX6X:X6XuXuXwX6XrXwXwXwXwX6X6X0X0X6XwX6X6X6X6X6X6X6X6X6X7X6X6X6X6X6X6X6X6X-X6X6X6X6X6X6X6X6X6XuXuXaXuX6X*X[.[.[.].^.U.U.I.L.b.s.i.U <.[.dXvX7X6X6X",
"0X;X0X0XwXrXwXwXwX5X5X0X0X0X6X6X5X5X:X5X6X5X6X6X;X5X6X5X0X;X;X0X:X5X:X6X:XwX6X0X0X6XwX6X0X6X0X6XwXrXpXaXsXjXlXkXhXkXhXkXjXuX0X5X0X-X&X5X6X:X$X-X].].[.%X*X$X$X*X0XuXiXwX1X2X-X#X].;XuXeX6XeXwX0XwXwX:XwXwX0X2X2X:XwXuXwXeXwXwXwXuXuXdXaXiXuXuXuXuXiXiXeXwXwXuXiXuXdXiXdX2XiXiXiXdXdXiX2XdXaXfX2XdX2XiX2XiX2X2XdX2X2X2X2X2XiX2XiXiXeX2X3X*X X X=X=X=X=X=X X*X*X#X|.$X;X=X*X X X<X2X1XtX2X2XiX2XeXuXwXeXwX2X:X:X0X:X0XwXwXwXwXwXeXwXwXwXwXwXeXeXiXaXeXaXaXtXaXaXtXiXxXeX2X2XxXxX2XfXeXeXxXfXqXfXzXfXsXsXsXsXsXaXfXsXfXsXsXsXsXaXfXiXaXaXaXaXaXuXeXaXuXeXeXeXeXeXeXrXeXiXtXeXeXaXtXaXaXaXtXfXfXaXaXfXaXeXeXwXeX0XeXrX0XqX0X0XyX0XwX5XyX0X0X0X0X0X0XqXqX,XqX,X,X<X>X>X9X9X>X,X>X>X(.(._.@X@X+X_.`.E.E.oX@X#X$X0XyXtXeXeXrXeXeXeXeXtXwXrXwXeXwX0X0XwXtXeXuXwXuXwXwXwXwXuXuXaXaXaXaXaXpXuXwXwXwXuXuXuXwXwXeXwXwXwXwXwX0X:X:X0X:X0X;X2X0X0X6X6X;X2X:XwX:X:X0X;X2XwXwXqX3XeX2XgXdXF.:X:X2X:X:X6X:X:X6X:X:XwX:X2X:X:X:X:XuXuXwX2X6XwXuX7XwX0XwXwXwXwXuX6X6XwX6X6X6XrX6XrX6X6X6X6X7X6X6X6X6X6X-X7X7X6X-X7X6X6X6X6XuXuXpXaXvXdXuX*X[.{.].].E.R.I.R.^.oXR.K.{.e.<..XpX7X6XpX",
"wX0X0X0X0XrX0X0X0X0X0X0X0X0X5X5X6X0X0X0X0X1X;X5X;X0XwX0X6X&X&X&X;X-X-X5X:X-X5X5X0X6X;X;X0X0X0XwX6XrXjXkXhXsXaXhXhXkXkXhXrXwX6X0X2X2X3X1X2X2X<X<X<X X X3X=X X#X;XwX2XeX;XiX#X*X:XwXwXwXwX0XwXwXwXuX2XwX:X2X2X2XuX2X2X2X2X2XaXaXiXiXiXiXiXiXuXuXuXiXiXiXuXuXwXwXwXaXiXwXuXiXiXiXuXeXiXiXiXiXiXiXiXiXwXwXwXwXiXiXwXuXwXuXwXwXwXeXaXiXiXiX2X-X=X*X-X*X*X*X*X*X*X#X*X*X=X;X*X#XXX*X2X0XwXwXeXuXuXwX0XwXwXwXrX0X1X2X1XeXwXuXuXuXiXuXeXwXeXeXtXtXeXwXwXeXaXeXtXtXaXtXtXeXeXiXeXaXeXaXtXeXeXtXtXaXaXsXfXaXfXsXkXfXsXfXsXaXaXaXaXaXkXaXaXaXfXeXfXeXiXiX3XfXfX3XfXiX3XfX3XeXeXuXeXiXiXiXaXeXiXaXaXfXaXaXaXaXtXaXtXwXwXeXtX0XrX0X0XyXyX0XqX5XyX5X5X0X9X0X4X1X0X,X0X,XqX,XqX1X8X8X9X,X@X@X@XoX_.(.OX>X).(.(.Q.g.P.0X(.1X8XqXqXqXxXqXqXtXtXqX1XqXxXxXrX5X;XrXeX0XwXtXrXwXwXpXrXuXpXpXjXpXpXjXuXrX6XrXrX6XuX6XwXwX2XwX:XwX:X0X:X0X:X;X;X:X:X;X:X:X;X0X;X0X:X1X:X0X:X2X0X0XwXwX:XsXXXeXaX{.*XwXuX;X:X:X:X:X6X:X:X:X6X-X6X6X6X6X6X7XrXrX7X7X7XrX7X6X6X7X7X6X7X6X6X6X6X6X6X6X7X6X6X0X6XwX0X0X:X0X:X6X:X5X:X5X:X5X5X:X5X:X:X6XwXpXhXrX;X%X#XXX].Y.R.E.E.U.U.U.U.E.B.x.p.D XX%XXXXX",
"0X0X;X0X0X0X;X5X4X;X5X6X0X5X;X;X-X;X;X-X&X-X&X;X&X;X0X0X;X&X6X6X-X5X6X-X-X6X6X-X%X6XrXrX5X;X&X0XtXaXlXlXkXkXkXkXaXaXpXrX0X:X6XwX2X1X1X1X2XxX2X2X<X X}.J.].=X2X2XaX2XiXwX#XoXwXuXwXeXeXwXwXwXwXwXwXuX2X:X2X2X2XwX2XiXiXiXaXfXaX2XeXuXuXiXuXeXuXeXiXiXwXiXuXwXuXwXaXiXuXeXaXaXiXiXiXiXiXiXiXiXeXdXwXuXuXuXwXuXuXwX2XuXwXwX2XwXuXiXiXiXaX2X2X=X=X=X;X*X*X*X*X*X*X*X*X=X#X#XoX=X:XwXwXwXwXeXwXwXuXwXqXwXqXwXwXwX1X2X0XwX2XwXwXuXuXeXeXeXtXtXaXtXeXrXeXrXeXtXtXeXaXtXaXeXaXeXeXaXeXtXaXiXtXaXaXaXfXlXfXaXfXaXaXfXfXsXfXaXkXsXaXaXfXfXfXiXfXiXfXeX3XfXfXiXfXiX3XfX3XfXuXuXuXiXiXiXiXiXeXuXaXaXaXsXaXaXfXaXtXtXwX0X0XeXrX0XeX0X0XeX0XyXyX0X0X0X5XyX,X0X0X8X1X8X,XqX,X,X8X0X8X8X,X@X,X@X@XoX).<XOX<X<X X}.x.E.8X(.0X,X0XeXqXqX1XqXqXqX1X1X(.x.J.oX0XrXyX0X0X0XrXtXrX0XrX6XrX6XpXjXjXaXpXpXrXuX6XuX6X6XrXwXwX0X:X2X0XwX2X1X2X;X:X;X0X0X;X;X;X:X:X:X2X2X:X:X:X0X2XwX:XwX2XiX*XdXuX6X*XF.hXpX:X:X:X:X:X:X:X:X6X6X-X6X6X6X6X7XrX6X7X6XrX6XrX7XjX7X6X6X6X6X6X6X6X7X6X7X6XpX7XwX6XwXwX6X6X6X;X6X:X5X:X:X:X:X:X:X:X:X5X;X5XwXrXrXwX:X$X-X*XXX[.E.R.R.I.P.U.W.W.P.U.b.*..X&X4X%X",
"5X5X;X&X;X&X;X%X&X&X&X&X&X;X&X&X-X$X$X&X-X&X;X;X$X-X;X6X;X;X6X0X-X-X6X:X6X-X5X5XrXwX6X@X&X6XtXkXhXjXhXaXkXhXhXsXaXuXwX:X;X:X:X6X2X1X1X2X2XxX2X2X2X3X=X X X#X2XaXiX-XfXlX{.=XfX0XwXwXwXwXwXwX0XwXwX2X2XwXwX6XwXwXdXaXaX2XaXsXdXiXuXuXuXwXeXuXuXuXuXuXiXwXuXwXwXwXaXiXuXaXiXaXiXuXiXiXiXiXiXaXiXiXiXiXwXuXiXuXuXuXuXwXuXwXuXwXuXiXiXiXiXiX:X;X*X*X*X*X*X*X*X*X*X*X-X$X[.#X*X:XwXwXwXwXwXwXwXwXwXwXwXeXrXwX0X0XwX0X2XwX:XwXwXwXuXeXuXeXaXtXaXtXeXeXeXeXeXaXtXeXtXuXeXeXtXaXaXtXtXaXaXtXaXaXfXfXlXfXkXfXsXfXkXfXfXkXfXfXfXfXkXaXaXaXfXfXeXfXeXiXeXeXfXfX3XeXiXfXfX3XeXuXuXrXiXaXuXaXuXiXaXaXaXaXaXeXfXaXtXtXeXrX0X0X0X0X0X0X0XyXrX0X5XyX0X4X0X0X8X4X1X8X8X0X,X1X,XqX,X4X,X4X,X,X@X&X<XOXOXOXOXOX).OXQ.x.P.oX!.,X,X,XqXqXqX1X,X0X#XP.g.U.>X1XoXE.oX0XwXrX0XrXrXxXrX6XrXwXwXuXaXhXaXaXaXrXuXrXwXrXwXrX0XwX6XwX:XwX:XwX:X:X2X:X:X2X;X:X:X;X;X2X0X:X0X:X1X0X:X:X2XwXwX0XaXXXzX6X;XwXF.uXsXwX:XuX6XwXwX:X6X6X:X6X6X7X7X7X6X7XuX6X6X6X7X7XjX6X6X6X6X6X7X6X7X6X6XpX6XpX6XrX:XwX0X6X0X:X;X6X;X6X5X:X:X;X5X:X-X:X5X-X:X5X6X6X6X;X5X;X;X-X#X.XXX^.E.E.W.U.W.U.P.Q.I.5.b.+XXX%X",
"0X0X5X5X5X&X&X%X&X%X%X&X;X4X5X&X;X;X=X&X-X;X;X0X-X;X;X5X;X&X;X5X6X5X-X5X-X6X5X-X;X%X&X0XjXkXkXeXaXaXeXrXuXaXrXuXrX0X6X;X:X:X0X;X2X2X2X2X2X1X2X2XeX1X2XaX2X X$XfX0X;XaXkXY.;XaX:XwXwXeXwXwXwXwXwX:XwX2XuX2XuX2X2XiXaXaXiXaXsXfX2XiXwXuXwXuXwXeXiXiXwXwXuXiXuXiXwXiXiXiXiXaXiXiXiXaXiXdXaXaXaXiXaXuXiXiXiXiX2XwXwX2XuXwXuX2XuXuXiXiXiXiXiXuX;X*X|.*X*X#X#X*X|.*X|.#X#X*X;XwXeXeX:XwXeXwXwXwXwXwXwXwXqXwXeXwXwXwX2X0X:XwX2XwXwXaXeXaXtXtXaXtXtXaXtXtXeXeXtXeXaXtXtXaXaXiXaXeXaXaXaXaXaXaXaXaXkXfXgXfXlXlXfXgXkXfXsXsXkXfXfXkXfXfXaXfXfXfXeXfXfXeXeX3XfXfXeXeX3XeXfXiXuXuXaXaXuXiXaXiXaXaXaXaXaXaXaXaXeXeXtXaXtXeX0X0XrX0XqXrX0X0XqXyX0XyXyX0X5X4X0X0X0X8X,X,X1X,X,X8X0X8X,X,X>X&X&X@X@XOXOXOXOX).<X(.L.B.G.N.&X,X0XOX,XqX0X1XqX$XU.P.Q. XQ.L.K.L.E.rXtXtX0XwXtXrX5XwXwXwXrXpXjXjXaXpXpXuXwXuXrXwXwXwXwX0X2X0X:X0X2XwX0X;X:X:X;X6X1X0X:X:X0X;X:X:X2X2X:X2X0X0X:XwX2XuXuXwX:X:XdX:XY.aX6X7XiX:X:XuX0X:X:X6X6X7X6X6XpXrX7X6X6XpX6XrX6X7X6XjX7X6X7X6X6X6XjX7X6X6X6X7XrX6XwXwX6X0X6X6X6X6X;X:X:X5X;X;X:X;X;X;X:X;X;X;X;X6X5X-X-X-X-X#X].R.R.I.U.!.P.P.N.U.W.L.p.<..XXXXX",
"0X0X6X;X&X&X%X;X%X%X&X%X-X;X&X5X1X&X&X$X;X;X;X;X1X6X&X;X&X-X;X-X-X:X-X5X5X5X-X-X&X%X%X6XtXtXeX1XrX1X;X;X0X0X0X0X0X;X;X;X;X;X;X5X2X2X2X2X1X3X1X2X2X1X2XfXeX X X1XeXaX0X;X].0XuXuXwXeXwXeX0XwXwXwXuXwXwXuXwXuX2XuX2XiXaXaXaXaXaXaXeXuXwXuXiXuXiXiXwXwXiXiXiXiXiXiXuXiXiXaXaXiXiXuXiXaXaXaXaXaXaXiXiXiXaXiXuXwXwXuXwXwXuXwXuXwXuXiXuXiXiXaXuX:X=X*X=X*X*X*X*X*X*X*X#X-X;XwXwXwX0XwXeXeXwXwXwXwXqXeXeX0XeXwXqXwX0XwXwXwX0XuXuXiXaXaXiXtXtXaXaXtXtXeXtXeXeXeXtXtXtXtXeXaXeXaXaXtXaXtXaXaXaXfXfXkXfXkXkXlXfXfXkXsXfXkXfXfXkXsXkXaXaXaXfX2XfXfXfX2XfXiXiXiXeXfXeXeXeX3XuXeXeXuXtXeXeXtXaXtXeXaXaXtXtXaXtXeXeXeXaXtXrX0X0XrXyX0X0XqX0X0X0XyX5X5X0X4X8X1X8X0X,X8X,X1X,X,X0X8X8X4X&X@X@X@X>X<XOXOX). X>X<X@XT.W.x.P.@X,X0X,X0XqX,XOXOXoX!.,XE.x.x.P.Y.L.x.oX5XrX0X0XrX0X6X5X6XwXuXeXeXeXfXpXtXuXrXuXrXuX6XwXwX:X0X:X2X0XwXwX:X:X0X6X;X:X:X:X2X2X:X2X:X0X:X:X2X0X2X6X2XwX0X6XpX&X;XwXuXrXf.:X;XrXuX6X;X:X:X:X:X6X6X6X6XrX7XuX6X7XuX6XwXuX6X7X6X6X6X7X6X6X6X6X6X7X6X7X7X6X7XwX0X6X:X0X6X6X6X5X;X6X;X;X5X;X;X:X-X:X5X:X;X-X;X6X;X;X;X;X-X-X%XR.E.R.I.U.E.U.E.I.^.~.K.i.%X%XXX",
"0X0X5X&X&X%X%X&X#X%X#X$X%X$X&X;X1X;X-X-X;X2X6X;X1X;X;X;X;X&X&X;X-X5X-X-X-X5X:X5X5X5X;XoXoXoX$X1X-X$X$X-X:X0X0X0X;X6X0X;X6X5X1X;X2XqX2X2X2X2X2XeXeX2X1X1X2XiX2X X:XsX:X*X:XiX;XeXwXwXwXwXwXwXwXwX:X2XwX:XuX2XuXwXiXiXaXaXaXaXaX2XwXuXuXiXiXiXiXuXiXuXuXuXwXiXuXiXwXuXiXiXiXiXiXaXaXiXaXaXaXaXiXaXiXiXaXiXuXwXwXuX2XuXuXuXwXuXwXiXiXaXaXaXaXuX:X*X-X;X:X;X:X;X:X:X:X2XwX0X2X0XeXiXwXwXqXwXrXwXqXwX0XrXeXrXeXeXwX0XwXuXeXeXaXaXaXaXtXtXtXeXtXtXaXtXiXeXrXaXiXtXiXtXaXeXtXaXaXtXaXaXaXfXfXaXaXfXfXlXgXgXlXfXfXfXsXfXaXkXfXfXfXfXaXfXgXgXzX2XfXfXiXiXiXeXeX3X3XfXeXfXwXeXwXuXuXaXuXaXaXiXaXaXeXaXaXtXaXtXtXtXeXrX0X,X0X0X0X0X0X0X0XyX0X0X0X0X0X0X0X4XqX,XqX,X,X,X,X<X,X8X8X&X,X,X&X@XOX).<XOXOX).OXOX@XQ.OXP.Q.oXoXOXqXqX1XOXE.Q.}.oXoXOX&X,X+XE.R.R.K.^.;X0XrXrXyX5X6XwXuXtXwXwXwXiXpXrXwXwXwXwX6XrXwXwXwX2X2XwX0X:X0X2X2X;X1X2X1X:X0X2X:X0X6X1X;X2X2X:X:X:X2XwXwXwXwX;XwX6XrXwXXX{.6X6XpXaXwX;X6X0X6X6X6X6X7XrXrX7X6X6XwX6X7X7X6X6X7XjX7X7X6X6X6X7X6X6X6X7XrX6XrX7XuX6X0X6X;X6X0X;X;X6X5X6X6X;X5X:X5X5X:X;X:X5X5X-X;X5X6X;X;X;X6X0X4X%XoXU.L.N.P.E.I.K.R..XR.5XXX.X",
"5X6X5X&X%X#X%X%X%X%X%X%X%X%X%X&X;X;X;X;X0X0X0X;X0X;X;X&X;X;X;X;X-X-X4X-X%X;X-X&XoX;X0X5X+XoXQ.Q.$X#X%X%X-X0X;X;X;X0X0X0X0X5X;X0X1X1X1X2XqXeXeXeXeXeX2X3X2XfXqX<X$X0X2X;XaXaX0X2XwXeXwXwXwXwXwXwXuX2X2X2XuXwX2XiXeXaXfXsXaXaXsX2XwXuXiXaXaXaXiXiXiXiXiXiXuXuXiXuX:XwXuXaXiXiXiXaXuXaXaXaXaXiXaXiXaXaXaXaXuX2X2XuX2XwXwXiXwXwXeXuXaXiXiXaXaXaXuX2X:X:X:X:X2X2X2X:X0XwXuXwXwX0XwXaXwXrXrXqXeX0XrXwX0XeXeX0XrXwXwXeXeXeXuXaXaXaXtXiXaXeXtXeXeXtXeXtXeXtXeXtXtXtXaXeXaXtXaXaXtXaXtXaXtXaXtXaXaXkXfXkXlXfXfXfXkXaXaXfXaXfXsXsXfXaXfXaXfXzX2XzXfXfX2XfXiX3XfXfXiXeXiXeXeXuXeXeXtXiXuXaXaXtXaXeXiXeXaXaXtXtXtXtXwXwX0X0X0X0X0X0XyX0X0X0X0XyX0X4X0X8X,X0X,X0X,X,X,X<X,X,X&X4X&X4X,X&X@X@XOXOXOX).OX X).<XOX(.&XQ.+XQ.!._.oX X(.OXOX@X1XxX,X+X!.Q.OX.XE.L.K.L.E.%XrXtXrXrXwXrXpXpXuXwX2XiXrXwX6XwXrXwXrXwX0X2X:XwX:X0X2XwXwX:XwX0X0X:X2X0X2XwX:X:X1X2X:X1X;X0X2X0XwX2X2XwX0X-XrX6XwX:XY.6XrX6XeXaXrXwXrXrX6X6X6XwXwX6X6XrX6XuX6XuXrXwXwXuX7X7X6X7X7X6X6XjX7X6X7X6X6X6X6X7XwXwXwX6X:X6X6X0X0X;X;X6X6X;X;X:X:X:X;X:X6X6X:X-X-X6X6X:X;X;X6X0X&X4XoXR.h.g.x.L.R.R.R.XXXX4XR.R.",
"0X0X5X;X%X#X&X&X#X#X%XoX$X%X&X&X&X#X#X&X:X:X0X;X0X0X5X;X&X;X;X&X;X-X-X%X;X-X;X%X;X4X;X&X;X@X@XoXOXoX#X@X;X;X&X4X5X0XrX0X&X&X&X5XqX2XqX1X2XeXqXqX2XqXfXeXqX1X1X1X;X*X;X%XeX1XuXuXwXwXeXwXwXwX0XwXwXwX:XuX2X2XiXiXiXdXgXfXaXsX2X2XwXwXaXaXaXaXiXiXuXuXeXiXiXiXwXiX:X:XeXiXiXuXiXaXiXiXaXiXiXaXiXiXaXaXaXiXuX2XwXiX2XwXuXwXuXuXwXuXaXiXuXiXdXaXuX2X:X:X2XuX2XwXwX:X:XwXiXaXiXeXeXwXwXwXeX0XeXrXeX0XrXyXeXeXqXeXwXrX0XeXuXaXaXaXaXeXaXtXiXtXtXtXtXaXiXrXeXtXiXtXtXeXaXaXaXtXfXaXaXaXfXfXaXaXaXfXaXkXsXkXfXsXfXaXfXaXaXaXfXaXaXfXtXaXfX2XzX2X2XfXfX2XfXfX3XiXiXeXeXeXeXuXwXeXeXaXeXiXtXiXeXiXeXaXeXuXeXeXaXtXeX0XwXeX0X0X0X0X0X0X0XqX0XyX0X0X0X0X0X4X0X8XqX,X,X,X,X,X@X&X@X4X>X,X8X,XOXOX<XOX).(.).OX@X_.,XQ.@XQ.(.,X>X$X,X,X2X$X$X,X@XoX(.(.oXoXE.R.R.j.j.R.%X5X6XrXtXtXtXuXaXrXeXeXeX0X0XwX6XuXwXwXwXwXwX0X2X2XwX:X2X0X:X;X2X:X:X:X0X:X0X2X0X:X1X6X:X:X:X0X:X:XwX0X6XuX0X#X6X6X[.6X0X;X;X6X6XrXaXuXpXuXuXwXuXwXwX6XwXuXwXwX6XuX6XuX7X6XjX6X6X6X6X6X6X6X6X7X7X7XrX7XwX6XwX;X0X;X6X6X6X6X6X0X6X5X6X6X5X;X;X%X;X;X;X-X;X:X:X5X-X%X-X;X%X&X4X4XOX.XoX@X%XOX4XXXXXXXK.R.",
"tX0X%X#X#X%X%XOX#X#X%X$X%X$X%X%X%X$X#X*X$X-X-X1XrX1X1X0X:X;X-X;X%X%X;X%X4X;X&X%X%X%X&X&XOX$X@X&X XOX$X1X1X0X1X0X1X1X1X,X0X1X,X<X1X1X1XqXeX1X1XqX2X0X0X0X1X1X0XeXsX[.$XwX:XwXuX2XwXwXwX2X2XwXwXwX:XuXwXwXwXuXwXiXfXfXgXdXaXaXaXaXaXaXiXaXiXiXiXaXiXiXiXiXiXwXuXwXwXuXwXwXuXaXaXwXdXfXaXaXiXiXiXaXaXaXiXuXiXuXwXwXiXuX:X2XuXuXeXuXiXiXuXiXiXiXwXwX2X:X:X:X:X2X2XwXwXwXwXeXeXeXeXrXeXqXrXeX0XyX0XeX0XyXrX0XqXrX0XrXfXeXeXfXfXiXeXfXtXtXaXeXtXuXtXtXeXaXeXtXiXtXtXtXeXaXtXeXaXtXaXaXfXtXfXfXaXfXfXaXaXkXkXfXfXfXaXaXfXaXtXtXeXaXaXfX3XfXfXfXfXiXiXiX3XfXeXeXeXiX3XfXeXuXeXeXeXeXeXeXiXtXaXiXeXaXtXuXtXtXtXiXrXeXeXeXeX0X0X0X0X0X0XyX0XyX5XyX4X0X8X0X0X0X8X0X,X,X,X,X@X4X@X@X,X>X>X,X>X).OX). X).OX)._.oX(._.OX@X$X,X,X>X&X,X&X,X,X,X8X&XOX(.(.oX+XoX+XR.E.].R.%XtXrXfXfX2XxX2X2XeXeXwXwXwXwXeX2XeX2XwX0XwX:X:XwX2X:X0XwX:X2X0XwX:XwX0X2XwX0X2X0X:X0X:X2X2XwXwX:X:X:X;XeX-X%XwX%X{.0XwXwX0XpXeX6XpXuXaXaXpXuX:XwXuXwXuXuX6XuXuXuXwX6XjX6X7X6X6X7X6X6X7X6XrX7X7X6X7XrXwX6X;X6XwX6X;X6X5X6X;X&X-X6XwX0X:X6X;X6X6X;X:X;X;X:X;X;X6X6X;X5X%X%X@X+X0XtXtX-X0X0X5X%X.X.XXXXX",
"rX5X%X%X%X#X#X%X%X%X%X%X$X%X&X%X%X$X#X%X$X*X&X;X1X;X;X0X1X-X&X;X;X%X%X-X%X&X&X5X&X&X&X&X<X$X$X$XoX#X@X$X&X<X,X0X,X&X<X1X1X0X1X0X2X,X1XqXqX1X1X2X0X1X2XeXeXfXeX0XeX[.-XaXwX0XiX0XwX0X0XwXwXwXwXeX2XuXuXiXiXiXaXsXdXgXfXgXaXsXfXdXaXaXaXaXaXaXaXaXiXaXiXaXiXiXwXuXwXwXuXuXuXiXiXsXaXaXfXaXaXaXaXaXaXiXiXwXwXiXiXuXuXwXwX2XwXuXiXuXiXwXwXiXiXiXiXuX:XwX2XwX2XwXwXwXeXeXuXeXeXeXeXrXeXeXeXyXeXyXqXyXqXyXeXrXwXqXyXeXeXiXeXeXiXiXeXeXtXeXtXtXtXtXaXtXtXtXeXtXtXtXaXeXtXaXaXaXaXaXaXfXaXaXaXaXfXaXaXfXsXfXaXfXsXaXaXaXtXaXaXtXaXaXaXaXfXfXeXfXfXiXfXeXfX3XfX3XfXiXiXfXuXeXiXaXuXuXaXuXiXuXeXiXuXeXiXaXtXaXeXeXeXeXyXeXwXwX0X0X0X0X0X0XyX5X0X0X0X4X0X&X0X,X0X,X,X<X@X&X$X&X@X4X&X&X,X,X<XOXOXOXOXOX<X X@XOXOXOXOX>X>X,X&X,X8X&X>X&X&X&X,X$X@X@X+X@X%X$X^.R.R.K.b.XXrXyX2XxX2X2XtX2XqXeXwX2X0XwX2XeX2XeXwX2XwXwXwX2X0X2X:X2X:X0X2XwX0X2X2XwX:X:XwX2XwX2X:X0X0XwXwX0X2X2X-X0X*X$X6X*XXX%X6XwX0XaXuXeXjXeXpXaXuXuXuXwXuXuXuXuXwXwXwX6XwXwXjX7X7X6X6X6X7X7X7X7X6X7XpXrX7XpXwX6X-X;X6X5X5X6X6XrXwX6X6XwX6X:X5X:X6X6X:X:X5X:X5X-X-X5X;X6X;X;X+X%X%XXXOX0X5X$X0X6X-X%XXXXX4XXX",
"5X&X%X%X%X%X%XoX%X%X%X%X%X%X%X%X-X=X$X%X$X$X-X&X;X&X&X5X;X-X&X;X%X&X&X%X$X$X&X;X,X,X&X&X$X@X<XOXoXOXOXoXOX@X&X1X&X,X&X,X,X0X,X1X0X1X0X0XqX1X2X1XqX1X<X1X<X$X}.T.XX{.$XiX2X:XwXwXwX:XwX2XwXwXwXeXuXuXuXiXiXiXaXfXfXfXfXfXfXfXfXsXsXaXaXaXaXfXaXsXaXdXaXaXiXiXuXeXwXwXuXaXuXuXiXfXaXaXaXaXaXiXdXsXaXaXiXuXiXuXwXiXuX2X2XwXuXuXiXiXiXuXiXiXaXaXiXiX:X:X2XwXwXuXuXeXuXeXuXeXeXeXeXeXeXeXyXeXeXyX0XeXyXeXyXeXeXeXeXyXfXeXfXeXiXeXeXeXtXtXtXeXeXtXtXeXeXaXaXeXiXtXiXtXaXaXaXeXtXaXaXaXaXfXaXaXaXaXkXaXaXfXfXfXfXaXtXaXfXaXaXaXtXtXaXaXfXfXfXeXiXeXeXeXfXfX3XfX3XfX3XfXeXrXtXeXtXaXtXtXtXeXeXrXtXeXeXeXeXeXeXrXeXeXeX0X0XrX0X0X0X8X0X0X0XyX0X0X0X0X4X4X,X,X,X,X,X,X,X&X@X@X@X&X>X,X&X,X<X<X@XOXOXOX).OX<X_.$X@X>X@X,X,X8X,X@X,X&X&X>X,X@X,X&X8X4X4X@X%XR.b.K.b.^.yXrX5XxX2XfX2X2XeX2X2XwXwX0XwX2XwXqX2X0XwX2X0X2X0X2X2X0X:X2X0X0X:XwX:XwXwX2XwXwX:XwXwX0X2XwXeXwXwX0X0X-X;X-X-X6X6XoX].%X6X6X0XrXrXjXeXaXuXaXuXwXwXuXuXwXuXwX6XwXwXuXaXjX7X7X6X6X6X7XjX6X6X7XpX7X7XrXrXuX6X5X:X-X:X;XrX6XwXrXwXwXwX6X;X0X;X6X0X:X5X:X5X6X;X6X6X0X;X;X-X%X.X.X^.XXoXXX*X;X&X%X%XXX4XXXXX",
"%X%XXX%XXX%X%XXX%XXX%X%X%X%X%X%X$X$X$X$X$X$X&X-X-X&X-X;X;X&X$X-X-X-X%X$X%X%X&X0X1X,X&X&X,X>XoXoXOXoXoXoXoX$X<X,X&X&X&X,X,X,X,X&X2XqX2X0XqX1X<XOX$X$X$XoXT.L.J.P.{.Y.#XwX0X2XwXwXwXwXwXwX0XwXwXwXuXwXuXwXwXiXaXsX2XaXdXdXaXdXsXfXsXfXsXaXfXdXfXaXfXaXaXaXiXiXwXuXaX2X2XaXiX2X2XaXiXaXaXaXiXaXaXfXaXaXuXiXiXiXiXuXwX2XuX2XwXuXiXiXaXaXiXaXiXiXiXwXwXwXwXwXwXuXuXiXaXuXrXaXtXuXtXtXyXeXyXqXqXyX0XyXeXyXeX0X0XqXtXtXeXqXeXeXfXeXeXeXaXtXeXaXaXeXtXaXtXtXtXtXtXtXtXtXaXtXeXaXaXaXtXaXaXtXfXfXaXfXaXfXaXaXaXaXaXaXtXaXaXaXfXaXaXaXeXiXfX3XfXfX3XfXfX3X3XfXfXeXfXfX3XfXeXeXeXeXtXtXtXtXeXtXeXtXeXtXrXeXeXeXtXeXeXeX0XwXrX0X0X0X0X0X0X0X0X0X0X8X4X4X&X&X,X,X,X,X,X<X<X@X&X4X4X&X>X&X>X,X>X>XOXOXOX).<X_.,X>X>X@X@X>X,X>X,X@X,X>X&X,X&X&X,X@X&X8X&X@X@X+XN.D.K.R.XX0XpXjX2X1X2X2X2X2X2XeX0X1X2XwX2X2X2X2XwX2XwXwXwX6X0XwX:X2X:XwX2X2XwXwXwX0XwXwX0XwX0X6XwXwXwXwXwXwXwXwXrX0XwX0X;XeX-XK.].5X5X;X6XwXpXrXaXaXaXuXuXwXwXuX:X6XwXuXuXaXaXsXhXjXhX7X7X6X6X6XpX6XpX7XrXpXpX7XuXwX0X:X:X;X0XwXwXwX6XwX6X0X0X5X6X6X6X;X:X5X:X;X;X6X;X6X6X6X;X%X%X.X.X.X].R.[.XX;X-X-X-X5XXX4X4X",
"+X%XXX%X%X%XXX%X%X%X+X%X%X%X%X%X$X%X%X$X-X;X;X;X;X;X;X&X-X*X%X$X&X%X$X$X%X@X&X4X0X,X,X&X&X@XoX(.}.oXoX XoXOX<X<X$X<X>X<X<X&X$X@X&X&X,X1X,X$XOX}.}. X$XoXoX#X1XqX$X#X;XwXwXuXuXeXwX0XwXwX:XwXwXwXuXwXiXwXuXuXiXaXdXaXaXaXaXaXaXsXsXaXaXaXaXaXfXdXsXaXaXaXiXiXuXwXsX2X;XuXuXwX2XuXiXiXaXaXaXaXaXaXaXaXiXeXiXiXiXiX2XwXuXwXwXuXuXiXaXaXaXaXiXeXuXiXuX2XwXwXuXuXiXaXaXaXeXiXtXaXeXtXeXqXyX0X0X8XyX0XyXeX0XyXqXqXxX2XfXfX2XxXfXeXeXfXeXtXtXeXtXtXtXtXtXeXtXtXtXiXeXtXaXtXaXeXtXtXfXaXaXaXfXaXaXaXaXfXtXaXfXtXtXtXaXtXfXaXfXfXaXaXaXtXfXfX3XfXfXfX3XeXfX3XeXeXfXeXeXfXeXeXeXeXtXtXtXaXeXiXtXeXeXtXeXeXeXeXeXrXtXrX0X0XwXyX0X0X0X0X0X0X0X0X8X5X8X&X&X4X,X,X&X,X<X,X,X,X&X&X4X@X&X,X>X,X>X>X<XOXOXOX<X).>X@X@X@X>X@X@X@X,X,X@X,X,X@X<X>X,X,X>X,X@X@X@X@XI.I.R.E.E.L.%XzX2XqX2X2X2X2X2X2X2X2X2X2X2X2X2X2XwXwXwXwX2X0XwX:XwX0XwX2XwX0XwX0XwXwXwXwXwXwXwXwX0XeXwXeXwXwXwXwXrX6XrXwX;XrX5XK.E.wX6X&X;X;XrXrXaXaXaXuXwXwX2XwXuXuXwXaXsXfXdXuX7XhXhX7XhX7X6X6XjXpX7XpX7XrX7XuXwXrXwX6X:X:X:X:XwXwXrXwX6X6X;X6X;X6X6X6X5X;X5X:X5X6X;X5X6X:X-X%X+X.X.X.XXX{.{.XX-X-X6X6X5X5XXXXX",
"XXXXoXXX%X%X+XXXXXoXXXXXXXXXoX%X%X$X$X&X-X;X;X;X;X;X;X;X;X$X#X$X-X&X#X%X&X;X&X&X0X1X,X<X$X@X(. X}.(.oX(. X(.(.@X,X@X@X<X&X@XOXOX$X&X&X&X$X&X&X$X,XOX$X1XqXeXqX2XwXwX;X;XwXuXuX0XwXwX0XwX0XwXeXwXuXiXiXaXiXiXaXaX2XaXfXaXaXaXaXsXaXsXaXaXaXdXaXaXaXaXsXaXaXuXuXeXaX:X-XwXiXuXwXuXuXiXaXaXaXaXsXaXaXaXiXiXiXiXiXiXwX2XwXuXeXeXuXiXuXiXiXiXuXuXiXaX2XuXwXwXwXuXaXaXaXaXaXaXtXtXeXtX0XyX0X0X0XyXyXyXqXqXqX0XqXqXqXxXxXqX2XfXqXfXeXeXeXtXaXeXaXtXiXtXeXaXiXtXtXtXaXtXaXaXaXaXaXaXaXfXtXaXtXaXtXfXaXaXfXaXaXaXaXaXaXaXaXfXaXaXtXaXtXtX3XfXiXfX3XfXfXfXiXfXiXeX3XfXfX3X0XwXeXeXeXeXeXiXrXeXtXeXeXrXaXeXeXeXuXeXeXrXrX0XrXyX0X0X0X0X0X4X5X0X5X0X0X0X4X&X,X,X,X&X,X,X<X&X8X4X&X4X>X,X,X,X,X<X>XOXOX>X<XOX>XOX@X>X$X@X,X>X@X,X&X@X@X&X&X&X@X@X,X@X&X@X5X5XR.K.K.+X4X^.R.4X2XqX2XqX2XxX2X2X2XeXqX2X2XeX2XqXwXwXwXwXwXwX0XwXwX2X:X0XwXwX2XwXwXwXwXwXwXwXwXeXwXwXwXwXwXeXwXeX0X5X0X0X6XrX6X].R.eX6X;X0X&XwXtXaXaXaXaXuXwXuXwXaXuXiXaXfXsX:X*X6X7XjXhXcXjX7XcXpXpXpXpXpXpX7X6X6XwXwX6X;X5X;X%X6X0XuXuXrX6X;X:X5X;X;X6X6X;X;X:X;X;X:X;X;X;X-X%X.XR.^..XXX{.XXXX6X6X6X6XXXXXXXXX",
"XX%X%X%XXX%X%XXX+XXXXXXX%XoX%XXX*X*X&X;X;X;X;X5X-X&X&X;X-X$X#X$X;X@X%X&X&X5X&X&X>X<X,X@X$XOXOXoXoX(.oX(.Q. X}.(.OXOXOXOXOXOXOX X$X<X&XoX}.$X&X1X,X1X,X0X0X0X$XoX0XwX;X*X;XwX0X:XwXwX2X2XwXwXwXwX2XuXiXaXaXsXaXsXfXfXdXfXaXaXaXfXaXaXaXaXaXaXfXaXaXfXsXaXaXiXuXiXaX2X:X2XeXiXiXiXuXaXaXsXfXsXaXaXaXaXiXiXiXaXaXaXwXwXwXuXuXwXuXuXuXiXiXuXwXuXiXaX2XwXuXuXiXiXiXiXaXaXtXaXtXtXtXeXyX0X0XyX8XqXyXyXeXqXqXxXeXqXqXxXxXqXxXfX3XfXeXeXaXtXtXtXeXaXtXtXtXiXaXtXtXtXaXeXtXaXaXeXaXaXtXfXaXaXfXaXfXaXfXaXaXfXaXtXtXaXfXfXfXfXfXaXaXtXaXaX3XfXeXiX3XfX3XfXfXiX3XfX3XfXeXiXrXwXwXrXeXeXrXtXeXeXeXrXeXeXiXrXtXeXtXrXeXeXeX0XrX0XyX0X0X0X0X0X0X4X0X5X0X4X&X0X,X,X,X,X,X&X,X,X,X4X4X&X,X,X,X,X<X<X>XOX<XOX>X).>X@X>X@X>X>X@X&X>X,X,X@X@X@X@X>X@X@X>X8X4X4X4X0XR.b.h.4XzXtX.XXX2X2X2X2X1X2X2X2X2XeX2X2X2X2XeX2XwXwXwXwXwXwX0XwX:X2XwXwX:XwXwXwXeXwXwXwXwXeXeXwXwXeXwXwXwXwXwXwX6X6XrX0X6X0XwX;XR.wX&X5XtX6X5XtXuXuXaXaXaXiXaXaXsXaXaXsXsXwX*X{.5X6XjXhXhXcXcXjXpXhXpXpXjXpXpXuXwXrXwX6X6XwX6X%X:X%X-X2XrX0X;X:X;X:X-X-X;X5X-X-X;X:X;X:X-X;X-X-X.X.XR..XXXXXXXXX6X6X-X-X-X-X-X-X",
"XX%XXX%X+XoXXX%XXX%XXX+X%XXXoX%X;X-X;X;X5X;X&X;X-X$X$X&X-X&X$X$X0X$X%X$X5X0X8X&XOX$X,X,X@XOX<X<X>X<XOX X}.Q.(. XOXOXoXOXOXOXoXoX$X&X$XE.L.T.OX<X#X1X0X0X0X&X1X0X;X:X-XoX;X0XwX2XwX0XwXwXwXwXwXwX2XwXiXaXsXsXfXfXgXgXgXgXfXaXaXaXsXfXsXaXaXaXsXfXaXsXfXaXaXaXaXaXaXaXiX2XwXuXiXwXiXaXaXfXaXaXaXaXaXaXaXiXaXaXaXiXwXwXuXuXwXwXuXuXiXiXiXeXwXwXuXeX:XwXwXiXaXiXuXwXtXaXtXeXtXyXtXtX0XeX0X8XqXyXyXtXqXqXqXqXqXxXfX2XxXxXfX2XfXqXfXeXeXtXaXeXtXeXeXtXtXrXeXtXiXtXeXtXtXtXaXtXeXtXaXaXtXaXtXaXaXtXtXaXfXaXaXaXaXaXfXaXfXfXaXtXaXaXaXaXfXfX3XfXfXfXfXfXfX3XfXeXfXeXfX3XwX0XwXwXeXeXeXeXaXtXeXiXaXeXeXeXtXaXtXiXeXeXeXeXrXrX0X0X0X0X0X4X4X5X8X0X8X0X8X0X,X8X,X,X,X,X,X8X,X@X4X8X,X,X@X>X@X<XOXOX>X<XOX).@X@X@X@X>X@X@X,X@X@X>X&X<X@X<XOX&X>X8X,X&X4X@X&XP.R.U.4XxX4X4XtX2X2XqX2XxX2XeX2X2X2X2XeX2XeX2X2XwXwXwX0XwX2XwX:X0XwXwX2XwXwX0XwXwXwXwXeXwXwXwXwXwXwXwXwXwXwXwXeXwXeXrXwXwX0XrXwXR.;XXX;XaX0X-XrXeXuXaXaXaXsXsXfXaXsXfXfXiX:X X].XX5X6X7XjX7XjXjXhXhXhXhXpXpXsXpXsXpXuX0XwXuXwX:X:X].].#X:XwX0X1X;X;X;X5X;X;X-X;X5X-X%X-X;X-X%X%X.XXXR.R.XXXX6X6X6X5X-X-XXXXX-XXX",
"oX%X+XXX+XXXXXoX%XXXXXXXXXoXXX%X%X-X-X-X5X:X;X-X&X;X;X&X&X$XOXOX,X&X&X,X,X,X,X&X@X@X&X&X$X@XoX(.OX XOXOXOX(.).<X(.).OX<XOX XW.P.].E.R.Y.R..XoX%X0X0X;X5X&X5X;X5X0X$X0X;X].%X6X%X;X6XwXwX6XrXrXuXiXuXdXaXsXaXfXnXfXdXfXnXfX2XnXfXaXtXaXaXaXaXaXfXtXtXaXtXaXtXtXeXuXiXiX2X2X2X2X2XgXgXfXfXiXfXiXfXaXtXeXaXaXaXeX;X;X1X0XwXeX0XuX0X1XtXfX1X2XtXqX X<X3X3X3X3XqXeXfXrXeX0XeXeXyXeXeX0X0XqX0XyXyXtXqXtXtXxXtXtXtXtXtXtXxXeXfXfXqXfXfXfXfXfXqXfXqXfXfXfXqXqXqXqXxXxXxXtXtXtXtXtXtXtXtXtXaXaXaXaXfXaXtXfXtXaXaXaXfXaXfXaXaXaXaXtXfXaXfXfXiXeXfX3XeXeXeXeXeXtXeXrXrXwX0X0XwX0XeXeXeXeXtXiXeXtXeXeXrXeXtXaXtXuXtXtXeXeXrXeXyX0X0X0X0X0X0X0X0X,X8X,X1X8X0X1X,X,X,X&X&X&X@X,X>X,X@X,X>X@X>X@XOXOXOXOX>XOXOX>X<X<X>X>X>X<XOX>X<X_.>X<X_.>X<X&X>X&X&X@XOXQ.E.c.x.!.,XqXqXqXqX2X1X2X0X2XwX0XwXwXwXwXwXwX0XwXwXuXwXuX2XwX2X0XwX2X0XwXwXwXeXwX1X0XwX:X0X0X0XuXuXuXeXuXeXuXuXwXwXrXwX6XrX6X6XwXrX%X].+X5X0X0X0X6XuX2X2XwXwXwXuXdXuX;X:XeXwX1X%X].5X+XwXrXeXjXaXaXuXsXhXhXhXhXpXpXpXdXhXhX7XpXuX6XuX%XF.f.J.$XqX1X5X-X-X-X-X5X5XXX%X-X-X-X-X*X-X-X4X%X%X4X4X5X6X5X5X5X-X%XXXXX%X%X",
"%XXXXX%XXXoX%XXXXX+X+XXX%X%X%X%X-X-X;X;X;X;X5X;X;X%X-X%X&X$X$XOX&X$X@X&X@X&X&X$X&X&X@X&X&X$XOXOXOX(.(.).OXOXOXOXQ.Q.Q.P.B.x.!.}.E.L.g.L.].;X0X0X0X0X0X;X;X5X4X;X;X%X5X6X].+X;X%X&X5X5X6XwXwXwXwXiX2X2XdXsXdXsXgXfXfXfXnXfXnXnXfXaXaXaXtXaXaXaXfXaXaXaXfXkXaXaXeXaXiXaXsXgX2X2XgXfX2XnX2XiXiXiXfXaXaXeXtXtXtX0X1XrXwXeXeXeXeXeXeXfXeXqX2X2XeXfXfX3XeXqXqXqXeXfXqXeXeXyXyX0XqXyX0X0XyXyXyXeXyXyXtXrXxXpXtXpXrXaXtXaXtXtXeXeXqXqXeXqXqXqXfXxXfXqXqXqXqXfXfXeXxX2XxXtXtXtXtXtXtXaXtXtXtXtXfXaXtXaXaXaXaXaXtXtXaXfXsXkXaXaXaXaXaXfXaXiXiXfXiXfXiXeXeXeXeXrXtXeXwXrX0X0XwXwXeXeXeXeXeXtXtXeXeXeXeXeXtXtXeXeXtXeXtXrXrXeXeXyX0X0X0X0X0X0X8X0X,X0X,X0X8X8X1X8X,X,X,X,X&X,X>X>X>X>X&X@X&X,X@XOX_.OX_._.>XOX_.OX>XOX>X>X>X>X<X<X>X>X<X<X>X&XOX,XqX,XE.P.}.P.!.).<XqX2X2XqX2X1X:X0XwX:X2XwXwX0XwXwXwXwXwXwXwXuXwXwXwXuXuXwXwXwX2X0XwX0XrX0XwX0X0XwXeXwXwXwXeXeXwXeXwXwXuXwXwXwXrX6X6XrXwXrXrX;X%X%X&X6X0X0X:X:X2XwX:X:X2X0X;X:X0X0X1X-X%X&X%X4XxXxXrXtXaXzXhXhXpXpXpXpXhXhXcXcXhX7X7X7X6X6XaX;XY.f./ ^ t.f.-X4X6X5X.X{.-X5XXX-X-X-X-X-X-X-XXXXX-XXX-X5X5X-X5X-X%X%XXXXX+X%X",
"XX%X%XXX%XXX%XXXXXXXoX+X%X%X%X%X;X-X:X;X5X:X%X&X-X&X&X&X$X$X$X$X@X$X$X@X&X&X@X@X&X&X&X@X@X$X@X&XOXQ.Q.<X>XOXoX(. XQ.!.W.P.P.N.x.h.D.R.#X0X0X0X5X5X5X&X;X5X&X&X;X%X%X5X0XoX%X6X#X%X5X6XwXwXwXwXrXiX2XiXiXiXaXsXgXgXdXgXnXgXnX2XnXaXaXaXaXfXtXaXaXfXaXaXfXaXaXaXaXfXfXfXaX2XgXfX2X2XfX2XfXdXiXfXfXaXaXaXaXtXeXwXwXtXaXiXiXuXeXwXeXqX1X1XqXqX1X2XfXfXfXeXeXeXfXfXqXtXtXeXyXqXrXyXeXeXyXeXyXyXtXxXtXtXpXtXtXtXtXpXtXxXeXtXtXqXfXeXeXqXfXqXfXqXqXqXfXfXqXeXqXfXqXxX2XtXtXtXtXtXxXaXtXtXtXaXtXaXaXfXaXaXfXaXfXfXaXfXkXfXfXfXaXaXtXtXfXfXfXiXfXiXfXfXiXeXtXeXeXqXeX0X0XwX0XrXeXeXeXtXeXeXeXeXeXeXrXiXtXtXtXeXeXtXtXeXeXeX0X0X0X0X0X0X0X0X8X0X8X8X0X,X0X8X8X,X,X,X&X,X,X,X,X>X&X>X,X,X>X>X@XOXOX+XOX_.OXOX_.OX>XOX>X>X<X>X>X>X>X>X>X).OXoX@X,X,X(.P.E.OX<X>X<XqXqXqX2X1X1X2X2X:X2XwXwXwXwXwXwXwXwXwXwXwXwX2XuXuXuXuXwXwXwXwX0X2X1X1X1XwX1X;XwXwXeX0XwX:XwXwXeXwXwXuXwX6X6X6X6X6X6X6XyXyXrX&X].E.&X0X0XrXaX:X*X;XaXsXaX0XaXkXwX%XoXE.L.R.R.b.(.4XrXkXhXpX6XpXhXhXjX7XrXcXpXhX7X5X6XhXhXpXoXf.Y P ! L F x z I K.-X5XXX%X5X%X-X-X-X-X-X-X-X4X%X%X4X5X-X5X-X%X%X%X%X%XXXXXXX",
"%XXX%X+XXX+XXX+X%X%XXX%X%XXX%X%X-X;X-X;X-X:X;X-X;X-X&X%X@X$X&X&X,X&X@X&X,X@X&X$X$X@X$X@X$X@X&X@X<X>X X(.OXOXQ.Q.(.OX>X XQ.P.J.x.L..X0XtXrX5X;X;X;X&X5X&X&X;X4X5X$X%X;X5X%X&X;X%X-X;X6XwXrX6XwXwX2XdX2XiXdXaXsXsXgXgXgX2XfXnX2XfXfXfXaXaXaXfXfXaXfXfXaXaXaXaXaXaX2XfX2XfXfX2XfX2X2XfXgXfXfXiXiXfXfXkXfXaXaXeXiXaXaXuXeXeXwXeXeXrX2X1X1X1X1X3X1XqXfXqXfXeXeXeXfXqXxXtXeXeXyXeX0X0XyXeXtXtXxXtXxXtXtXxXpXxXtXtXtXtXiXtXfXtXfXqXfXeXfXqXqXfXqXfXfXqXqXfXxXfXqXxX2XxXtXtXxXtXtXtXfXjXfXaXaXaXtXaXaXtXaXfXtXaXaXkXfXfXfXfXaXaXaXtXaXaXiXiXfX3XeXeXiXeXtXeXqXrXeX0XeXyXwXwXwXeXeXeXiXrXaXrXeXeXeXeXeXaXtXiXeXtXeXtX0XeXrXeXyXyX0XyX0XyX0XqX8XqX0X,X0X8X1X0X8X0X,X8X8X1X&X>X,X>X&X@X,X>X,X>X_.OX).oXOX(._.OX_.OX_.>XOX@X<X>X<X>X<X). X).+X,X<XP.P.OX1X1X<X3XxXqX1XqXqX1X2X0X2X0X0XwX0X:XwXwXwXwXwXwXwX0XuXwXwXwXwX2X0XwX0XwX0XrX0X;X;X;X-X;X;X0XwXwX0XwXeXwXwXwX2XwXwXwXrX5X6X6XrXrX6XwX5X;XXX].&X6X;X0XwXuXuX:X$X$X;X1X=X0XE.f.K.L.F.K.E.d.h.h.K.oX$X$X-X-X6XpXhXjX7XpXpXpX7X6X7XjX6X^.y.>.Y L L / u.P.' U ' R.%X%X%X%X%X%XXX-X-XXXXX-XXX%XXX-X%X5X%X%XXX%X%XXXXXXX+X%X",
"oXXX+XXXXX%XoXXX%X%X%XXX%X%X%X%X-X-X-X-X&X;X-X-X;X&X;X%X%X$X$X@X&X,X@X&X,X,X@X@X+XOX&X@X&X&X@X&X>X,X@XOX}.(.oXoX+X&X&XE.c.g.U.&X@X6X0X0X&X&X;XrX&X;X&X&X4X;X;X&X&X&X;X&X%X#X;X%X;X6XwXwXwXwXuXrXdXiXaXaXaXaXsXsXgXgXsXgXfXfXfXnXkXsXsXsXaXsXaXsXaXaXaXaXsXaXaXaXnX2XgXdXdXfXaXfX3XiXdXfXfXiXfXnXfXkXhXjXpXtXpXhXuXtXrXeXuXuXpXtXfXfX1X X X<X0XtX3XfXxXfXeXqXfXfXtXyXeXqXyX0XyXyXyXtXyXtXtXyXtXxXtXjXpXpXtXtXtXtXfXeXfXxX2XfXfXeXqXfXqXqXxXqXfXqXfXfXqXfXxXxX2XxXtXtXtXtXtXxXxXaXkXaXaXaXtXaXeXiXaXaXaXfXfXaXfXfXaXfXfXaXaXtXaXaXfX2X2XfXeXiXeXeXtXtXtXeXeXqX0XrX0XrXeXeXtXiXeXtXtXeXeXeXeXeXeXeXtXeXeXtXeXtXrXrXqXrX0XeX0X0X0X0X0X0XqX1XqXqX,X,X1X8X,X,X8X1X8X,X,X8X,X,X,X,X,X@X,X@X@X+X_.OXoX(.OX).).OXOXOX<XOXOX<XOXOXOX@XOX@X1X,X(.U.oXxXkXqX1XxXqX1X<XqXxX2XwX:X:XwXwXwXwXwXwXwXwX0XwXwXwXwXuX2X:XwXwX2X0XuX0X2X1X1X;X%X%X-X;X;X:X2X0X0XwXeXwXwXwXwXuXwXwX:XuX6XrXpXpXwXrXrXrXtX6XOX&X#XoX&X0X6X;X-X6XwX5X%XY.%X].j.R.].I.^.E.^.eXyX5X0XrXaXhX-X{.XX6X7X7X6X6X6X6X6XuX0XR.:.*.' *.,.G.}.Q.h..X' ' b..XXX%X4X-X%X%X%X%X%X%X%XXX%X%X%X5X-X5X%X%XXX%XXX%X+XXXXX",
"%X%X%XXXoXXXXX%X%X%X%X%X%X%X-X5X%X*X-X-X;X;X;X-X5X&X&X&X&X$X&X&X@X&X@X,X&X,X&X&X@X&X&X<X,X,X,X&X$X,X@XoXQ.oXOX&X,XoXP.L.P.(.$X,X0X;X5X&X5X0X0X0X;X4X;X&X&X&X&X5X5X5X&X%X%X%X&X-X0XwXwXrXwXrXrXuXdXaXdXuXaXsXgXgXgXgXsXfX2XnX2XgXaXaXsXaXkXsXsXsXfXjXaXaXaXsXaXaXgXfX2XgXfX2XdXfXdXiXiXfXfXnXfXfXaXjXhXaXpXtXaXaXpXaXuXaXjXjXaXpXqXeX1X#X<X<XqXqX1XfXxXfXfXeXqXeXeXyXrXyXyXeXeXyXtXyXtXtXtXxXtXyXtXpXtXtXtXiXtXiXeXxXfX2XfXfXeXfXfXqXqXfXqXxXqXeXqXqXqXqXqXeXxX2XyXtXtXtXtXtXaXtXaXaXtXaXtXeXeXeXtXaXaXaXaXfXaXaXkXaXaXfXfXaXaXtXfXfXfXfXfXeX2XfXtXtXrXrX0XwXrXyXwXwXeXeXeXrXeXeXtXeXrXiXeXeXtXaXtXaXtXeXtXeXeXeXeXeXqX0X0X0X0X0X,X8X,XqX,X,X0X,X0X8X,X,X&X,X,X0X,X,X,X,X>X,X,X,X,X$XOXoXoXOXOX+X@X<XOX XOXOXOX).@X@XOXOXOX@X&X&X,XQ.!.<XtXfXxXqX,XqXqX2X1XqX1X2X:X2X0X2X2XwXwXwXwXwXwXwXwXwXwXwXwX2X:XuXwX:X2XuXwX-X$X$XoXoX%X;X0X0X:X0X0XeXwXeXeXeXeXwXuX2XwXuX6X:X6X6XuXwX0XwX6XeX5XoX.X.X.X#XwX:X&X;XrXuX%XF.e.K.{.L.I.L.K.R.j.K.0XjXtXaXuXrXcX7X5XXX5X5X5X6X-X%X-X6XwX%XS.*.l p.oX}.N.c.c.d.s.I ' K.5X4X%X%X-X%X%X-X%X%X%XXXXXXX%X%X%X5X%X5XXXXX+X%X%X%X%X%X",
"XX%X%X%XXXXXXXXXXX%XoX%X%X%X%X5X-X%X&X-X%X;X$X%X&X%X&X&X&X&X&X&X$X$X$X&X,X,X,X,X&X&X&X&X,X&X<X,X,X,X@XoXOX$X@XOX&XW.x.T.,XqX0X+X&X;X;X0XrXrX0X&X0X;X&X5X5X;X&X&X&X5X%XoX%X&X%X;XrXwXrXwXwXwXrXtXiXaXdXaXiXsXsXsXgXdXgXdXfXdXnXnXaXhXaXsXsXsXsXsXlXsXsXaXaXaXsXaX2XfX2X2XdXfXfXdX2XfXdXfXnXfXfXfXaXkXfXjXkXjXsXaXkXaXaXhXlXlXaXaX1X1X1X1X1X3X3X3X2XxXfXfXxXxXxXqX0X0X0X0X0XyXeXtXtXtXtXtXtXtXtXtXtXtXaXtXiXtXtXtXtXtXtXxX2XfXeXeXfXqXqXqXqXqXqXqXqXqXqXqXqXxXqXqXeXeXeXeXtXyXxXaXtXtXuXeXwXeXiXeXtXaXtXaXaXfXaXtXaXaXaXaXaXaXaXaX2XfXfX2XfXiXfXiXaXtXeXeXrX0X0XeXeXeXeXrXtXeXaXeXtXeXrXeXeXrXeXrXiXtXrXeXeXtXrXeXrX0X0XyX0X0X;X4X,X8X1X9X8X0X,X,X,X,X8X&X,X8X1X,X>X8X,X8X,X,X,X,X>X@XOXoXOX+X+X(.OXOXOX>XOXOX>XOXOX@X@X@X@X$X@X@XoX!.Q.1XkXtX1XqX2XqX2X2XqX2XqX1X0X2X0XwX2X0XwX0XwXwXwXwX0XwXwX0XwX2X2XiXwX;X%X*X$XoX].XX#XoX%X;X-X;X;X0XwXwXwXwXeXuXeXwXwXuXwX7X:X-X-X:X6X6X6XrX6X;X;X%XE..XoXoXXX5XtX&XL.j.h.K.K.E.&XrXtXjXkXkXkX4X5X@X&XrXtXaXrXhXbXjX5X5X5X5X5X%XoX.XK.f.*.P L.E.P.N.c.L.P.P.K.-.' ^.4X4X5X5X5X%X4X%X%X%X%X%XXX%XXX%X%X-X%X%X%X+X%X%X%XXXXX%X",
"+XXXXXoX%X+X+XXXXX%X%XXXXX+XXXXX%X-X%X%X%X%XoX%XOX#X%X&X,X,X,X,X@X@XOX$X&X,X&X&X&X&X&X@X$X&X,X,X,X,X$XoXOX&X$X(.T.E.Q.Q.OX,X,X,X0X0XrX0X&X;X0XrX0X5X0X&X&X&X4X-X%X;X%X%X%X;X;X;XeXrXrX6X0X6XeXtXiXaXaXaXdXsXgXsXsXsXdXfXdXfXgXgXsXaXsXsXsXlXkXsXlXfXsXsXsXsXhXaXvXgXgXfXaX2X2XgXdX2XiXfXfXfXiXdXaXhXsXaXhXkXkXsXkXhXjXkXlXkXjXaXlX1X$X,X2X<X<XqXqX2XxX3X2XfXxXxX0X0X0XyXqXeXtXtXtXxXxXtXtXfXtXtXpXtXtXtXaXtXiXtXeXeX2XtXqXqXqXqXqXqXqXqX3XqX3XqX3XqXqXqXeX1XxXxXyX0XeXyXtXtXpXtXtXtXuXwXeXeXeXaXtXtXaXaXaXaXaXaXaXaXfXtXkXaXfXtX2XfXiXfXeXeXfXiXtXtXyXeX0XeXeXeXwXeXeXiXeXeXrXeXaXeXiXeXeXeXeXaXeXtXeXtXeXeXeXqXrX0XrX0X0X8X4X&X,X,X8X,X1X,X,X,X,X,X&X,X&X,X,X8X,X,X,X8X@X,X>X,X,X>XOX_.OXOXoXoX(. XOX).<X>XOX<XOX&X$X>X,X,X$X@XP.@X1XxXxXqXqXqXqXxX,X3XxXqX1X1X2XwX:XwXwXwXwXuX0XwXwXwXwXwXwXwXeX0XwXiXwXXXY.L.].Y.R.oX&X%XOX%X].#X&X0XeXeXuXeXuXeXuXwXuXwXuXwX:X-X-X6XrXrXrXpXrX0XwX5X%X#X#XR.E.].L.R.oXwXrX0XwX%X%XwXjXzXkXtXkXyXkXxXrXtXuXjXaXjX6X5X5X6X4XR.L.h.j.i.' J *.2.G.L.L.L.L.N.x.x.b.<.' K.%X%X4X%X5X5X4X%X4X%X%XXX4X%X%XXX%X%X%X%X%X%XXX%XoX%X%X%X",
"%X%XXX%X+X%XXX%X%X%X%XXX%XXX%X%X*X%X%X%X%X*X&X%X5X&X4X&X&X&X&X&X1X<X&X&X8X&X&X$X,X1X,X<X$X<X,X0XyX&X&X&X5X&X%X&XN.E.&X0X0X5X0X0X;X5X;X0XrXeX0X;X5X0X;X&X4X;X&X;X6X$X%X%X&X#X-XwXwXrXrXwXuXuXpXpXuXsXhXdXaXpXhXhXsXsXsXsXhXsXsXgXkXsXlXlXlXsXlXlXhXsXhXlXlXgXlXsXlXaXaXaXaXsXsXaX2X2XfX2XnXnXgX2XjXpXhXhXkXsXkXlXkXsXhXhXgXkXhXaXfXtXqX1X<X#X$X1XeX2XeXeXtXtX2X2XeXyX0XyX0XrXeXtXtXtXtXaXtXaXtXaXaXtXxXpXaXtXtXtX2XxX2XfXqXxXqX,XqX<XqX<X1X1XqX,X0XqXqXqXqXqXxXqXyXeXtXtXtXtXaXtXaXeXwXwXeXeXeXwXaXtXaXaXaXaXaXaXzX2XnX2X2XfX2XfXzX2XzX2XiXeXeXtXeXeXeXeXrX0XrX0XeXeXeXeXrXaXeXtXeXaXtXrXuXaXtXeXaXtXeXrXeXrXeXeXeXeX0X0X,X4X&X&X0X9X1X,X,X8X1X1X,X,X,X,X&X8X&X8X,X8X,X8X0X,X0X8X<X&X&X@X@X$X@X@X>X<XOXOX,X,X,X@X&X$X0X0X5X4XE.E.Q.2XkXxXqXqXfXqXeXqX3X2X3X2X2XqX:X2X0X:X:XwX2XwXwXwXwXwXeXuXeXeXuXeXiXeX-X].E.].oXoXoXoX%X;X%XE.f.Y.;XwXwXrXeXwX0XwXwXeXuXiXuXuXpXpXrXuXpX6XpXtXpX6X6X0X-X].].oXR.j.R.6XkXpXrXeXpXjXrX7XrXkXhXjX5XjXjXpXhXpX6X7X6X;XoX].R.j.,.p.G.g.,.P I P >.x.P.U.E.P.x.N.N.h.b.' 4.4X4X5X4XXX+X%X%X%X4X%X5X%X%X%X%X+X%X%X%X4X%XXXoXXXoX%X%XXX",
"oXXX%X+XXXXX%X%XXX%X%X%X%X%XXX%XXX%X%X#X%X$X%X-X;X;X0X&X,X,X,X,X,X<X&X<X,X,X&X@X,X,X,X,X@X$X<X,X4X0X0X5X$X%X&X@XP.].@X;X5X&X&X5X0X0X0X0XeXeX0X5X&X&X5X5X;X&X5X&X5X%X%X&X;X%X;X0XwXwXwXrXrXrXtXpXpXaXsXsXaXpXsXhXgXfXsXsXsXlXsXlXsXhXsXgXlXgXlXhXkXlXlXlXlXlXsXsXhXsXsXsXsXaXaXaX2XnXfXnXfX2XgXnXhXpXhXhXgXhXhXkXsXsXlXkXgXhXkXhXfXxXeX2X<X<X<XqXxXeXeXxXfXtXxX2X0X0X0X0X0XyXyXeXtXtXtXaXaXaXaXtXtXtXtXrXtXeXeXeXqXqX3X3X2XqX2XqXqX<X,X,XqX,X1XqXqXqXqXqXqXqXqXqXeXrXrXeXeXeXtXtXtXeXwXeXuXaXaXuXaXaXfXfXfXfXfXaX2XfXfXzXfXfXfXfXfXfXgXgXfXiXeXeXaXeXeXyXrXyXeX0XeXeXeXeXeXtXaXeXeXtXeX2X0XeXtXeXtXeXeXiXeXtXrXeXyX0X0X0X0X;X0X0X,X1X,XqX0X,X,X8X,X,X,X,X8X,X,X&X&X,X,X,X,X,X,X,X&X,X&X&X&X@XOX$XOX<XOX<X&X,X,X,X0X@X,X&X%X4X^.].$XqXkXxXqXfXxXeXeXqXqX2X3XqXqX2X0X:X0X2X0X2XwXwXwXeXeXwXwXwXwXwXeXwXuXaX;X}.XX$X&X-X;X%XOX.XY.d.].;XeXqXwXwXwXwXuXuXuXeXuXuXiXuXuXpXuXuX6XpXuXrXwX0XeXjXeX%X].].oX%X&XrXtXyX0XxX7XjXrXrXjXjXhXjXvX4XrXcX6X-X5X{.R.L.j.i.f.5.` P P P P P ` P ,.U.P.P.P.E.U.x.x.N.~.' ' 4X4X4X4X5X%X%X%X%X%X%X-X%X-X%XXXXXXX%X%X%X%X%XXX%XXX%XXX+X",
"XX%XXXXXXX+X%XoX%X+XXXXX%X%X%XoXXX*XoX%XoX$X%X$X8X0X0X0X,X,X,X,X&X,X;X,X1X,X&X$X,X1X1X,X<X&X1X0X;X0X0X0X@X&X+XoX.XoX&X4X4X&X&X0X0X5X5X0XyXrX0X0X;X&X&X1X5X;X&X0X5X#XOX%X;X&X6X0X0XwXuXrXuXrXaXtXpXpXhXjXhXhXhXpXdXsXsXhXhXhXhXlXhXhXhXhXhXhXhXhXcXlXcXlXlXhXhXhXsXkXlXkXsXaXuXuXnXfX2X2X2XnX2XgXjXhXhXhXhXhXsXhXsXhXhXhXhXhXhXlXfXfXtX2X1X$X;XwXqX2X2XtX2XfX2X2X0X0X0X0XeXyXeX0XtXtXaXaXaXaXaXtXpXaXtXtXeXwXwXwX2X2X2XeX3XqXqX2X<X<X<X<X,XqXqXqX0XqXqXyXxXqXqXqXeXeXtXyXtXtXtXeXtXeXeXeXeXaXaXrXeXaXaXfXkXkXsXfXbXfXfX2XgXfXfXeXfXfXfXfXiXeXeXeXeXeXeXeXrXtXtXtXeXeXrXeXtXeXaXrXeXeXrX1X;XeXtXeXtXeXtXeXtXtXeXqXrX0X0X0X0X4X8X0X,X8X,X8X8X,X8X1X1X,X8X,X,X&X<X,X<X,X1X8X,X8X,X&X,X&X&X>X@X&X@X&X XOX>X<X,X,X,X8X0X+X&X+X.X^.K..X1XxXxXxXqXqXxXxXeXeXqX2X2X2X2XqX0X2X:XwXwXwXwXeXeXuXeXwXwXwXwXwX0XwXwXwX;XoXoX-X.X%X$X$X%X#X+XoXtXtXaXrX0X0XwXwXiXuXeXuXwXwXeXuXuXpX7XrXpX6XuXuXwX0XwXuXeX;X;X2X0XrXpXjX7X5XrXjXjXjXjXjXpXpXpXjX5XbXjXR..X4XXXi.j.e.Y U P *.` J ! L G H G v =.E.L.g.d.L.P.x.h.L.K.' 5.4X4X4XXX5X5X-X-X%X%X%X%X%X%X%XXXoXXXXXXXXX%X%XXXXX%XXX%XXX",
"XX+X%XoXXXXXXXXX%X%X%X%X%XXX%X%X%X%X%XoX%X%X$X%X4X&X0X0X8X,X&X&X&X&X1X1X1X1X1X<X,X1X1X,X1X&X1X0XyX0X4X5X0X&X].E.oX$X4X0X0X&X5X8X;X&X5X5X0X0X;X&X&X5X4X;X5X&X5X&X&X%XoX%X&X5X5XwX6X0XeXuXuXpXpXaXpXpXpXdXaXhXhXpXsXsXsXsXhXhXvXhXcXlXlXhXvXcXvXlXhXvXlXvXhXhXhXhXsXlXlXlXaXpXaXaXnXfXnXfXnX2XzX2XjXhXhXhXhXhXhXhXhXhXaXsXhXhXkXhXfXfXfXeX1X$X$X1X2XqX1XtXxX2XxXxXyX0X0X0XyXeXeXyXeXeXeXtXaXiXaXaXjXpXtXtXrXrX0X0X3X1XqXqXqX2X2X2XqXqXqX<X,X<XxX,X0X8XqXqXqXqXxXqXeXyXtXtXtXyXtXtXtXtXeXuXuXuXeXeXeXtXaXaXfXfXfXaXgXzXfXgXzX2XiXfXfXfXgX2XfXiXeXeXtXtXtXtXtXxXtXtXeXeXiXrXeXeXeXeXtXeXeX1X0XeXeXeXtXaXtXeXeXeXrXeX0XyX0X0X0X5X0X0XqX1X8X1X1X,X,X,X8X8X,X1X,X,X,X,X8X8X0X0X0X0X8X,X&X@X&X&X&X&X&X&X<X<X,X,X<X,X0X,X0XOX+XoX^.K.K.4XxXxXxX1XqX2XxX2XeXqXqX2X2X3XeXqX:X2X:X:X0XwXwXuXuXeXuXeXwXwX0X0X0X2X0X0X;X%XoX&X&X5X@X%XOXoX%X$XrXeXeX1X1XwXuXwXeXeXeX0XwXeXuXuXpXpXpX7XpXrXuXpXwXwXwX0XwXrXrXaXuXuX6X5X5X6XuXuX7XjX7XhXjXpXpXhXjX5XR.{.%XK.S.XXe.i.<.<.i.-.P I v H ! >.,.<.,.h.x.a.p.G.P.P.N.R.i.' i.6X5X4XXX4X-X5X5X%X%X%X-X%X+XXX%X+XXXoXXXXX%X%X%X%X%X+XXX.X",
"%X%XXXoXXX+XXX%X%XXX%XXXXX%XXX%X%XXX%X%XoX%XoX%X&X5X5X0X,X&X@X&X&X;X1X1X0X1X,X,X1X,X1X1X1X,X0X1XrX4X&X0X5X.XY.R..X%X;X5X5X4X&X4X&X5X&X;X5X;X5X&X;X&X5X;X;X4X;X0X5X%X%X%X%X&X5X5X5X0XrXrXpXaXjXkXhXpXpXpXpXhXhXhXjXhXlXhXhXhXlXlXvXvXcXvXvXvXvXcXcXcXvXsXsXcXcXhXlXlXgXfXaXaXhXhXsXaXaXaXfXgX2XnXpXhXhXhXhXhXhXhXhXaXpXpXhXvXhXsXfXkXfXfXqX$X$X$X2X1XqXeXeXeXqXxXtXtXqX0XtXtXqX0XiXeXaXaXaXaXfXaXiXaXeXeXxXqXqX2XqX2X2XqX1X1X2X,X1X,X,X,XqXqXqXqX0XqXqXqXqX0XyX0XyXrXeXtXtXtXtXtXtXeXeXaXaXaXtXtXeXiXaXaXdXfXfXfXgXgXfXfXfXeXfXiX2XfXaXaXaXeXtXfXtXtXtXxXtXtXtXtXrXiXeXrXiXeXaXeXeXeXeXeXeXeXeXeXaXeXtXeXeXuXeXrXrXrX0X0X0X0X&X0X8XqX,X,X0X,X,X,X8X1X,X,X0X,X,X,X0X0XqXqXqX0X,X,X@X&X&X&X,X@X&X8X<XOXOX<X,X,X,X,X0XE.R.L.R..X+X5XxXeXxX2XxX2XxX1X3XqXqX3X2X2X2X2X;X;X:X;X0XwXwXwXeXeXuXwXeXwXeXwXeX0X0X0X-X#XoX#X&X;X$X@XoX%XoXoX$X;X1X0X0XeXuXuXwXuXwXwXwXuXuXiXpXpXpXpXuXuXuXuXuXuXuXpXuXwX2X6XrX6X6X6X6X6X6X6XjX7XjXhX7X7X7XcX6XK.XXXX{.S.j.' *.Y U n V J ,.N.B.P.x.f.g.2.^ L x.x.G.P.E.^.P.j.' ' I.6X5X6X5X5X-X5X-X%X%X-X-X%XXXXX+X%X%XXX%X+XXX%X%X%X%X%X.X.X",
"%XXX%XXXoXXX%X%X%X%X%X%X%X%X%X+X%X%XoX%X%X%X+X%X$X@X&X&X8X&X&X@X&X,X,X,X,X1X1X1X1X2X0X1X0X1X1X5X,X;X5X4X.XK.R.+X.X%X@X4X&X&X%X%X&X&X5X;X4X0X;X&X4X;X;X4X5X;X;X5X;X&X%X%X%X&X-X:X6XwXeXuXpXaXaXhXpXpXuXuX7XjXhXhXhXhXhXhXhXhXlXcXhXnXcXnXcXcXsXcXvXhXsXcXcXhXsXvXlXlXlXsXhXjXhXkXsXsXaXaXfXfXgXgXjXhXhXcXhXlXhXhXlXhXpXpXsXvXhXsXfXfXkXfXeX1X$X;XqX2X2XeXeXqXqXtXtXyX0XyXqXeXeXeXeXeXaXaXaXaXdXaXiXfXeXeX2X2XqX2XxXxX2X3X1X2X2X1X,X,X,X>X,XqXqXqX0X0X8X0X8X,X,X&X0XrXeXeXtXtXtXtXtXtXaXaXaXaXaXaXeXiXaXaXfXaXaXfXfXfXzX2XeXfXiXfXfXfXfXfXaXfXeXfXtXaXtXxXxXtXtXtXeXaXeXtXeXtXrXwXeXeXeXtXaXtXeXeXiXrXeXtXtXtXqXeXeXeXyX0X0X&X0X0XqX1XqX,X0X,X,X,X,X,X,X,X,X,X,X,X8X0X8XqXqX,X8X&X&X,X,X&X,X,X&X,X<X>X<X,X,X,X,X&X&XN.s.j..XyXrXjXeXxXxXxXfXfXqXxX2X3X2X1X1X3X1X1X;X:X;X:X2X:X6X2XeXwXeXwXuXeXuXrXeXeX2X1X;X$X#X%XXX%X+X&X;X4X&X&X#X-X:X0XwXeXeX0XwX0XwXwXuXuXiXuXpXpXuXpXuXuXwXwXuXwXrX6X0X0X0XwX6XjXhXpX6X%X6X6X7X7X7X7XhXcXcX7X4X4XXXF.i.j.' ' Y i.h.E.^.U.I.+X!.Q.x.3.d.E.!.P.h.x.L.L.L.D.,.L U ' j.5XXX6X5X5X5X-X5X-X-X-X-X-XXX%XXX%X%X%X%X%X%X%XXX%X%X%XXX.X",
"%X%X%X%X%X%X%X%X%XXX%XoX%X%XXX%XoXXX%X%X%XoX%XOX%X&X&X&X@X&X&X&X<X1X1X1X1X1X0XqX1XqX0X1X0X1X0X&X4X5X$XR.b.K.oX&X+X%X%X4X4X%X$X+X;X&X;X0X1X1X0X5X0X&X;X8X5X&X5X&X;X5X&X&X%X%X;X0XwXrXuXrXrXrXpXaX7XuXpXuXpXpXpXhXhXhXhXhXhXhXhXlXcXvXcXsXnXsXsXcXvXvXcXcXhXhXhXlXhXhXhXhXhXlXhXhXhXaXaXsXsXsXgXdXhXhXhXlXhXlXhXvXhXhXhXhXgXvXgXlXlXkXfXfXfXqX2X1XqX2X2XqX2X2XqXeXtXyX0X0XqXtXtXeXaXaXsXaXsXsXaXaXeXeXxX2XxX2X1X2XxXxX1X1X1X2X1X$X,X&X>X<X>X<X>X,X0X8X&X$X$X@X$X@X&X5X0XeXtXtXtXtXaXaXaXtXaXaXeXeXwXwX2XeX2XeX2XgXfXfXfX2XfXiXfXfXfXaXaXeXaXaXfXtXaXtXxXtXtXtXtXtXtXaXeXeXeXeXeXeXaXrXeXaXtXeXrXtXtXiXeXeXeXeXtXrXeXeX0X0X0X0X0X0XqX9XqXqX9X1X9X,X,X,X,X0X8X8X,X0X0X0X8X0X,X,X,X<X,X&X,X&X&X&X,X,X<X,X>X1X>X$XoX}.E.L.R.R.4XjXjXjXxXfXxXfXxXxX2X2X3X1X2X2X2X2X3X2X0X:X;X2X:X2X0X0XuXeXeXeXeXuXeXuX0X6X;X-X%X&X&X%X@X&X@X%XoXR.E.oX$X1XwXrXwXeXwX0XwXwXwXeXuXwXeXuXuXuXuXpX7X6XwX6XwX6X6X%X-X;XwXuXwXpXhXjX6X-X6X7X7X7XcX7X7XcX7X7X5XXXi.' S.Y U f.R.%X&X^.E./.U.U.P.OX}.E.Q.Q.P.J.G.x.g.a.i.*.I l U U i.6X5X5X5X7X5X6X6X-X*X-X-X*XXX%X%XXX%XXXoX%X%XXX%X%X%XXXXXXX",
"%X%X%XXXXX%X%X%X%X%X%XXX%XXX%X%X%X%XXX%XoXoX+X+X%X&X@X@X&X&X,X,X;X,X1X,X,X<X0XeXqXqXqXqX1X0X1X;X0X5XE.p.f.^.5X+X;X&X&X%X&X&X%X&X4X&X;X8X;X5X;X1X4X5X;X;X&X5X&X;X&X0X6X;X&X&X6XrXwXwXrXwXwXeX6XrXrXpXpXpXpXpXpXhXhXhXhXvXhXhXvXhXcXvXvXvXcXcXnXsXvXvXcXvXcXcXvXlXlXhXhXhXhXlXhXaXhXhXaXdXsXfXsXaXhXhXhXlXhXhXhXvXhXvXbXhXfXfXlXbXzXfXaXfXiXxXeXqXqX2XeXqXqX2X0XeXtX0X&X8XqXtXfXaXaXfXaXsXaXfXdXfXaXfXfXfXxXfXxXfX<X1X<XxXtXqX$XQ.,X,X<X<X<X>X<X>X$X@X@XOXOXOX@X$X&X&X0XyXtXtXaXtXkXaXaXuXeXeX;X;X3X1X1X2X2X2XfX2XgXfXfXfXeXfXeXfXaXfXfXaXfXaXeXfXtXaXtXtXtXrXtXrXtXtXtXeXtXeXeXeXaXrXwXeXtXrXeXiXtXtXtXeXrXiXrXeXyXeXyX0XyXrXeXyXqXqXqX1XqX1X1XqX,X,X,X,X1X0X0X8X0X0X0X,X<X,X,X<X,X,X,X,X,X,X<X&X X@X<X<X X!.L.x.L.oXrXjXrXhXrXrXeXxXfX2XxX2X3X3X2XqX2X1X2XqX2X1X:XwX0X:X0X2XwXwXeXuXwXuXwXeXwXwX1X-X$X%X%X&X&X&X%X#XoXE.h.j.b.E.0XwXeXwXwX0XwXwXwXwXwXeXwXuXwXwXrX6XuX6XuX6X6X:X:XwXwXeX0X6X;X-XuX6X6XpXpXpX6XpX7X7XhX7X7XcX7XXXF.' S.K.e.' <.i.j.oXE.d.L.9X8X/.P.(.oXQ.!.P.P.oXOXP.g.p.<.` U U ` U s.6X6X6X6X6X-X6X6X-X-X-X%X%X%X%XXXoXoXXXXXXX%X+XXX%X%X%X%XoX",
"%X%X%XXX%XXX%X+XoX%X%X%X%XXX%X%XXXXX%X%X%X%X%XXX$X-X5X%X5X&X5X;X&X&X&X&X1X0X0XqXqX1X1XqXqX1X&X1X$X&XY.U ].%X$X;X0X5X;X&X&X%X-X1X;X;X0X6X;X0X6X;X6X;X;X;X5X;X;X%X-X2X$XaX].$XeX0XuXtXuXtXuXeXuXrX0XwXtXpXpXaXkXsXaXdXsXgXvXnXnXgXgXgXgXsXgXlXgXfXvXlXgXvXlXgXlXgXgXnXgXgXgXvXlXlXvXgXdXaXdXfXgXsXhXsXhXhXhXhXlXlXgXgXnXgXgXgXgXnXgXgXlXfXaXaXeX0X0XwXqXqXtXeXeXqXqXeXtXeX0X0XwXaXaXaXdXwXjXaXhXwXuXiX2XsXbX3Xg.g.a.a.a.a.g.h.G.G.d.P.&X8X+X!.oXqX@X+XOX@X<X@X@XOX&X$X&XqXiXaXfXtXfXeXeX1X;X&X1X1X1X2X2X2X2X2X2X2XeXfXfXfXfXfXfXeXaXfXfXaXtXfXtXfXaXaXaXtXiXtXaXeXeXtXaXtXtXiXtXtXtXeXtXuXeXtXeXtXfXqXqXfXeXfXqXfXqXfXfX3XeXqXeX3XqX2XxXqX2XqXqX2XqX,X,X,X,X9X,X,X8X8X,X,X&X,X,X&X,X,X<X,X,X1X&X$XOX@XOX&X4Xb.oXoX5XxXjXtXeXfXfXxXfXfXfXeXqXeX2XeX2X2X2X1X2X2X2X2X2X0X2X0X0X:X2X2XwXaXaXwX0XwX0X$X&X;X&XoX%X5X&X5X%XoXoX%XoXP.L.R.oXeX;X6X0X0XuXwXwXwXuXwXwXuXwXwXuXwXwX6XwX2XwX0X:X2XuXuX:X-X;X0XuXwXuXuXuXuXuXwX:XiXuXuXuX7X-X*XY.=.j.h.L ' f.,.h.h.^.^.E.N.@X4XoXoX^.E.E.E.E.R.U.oXR.g.*.n I P z U <.5X6X6X4X7X6X-X5X5X%X%X.X.X4X%XXXXX.XoX+X%X%X+X%XXX+X+X.X.X",
"%XXX%X%X%X%XXX%X%XXXXX%X%X%XXX%X%X%XXX%X%X%X%X%X$X%X&X&X&X%X;X&X1X1X1X<X,X1X1XqXfXqX1X1X0X1X&X$X&XE.:.f.:X$X#X;X;X;X;X;X$X-X;X:X6X5X5X;X5X6X0X5X0X5X5X;X;X5X;X;X;X0X;XaX$X#XuXeXuXuXuXeXeXuXtXuXwXuXtXaXaXpXaXsXaXaXsXsXsXfXdXsXaXdXsXsXgXlXvXvXgXvXvXlXlXlXlXnXgXgXlXlXlXgXgXnXlXfXsXaXsXsXsXlXhXhXhXhXhXhXlXlXvXgXvXzXgXfXgXnXgXgXgXgXjXaXaXeXuX0X2XqXqXqXqXqXyXeXtXyXwXeXwXeXuX:XuX;XpXuXkXaXiXsXaXfXzXOXp.a.c.N.U.Q.E.L.d.p.p.*.! a.@XqX,X(.OX,X>X_.(.$X,XqX<X$X$X1X2X0XqXtXeXqX2X1X,X;X&X;X3X2X2X2X2X2X2X1XeXeX2XeXeXfXfXfXtXaXaXaXaXaXaXaXaXaXtXuXtXuXeXtXaXtXeXtXaXrXeXuXeXeXtXeXtXuXtXeXqXqXfXfXfXqXfXqXfX3XfXeXqXeXeXeXfXqX2X2XxXqXqX2XqXqX0X,X,X1X9X1X8X9X,X8X9X&X,X,X1X0X&X&X;X&X&XOXE.0X4XN.E.oXkXzXwXtXaXtXeXfXfXfXeXeXeXeX2XqX2X2X1X1X3X2X2X2X1X1X:X:XwX2XwX2X0X:X;X;X0XaXaXwX:X;X#X@X&X@X0X0X@X$X%XoX+X%XoXE.L.L.Y.6X0XrXwX;XwXwXwXwXwXwXuXwXwXwXwXwXwX0X0X2X2XwX:X0XeXwX:X;X;X2X:X:X:X:XwX6X:X*XiX7XdXiX6XuX6X[.e.i.i.-.P 5.b.K.f.s.R.E.R.b.L.N.K.N.R.E.OX+XoX.Xh.E.(.oXL.:.I n U 5.R.5X5XrXpXpX6X6X:X-X%X4X4X4XXX%X%XXXXXXXXXXXXXXX%XXXXX.XXX.X",
"%X%X%XXX%X%X%X%X%X%X%X%X%X+X%X%XXX%X%X%X%X%X%X%X%X$X%X;X5X&X4X&X1X0X0X1X0X1X1X,X1X,X,X<X,X1X0X0XF.K.I ].-X&X6X;X;X;X;X-X&X&X;X0X;X5X0X;X0X;X0X6X6X6X;X5X;X:X5X;X;X;XeXaX:X#XuXaXuXwXeXeXeXeXwXeXuXtXpXtXaXaXaXaXfXsXgXgXnXgXgXsXaXaXsXsXlXlXlXvXgXvXgXlXvXgXzXnXlXlXvXgXgXgXvXgXnXgXfXgXsXgXlXgXhXhXhXhXhXhXlXlXzXnXvXgXgXfXgXgXgXlXvXlXlXsXaXaXaXrX1XwXqXqX2XeXtXyXeXeXaXaXaXaXaXuXpX:XeXwXpXrXfXuX'.f.g.a.g.W.P.U.U.P.P.L.L.x.E.B.p.=.X.t.P.oX(.,X0X,X,X,X@XE.$X$X,X1XqXqXeXfXqX1X1X<X<X&X&X&X;X1X2X2X2X2X1X1X2XqX2XxXeXeXfXeXaXaXtXtXaXaXfXaXaXtXeXeXuXtXeXuXeXtXtXeXeXeXtXeXuXtXeXtXeXeXtXeXfXqXfX3X3XfXqXfXqXqXeXeXeXeXfXqX2XeX2XxX2XxXqXxXqX1XqX,XqX,X1X9X0X,X,X@X&X@X&X,X8X,X,X&X&X&X$XoXh.E.L.X.U.tXkXxXtXtXaXtXeXaXfX2XeXeXeX2X3X2XeX3X2X1X3X1X1X2X1X3X:X2X:XwXwXwX0XwXwX:X2XaXaX2X-X&X%X&X&X5X0X0X&XoX+XoXoXoXXX(.R.L.F.#X=X;X0X2XwXwX0XwXwXwXuXwXuX2X0XwXwX2XwX:XwX0XwXwXwXwX0X:X:X;X:X:X:XwXuXwX:X-X-X*X7X7X:X6X;XF.a.R.<.z X.p.8.j.5.p.j.R.b.h.p.5.p.f.f.b.R.^.oX].E.oXE.E.h.*.P G n ` b.XX6X5X5X-X-X-X-X%X%X+X+X.X%X%X%XXXXX%XoXXX%XXX%XXX+XXXXX.X",
"%X%X%X%X%X%X%X%X%XXX%XXXXX%XXX%X4X%XXX%XXX%X%X%X%X$X;X5X;X5X&X;X1X1X0X0X0X0X1X1X0XtXtX1X$X$X#X}.g.D.:.oX$X6X0X&X&X-X&X%X-X1X1X0X6X;X5X6X5X;X6X1X0X;X5X;X5X5X5X;X-X;XaXtXuXoXwXuXeXuXeXeXuXrXuXeXpXpXaXpXuXaXaXsXvXlXnXnXvXnXvXvXnXsXgXvXbXvXgXlXgXlXvXlXlXvXlXlXgXvXlXgXgXlXgXgXgXgXnXgXlXlXsXsXhXhXhXhXvXlXlXlXvXgXvXnXnXgXgXdXsXlXfXlXlXlXkXsXfXaXqXwXeXeX1XqXtXyXeXaXlXzXlXaXvXsXhXeXtX6XrXwX|. XD.t.g.x.G.W.P.P.x.d.x.N.P.E.p.L.Q.Q.P.B.g.p.2.W.0XqXOXoX,XqX@X$X,X2XqXqXeXtXqX1XOXOX$X$X1X&X1X1X1X2X2X2X2X2X2X2X3X2XqXiXfXfXtXaXfXaXaXfXaXaXaXaXaXeXaXiXaXeXtXtXaXtXtXeXeXeXeXtXtXeXiXrXeXiXfXeXqXfXqXfXfXqXqXfXeXeXqXeX3XeXeXfXxX2XxX2X2XxXqXqX,XqX1X9X9X,X8X8X8X,X,X,X,X,X,X1X,X<X1X&X&X&X.XL.j.-.0XzXyXyXkXtXtXtXtXeXeXxXeXeX2XeX3X2X2X2X2X2X2X1X1X1X3X=X:X;X:X0X2XwXwXwXaXwX0XwXwX;X;X-X;X@X&X%X+X#X%X+XoXoX^.R.E..XE.L.L.[.'.oX0XwXiXwXwXwX0XwXwXuX2XwX2X:XwXwXwXwX2X:X2X0X1X:X:X0X1X;X:X:XwXuXuXuX:X:X-X-XXX{.[.[.F.e.5.p.n g <.8.,.p.f.5.5.d.,.p.i.,.j.f.a.j.g.h.h.b.R.E..X+XE.,.Y z I n ' K.5X6X6X-X6X-X;X4X4X%X+XR.+XXX%XXX%XXX+XXXXXoX%X+XXXXX+XoX",
"%X%XXX%X%X%X%X%X%X+XXX%X%X%X%X%X+XXXXX%X%X%X$X%X&X&X5X0X5X;X0X5X;X0X0X0X0X0X0X0X1XqXrX0X0X&XXXL.].i.g.;XtX0X$X-X;X&X-X&X;X;X2X0X;X5X5X;X6X5X6X5X5X6X;X:X5X;X6X;X;X:XsXiXaX#X-XwXeXeXwXuXrXuXeXuXuXrXpXpXaXaXsXhXgXgXnXgXgXnXnXgXvXgXsXvXvXlXgXgXgXlXgXlXzXvXgXvXnXlXvXlXvXgXgXgXvXlXlXvXgXgXgXgXlXhXvXhXhXlXlXlXvXgXvXzXvXgXnXgXsXhXgXlXgXlXhXkXkXaXtXaXxXeX2XqXtXrXaXaXaXaXaXaXlXfXlXfXkX2XwX0XG.G.x.G.!.Q.I.N.P.C.P.L.L.B.L.L.E.P.N.d.x.E.(.(.Q.h.p.N.@X0X8X8X,X$X@X$X1X0X0X<X1X<X}.Q.oX$X&X&X<X1X1X2X2X2X2X2X1X2X1X2X2XtX2XfXfXaXfXfXaXaXtXtXtXtXaXeXaXeXtXeXaXrXiXtXeXeXeXtXrXtXeXeXeXuXtXrXqXfX3XfXqXfXfXfXeXeXeXeXqXqXeXqXeXeXeXeXeXeXeXqXqXqX,X9X9X1X9XqX0X8X,X,X&X,X,X,X,X,X1X,X,X&X,X,X0XE.d.,.0XxX0XkXkXtXeXtXxX2X2X2XeXeX3X3X2X2X2X2X2X2X2X2X1X1X$X#X;X;X2X0X0XwXuXwXwX0X2X;X;X0XwX;X;X+X&X&X.XoX%X$X].oX.XE.E.oXE.K.D.].].%X0X0XwX0XwX:XwXwX2XuX2X2X0X:XwXwXwXwX0X2X:X;X:X;X0X:X;X6X;X6XwXwX:X6X6X0X:X6XS.' i.i.Y :.,.=.n *.j.,.5.i.j.p.5.p.` ,.5.i.j.s.g.D.d.f.i.p.g.N.L.E.L.=.P U U _ ' U i..X7X7X:X5X-X%XXX%X+X^..X.X.XXXXX+XXXoX%XoX%XXXXX%XXXXX",
"XX%X%X%XXX%X%XXX%XXX%X%XXX%XXX%X%XXX%XXX%X%X%X%X;X5X;X0X5X0X0X0X0X6X0X0X0X0X6X0X,X&X#X;X0X0X].S.<.f.;X0X0X;X;X1X;X;X;X;X0X1X6X0X0X;X0X;X;X0X0X1X5X;X5X5X:X5X5X;X;X;XaXeXiX-X#XeXwXwXeXuXeXeXwXuXeXeXrXrXuXaXaXhXgXgXdXfXgXgXgXnXvXaXaXfXvXlXgXlXlXgXvXlXnXlXvXgXzXvXgXlXgXlXvXgXgXlXnXzXgXgXsXnXhXhXhXhXhXhXlXlXgXgXgXvXvXlXvXgXaXhXsXsXlXsXlXkXlXkXaXfXfXqXeXfXaXjXkXfXsXaXaXaXfXaXbXkXkX;X@X$XP.x.x.z.B.I.P.N.B.B.P.U.P.L.L.G.x.U.!.P.x.x.L.T.Q.E.Q.Q.c.a.W.tXqX1X<X#X$X,X1X&X$XOX}.E.}.oX$X$X<X1X<X1X1XqX2X2XxX2X2X1X2X2X2XiXaXfXaXfXfXaXfXaXaXaXaXeXuXtXuXaXeXtXiXtXaXrXtXeXiXeXeXtXtXeXtXeXeXeX3XfXqXfX3XfXfXqXeXeXfXqXeXeXeXeXeXeXeXeXeXeXqX1X1X1X,XqX1X9X,X,X,X,X,X,X,X,X,X,X,X1X,X,X,X&X4XR.5.-.&XkXtXxXxXtXtXtX2XxXfX2XeXeXiXeXqX2XqXqXeX2XeX2X2X3X=X#X-X;X;X:X2XwXwXwX2XtXiX:X;XwX:X*X&XOX0X0X$X@X0X4XR.E.oXoXoXoXR.j.S.%X;XwXwX-X1XwX:X0X:XwXwX2XwX2X2X:X2X0X:X2X0X:X0X;X;X;X:X2X2X2X6X6XrXwX:X;X;X6XF.{.e.T :.Y D Y I I G ,.5.P ' X.<.5.i.p.,.5.p.p.f.e.,.5.,.>.,.a.h.K.K.R.h.P P J f J ' I U ' K.5X6X6X%XXX^..X^.^.^..X.XXX.XXXXX%XXXXXXXXX+XXXoXXX",
"%XXXXX%X%XXX%XXX%X%X%X%X%X%X%XXX%X%X%X-X%X%X$X$X5X;X;X;X1X1X1XwX0X0X0X0X6X0X0X;XeX0X-X&XoXL.i.r.T Y.tX;X-X;XaX0X;X;X;X;X6X0X2X;X;X;X5X6X6X0X6X5X;X;X5X;X:X5X5X;X;X:XwXaXeXwX[.aXeXwXeXwXwXwXeXwXwXwXwXuXuXuXaXhXgXgXgXgXnXnXnXnXlXiXuXsXlXvXgXvXvXgXnXvXlXlXgXgXvXgXvXgXvXlXgXvXvXvXzXvXgXgXsXgXvXhXlXlXcXhXlXlXnXgXgXnXvXzXnXfXkXsXgXkXsXlXlXlXkXlXkXsXiXiXfXfXzXlXzXlXsXaXsXaXgXaXbXzXkXoXE.E.W.P.U.Q.W.U.U.N.P.P.L.B.P.P.T.W.G.x.x.L.Q.U.L.x.x.x.L.P.P.x.U.OX0XqXqX,X,X<X,X&X<X&XOXOXoXoXOXOX>X<X1X1X2X,XqX2X1X2X2X<X2X2X2XeXeXeXaXtXaXfXaXtXaXtXaXeXeXuXaXuXiXtXtXtXeXeXtXeXeXeXtXeXtXeXeXtXqXfXfXfXfXfXfXfXeXeXfXqXfXqX3XeXeXeXeXeXeXeXqXqXqX1X9X,X9X,XqX,X,X,X,X,X,X,X,X,X,X8X0X8X,X&X&X@X%XL.,.f.yXjXkX0XrXtXpXtX2XfXxX1XeXeX3XeXqX2X2XqX2X2X1X2X2X2X;X=X-X;X;X:X2X0X:XwXeXaXaXeX:X;X;X-X&X.X-XrX%X&X5X#XP.E.].XX.XR.L.h.Y.$X*X6X0X-XwXeX2X0X0X2X:XuX:X2X:X0X2X:X2X0X2XwXwX0X:X:X;X:X2X:XwX5XwXrXwX;X-X$XS.<.' <.:.T L ' g G > z *.*.p.,.X.*.p.p.5.,.5.<.*.P I P :.-.<.,.p.h.L.+XE.,.P G U U ` <.' U ' K.{.%X%X+X.X+X+XoXXX.X.X^.XX.XoXoXoXXX#X#XoX%XoX%X",
"XX%X+XoXXX%XXXoX%XXX%XXX%XoX%X%X%X%XXX-X-X%X-X%X6X;X0X;X;X1X0XwXeXwXwX0X;X;X6X;X#X;X1X#XD.:.:.i.].-X].0XfX1XeX-X0X0X;X;X2X0X0X;X5X6X5X1X5X;X0X6X5X;X%X;X;X;X5X;X;X1X0XaXeXaX|.aXwXuXwXeXwXeXwXeXwXrXwXeXeXiXaXaXsXfXgXgXgXnXzXgXvXaXuXsXlXgXlXvXzXvXgXzXvXvXgXlXgXlXgXgXvXlXvXzXlXvXnXgXgXgXgXgXlXvXcXlXlXhXlXlXzXvXvXzXvXvXgXfXlXlXlXsXkXgXhXkXlXkXkXaXiXqXfXlXjXhXaXsXfXsXsXsXsXaXzXlXfX}.E.E.Q.B.B.U.N.N.U.W.U.W.U.Q.U.!.U.E.!.I.N.L.L.x.L.U.U.L.x.x.L.P.L.a.Q.1XxXtX0X,X,X&X<X1X8X1X&X$XOXoXOX<X>X<X,X2X,X2X1X1X2X2X2X1X2XqX2XrXtXaXaXaXaXaXaXaXaXeXaXeXeXtXtXtXtXiXaXtXeXiXrXtXtXuXeXiXrXeXfXqXqXfX3XfXqX3XfXfXeXeX3XfXfXeXeXeXeXeXeXqXtXqXqXqX,X1X,X,X,X,X8X,X,X,X,X,X0X8X1X0X0X,X&X$X$X%X^.K.5.b.%X^.yXtX0XtXkXeX1XfX2X2X3X3XeX3X2X2X2X2X2X2X2X2X2X2X1X-X=X;X;X;X:X:X0X0XwX:X;X;X*XoX$XwX;XL.R.oXE.].oXL.Y.R.Y.R.L.D.D.K.%XoXY.].1X0XiXwX2X:X2XwX2X:XwX2XwX0X;X:X:XwXwXwXuXwXwXwX0X:X0XwX6X;X;X6X6X:XXXL.XX' S.j.Y T i.i.h.^.G j p.^.%XI.-.*.i.-.=.P P z z x n *.f.e.Y G ' *.*.f.i.I J I J J z I I ' ' I D ' j.I.R..XoX^.+XXX.XoX.XoXoXXXoXoXoXXX%XoX%XXX",
"oX%X%X+XXXXX4XXXXXXX%X%X%X%XXXXX-X$X$X-X%XXX$XwX0X0XqX2X1X1XqXiXrXpXwX0XuXpX6X;XXX:X*XK.<.' D.&XrXwXwXwXwX2X;X1X;X;X0X0X0X0X:X:X6X5X6X;X;X5X;X0X6X5X0X;X6X5X;X6X;X;X:XwXaXaXiX0XwXeXaXuXeXwXeXiXuXrXuXaXsXaXsXaXkXsXlXlXnXvXvXvXbXlXgXvXvXgXgXvXnXgXvXzXnXlXlXvXvXzXnXgXvXlXnXvXvXvXvXzXvXgXgXgXcXlXcXlXcXcXvXjXcXcXzXvXvXgXgXgXrXjXlXhXjXvXzXkXlXlXlXzXhXhXhXhXhXhXhXhXhXhXsXaXiXaXgX0X!.P.Q.B.C.I.U.C.C.U.U.U.P.U.!.W.E.U.P.P.L.B.L.P.U.P.P.P.x.L.N.L.L.N.x.x.p.a.P.&XtXqX1X,XqX,X<X,X,X0X,XE.}.Q.@X<X1X,X&X,X2X1XqX2X2X2X2X2X0X:X0XaXaXaXaXaXaXuXaXeXaXeXaXeXeXeXeXaXeXrXeXeXeXrXiXeXrXeXaXeXqXeXfXqXeXeXeXeXfXfXqXqXfX3XeXeXeXeXeXeXeXeXqX3XqX,X,X1X9X,X1X9X,X1X8X,X1X,X,X0X<X8X1X&XOX@XOXOXI.i.j.4X+X4X5XrXeXxXeXeX1XeX2XfXiXeXeX2X2XiX2X3X2XeX1X3XeX3X X;X-X;X:X;X:X;X6X0XeX;X*X-X1X0X-X|.Y.L.].5XeX0XeXeXyX5X].D.f.D.E.].XX=X0XwX1X1X0XeX0X:X:X2XwX:XwXwX:X:X:X;X;X0X:XwX2X:X6X;X:X2X:XwXrX:XwX;X6XY.R.Y.D.h.K.j.U ` K.K.^.R.,.P <.s.b.E.L.j.5.,.:.` I P G P U V <.:.I P I z g x U U z x f n I ` P I I I U J ' <.K.+X%X+X+X4X&X%XoXoX%XoXXXoX%XoXoXoX#XXX",
"%XXXXXXXXX-X4X5X-X%XXX5X5X%X%X%X;X*X%X#X$X:X;X;X;X;X1X1X1X0XeXqXwXrXrX5X0X6X%X.X5X{.f.:.i.].6XaX0X0X0XwX0X0X0X:X;X6X0X0XwX0X0X:X5X0X;X;X;X;X6X5X6X0X5X;X;X5X;X0X0X;X;X2XeXeXwX:XeXwXeXwXwXwXwXrXrXuXpXpXaXaXsXsXvXhXlXlXnXnXvXvXlXnXgXzXvXgXgXgXlXvXgXvXgXvXvXgXgXvXgXvXzXlXzXvXzXvXvXvXzXvXvXgXzXcXvXvXcXjXvXzXcXzXvXvXvXgXvXgXhXzXbXlXcXvXcXkXhXlXhXhXhXhXjXhXhXhXhXhXaXhXlXlXkXzXfX1XE.P.!.P.U.A.W./.W.U.U.W.U.P.E.U.P.P.L.N.P.L.L.P.T.E.U.P.P.P.P.L.L.x.G.x.G.2.=.G.0XxXqX,XP.x.j.p.a.x.Q.qX}. XoXoX&X0X0X1X1X1X2X2X2X1X1X2X2X:X2XaXaXaXaXtXeXaXtXaXaXeXuXeXeXtXtXeXeXeXeXaXtXeXeXeXeXeXeXrXfXeXqXfXfXqX3XfXfX3XqXfXfXfXeXeXfXeXqXeXeXeXqXfX1XqX9X1X,XqX9X,X,X0X1X,X8X,X,X,X,X8X,X+XoXOXOXoXb.-.<.^.R.rXjXrXeXxXeXeXxXeX2XxXeX3X3XeXqX3X2XeX2XeX2X1X3X$X|.=X*X;X:X0X2X1X:XwXwX0X*X*X=X-X$X#X%XXX%X0XeX0X0XeX0X0X4X$X%X$X%X&X$X;XwXwX1X-X:X:X0X2X0X:X2XwXuX:X0X:X2X2X:XwX0X2XwXwX0X:X0X:X0XwXeXuXrX].XXoX%XD.j.j.K.K.I f :.j.,.p.5.p.P.R.I.E.(.I.N.V.L.b.b.L.R.E.g.i.h.L.d.Y.E.E.E.E.P.a.Y U f j n U P P ` I I I I ` -.i.b.K.L..X&X%X%X%X%X%XoX%X%X#X-X-X*X#X",
"XX.XoX4X4XR.R.K.XXXXXXXXXX+XoXXXR.-X6X-X[.*X:XiXfXiX2X2X2XeXeX2XpX6X7X7XwXuXjX6XuXY.' :.F.-X5X%X0XwX2X1X0X;X0X;X;X:X:X0X0X;X0X1X0X6X6X5X5X6X5X;X;X5X;X6X;X5X6X0XwX6X;X;X0XwX:X:XeXwXwXwXwXeXtXuXrXuXrXtXaXaXsXsXvXlXvXvXvXbXbXbXvXgXlXvXvXgXgXvXvXzXnXlXlXnXzXnXvXlXlXvXnXvXzXvXvXzXzXvXvXvXgXvXvXvXvXvXvXzXzXvXcXcXcXzXzXvXlXlXhXzXzXhXkXzXcXcXvXhXhXvXhXhXhXhXcXcXnXnXsXhXhXvXvXzXeXoX!.U.!.W.U././.W.U.U.U.U.U.E.Q.U.P.P.B.P.!.U.U.P.P.P.P.E.P.P.P.P.P.L.L.N.x.L.P.x.9.2.j.U.L.N.x.L.h.*.! g.oX,X,XOXoX<X,X$X1X1X1X1X1X2X2X3X0X2X2XuXtXiXtXaXiXtXeXaXtXeXeXtXtXaXeXeXeXeXeXrXaXeXeXwXeXeXeXeXqXeXeXfXfX3XfXqXqXfXfXeXqXqXfXeXeXiXfXeXeXeXqXqX1X,X,X1X,XqX,X8X,X,X1X1X1X,X,X8X0X,X@X+X(.oX(./.j.-.j.I.j.rXyXyXxXqX2XxX2X2XfX2X3X2X2X2XeX3X2XqX2X2XeX2X$X}.|.|.$X*X:X;X1X2X0XwX:X;X;X=X#X*X=X;X0X1X-X1X0X2X0XeX1XwXrXwXeXeX0X;X0XwXwX0X;X;X;X:X2XwX2XwX2XwX:X2X0X2X:X0X:XwX0XwXwXwXwX2X:X2X0X:X6XrX6XL.R.XXXXh.f.j.,.' U z U n p.j.b.K.U.P.b.L.E.I.N.L.R.K.L.I.P.E.P.h.P.K.g.R.j.L.R.U.E.Y.g.5.I n z U I P P ` P ' ` I I ` *.*.-.<.,.j.R.%X%X].%XoXXXXX].XX%X-X",
"+XXXXXXXXX-X5X5X+XXX4X%X%XXX%X%X:X-X#X%X0XaX:X*X}.].].}.3X2XeXfXdX-XXXF.f.j.Y.D.Y T Y S.%XaXhXaXwX0X0X1X6X0X;X;X;X0X;X2X2X0X;X5X0X0X0X0X;X5X6X0X5X;X;X5X;X6X;X5XwX;X:X:XwXwXwX0XuXwXwX0XeXuXuXeXuXrXwXeXiXaXsXsXzXvXlXvXvXbXvXvXvXlXlXbXvXlXgXgXgXvXlXlXvXzXvXgXgXnXzXgXgXvXnXvXgXnXvXvXvXvXvXzXzXvXvXvXvXvXcXvXzXzXcXvXvXvXzXlXhXhXhXjXhXhXcXjXhXvXvXhXcXhXhXhXdXhXnXcXdXpXsXhXgXgX,XE.!.U.B.W./.W.W.`.Q.W.W.!.Q.Q.Q.Q.Q.(.Q._.oXoX(.E.P.P.U.E.P.P.P.E.U.E.P.E.U.E.E.P.x.c.x.P.U.!.U.(.&Xx.! ,.8.P.&X&X&X1X0X0X1X1X1X<X3X1X2X2X2X:X;X0XeXeXeXaXaXeXaXtXuXaXuXaXeXeXeXrXeXaXeXeXrXeXeXeXeX0XwXwXeXeXfX3XfXfXqXfXfXfX3XeXqXfXqXqXeXeX3XfXeXqXfX3XqX,XqX9X9X,X,X,X1X,X,X,X,X1X8X1X0X,X$X&X@XoX!.L.j.' .X+Xb.4X4X5XqX1X1XqX2XxX2X3X2X2X3XeX3XeX2X2X2X3XeXeX|.'.|. X[.#X$X-X;X:X2X:X;X:X:X;X;X;X6XuXtXwX1XwXwX0XwXeXeXwX0X0XeXuX0X:XwX0X0X0X0XwX2X:XwX:X0X:X2X6X2X2X:XwX2X2X2X0X:XwXwX0X0X2X;X:X;X;X6X:X%X[.].K.D.j.i.i.U z P ` I l 8.p.j.b.L.L.I.E.R.L.L.R.B.K.h.b.j.L.L.K.L.h.d.L.P.E.E.L.E..XE.h.` n j f g f f x U ` ' ' P J I G ' I U J p.R.L.g.R.%X;X:X#X{.[.:X",
"].XXXXXX.X%XXXXXXX%X+XXX.XXX%X%X;X:X;X#XS.:.Y :.y.t.r.r.u.S.J.'.F.S.S.F.i.<.' D ' i.K.:XwX6X6X;X0X2X0X2X0X:X0X:X0X;X6X1X0X;X0X;X6X0X0X6X6X0X;X;X-X4X;X5X5X5X5X;X0X;X:X2XwXwX0X:XaXwX0XeXuXaXtXuXuXrXuXwXuXaXsXsXvXlXvXvXvXvXvXvXlXvXvXzXvXzXgXgXvXlXlXlXgXlXlXvXnXlXlXvXnXzXzXvXvXvXvXzXvXvXvXbXbXcXbXvXvXvXvXvXcXzXcXvXvXzXlXlXhXjXjXsXjXcXcXcXcXcXcXcXcXcXcXcXcXcXcXcXsXdXdXaXfXfX$X!.Q.Q.B.!.(.(._._.(.}.(.oXoXoXoX+X_.+X@X,X@X@XOX(.U.P.E.U.P.P.E.P.P.!.U.E.W.N.x.U.+XOXQ.W.E.Q.N.x.(.Q.x.U.=.a.U.OX,X,X<X1X,X,X$X1X1X1X2X2X:X:X:X1X0XuXaXeXaXeXaXiXaXuXuXeXeXaXrXeXtXeXiXtXrXeXeXeXwXrXwXrXfXqX3XfXqXfXfXqXqXeXeXeXqXfXeXeXeXeXqXeXfXeXqXqX0X,X8X1X8X8X,X8X,X1X,X1X,X1X,X0X8X,X,X,X4X^.R.j.0.' 5X4X%X5XrXjX,X1X1X2X2X2X2X1X2X3X1X2X2X2XqX3X2X1X1X3X|. X=X|.|.#X$X-X;X:X0X:X1X1X1X:X2XeXfX2XrX2X2X0XwXrXrXwXaXrX:X1XeXeXwX0XwX0X2X:X0X0XwX0X2X0XwX2X:X2X:X2X0X:X:X0X:X0X2X6X:X2X2X:X0X2X2X:X6X%XXXoXY.i.e.i.-.*.G -.,.z m -.*.<.j.I.R.N.L.L.I.L.I.R.R.P.L.L.P.P.K.h.L.L.I.E.K.L.L.h.L.L.f.' i.<.` P G z j z U I I P P ` *.*.*.*.P I I ` :.<.i.F.[.[.XXY.K.{.",
"<.i.K.K..X%X4X-X%X%X%XXX%X%X-XXXR.j.e.f.S.S.r.r.e.y.y.t.r.t.y.H.F.' I ' r.S.{.Y.{.[.-XuXuXwXwXrXwX0X0X6X2X0X1X0X:X0X1X6X0X;X;X;X;X6X;X5X6X0X6X5X5X;X;X;X;X;X&X6X;X:X:X0X0X2X:X;XwXeXwXwXeXuXeXeXeXwXwXrXpXaXkXlXlXvXgXvXvXvXvXvXzXvXvXnXvXvXnXgXlXnXzXlXvXlXlXlXzXvXlXgXgXnXnXvXgXvXvXvXzXvXvXvXvXzXvXvXvXvXzXvXzXcXzXzXvXcXvXzXlXzXhXhXzXjXjXcXjXcXvXvXcXcXcXcXcXcXcXcXcXvXsXsXfXiX,XoXQ.W.W.W.).).OX@X&X@XOXOX$X@X&X@XOXOX@X>X>X&X@XOXoXQ.!.Q.!.E.U.P.P.P.P.P.B.!.!.I.x.z.x.P.N.Q.U.x.P.P.N.P.E.x.G.Q.&X&XOXoX1X1X&X;X1X2X2X2X2X0X1X:XwXuXaXiXtXiXeXaXtXeXaXeXeXeXeXeXeXrXeXeXaXeXeXeXqXwXeXeXqXfXfXeXfX3XfXqXfXeXfXeXeXeXeXeXfXeXfXeXqXqXfX3XqX0X0X,X,X8X,X,X<X,X1X1X1X8X,X1X@X&X,X8X4X.Xb.s.0.0.5X5XlXrXjXyXqXqXqXqXxXxX2X2X3X2XqX1X2X2X2X2X2X=X$X|.|.|.#X|.$X#X=X;X0XwXwXwX0X1X2X0XeX2X3X2X1X1X1X0XwXwXwXwX0X1X:X0XwX0XwX0XeX0X2X0X0XwXwX:XwXwX:XwXuX:X2X:X;X;X2X;X2X2X:X0X2X0X0XwXwXwXwXeXrX6X[.K.f.i.<.5.-.i.,.p.5.j j P ` ' p.B.L.b.b.K.K.I.L.L.N.b.b.K.L.L.K.L.L.L.K.K.K.L.L.L.R.E.N.p.e.5.i.5.<.' G z G n j j n P =.:.` ` ' P Y *.<.>.' Y Y S.S.S.S.S.",
"R.K.j.j.j.j.K.R.XXXX%XXX%X%XXXR.:.Y Y T D l D T D I T T ^ / r.y.' ' ' F.F.F.K.F.6X-X-X6XrX5X6XeX:X0X1X0X2X0X1X0X0X0X;X;X;X;X;X0X;X5X6X0X0X;X;X6X:X;X5X-X5X;X;X5X:X;X:X0X2XwX2X0X6XwXuXuXeXwXwXwXwXrXwXrXaXhXkXlXvXvXnXvXvXvXvXvXvXvXvXzXgXvXvXgXlXlXlXvXlXlXlXlXvXgXvXgXvXgXvXzXnXgXzXnXnXvXlXvXvXvXvXvXvXzXcXvXbXbXcXcXzXzXcXvXbXlXhXkXcXcXjXzXcXvXcXcXcXcXcXcXcXcXcXcXvXvXlXdXfXrX,XOX!.W.W.W.(._.OX>X>X@X$X,X&X&X,X@X>X@X<X>X$X@X&X&X,X@X+X(.(.(.Q.U.U.P.P.P.W.P.L.L.B.L.L.P.p.N.!.W.!.W.P.L.L.x.h.x.(.0XqXqX0X1X<X&X1X2X2X2X;X0X2X:X0XaXaXeXeXaXeXaXaXeXeXaXrXeXaXeXeXtXtXeXtXeXeXeXeXeXeXeXeXeXeXeXeXeXqXfXfXqXqXfXeXfXeXeX3XfXfXqXqXqXqX3XqX1X8X1X8X,X,X,X,X1X1X,X1X,XqX,X,X&X@X&X+XI.b.j.i.I.4X5XjXrXrX9X2XqX2XxX2X1X1XqX2X1X3X2X2X2X3X2X2X3X$X].|.|.#X$X*X*X*X-X:X0XwX0X2X2X1XqX2X2X2X2X0X;X0X0XwXrX0X0X;X;X1XwX0X:X0X0X0XwX0X0X2X;X:XwXwX0X0X:X:X2X:X2X:X:X2X2X0X:X2X;X2XwXwXeXuXeXrXrX0X:XK.g.<.g.f.i.e.b.i.<.-.` P k J U *.d.h.R.^.^.U.E.R.U.L.L.L.L.K.K.R.E.R.P.L.h.R.L.L.K.K.L.K.h.h.L.L.b.N.N.p.-.J J U z z G G z P I P P r.p.i.<.r.Y I T Y S.S.F.",
", , D F.{.K.i.K.j.j.j.j.j.K.i.<.Y T I D T y.G.S.S.H.H.H.G.S.G.H.{.XX{.F.K.{.%XjXpX6X5X6XwX6X6XeX;X6X;X0X;X6X6X;X:X;X0X:X;X5X;X6X%X&X;X;X5X6X5X5X5X;X;X&X-X%X&X;X;X;X:X;X2XwXiXaX:X0XeXeXwX0X6X6XwX6XuXuXaXhXlXvXvXzXvXzXbXlXvXlXgXbXbXgXzXvXvXgXvXlXlXlXvXlXlXvXlXvXgXnXzXvXvXnXzXnXzXnXzXvXlXlXvXvXvXvXcXvXvXvXbXvXbXcXhXlXbXvXbXkXhXvXzXcXcXcXcXcXvXvXvXvXvXcXcXcXnXnXcXbXzXaXaX;X$XOXP.W.>XW.W.(.+X@X$X,X,X&X,X,X,X,X>X@X@X>XOX@X@X>X,X,X@XoXoXQ.Q.E.P.T.P.U.x.P.U.P.N.B.B.P.Q.I.P.I.B.U.Q.U.d.P.L.d.x.oX0XqXqX1X;X&X1X2X1X:X:X2X0X:XwXeXaXeXaXeXaXiXaXrXiXeXaXeXeXtXeXeXiXrXtXeXeXeXiXeXrXaX3XfXeXqXfXqXfXqXeXfXeXeXeXqXeXfX3XfXeXeXeXfXeXeXqX0X0X8X1X8X,X8X,X,X1X,X,X,XqX1X0X&X@XoXE.N.b.I.' 4XjXyXrXrXrXyX,XxX2X2X1X3X1X2X1X2X2X2X3X3X2X3X2X2X=X'.|.$X#X;X;X-X*X*X;X:X2X:X2X2X2X2X2X2X2X2X0X2X2X6X1XwX2X1X0X;X0X0XwX;X:XwX:X2X0XwX0X2XwXwX:XwXwX2XwX:XwX:X:X:X0XwX0XwX2X:XwX0XwXwXwXwX0XwX;X].f.j.i.K.j.h.f.s.-.<.i.5.s.<.X.P i.I.N.K.K.b.b.L.I.L.b.K.b.I.P.h.L.h.j.K.Y.P.N.L.R.E.P.K.L.R.L.R.L.b.L.R.h.,.d.K.L.b.j.-.G l k n G z x D D I D D D T I I ' S.",
"i   + % p U ' :.L.j.D.f.D.<.<.r.i.e.f.D.K.D.j.f.j.R.%XXXL.j.f.j.R.oX-X#X&XwXrX0X0X0X;X5X6X5X0X0X5X:X5X-X;X5X6X6X5X6X0X6X6X:X;X-X6X5X;X0X;X;X6X0X;X5X;X&X&X@X$X%X&X0X1X;X;X1XwXwXwX6X5X6X0X0XwXrX6X7X7X7XhXhXvXjXkXcXzXcXzXvXvXcXvXnXvXvXnXvXvXgXvXvXgXbXnXvXvXnXlXlXvXlXzXnXgXvXfXgXvXvXlXlXlXlXbXbXvXmXbXbXnXnXbXnXbXnXbXnXnXbXhXjXhXhXhXlXlXvXzXcXvXzXcXzXcXzXjXcXbXcX7XzXzXjX,X,X&X+X(.W.Q.<XQ._.OX,X>X&X&X,X,X,X,X>X>X,X>X@X@X_.@XOXOXOX>XOX_.Q.Q.U.P.U.E.U.P.P.P.P.L.L.L.L.W.U.!.Q.Q.E.U.E.B.x.P.G.p.P.8X0XeXtXrX$X%X6X6X:X0X2X2XwX2XeXiXtXfXfXfXfXeXfXfXeXeXeXrXaXeXeXtXeXaXeXtXeXeXeXeXeXfXqXeXeXfX2XxX2XfX2X2XfX2X2XfX2XeXiXeXeXeXqXqXeX<X,XqX,X,X,X,X&XqXqX,X,XqX,X>X<X@XoX@XP.T.x.x.g.I.%XrXjXrX0X0XyX0X0X0X0X1X,X1X1X2X2X,X2X;X2X;X0X:X;X$X[.Y.].#X-X$X$X&XqXqX1X1X2XeX2X2X2X2X2X2X2XwX0X0X1X1X;X;X:X:X0X2XwXuXwXwXwXwX2X2X2X1X3X;X=X2X1X2X2X1X2X2X2X0X6XwXwXwXwXwXwXrX6X0XrX6X6XeXwX&XK.f.K.R.j.i.d.p.j.p.8.8.,.*.L P <.j.N.L.b.L.R.K.V.L.I.K.K.L.I.h.h.j.g.d.K.L.L.R.L.L.L.L.K.L.I.L.R.L.L.K.R.L.I.L.K.b.L.L.L.a.<.g U G z z J I z G G D f , * + . ",
"{.f.P U Y f.i.:.j.L..XK.i.e.j.L.[.K.j.j.L.R.^.XX(.%X&X4X%X$X4XyXoX$X#XoXoX%X5X;X;X6X;X&X&X;X0X5X5X6X:X:X-X;X6X;X;X6X6X6X5X5X-X-X;X1X0X0X;X;X;X5X4X;X&X4X;X%X$X%X&X&X&X$X;X0XrX0XrX0X0X0XwXwX6XrX6X7XjXjXjXjXhXcXvXcXcXjXhXhXvXlXbXvXvXnXgXvXvXvXvXnXvXnXvXgXgXbXnXzXgXvXvXgXvXlXvXvXgXzXgXvXbXbXvXnXnXnXnXnXbXmXnXbXbXvXvXnXbXvXlXhXlXzXcXvXcXcXvXvXcXvXzXcXcXcXcXbXvXjXcXkXjX5XoXoX(.(.W.(.Q.).Q.(.@X>X@X@X>X,X@X@X@X,X&X>X,X,X>XOX_._._.OX_.oX(.(.Q.Q.Q.E.T.P.E.U.E.P.L.B.L.B.P.!.U.Q.!.U.U.U.L.a.9.d.z.p.P.tXyXtXtXeX0XwXuXwX2XwX2XeXeX2XiXiXfX2X2XfXfX2XeXfXeXaXeXeXeXrXiXeXtXtXeXeXeXeXrXeXqXfXeXfX2XfXqXfX2XxXxX2XxXxX2XxXeXeXeXeXeXeXeXeX1XqX,XqX0X,X,X&X,X<X<X,X,X,X<X<XOX@XQ.Q.c.x.L.OX].4XjXjXyX5X5X0X0X8X0X8X8X8X8X0X2X2X2X2X:X;X;X;X:XwX2X;X$XXX#X#X1X$X}.}.$X2X2X1X2X2X2X2X2X2X2X2X2XwX0X:X0X:X0X;XwX2XwXuX2X2XwX2X2X2X2X1X1X1X1X2X1X2X1X2X2X2X2X1X;X0XwXwXwX6X6XwXwX6XwXuXrXrXwX6XK.j.p.K.I.K.h.j.j.g.g.j.j.p.,.! Y -.p.g.b.K.N.L.L.K.L.b.K.N.K.b.L.L.K.K.L.L.L.R.R.L.L.L.L.L.L.L.L.L.L.R.L.L.L.L.L.P.L.L.P.R.K.g.J G j f J j.U.R.s.h.b.d.j.b.L.I.",
"%X%XXXe.I I *.<.D L Y :.e.K.Y.L..XR.I.R.]..XoX+X#X+XoXoXoX%X&X0X&X%X%XoXXXOX%X@X&X&X&X%X%X&X&X5X6X6X5X-X:X;X:X-X6X6X6X6X6X;X:X:X;X;X0X;X;X;X8X5X&X5X4X&X&X@X%X%XoXoXoXoX;X0XeXwX6X;X5XwX6X0X6XuX6XjX7XcX7XcXjXvXzXcXcXcXhXzXzXcXvXvXgXvXvXvXnXvXvXzXnXvXvXnXnXbXvXlXlXnXvXzXnXlXbXvXvXgXlXvXbXvXbXbXbXnXnXnXvXmXbXnXnXbXvXbXvXbXvXvXvXvXvXvXvXzXzXcXvXvXcXcXcXcXbXcXcXcXvXjX5X4XQ.E.U.Q.W.Q.).).(.oXOX@X@X@X@X@X@X@X>X@X>X,X,X>X@X@X@X_.(._._.oXOX(.Q.!.Q.Q.U.L.P.P.P.P.L.L.P.P.U.E.E.E.U.E.P.B.P.x.3.a.G.2.p.1XrXeXaXaXpXwXuXwX2X2XeXeX2XfXeXaX2XfX2X2XeXeXiXfXtXeXrXeXeXaXeXrXeXrXeXeXeXiXtXtXeXeXeXeX2XeXeXeXxX2XfXxXfX2XfXtXeXeXeXeXeXeX2X2X1XqX1XqX8X0X8X&X1X1X,X,X,X1X<X@XQ.Q.P.!.p.g.P.qX4XyXxXrXyX5X0X5X0X&X,X0X8X1X1X0X2X1X<X<X:X2X;X;X;X6X0XwX6X;X;X;X;XqX2X XE.}.-X2X2X2X2X2X2X2X2X2XwX:X0XwX0X0X:X:XwX0XwX:X2X2X2X2X1X1X1X1X1X2X2X2X2X1X1X1X1X2X2X1X6X6X6XwXrX6XwXwXwX6XrXrXwXuX6X.Xj.i.f.j.j.K.h.f.a.j.j.d.h.d.2.=.P X.<.a.b.I.R.L.I.L.I.L.I.B.L.b.L.I.L.L.I.L.P.L.L.L.L.K.K.L.L.I.L.R.L.L.R.L.L.L.L.L.K.K.K.P.R.K.L.R.E..X%X4X%X.XR.R.I.K.K.R.R.L.",
"].$XoXh.i.f.j.f.].-XoXXXK..XE..XE.E..XXX+X+XXX.X+X#X+XXXoXoX.X.X%XoX%X;X$X%X#X$X&X$X%X#X#X%X&X;X6X;X:X;X-X%X-X-X5X;X:X0X6X6X5X:X;X0X;X6X;X;X0X;X&X;X%X&X&X4X&X&XOX$X$XoXOX&X1X1X%X%X;X5XwX6X6XrX6X7XjXhXjXhXcXcXzXcXzXcXcXhXhXvXvXvXvXvXgXvXvXvXnXvXnXvXvXnXzXnXgXvXlXzXgXvXgXvXlXgXvXbXbXlXsXsXnXvXbXbXbXnXvXvXbXvXbXnXvXvXvXbXvXvXvXvXvXvXcXcXcXcXcXvXcXzXcXzXcXcXcXcXlXrX4X^.Q.Q.U.U.(.(.Q.Q._.OXOX@X@X,X&X@X>X&X&X>X,X>X>X>X>X>X@X+X+X_.oX_.>X(.W.P.U.Q.!.U.P.P.L.P.P.P.P.P.P.P.U.U.E.T.U.P.U.W.P.x.x.d.h.T.eX0XaXaXjXuXwXuXfXeXiXiXfXeXfXiXfX2XfXfXfXfXeXeXeXeXiXtXtXeXeXeXrXeXeXeXeXtXeXtXeXeXeXeXfXeXeXeX2XxX2XfXtXtXxX2XeXeXeXeXeXqXqXqXqX,XqX1X1X,X0X8XqX9X,X1X1X,X,X$XT.J.!.x.x.p.Q.eXrXrXrXrXyX5X5X0X0X0X1X,X1X,X1X1X&X<X<X<X:X:X0X:X;X:X:X;X;X:XwXwX&XeXfX1X X}.$X;X2X2X2X2XfX2X2X2X2X0X:XwX0XwX2XwX2XwX2XwX:X:X:X:X1X1X1X3X1X2X2X0X2X2X2X2X1X1X1X1X6X5XwX0X5XwXwXrXwXwXuXwXwX6X*XK.i.i.5.i.j.j.j.j.g.a.j.g.x.g.8.2.P P *.5.K.U.E.I.I.L.L.I.R.R.L.L.L.L.L.R.L.L.L.L.L.R.L.L.L.L.L.K.L.K.L.I.L.L.R.L.L.L.L.h.h.K.L.L.b.R..X+XoX.X^..X%XE.K.K.R.^.R.K.",
"%XoX]..X%X0X&XR.XXj.' p.K.&XXXE.oX+X%XoXoX.X+X&X.XoXoXOX+X+X+XXXOXoX%X%X&X#X%X%X&X%X%X#X$X%X&X&X;X:X-X$X*X%X*X-X;X;X6X;X:X5X:X5X1X;X;X5X0X;X;X5X4X-X&X&X&X&X%X@X,X1X1XoX.X].oXXXXXoX:XwXuXrX6X6XjX7XcXcXjXcXhXzXcXvXcXcXhXvXlXlXvXzXnXnXzXnXvXgXzXvXzXvXgXvXzXnXlXlXzXlXlXvXzXvXgXlXvXvXvXzXfX2XdXnXdXnXvXbXvXvXnXnXvXvXvXvXvXbXcXcXzXvXzXvXvXvXcXvXvXvXcXzXzXcXvXsXfXhXpX4XOXoX(.Q.W.Q.(.).(.Q._.(.OX>X>X@X>X>X>X>X>X>X>X@X@X@X@X@XOX_.@X_._.@X,X@X!.W.Q.(.(.(.W.P.P.P.P.P.B.P.L.L.P.U.U.U.P.P.B.W.).!.h.N.P.p.0X0X0XaXkXaXaXaXeXeXiXiXiXaXiXaXzX2XfX2XiXiXeXeXtXeXuXeXeXtXiXrXiXeXeXeXrXeXtXaXeXeXeXeXeXeXeXiXeXeXeXeX2XtX2XfXeXeXeXeXeXrXwXwXqX1X0X1X0X8X0X4X>X>X,X,X,X,XOXoXE.E.Q.d.J.P.0XqXtXtXrX0XwXwXwX0X0X0X:X0X;X1X;X&X;X$X*X-X;XwX0XwXwXwX1X-X;X;X:X0X2X1X1XqXeX0X1X$X2X2X2X2X2X2X2X2X:X0X2X0XwX0X0X0XwXwX:X:X:X:X:X:X1X:X2X;X2X;X1X2X2X:X0X1X2X1X1X2X0X6XwXwX6XwX6XwXrXrXuXrX0XwXXXS.<.' <.j.L.K.K.K.N.b.D.K.x.x.c.j.*.` ` *.f.N.R.R.I.L.K.N.L.L.L.B.K.L.L.I.R.L.R.L.R.P.L.L.R.L.L.L.L.L.L.R.L.L.R.L.L.R.Y.L.h.L.L.L.I.L.E.XXoX+X&XyX;X%X.XE.^.oXXX^.",
"R.XXoX%XXXoX%X#XXXoX%X6XoXXXoX6XoX%X%X+XoX+X%X%X^..X.XXX.XoX%X&X&X;X&X&X%X+X$X&X&X&X%X%X$X$X&X%X%X-X-X$X*X%X-X$X;X6X:X5X:X5X:X;X;X5X;X&X;X5X0X&X&X&X&X4X4X&X5X&X&X&X&X#XXX}.oX}.].$X:XuXjXpXrX7XjXhXcXcXvXcXcXcXvXjXjXvXhXhXhXvXvXvXgXzXnXgXvXgXnXgXnXnXvXgXnXzXvXgXnXnXlXgXnXgXvXvXlXgXnXgXnXzXnXnXdXdXzXvXbXvXmXbXbXbXvXnXgXgXcXjXcXvXcXzXvXvXzXvXcXzXvXcXcXcXvXvXlXuX;XoX.X.X!.W.U.Q.(. X).)._.+XOX_.@X>X>X@X@X@X@X@XOX_.).(.@X_.+X_._.@X@X@X>X@XOX+X@X&X@XoXoXQ.(.Q.W.P.P.L.B.P.!.W.!.W.P.B.P.z.Q.(.P.I.Q.h.OX%X;XwXtXpXaXaXeXiXeXiXiXeXeXeX2XfX2XfXeXeXiXeXeXeXtXtXtXeXeXeXeXeXeXeXeXeXeXaXeXfXfXeXeXeXeXeXeXeXeXxXxXtXeXeXeXeXwXrXwXwX0X0XqXqX0X0X0X0X0X0X<X1X<X,X1X>X@XQ.E.Q.G.x.x.,XqXtXeXrXaXwXwXwXeX0X0X0X0X0X1X1X;X;X0X2X:X;X;X1X6XwX:X:X0X2X:X0X:X2XqX1X&X0XqX&X$X;X1X2X1X1X2X2X2XqX0X0X0X:X;X0X0XwXwXwX0X1X:X0X:X:X2X1X;X:X;X6X6X;X0X0X2X2X2X2X2X1X6X5XwX6XwX6XwXrXuXwXrXtXwX6XXXD.<.<.<.K.R.R.b.b.Y.L.b.L.L.x.x.x.i.-.P P X.i.d.N.U.U.E.R.I.L.I.R.L.L.L.L.L.L.L.R.L.L.R.P.Y.L.R.I.I.L.L.L.L.R.L.L.K.L.L.L.L.L.L.I.R.K.K.].oXXXE.R.+X@X%X.XL.K.L.R.",
"4XXXE.XX%XoX^.XX^.oX$X4X5X+X.XI..XXXoX+X%X4X+X^.%X+X%X+X%X@X@X5X5X0X0X&X$X@X&X%X%X&X@X&X@X$X+X%X*X*X%X%X%X&X&X-X-X5X&X;X5X;X;X-X0X;X;X;X1X;X&X&X-X&X&X&X&X%X&X&X$XOXOXoX%X;X&X%X%X%XrXpXpXuXuXjXjXcXcXcXvXjXcXcXhXhXhXhXhXhXhXlXvXvXzXvXzXvXlXnXgXnXnXgXnXzXgXvXlXvXvXgXvXgXlXvXgXzXnXgXlXvXvXbXmXbXbXnXnXnXvXvXbXnXnXnXvXgXgXgXjXvXcXvXvXzXvXvXcXvXcXcXvXvXcXvXgXvXsX;XXX].^.^.!.Q.Q.(.).).OXOX_.+X)._.@X9X,X>X>X@X@X@X@X+X_.(.)._.(._._._.@X@X_.@X>X,X,X,X,X@X>X@XOX(.Q.Q.Q.W.Q.Q.Q.(.Q.W.P.P.B.B.U.Q.E.Q.(.E.oX0XtXeXtXaXaXuX2XeXiXiXeXeXeXwX2X2X2XfX2XfXfX2XeXtXtXtXeXeXeXtXaXtXeXtXeXeXrXrXeXeXeXeXeXeXeXeXfXeXeXeXeXeXeXeXeXeXeXrXrXwX0X0X1XwXwX0X0X0X0X0XqX,X1XqX1X,XOX}.P.P.g.J.P.xXtXqXwXaXaXrXrXwXwX0XwXwXwXwX0X:X;X;X:X0X2X:X;X;X2XeX;X;X:X1X0XwXwXwX2XqXwX1X$X X#X&X<X<X1X1X2X2X2X2X0X0X;X6X5X0X2XwXwX0XwX:X:X;X2X1X:X2X;X1X0X;X0X:X:XwX2X2X2X2X2X2XwXwXwX6X5X6XwXwXwX6XwXpXeX:X{.D.<.<.i.s.K.K.K.h.L.K.D.L.x.d.a.g.p.,.*.` ` -.,.i.L.R.E.E.U.I.R.U.E.R.R.L.L.L.R.Y.L.R.Y.R.R.P.L.L.R.L.L.R.L.L.L.L.K.L.L.b.K.L.L.L.].L.K.K.^.%X;X%XE.%X&XOX].^.%X%X",
"&XoX^.%X%X^.].+XoX%X5X.XoX.X%X+X+X+X.X.X&X5X;X.X.X.XoX+X%X%X+XXX.X4X0X&X@X6X&X+X@X%X%X&X%X%XOXOX$X%X%X$X-X%X;X5X;X;X;X%X%X;X-X4X;X;X;X;X;X5X5X;X&X&X4X4X&X&X%X@X1X&XoXOX5X0X&X].%X;XwXuXuXwX6XuXhXjXcXjXhXhXvXcX7XjXjXcXhXhXvXcXzXnXgXnXgXnXlXzXzXvXzXvXgXvXgXvXnXzXlXnXzXvXvXgXgXvXbXvXvXzXvXvXgXnXbXbXnXnXnXnXnXnXnXnXgXnXnXvXvXvXvXvXvXcXvXvXcXvXzXzXcXkXvXhXsXlXpX%XE.E.E.E.Q.(.).OX). X(.>X(.(.(._.@X@X>X@X>X@X>X,X>X@X@X@X(.W.(.).(.OX@X@X@X@X@X@X>X>X,X,X>X@X>X+XoX_.(.(.(.+X_.OX(.Q.U.L.x.(.B.c.E.E.E.(.#XtXbXkXpXpXaXaXeXeXiXeXiXeXwXwX3X2X2X2XfX2XfXfXiXrXeXuXeXtXeXeXtXtXeXuXeXeXeXuXeXeXeXeXeXeXeXiXeXeXeXiXeXxXeXeXeXeXeXeXwX0X0XwXqXqX0X2X;X0X0XwX,X1X,X,X,X,X}.Q.E.h.G.P.qX0XqX0X0XrXpXpXwXrXwX2X0XwXwX:XwX2X2X:X-X1X2X;X-X=X;XeXiXwX:X;X:X;X:X;X$X1X&X#X$X;X;X#X1X<X3X,X<XqX1XqX0X0X0X&X;X;X1X0XwXwX0X:X;X:X0X2X;X;X;X:X:X:X2X2X:X2XwX2XqX2XeXqXrXwXwXwX0X6X6XwX6X:XwXjXwX%XY.i.P <.<.:.,.K.E.P.L.K.b.L.x.g.p.p.<.,.,.,.:.*.=.-.5.j.I.R.I.L.R.E.E.R.L.L.b.L.L.R.L.L.I.I.L.L.L.K.L.L.L.L.L.I.L.L.P.R.L.K.L.R.L.L.K.R.R.Y.R.%X%XoX].XXXX.X.XXX].Y.",
"%X+X+XoXXX+X.X+X%XoX%XoXoX%XoX.XoX+XXX+X%X@X%X%X$X+X+X&X$XoX%X%X%X@X#X%X$X@X@X$X&X5X&X$X0X0X&X5X-X;X;X;X$X$X%X-X;X;X;X5X;X;X;X;X;X;X;X;X5X;X;X5X&X5X&X4X@X%X&X$X,X0X&X(.@X;X%X;X%X;XwXwXuXuXpXpXvXvXvXhXhXhXhXhXcXnXnXdXcXcXvXhXlXlXlXlXlXlXlXvXgXvXvXfXgXvXzXfXlXzXnXnXlXlXzXnXgXnXgXvXlXnXvXgXnXvXzXnXvXvXzXnXvXvXzXlXlXzXgXvXcXcXvXvXcXzXvXzXvXbXvXjXhXhXcXhXlXlX0X].R.].^.E./.(.(.(.(. X).).(.OX_.+X@X>X9X,X@X@X@X@X>X>X9X>X>X@X_.`./.(._._.@X_.(.@X,X@XOX9X>X>X>X9X>X@X@X@X@X_.).oX@XOX(.B.W.P.!.B.!.!.!.P.$XjXaXjXaXwXsXuX0XpXaXrX:X:X6X:X3X2XrXeXeXrXrXuXeXrXwXwXqXeXtXaXeXeXeXeXeXaXtXiXeXeXeXtXeXeXaXeXeXeXtXeXtXtXeXtXrXaXrXrXeX0X0X5X:X;XrXuXwX0X0XwX0X0X5X&X%X+X.XE.T.g.R.4X&X0XtX0X2XeXfXeXeXiXwX;XuX0XuX6X6X:XE.6X;X;X;X:X0XeX2X;X0X:X:X:X2X:X:X;X2X&X}.T.Y.].oX$X$XoX$X1X1X}.T.}.].%X&X5X5XtXrX&X;X0XrX1X0XwXrX2X;X:X6X:X0X6XwX0XwXeXuXwXwX0XwX6XkX:XwXpX6X&X6XwX:XXX[.[.F.S.:.' ' ' <.,.,.i.b.R.L.L.I.K.j.p.8.p.8.p.s.f.9.5.e.,.8.5.5.5.8.d.b.b.L.L.L.K.L.b.L.L.Y.R.R.R.P.P.L.L.R.L.K.h.L.L.P.L.R.P.L.Y.P.L.K.b.R.oX%X#XXXoXoX].]..X.X.XoX%XoXXX",
"oXoX.XoX.XoXoX.X+X%X+X%X+XXX+X.X+X.XoX+X%X%X%X+X%X+X+X%X@X5X%X%X+X$X$X@X&X%X$X$XoX4X8X;X8X5X%X&X&X-X-X&X$X$X&X;X%X;X;X&X&X;X;X;X;X&X;X&X&X;X4X;X;X&X&X&X&X;X4X;X@X,X$XOX0X0X$X4X#X6XwXrXuXaXhXhXcXvXcXcXvXhXcXcXnXnXnXnXcXvXvXhXlXlXzXlXlXlXvXzXzXvXnXgXgXvXvXgXlXvXnXzXvXlXlXvXvXzXvXlXlXzXlXvXvXlXvXnXzXnXlXvXnXzXnXvXgXnXlXlXjXvXzXcXcXzXcXcXvXvXvXcXhXhXhXhXfXaX5X].E.E.^.E.(.oX(.@X).).).oX_.>X@XOX>X>X9X>X>X>X8X>X@X>X@X9X9X>X_.).+X_._.@X@X>X@X_.,X9X@X>X@X>X@X@X>X@X@X@X+X(.)._.@X+X_.Q.!.W.W.P.B.P.U.P.f.L.eXaXkXpX6X:X6X6X0X6X:X$X%X;X2XeXtXaXaXuXpXaXtXeXeXrXeXeXiXrXtXiXrXeXtXeXeXeXeXeXeXeXaXrXeXtXeXeXeXeXeXeXiXeXtXtXeXeXrXwXwXwX0XeXrXrXwX6X6X;X;X0XrX4XOX].E.].h.L.$XeX&X+X&X&X2XeXiXeXeXeXeXrXeXuXjX%XS.K.%X:X6XwX0XwXwXwX2X:X0X2X0X2X0X2XwXwX0X1X&X X}.oX}.}.G.G.G.L.Q.oXE.L.L.R.oX$X0XrXtXtX6X0X;X1X0XuXwX;XwX6X0X0X:X6X6X6X6X6X6X5X6XwXwXrX-XrXaXwX6XjXdX{.S.e.Y ' i.e.' T <.' <.<.<.i.j.h.D.L.L.K.h.a.p.9.i.8.i.s.p.j.j.p.p.p.p.p.i.8.f.j.K.h.N.K.h.L.L.L.I.Y.P.P.R.P.L.R.R.K.K.L.L.L.K.L.h.K.K.b.K.K.L.R.E.oX%X%X%X%X%X#XoX%XoXoXXXoXoX%X",
".X.X+X.X.X.XoX+XoX+X%X+XoX+XXX+X%XXX.XoXoX+XoXoXoX%X%X%X&X0X4X%X$X%X%X@X$X@X%X%XOX@XoX.X%X&X%X@X$X%X&X%X%X%X&X-X&X&X&X&X%X&X%X%X$X&X%X&X;X;X&X&X&X&X&X&X@X%X&X&XoX+XOX,XrX&X#X&X&X6XrXuXsXsXdXhXhXhXcXcXvXcXhXcXcXcXcXcXcXcXcXhXlXlXlXlXlXlXlXlXgXzXgXgXgXlXnXgXvXgXzXvXgXnXgXlXlXvXgXvXvXgXgXvXlXlXvXzXvXvXvXzXnXvXgXvXvXzXnXnXcXcXcXzXcXcXcXjXcXcXcXjXhXhXhXjXaXwX-XXX.X^.^.^.(.oX@X_.).OXOX XOX_.(._.@X9X9X>X9X,X>X9X8X>X@X>X@X>X>X>X@X_.@X_._.>X>X).>X9X,X+X_.OX_.@X@X@X@X>XOX_._._._.@XOX_.W.W.P.B.L.L.P.T.L.g.rXwXuXeXwXwX0X:X:X6X6X%X%X;X2XeXaXaXaXaXaXkXtXaXaXtXeXeXeXeXeXtXeXeXeXeXeXeXeXeXaXeXeXeXeXtXiXeXeXeXeXtXtXeXrXrXeXeXuXrXeXrXuXrXuXrXrXwX:X6X0X0X0X;XoX].R.L.<.R.0XtXrX0X0XtX1X1X2XxXaXtXaXtX6X;XwX&XF.].aX;XwXwXeXwXwXwXwXwX:X:XwX0XwX0XwXwX0X2X1X1X$X#X}.Y.E.T.h.t.p.Y.Q.T.P.D.j.f.j.L.#X0XtXtXwX;X;X0XuXaXwXwX0X:X6X;X6X0X6X6X0XwXwXtXrXwX6X6X7X7X[.i.e.' ' :.Y ' ' S.e.:.i.<.<.<.<.,.i.5.h.K.L.R.N.x.h.g.f.s.s.j.j.s.j.j.j.j.a.f.s.p.f.f.a.j.g.h.K.K.K.L.R.Y.R.P.Y.R.R.P.L.K.K.L.L.L.K.h.N.L.R.L.P.P.E.oX.XoX&X5X&X+X.X.XXX.X^.oX.XE.E.oX",
"+XoX.X+X+X+XoX+X+X+XoXoX+XoXoX.X+XoXXX+XoXoX+X%X%X@X&X%X4XrX0X+X%X@X&X@X@X%X$X+X5X%XL.N.^.$X&X@X&X&X%X&X&X&X&X&X%X&X;X&X;X&X&X&X$X-X%X-X%X;X;X5X%X;X@X%XoX.XoXoXoXoXOX8X5XoXoX%X;XwXpXaXpXhXpXpXhXhXcXcXvXcXvXcXcXcXbXcXvXcXnXlXzXlXlXlXlXlXlXkXnXgXgXfXgXvXgXzXlXlXnXgXvXzXvXlXvXgXnXzXlXvXnXzXlXvXgXvXgXlXlXnXzXvXvXvXvXvXvXzXjXjXcXcXvXjXcXcXjXcXcXjXjXhXcXvXaX;X%XoXoX^.oX^._._._.+X X).).).).`.(.(.@X9X9X,X>X>X>X>X>X>X@X@X_._._._.@X_.@X@X+X>X@XOX,X>X>X>XOX+X_.OX@X@X_.@X@X@XOX+X_._.(._.W.W.P.x.x.N.E.E.%XR.zXkXbXrXhXwX0X6XwXrXwX:X6XeXeXiXaXaXtXpXpXaXaXtXeXeXeXeXeXeXeXeXeXeXeXrXqXwXwXeXeXeXrXeXaXtXeXeXeXaXeXeXtXeX0XwXeXeXrXuXuXtXuXuXwXrXwXrXuXwXrX0X;X%XoX.XK.f.g.;XrX;X0X0X%X@XxXqX1X1X1X&X-XeXaX5X%XwX5X5XkX5X2XwXwXwX;X:X0XuX2X0X:X2X2X2X:X0X1X1X1X1X;X&XoXE.oX;X Xf.2.h.E.E.L.K.L.L.D.j.h.L.&XyXpXeX;X;X0XaXwX6X5X6X;X6X;X6X0XeXuXuXrXpXwX6X6XhX7X{.r.:.:.' Y e.S.e.Y Y :.Y i.i.e.<.i.i.p.i.d.L.P.R.P.P.L.x.L.N.h.d.s.j.8.8.8.s.f.s.j.s.j.d.p.j.h.h.h.h.h.h.L.K.L.P.P.R.P.R.h.P.L.d.g.R.R.L.L.L.R.E.Y.E.^.oX%X.X.X+XoX.XOX5XoX^.XX%X%X+XXXoX",
".X+XoX+X.X+X+X+X+XoX+X+X+X+XoXXX+XoX+X%X+X+X%X%X+X%X&X%X5XtXyX@X@X@X&X$X%X%XOXOXOXoXR.P.oX&X@X&X;X<X&X;X&X&X&X&X&X1X&X<X1X&X,X&X$X-X$X-X;X;X&X&X&X%X+XoX.XE..X^.(.(.@X1XOXE..X&X6XrXaXaXaXpXdXpXcXcXcXbXvXvXvXcXcXbXvXvXvXhXcXlXgXlXkXlXlXkXlXhXkXkXjXhXfXkXzXlXlXvXgXnXvXlXnXzXzXvXlXzXgXvXzXvXgXvXlXlXzXgXvXlXzXnXlXzXvXvXgXzXcXjXcXcXvXjXjXcXcXcXhXjX7XcXhXhXwX;XoX+XXX^.oX(.(.(._.(.oX(.Q.).Q.(.`.(._.>X>X>XOX@X>X@X@X>X@X_._._._.).)._._._.@X@X@X>X>X_.(.,X_._.(.+X_._.(.+X_.>XOX_.(.(.OX_.(.W.P.L.x.G.P.E.5XK.Y.].6X*XpX[.-XwXpXrX6XwXrXrXrXtXjXpXrXeXrXuXrXtXeXiXeXtXeXiXeXwXeXrXeXeX0XrXrXeXeXrXtXeXaXtXeXtXeXiXtXtXeXrXrXwXrXrXrXtXtXpXpXtXrXeXuXuXuXuX;X0X6X$XXXR.h.e.f.5XrX%X0X5XXX$X<X&XqXzXkX0X#XoX0X0XoX&X5X.X5X6X0XeXwX0X0X:X0XwXwX:X0X2X:X1X:X;X1X1X<X$X$X&X$XoX].OX$XQ.P.P.E.E.E.R.E.E.E.h.g.K.K.R.:XrXrX;X;X;X6X6X6X;X:X-X5X6X6XwXrXwXwXrXuXwXcX:XF.S.' :.<.r.F.[.*X[.[.XXR.K.i.j.j.j.f.p.i.s.K.L.L.L.P.P.P.P.R.U.P.b.h.h.j.s.p.p.p.j.s.j.j.d.f.d.b.L.K.K.b.G.d.K.K.L.L.L.L.L.R.L.L.b.b.R.E.(.^.oX.XoXOX@X+XoX^..X+X&X%X^.E..X%X^.^.oX%X+X.X^.",
"oXoX.X.XoX.XXXoXoX+X+XXXXXoX+X+XoX%X%X%X$X%X$X@XoX%X+X+X4XeXrX5X$X%X%X%XOX+XoXoXL.oX&X&X@X$X%X5X0X1X,X,X;X&X&X$X&X,X1X&X,X<X;X&X$X&X&X;X&X;X&X$X%X%XoX.X.XE.]..XOXQ.@X,XE.R.oX5XwXaXsXaXaXpXdXuXcXcXcXcXbXvXvXvXvXvXvXcXvXcXvXvXlXlXlXzXlXkXkXhXhXaXaXhXlXlXkXlXlXvXvXzXgXvXgXlXnXgXlXnXvXlXnXgXvXgXzXlXgXvXzXlXvXlXlXgXgXgXgXgXcXjX7XcXcXcXcXcX7XjXhXcXhXjXpX6X6X%XoXXX.X(.^.(.(._._.(.(.Q.Q.(./.(./.Q.Q._.+X_._.(.)._._.+X_.+X>X_._.).).(._.@X_.(.(.@XOXB.B._.).Q.(._.(.Q.).(._.+X_.OX_._.>X>X<XW.P.B.N.x.x.G.D.R.].D.r.Y -XuX$XwXpXwXwXrXpXaXaXaXpXtXrXeXrXuXwXeXeXrXeXeXeXeXwXrXwXwXwXrXeXeXrXeXeXiXeXtXtXeXuXeXtXrXiXeXeXiXrXrXrXwXrXrXpXpXpXaXuXuXuXwXuXwX;XrXtX&XR.D.j.j.<.&XtX0XwXwX5X0XxXqXqXqXoXg.-.*.<..X@X%X.XR.+XrXwXwXwX2X;X2X:XwXwXwXwXwX2X:X0X;X2XqX1X&X&X;X&X$X$XoXoXOX@XoXoXoX+X.XE.R.L.K.L.Y.D.h.D.].$X5X6X;X5XwX5X6X5X:X;X-X6XwX6X5XwXrXpXuX-XF.Y ' S.Y ' Y.-X-X:X-XrXpX;XR.j.j.h.j.j.p.s.j.K.L.L.L.L.P.T.U.R.U.I.R.R.R.L.L.K.b.K.N.N.N.b.d.K.L.Y.E.U.T.P.R.L.L.P.E.P.R.E.R.^.g.j.Y.Y.j.h.oX%X+XOXoXoXE.R.K.E..X%XyX5X4X+X+X%XoXR.R..X+X.XE.",
".X+XoX.X^.oXoX^..X+XoX%X+XoX+XoXoX%X&X4X%X%X%X%X+XoXoX%X%X5X0X0X$X@X#X+XOXoXoX^.E.%X4X&X&X@X$X8X&X&X&X&X<X1X&X$X&X&X;X<X&X;X&X&X$X=X-X;X-X-X$X%XoXoX].E.R.R.E.E.Q.U.oX(.R.E.&X;XpXaXhXaXiXaXdXdXcXcXcXbXbXvXvXcXbXcXcXvXvXvXvXcXvXkXlXzXlXlXkXjXaXaXaXkXlXlXsXlXnXgXgXvXvXzXgXvXnXzXvXgXlXlXlXnXlXlXvXlXlXlXgXvXgXnXnXgXfXgXfXfXjX7XjXhXjXjX7XcXcXcX7XjX7X6X6X6X%X&X&XoX.XoX(.^.(.(.(.(.(.W.Q.Q./.(.).W.W.Q.).(.).).).(.).(._._._._._._._._._._._.(.U./._.U.P.W.(.`.(._.OX).)._._._._.@XOX>X>X>X>XW.P.P.L.L.h.h.].L.D.F.XX*X;X[.-X:XwX6XuXuXpXuXrXuXpXpXrXwXwXuXeXeXeXeXeXeXwXqXwXwXwXrXwXeXeXeXeXeXtXeXeXeXtXtXtXtXeXeXeXtXtXeXrXrXrX5XwXwXrXuXpXuXuXpXuXuXuX2X6X0X0X+XL.D.j.f.f.%XwX6X&XXXY.E.G.t.! G G *.j.E.X.i.+X5X+XXXXX5X;X;X;X;X:X:X2X:XwX0X0X:X0X;X:X;X2X2X1X&X;X1X,X&XqX&XoXoXOX&X&X&X$X&X5X&X$XoXR.K.].D.j.g.L.].oX-X%X%X-X;X5X-X:X-XwX5X6X6X6X6X%X{.' F.S.' S.F.*X:XrX6X7X7XrXuX;XXXK.j.j.s.j.j.h.K.L.L.L.L.U.P.P.P.I.I.R.U.U.U.U.E.E.E.U.I.P.I.R.L.R.E.E.^.].E.E.E..XE.^.^.E.E.E.E.E.h.h.E.L.p.p.L.L.L.L.L.h.j.f.p.5.<.-.` *.p.R.^.+X+X+X(.+X%X@X+X",
"+X+X+XXX+XXXoX+XoXXX+XoX+X+X+XoX+X%X4X&X&X+X+XoX%X%XOX%X+XoX%X4X+X$X+X+XoX.XoX.X4X@XoXR.oX&X4X0X&X&X&X&X;X,X&X$X&X&X&X&X&X&X&X&X%X%X-X&X&X$X#XOXoXXXE.E.P.L.L.P.P.L.P.!.L.oX0X&XpXkXkXsXdXdXsXsXcXcXbXbXvXvXvXvXbXvXcXcXvXbXvXcXlXlXkXlXlXkXsXkXpXpXaXhXzXkXkXlXzXlXvXlXlXnXvXvXgXlXlXvXlXvXlXzXlXgXgXgXzXlXgXgXzXnXzXgXgXfXfXzXcXjX7XcXjX7X7XvXjXjX7X6X5X6X6X6X%X0X0X+X(.OX+X(.oX_.OX(.(.Q.!.W.W.(._.Q.W.W.)._.(.(.`.).Q.).(.(._._._._._.).).(._.).W.Q.@X@X_.(.(.(.).@X@X_._.@X@X@X@X>X>X>X).>X>X(.P.U.U.P.L.x.D.h.K.j.Y.;X$X0X;XXX%X5XrXuXrXrXrXpXpXuXrX6X6XwXeXeXeXeXrXwX0X2X0X0X0X0XwXrXrXrXeXeXtXiXiXrXeXaXeXeXtXtXuXeXtXeXtXrXrXrX0XwXwXrXwXrXuXaXuX2XiXiXtX6XXXL.L.K.g.i.-.g.K.b.L.b.f.,.Y P ^ >.2.p.h.L.5X<.L.%X+X(.R.E.|.[.[.%X;X2X0XwX;X:X:X;X:X:X;X:X$X1X1X1X1X2X1X&X$X<X1X&XOX&X,X0X5X4X%XoXoX%X].L.L.K.L.D.f.e.f.F.{.[.XX%X-X;X-X5X6X6X6X6X6X-Xj.Y ' e.Y i.{.XXXX6X6X6X7X7X;X;X:X6XK.j.p.i.j.K.L.R.P.P.R.E.E.E.U.R.P.R.R.E.E.R.Y.I.R.I.R.R.Y.E.E.E.E.E.E..X^..XoX.XoX.X}.E.E.R.R.P.L.^.^.R.b.b.j.,.j.b.L.L.N.R.R.^.E.^.E.b.p.p.5.,.s.R.oX^.^.+XoXE.",
"%X].#X].E.%X#XoX;X@X+XXXoXoXOX+X%X%X&X$X@X%X%XOX+X+X+X%X#X%X@X$X+X+X%X%X%X+XoXoXyX^.L.R.oX&X4X@X$X,X$X,X$X,X$X&X@X$X@X$XOX$XOX$X$X%X%X%X%X-X-XXXXXoX.XR.R.I.I.I.B.U.L.P.E.E.].0XgXdXiXpXiXdXnXcXcXcXbXcXcXbXcXcXvXcXvXnXvXcXcXvXcXvXhXhXhXjXhXhXaXaXsXhXhXhXvXvXvXgXvXnXzXgXgXzXgXgXlXlXnXgXvXvXfXfXfXfXfXzXgXfXfXfXfXfXiXiXxX2XaX2X2XiXfXfXeXwXeXrX0X1X;X8X,X&X,X0X,X@X_.OXOXoXOXOX+XOX@X(.Q.!.(.Q.U.B.!.W.`.).`.W.W.W.W.W.>XA.<X).W.).<X).Q.W.).).Q.`.W.).>X>X>X>X`.W._._.@X>X>X>X9X@X8X9X@X@X,X@XOX@XQ.x.c.N.L.G.x.g.h.E.$X;X&X%X%X&X;X6XtXkXeXjXaX:XuXwX;X6XeXaXaXwX0XaXeX0XwXyXyXyX5XrXrXrXeXeXtXeXeXtXeXaXeXeXaXtXaXeXtXeXrXtXeXqXeX0X0XaXeX1X2X2XaXiXeXfX0X0X XoXh.*.=.I P 2 > P 2.<.=.t.2.f.h.G.G.G.x.L.P.L.2.<.B.OX^.P.%XY.T.E.].0X0X;X0X:X:X2X;X;X6X0X:X;X;X;X*X-X;X*X;X;X6X6X;X0X;X1X;X;X6X&X%X%X%X%XL.K.K.L.{.E.R.R.K.K.{.XX-X5X6X6X6XrX6XXXF.' ' F.S.i.i.S.XX*X;X2X:X2X2X;X*X;X;X-Xi.,.i.K.E.Y.R.E.R.R.E.E.R.U.E.E.R.R.R.R.R.R.E.R.R.R.R.R.^.E.E.E.].^.^.(.(.E..X^.^.E.^.^.^.E.^.^.E.+X(.E.I.I.N.p.p.s.d.b.N.L.d.5.i.`.U.5.p.I.U.L.U.P.x.d.h.j.d.d.",
"F.L.$X:X&X;X&X5X#X%XoXoXoX+XoXoX+X#X%X+XoX%X+X%XoX%X+XoX+X+X%X+X+X+X+X+X@X+X^.^.4XE.N.E.+X@X&X@X@X&X,X$X$X@X,X,X1X,X$X,X,X,X,X&X&X&X%XoX.X.X].L.]..X.XR.R.R.I.K.N.Q.U.P.}.#X*XeXlXsXsXdXsXsXnXvXcXcXvXvXbXcXcXcXcXvXcXvXvXvXvXcXvXsXhXhXhXhXjXsXaXhXsXsXjXhXlXhXgXzXzXgXgXvXvXnXvXvXzXlXgXgXfXgXfXfXfXfXfX2XfX2XfXfX2X2X2X2X2X1X2X2X2XeXaXfXeXeX0X0X&X,X,X,X,X,X,X8X,X$X+XOXOX+XOXOX+XOXOX(.Q.W.Q.W.!.Q.`.W.W.!.W.W.W.W.>X>X>XW.).).).).).).`.(.Q.`.Q.).W.`.(.>X>X>X>X>X@X_.@X@X@X>X>X>X>X@X@X@X<X@X>XOX(.P.L.L.j.x.L.x.x.L.G.h.P..X&X0X5X5X0XaXeXtX0XwXaXsXwX$X;X0X1XrXrXtX6XOXyX0X5XyXyX5XyXyXeXeXtXrXrXeXeXeXtXtXtXeXtXtXtXtXeXeXeXqXeXqXqXeX1XeXiXiXiX2X2X2X$XoXL.x.,.^ *.=.P.g.=.H ! a.B.N.a.g.g.g.g.h.x.G.P.Q.L.p.2.8.N.$X.XE.#XXXE.%X&X6X1X0X;X;X;X:X;X;X;X;X;X;X;X;X;X-X:X;X;X;X6X;X:X:X:X:X;X6X;X-X-X$X%X%XoX%X%X&X%X%X%XXXXX[.XXXX-X5X4X6X6XK.i.' i.' ' S.i.F.#X*X-X:X2X:X;X;X:X2XoXP.p.f.b.Y.E.E.E.E.E.E.R.E.E.E.Y.R.R.R.^.R.E.^.R.R.R.E.^.R.R.R..XE.(.^.E.].^.^.Q.^.^..X^.^.(.^.oXoXI.I.^.U.I.^.U.N.N.b.j.8.8.8.5.,.<.M.N.p.z.P.P.U.x.2.! ! ! P ! =.",
"e.f.-XrX0X5X$X0X%XoX+XoXoX.XR.P.R.^..X%X+XoXoX+XoX+X%X%X%X%X%XoX%XXX+X%X@X%XXXE.oXR.R.^.@X&X@X;X&X&X$XOXOXOX$X$X$X$X$X,X<X&X$XoXI.R.E.R.E.].[.].].E.E.R.L.R.I.b.h.I.L.b.Y.%X6XrXvXsXnXnXnXnXcXvXcXcXnXcXcXbXcXcXvXvXcXvXcXvXvXvXsXlXkXlXgXfXgXgXhXhXhXkXhXkXhXlXgXvXgXnXvXzXnXzXlXnXgXgXgXfXgXgXfXfXfXfXzX2X2X2XqX2X2X2X2X2X2X1X3X2X2X2X2XqXqXqX0X1X&X&X&X8X,X,X,X8X,X@XOXOXOX_.@XOX@X@XOXoX(.Q.W.W.W.W.W.Q.W.W.W.A.W.W.>XA.>XW.).OXOX).).).).(.W.Q.<X`.>X).(.(.>X>X>X>X@X>X>X>X@X@X>X>X@X@X@X@X@X,X,X@X+XQ.W.x.x.x.x.h.x.x.G.G.K.L..X%X5X@X#XOXOX5XaXkXeXeXeX:XeXwX0XwXrX0X0X0X0XrX0X0X5XyX5XrXeXtXtXeXeXeXaXeXeXeXeXrXtXeXeXeXeXqXqXqXqXqX2X2X2XeX2X=X3X2XaX2XE.p.t.>.P P *.e.>.z.h.2.2.x.h.2.h.g.g.a.g.x.N.G.E.E.P.x.d.,.;.h.E.E.#XXXE.%X%X;X6X;X6X;X;X:X;X:X-X;X=X;X;X;X;X;X:X;X:X0X;X0X;X0X6X;X6X;X;X;X;X%X$X$XoX%X%X+X.X.XXXXXXXXX:X6XjXhX6X7XXXb.e.F.{.R.D.i.F.XX$X;X;X;X2X*X*X*X;XoXK.p.p.h.E.E.E.E.E.E.U.E.E.E.E.R.R.E.E.^.^.].^.R.E.R.^.].^.E..X^.^..X^.^.^.^.E.^.^.E.(.].oX^.oX^.oX^.I.E.^.U.U.^.E.I.E.I.b.p.5.5.p.p.;.9.a.h.P.B.x.U.h.=.P ! ! G G ! ",
"<.>.}.rX0X$XoX$XOXOX%XoXE.L.K.b.K.I.^.oX%X%X.X^.+X+X$X%X@X%X%X%X%X+X+X4X%X%X^.L.E.E.E.+X4X&X4X&X,X,X&XOX XoX(.}.!.Q.OX,X$XoXQ.P.R.R.R.R.R.L.R.]..X.X].R.I.L.K.b.b.B.b.h.E.#XwXhXvXgXnXnXnXnXcXcXnXvXvXnXcXnXnXnXnXcXcXvXnXcXnXcXvXlXlXkXlXhXgXsXhXaXhXfXlXlXhXlXgXgXgXfXgXgXgXgXgXgXgXfXsXfXsXnX2XaX2X2X2X2X2X2X2X1X2X2X2X2X2X2X1X1X2X1X1X1X1X0X1X,X1X,X,X,X,X,X8X,X,X>X@XOX@XOX@XOXOX@XOXOXOX(.).Q.W.B.A.!.W.Q.W.W.W.`.W.>XW.>X).).).(.).<X).).W.W.Q.`.OX>X).W.).W.).`.@X@X>X,X@X>X@X@X@X@X@X_.>X,X@XQ.(.oX!.x.T.L.h.g.c.L.E.Q.P.L.P.oX0XeX0X0XkX#XE.}.$XaXkX2X&X1X0XwX0X&X0XtX5X0X0X0X5X5XyXrXrXeXeXeXeXtXrXeXtXtXeXiXeXeXtXeXeXqXeXeXqX0X1X$XeX2X;X1XaXgXaX3Xg.P *.P L *.*.a.2.p.a.d.c.M.z.j.x.g.h.G.P.T.E.E.L.x.h.L.T.x.,.*.R.L.].E.].;X;X;X;X;X;X;X;X-X;X;X-X;X;X-X;X;X;X;X;X;X;X;X1X;X6X;X:X6X;X5X:X:X5X;X-X-X%X$X%X%XoXoX%X%X[.R.K.K.j.i.i.j.S.j.K.R.K.s.K.j.b.-X].#X*X-X*X*X|.*XoXD.f.f.j.L.E.E.R.U.R.R.R.R.E.E.E.E.E.E.R.E.E.^.].^.^.R.^.^.].^..X.X.X.X].^.^.E.^.oX(.].^.^.^.oX(.oX^.^.(.(.^.E.U.E.U.I.U.E.^.U.I.L.N.b.c.d.h.N.P.L.x.P.L.d.p.g.h.t.>.^ ",
">.*.G.+X$X@XQ.OX(.oXOX}.U.N.N.P.N.N.P.^.+X@X+XoXOX%X@X&X&X&X%X$X+X%X%X4X&X+XR.d.oXoXOX,X1X,X&X&X&X&XOXoX}.Q.Q.E.U.}.,X$XoXQ.T.E.E.E.R.R.E.R.].[.].].].I.P.L.b.d.L.b.K..X%X;XuXlXnXnXnXcXcXcXcXcXgXcXcXsXnXnXnXnXvXnXsXsXnXhXsXvXgXlXgXvXsXlXlXlXgXsXsXlXhXlXlXgXgXnXgXgXgXnXgXgXgXgXdXfXdXfXnX2XeXqX2XqX2X2X2X2X1X1XqX1X1X1X;X;X$X$X<X,X$X&X,X0X,X,X,X,X,X,X0X0X8X,X0X,X@XOX+XOXOX+XOXOX@XOXOX(. XW.W.W.W.!.W.W.W.Q.W.W.W.>XW.`.(.(._.+X_._.(._.<XW.)._.+X_._.Q.Q.W.`.Q.(._.@X>X@X@X@X@X_.@X_.@XOX>X+XW.Q.OXQ.x.x.G.x.L.L.L.L.L.}.E.E.Q.OXOXOXoXoXd.p.g.G.E.}.L.J.L. X0XeX1X5X0X0X0X0X0XrX5XyXyXeXeXeXeXeXeXeXeXeXeXeXeXrXeXeXrXqXqXqXeX2X1X,XQ.D.S.Y.#X=X'.g.>.,.v L P ^ <.=.p.L.h.a.d.x.d.d.N.h.G.G.P.}.}.].E.G.N.G.h.x.P.L.a.R.D.E.E.E.;X;X0X&X&X;X;X;X;X;X;X;X-X-X;X-X;X;X:X:X;X;X:X;X:X:X0X;X6X5X:X:X;X5X;X5X;X&X&X%X%X%XoXXXXXXX%X%XXX[.E.XXK.b.K.[.XX-X6XR.K.d.].h.R.].oX&X#X%X#XI.j.a.K.b.R.E.E.R.E.U.R.Y.E.R.E.E.^.E.^.^.^.E.^.E.^.E.^.E.^..X^.^.^.^.^.(.(.^..X(.^..X^.^.(..XoXoX^.E.^.E.^.^.E.^.^.^.E.R.^.(.oX(.oX^.^.U.L.N.G.h.N.P.P.P.U.E.E.}.E.x.,.",
",.! t.x.Q.&X$X@XoX@X@XQ.L.N.L.E.I.L.b.L.E.oX%X&XOX+X$X$X&X%X%X$X+X+X%X;X@XXXY.h.+X$X<X,X&X&X&X&XoXOXoXoX}.}.E.E.Q.oXoX}.Q.P.T.E.L.h.D.P.E.^.oX#XR.].].R.K.K.N.L.K.d.R.0XrX6XuXhXvXnXnXcXcXcXcXcXvXcXcXnXnXnXnXcXgXnXcXcXhXnXcXgXlXgXgXgXlXgXsXlXlXgXsXsXsXlXlXlXgXbXzXnXgXgXgXfXgXfXdXnXdX2X2X2X3X2X2X2X2X2X2X2X2X2X2X1X;X$X#XoX}. X+XOX$X@X,X,X,X,X,X,X,X,X,X8X,X8X9X,X,XOXOXOX_.oX_.oXOX@X@X+X(.).Q.).`.(.W.W.W.W.A.W.A.!.`.W.(._._.(.(.(.@X@X>X>XOX_.OX).(._.(.(.(.Q.W.(.(._.@X>X@X_.(.(.(._.).OX(.W.Q.@XOXW.G.N.L.P.P.L.x.L.Q.(.+X(.P.h.h.L.P.E.&X&XE.B.!.oXh.g.g.T.1XeX0X&X4X0X5X4XyXyX5X5X0XrXeXeXeXeXrXeXeXeXeXeXeXwXeXeXxX1XqXqX<X0X1XL.D.G.T.}.T.y./ :.^ F P *.=.>.>.2.a.a.g.d.h.c.a.2.G.G.P.T.Q.Q.Q.Q.E.E.E.x.h.P.L.p.R.L.XXE.L.oX-X;X&X-X-X;X-X;X;X;X;X;X-X-X;X;X;X-X;X:X;X:X0X;X:X;X6X;X5X;X;X5X6X;X-X;X%X%XOXoX].XX%X%X%XXXXXXXXXXX.XR.].-X6X5X%XoXoXR.K.K.g.L.R..X&X.XE.R.K.f.j.L.E.E.E.R.E.E.E.E.U.R.E.^.^.].]..XE.^.R.^.^.^.^.R.^.R.^.E.^.^.R..X^..X^.Q.].^.(.^.E.^.E.^.^.^.E.^.^.E.^.^.E.^..X^.E.E.^.^.^.oXOX^.P.L.B.h.a.L.Q.E.P.oX}.E.}.OX!.f.",
"h.=.=.2.x.OX@X@X>X@X+XW.P.N.N.P.I.I.N.N.I.E.OX@X#X+X#X%X%X$X$X$X%X+X%X@X%XXXE.L.%X@X&X&X@X$XOXOXoX XoXOX}.Q.Q.Q.Q.}.E.T.T.T.P.P.P.D.K.E..X].E.].].oXXXR.D.d.N.L.R.j.E.5X6X6XpXdXcXcXcXcXcXcXcXcXvXvXnXgXnXnXcXvXnXgXvXgXvXnXnXnXsXgXvXvXgXvXgXgXvXlXsXsXsXsXgXlXvXgXnXgXfXdXaXaXdXiX2X2X2X2X2X2X2X2XqX1X1X2X2X3X1X2X1X1X$X#X}.].!.Q.Q.oXOX&X,X,X,X,X0X,X,X,X,X,X8X8X,X,X,X@X_.@XOX+XoXoXOXOXoX+X(.`.(.Q.Q.Q.!.U.P.A.U.P.A.W.`.>X_.@X@X_.+X+X@X@X>X>X>X$XOXOXOXOXOX_.oX(.oXoX_._.OX@X@X+X(.W.Q./.Q.oX(.Q.(.OX@XoXE.U.E.E.L.L.T.oXU.Q.@X,XOXQ.(.+XoXL.p.3.h.x.x.!.E.h.2.a.U.1X0X0X9X5X0XyX0X0X0XyXrXeXeXeXrXrXeX0XwX0XrX0XrXeXqX0XqX1X0XqX<X1X1XJ.x.g.p.r.^ ^ ^ >.^ ^ *.a.2.! ,.a.z.h.d.a.h.N.P.L.L.Y.E.E.}.}.OX@X<XoXOXoXT.P.x.>.Y.L.XXE.R.%X%X-X;X;X-X;X;X;X;X:X;X-X;X;X;X;X;X*X;X;X;X:X:X:X6X1X6X5X;X5X;X;X5X5X6X5X;X;X-X-X&X&X%XoXoXoXoX#X%X%X5X%XXXXXXX%X;X5X$XoXU.j.b.K.R.E.E.L.D.d.d.d.h.L.E.R.U.E.E.R.E.E.E.E.E.].E.E.^.^.E.^.^.^.R.^.^.R.^.^.^.^.^.^.^.^.(..XoX^..X(.].(.(.E.^.E.E.^.^.E.oXoXoXE.E.E.E.E.E.^.E.R.^.oXOXoXE.L.L.L.h.x.E.E.T.}.oXE.}.oX}.L.",
"P.2.<.o.9.Q.+XQ.oXQ.U.P.P.P.P.B.N.V.R.I.N.I.^.OX+XOXoX%X$X%X%X%X#X%X$X+XOXoX^.].&X&X$X$XOXoXOXoXoXOXOXOXoX}.E.E.Q.E.E.}.oXQ.P.g.g.j.h..X&X6X:X%X%X&X&XE.K.d.N.B.^.L.E.%X%X6XcXdXnXdXnXnXhXhXcXcXvXnXnXvXnXnXvXvXvXvXvXvXvXvXvXvXvXnXsXnXlXsXgXvXvXlXkXsXaXsXfXlXgXnX2XfXgX2XiXiX2X2X2X2X2XgXgX2XqX3X1X2XqXqX2XqX1X1X1X=X=X$XoX X(.Q.(.+XOX>X@X,X,X8X0X0X0X,X0X0XqX,X8X0X,XOXoX<XOXOXOX_.OXOX(.oX X(.Q.W.W.W.W.W.B.J.B.P.U.A.W.<XOX@X>XOX_.OX@X4X<X>X,X>X@XOX@X@XoXOXOX@X@X@XOXOXOXOXOX(.W.U.U.Q.(.(._.+XOX&XOXoXoXoXoXQ.T.N.P.}.<X+XoX+XOXQ.P.L.g.h.a.d.E.L.c.x.L.G.g.p.x. X&X8X4X0X0X0X0X0X0X5X0XrXyXeXeXeXrX0XrXrXeXrXqXwXrXeXtX<X,XqX&X0X0XL.g.y./ G P >.,.*.>.2.2.G.t.P p.h.g.a.g.L.P.L.L.P.Q.Q.Q.}.}.OX1XqX0X&X,X0X}.P.T.G.K.g.L.Y.oX;X;X$X&X-X;X;X;X;X;X;X;X;X;X;X-X*X;X;X:X0X;X;X2X;X;X:X0X;X;X;X5X;X5X:X;X;X-X&X&X%X%X%X#X%X%X%X#X%XXX.XXX%X5X%X%X5X%XoXoX+XU.5.K.d.h.h.j.d.K.b.h.h.I.^.E.P.R.E.E.R.R.E.E.E.^.E..XE.E.E.~.R.^.^.^.^.~.^.^.^.^.^.^.^.^.^.^.^.(.E.^.(.^.^..X^.(.^.^.E.^.^.E.E..X^..XE.E.E..XE.E.E.^.%X+XoXoXP.!.Q.h.g.L.T.Q.}.}.}.oX X}.E.",
"W.x.1.=.>.k.x.B.B.P.P.P.x.c.B.x.z.d.N.U.U.B.B.Q.E.Q.oXoX#X$X$X$X#X5X(.oXrX&XQ.U.h.E.!.P.Q.(.Q.OXOX$X$X$XQ.Q.}.}.E.P.T.E.E.Q.P.L.j.E.$X,X0X0XqX2X1X$X&X8Xx.g.x.P.E.I.%X0X$X;XpXpXsXsXnXcXcXcXcXhXvXvXsXsXsXvXvXvXsXsXgXvXvXvXgXlXdXbXbXgXsXzXbXlXlXlXzXkXaXiXaXaXiXiX2X2X3X2X2X2X2X2X2X2X2X2X2XeXqXqX2X2X0XqX2X0X1X;X$X1X1X;X&X&X(.(.@XOXOXoX@X&X8X8X,X,X,X0X0X0X>X1X,X,X,X@X+X(.(.OXoX_.+XoX X(.Q.(.Q.W.U.Q.W.Q.W.W.W.W.(.)._._.@X@X@X+X@X4X8X0XyX0X0XyX0X&X&X&XOXOXoXoX&X@X@X@X@X(.(.OX).(.OX(.(.(.Q.(.,X,X@XoXOXOXOX}.E.T.E.Q.(.OX>X(.OX(.!.x.x.N.B.U.W.W.!.Q.!.P.x.t.a.(.0X,X0X0X0X0X8X8X0XyX0X0XrXrXeXeXrX0XeXeXrX0XrXeX0X&X0XxXqX1X<X1X&XL.x.*.I P *.<.t.p.t.t.8.a.2.>.a.a.c.h.h.L.P.E.E.E.(.Q.E.}.,X0XqX0X,X8X1X1X$X}.Q.E.K.L.Y.].OX%X$X$X;X-X;X=X-X;X;X;X;X;X-X;X;X;X;X;X-X=X;X;X;X6X;X0X;X&X:X5X5X;X5X6X5X;X-X%X%X#X%X*X%X%X$X$X%XOXoXoX&X%X%X&X5X%X%X&X4X+XE.N.z.d.j.s.i.N.R.b.h.N.E.U.E.U.E.E.E.U.E.^.E.(.E..X^.E.E.^.^.R.~.^.^.^.^.^.(.^.^.^.^.^.^.(.oX(.oX^.^.(.^.^.^.(..X(.oX^..X(..X(.oX^.].E.^.^.E.E.E..X.XoXoX.XQ.oXoXoXh.g.x.G.P.}. X}.E.}.}.}.",
"Q.B.2.=.o.2.z.N.P.P.U.B.x.k.3.3.8.a.x.B.U.U.P.x.L.P.E. X$X$X$XOXoX@XoX0XoX,.J.L.L.E.T.L.T.!.}.&X&XOXQ.OX<X1XoXP.$XoXE.E.E.Q.oXoX,X0XqX,X$X$X$X<X1XoX X&XP.I.P.Q.K.].OX%X-X6XwXhXsXsXdXdXnXcXcXbXbXbXbXvXvXgXaXwXaXaXsXsXaXaXsXgXmXfXuXiXnXbXlXfXlXfXaXaXaXeX;X$XqXwX2X1X2X2X2X1X2X1X2X2X2X2X2XqXeX2XqX2X2X0X1X<X;X&X&X$X&X1X&X$X@X,X,X,X&X@X@X@X&X@X&X&X&X,X<X@X>X,X,X>X@X<X@X<XoX_.OXOXOXOX@XOX_.oX(.E.U.U.U.U.Q.Q.(.)._.@X@X>X@X@X@X@X@X4X4XyX8X8X0X0X0X0X8X5X<X@X,X,X,X,X,X,X0X@XOX+X(.(.OX_.(.Q.Q.(.oX>X$X@X+X@XOXQ.Q.E.Q.oXOXOXOXOX(.Q.W.B.P.!.W.Q.Q.Q.(.(.Q.!.G.a.g.Q.1X<X@X&X&X0X0X0X0X0X0X0XrX0X0XeX0X5X0XqXrXrX0XrXrX;X,XqX1X0X8X1X,XL.2.>.=.2.p.p.t.a.8.p.8.g.2.;.j.a.h.d.x.N.P.T.E.Q.E.!.oX<XqXqX0X&X<X,X0X0X0X,X}.Y.D.K.R.].#X%X*X&X&X=X;X;X;X;X:X;X:X;X:X;X:X;X:X-X-X;X;X;X:X;X;X;X6X5X;X5X;X5X;X;X;X%X#X#X#X%X%X$X%X%X%X%X&X%X#XXX].]..X%X&X&X;X4XOX^.L.h.h.j.d.s.j.b.L.N.v.L.E.^.^.E.^.^.^.E.^.^.^.E.^.^.^.^.^.E.R.~.R.^.R.^.^.^.^.R.^.^.^.^.^.^.oX.X(..X^..XE.E.E.E.E.E.E.^.^.E.oXoXOX%X+X+XoXoX].^.^.E.E.E.E.E.OXQ.(.OXG.! >.Q.P.E.}.E.E.}.}.E.",
"(.U.c.1.=.=.u.a.z.x.J.L.P.B.G.x.z.N.B.z.c.N.N.h.h.x.P.Q.$X,X,X,X.X4X+XtXP.-.&X+XP.E.E.x.G.B.L.Q.L.h.a.G.OX0X&X}.L.x.x.J.T.Q.oXoX$X,XqXqXqXqXwX1X$X$XOX#Xg.j.N.(.b.$X&X$XeX0X$X:XgXgXlXfXdXuXpXhXsXdXaXsXsXgXgXgXsXfXgXlXgXvXbXbXdXvXmXmXzXaXaXfXfXeX;X-X;X;X0X0X1X1X1X1X2XqX1X1X1X1X1X1X2X2X2X1XqXqX3X1X1X,X&X$X<X&X$X&X<X1X&X&X$X&X,X,X$XOXOX$X&X,X,X,X8X,X,X,X<X@X@X+X(.+XOXOXOXoX(.+X_.@XOX@X@XOX(.W.P.U.E.U.).(.@X@X@X@X>X9X4X@X@X8X@X&X0X0X0X8X&X0XyX0X0XrX1X1X1X0X1X8X0XqXqX,X@X,X(.(.OX).(.(. X(.OXOX@X@XOXOXOXoX(.}.oXOXOXOXOX X(. XQ.U.Q.(.(. X).(.). X(.!.L.a.p.P.@X@XOX+X%X4X0X0X4X&X0X0X0X0X0XyX4X$X0X0XyX0X0X0X0X4X<XqX9X2X8X&XOXh.P =.t.p.3.t.p.8.p.9.p.h.p.,.d.g.h.h.G.x.L.L.P.T.}.OX,XqXqX1X&XOX1X;X1X0XqX2X$X}.R.E.].oX%X&X&X%X-X&X;X-X-X;X;X;X;X;X;X;X;X;X;X;X-X;X;X;X;X:X;X;X5X;X;X&X;X&X-X-X%XoX#X%X*X%X*X-X&X%X+X+X%X%XoX.XL.K.R..X%X%X%X%XE.E.L.b.d.d.j.j.s.N.b.h.b.R.^.^.E.^.E.^.^.E.^.oXE.^./.E.E.^.E.^.^.^.E.U.R.^.^.^.E.^.(..X^.+X.XoXE.^.U.^.^.+XoX^.(.^.E.^.^.^.oX(.^.^.^.oXoX(.(.E.oX+XoXoXoX^.^.^.oXP.E.(.,X;.=.G.L.P.T.P.T.Q.}.E.",
"c.9.3.1.=.o.! ~ H ! =.2.p.g.x.x.g.B.N.g.2.2.9.a.h.x.N.G.W.oX,X,X&XyXoXR.p.p.oXN.h.P.P.L.x.x.x.c.x.g.y.t.p.g.h.x.g.g.g.G.E.OX<X1X0XqXqX1X1X1X&X$X$X3XOX@Xx.x.B.oXE.0XyX0XrXeX;X6X-X:XwXiXaXaXjXhXlXfXsXsXgXsXgXnXgXlXsXdXaXuXiXiXgXbXgX2XiXlXiX}.g.g.j.p.5.a.R.OX&X<X1X1X2X1X1X1X1X<X2X,X2X1X2X,X2XqX1XqX1X1X1X&X&X$X&X$X$X&X&X&X<X1X,X&X$X$XOX@X&X,X,X0X8X0X0X0X@X,X$XoX(.oXOX(.OX(.oX X(.OX@X$X&X,X+XQ.U.!.(.(.)._.>XOX_.@X@X8X8X4X8X@X4X4X8X0X0X4X&X4X0XwX0XwX0X0X0X0X1X,X1X0X,X>X,X8X<XOX(.U.OX@X@X@XOX_.OXOXOXOX+X+XoXoXOXOXOXOX<X(.}.Q.Q.!.!.Q.(.). X(.`.Q.(.U.G.a.3.x.(.oXOXOXOX$X8X0X0X5X0X0X&X4X0X0X&XOX&X0X0X0X&X,X0X0XqXqX,XqX<X(.T.,.P >.2.2.,.2.p.a.a.g.d.x.g.2.x.h.L.P.T.P.P.P.E.Q.OXOX$X@X&X<X$X$X0X,X&X<X1X1X;X$X#X+X#X%X$X&X;X%X$X-X=X;X-X;X;X-X;X:X;X;X:X;X;X;X;X;X;X;X;X;X;X-X;X@X&X%X%X%X$X%X%X%XXX#X$X=X-X-X&X&X%X%X%XOX^.R.L.K.L.R.E.^.E.R.E.E.R.L.b.b.d.d.d.b.b.h.b.E.E.^.(.E.^.^.E.U.R.^.^.E.E.^.^.E.^.E.^.R.R.^.~.^.R.E.^.^.+X.X^..X^.(.(.oXoX^.(.E.^.E.^.E.^.^.^.^.^.oX+XoX^.^.+X+XoX^.^.^.E.^.U.R.U.R.N.L.E.x.$X8.^ ! h.g.j.a.h.G.L.x.",
"z.z.c.z.x.k.2.>.^ ! ^ ! ^ =.^ =.! X.>.2.2.=.=.,.a.c.N.c.x.J.Q.(./.(.B.,.a.B.x.c.c.z.z.x.P.P.x.c.f.g.a.2.^ ^ ,.p.g.a.f.g.L.}.OX$XJ.<XqXzXzX1XJ.,.g.u./ u.8.h.p.9.z.d.c.a.t.T.1X;X3X;X1X2XwXtXaXtXaXaXfXvXvXgXsXgXgXsXdXaXfXfXsXaXfXfXfXeXfXzX1Xg.2.a.G.L.L.L.U.}.oXOX$X$X X XOX>X<X>X1X1XqX1X1X1X<X1X1X1X1X0X,X&X$X&X&X&X&X&X&X&X1X3X1X2X1X&X,X&X,X<X<X&X&X@X&X,X>X,X,X$X<X@X$X@XOXOX_.(.(.+X@X@X,X&X@X/.E.(.+X).(._.4X+X@X@X@X4X4X9X4X4X4X&X4X0X0X4X&X5X6X5X6X0X2X2XqX1X<X&X&X,X&X@X,X0X>X@X).B.OX@X>X>XOXOX(.oXoXoXoX(.oXoXoXoX X@XOX}.Q.Q.!.Q.Q.Q.(. X(.(.(.).Q.U.x.z.8.c.Q.OX&X@XOXOX,X0X0X&X0X0X8X&X4X0X&X+XOX@X5X&X@X5X0X0XqXqX,XqX>X!.L.,.>.2.p.,.;.t.a.a.d.d.d.L.d.9.N.x.T.Q.oXQ.Q.OX$X@X}.Q.}.Q.}.oX$X,X,X<X1X$X$X=X1X2X1X&X&X#X%X&X;X;X;X&X;X;X;X=X=X-X;X-X;X;X;X;X;X;X;X-X;X;X;X-X-X=X%X%X+X%X%X#X%X$X%X$XXX#X-X-X*X-X%X&X&X$XXX].L.L.I.K.L.K.P.P.Y.R.E.E.R.I.K.b.d.b.b.N.N.I.E.E.E.(.^.E.U.^.E.R.U.E.^.E.~.E.^.^.E.^.R.^.^.E.R.^.].^.E..X^.E.R.^..X^.R.E.^.(.^.^.oX+X^.oXoXoXoX(.^.^.E.I.L.I.R.U.E.R.I.R.U.I.I.L.I.L.P.oX+X9.P.>.;.2.;.,.<.=.*.>.2.p.",
"2.;.=.=.>.1./ ~ k.3.>./ ^ ^ =.^ H x v Q =.2.2.8.a.N.P.N.x.x.x.x.h.p.j.p.W.Q.a.(.N.x.x.x.x.B.x.a.>.,.t.>.>.>.>.2.=.,.t.h.G.x.a.t.>.2.>.>.>.>.,.>./ ,./ ,.t.c.3.g.c.a.c.c.t.E.wX3XeX2X=X=X1XqXtXaXzXfXaXaXaXiXsXvXgXsXaXaXaXsXsXfXfXqXeXeX0X}.G.a.G.x.x.N.L.N.N.N.!.Q.Q.Q.P.!.}.oX<X<X>X,X,X1X,X1X<X<X<X,X1X,X&X&X$X&X&X&X&X$X&X;X=X;X;X;X;X1X1X,X0X1X8X&XOXoX+X&X@X,X,X,X@X,X,X,X$X@XOX+X@X&X,X,X,X4X@XoX^.(.+X+X+X+X_.@X@X(.@X@X4X@X@X4X@X4X&X&X0X5X;X;X;X-X&X0X1XqX1X1X&X&X&X,X,X,X,X,XOXOXOXQ.Q.(._.oX_.(.oX(.oXoXoXoX(.oX}.oX}. XOX}.E.!.Q.Q.Q.Q.(.).). X(. XQ.U.B.c.2.a.W.OX&X&X$X@X&X,X8X&X;X0X5X&X&X;X4X$XoX$X4X&X$X&X5X0X1X,X,XqX$XU.L.a.2.p.6.2.2.9.a.8.d.c.x.L.c.p.L.x.L.E.}.(.OX&X0X,XOX$X$XOXoXOX$X&XOX$X1X1X=X$X3X1X-X%X%XoXOX$X;X-X$X-X-X;X;X;X=X$X;X;X=X;X;X-X-X-X=X;X;X-X=X=X*X$X%X%X$X%X%X#X$X%X#XXX#X%X%X*X*X*X%X@X%XoXE.L.L.L.L.L.L.L.R.E.^.].R.E.R.L.d.b.b.N.I.I.E.E..X.XoX.X^.^.^.E.U.U.U.^.^.^.^.U.R.~.^.^..X.XE.^.^.E..XR.^..X.XE.^.oX.XE.I.E.^.^.E.E.^.(.^.E.^.^.E.E.L.L.p.8.5.8.s.h.b.b.b.N.K.b.L.b.b.K.B.B.P.g.U.p.8.p.2.2.,.*.! ! *.,.",
"=.=.! ! ^ =.=.>.>./ ~ ^ ^ / >.>.3.*.H H ~ ^ 1.3.2.z.x.x.x.B.N.g.x.9.d.N.B.g.3.x.U.B.W.P.k.c.z.3.,.,.>.>.*.^ L L ^ >.p.x.x.g.>.P 3.2.3.>./ / / / ^ >.^ =.^ >.! 2.9.u.c.x.g.c.G.c.H.H.L.T.oX&XqXtXbXgXuX:X#X'.'.[.bXvXfXaX2X2XaXdXfX!.r.>.y.t.,.,.x.h.d.a.a.d.d.x.!.U.P.U.P.!.Q.Q.(. X<X<X@X<X<X<X<X>X<X<X,X1X<X&X&X&X1X&X&X$X&X<X=X=X=X=X3X;X;X&XqXqXqX1X,XOX@X&XOX@X@XOXOX@X@X,X,X&X,X@X$X,X8X8X5X8X@X.X^.oX(.+X@X+X+X@X_.+X@X@X4X4X4X4X4X@X4X5X5X5X5X6X:X%X;X0X2X1X1X1X,X1X1X&X8X,X,X@XoX@X>XQ.Q.Q.(.(.Q.Q.OXOXoXoX(.oX(.}.}.Q.Q.oXOX}.}.Q. XQ. X(. X X X). X).!.A.B.c.2.3.L.OX@X@X&X&X@X&X&X&X$X4X5X5X&X&X4X&X%X&X&X&X$X4X,X<X,X,X,X1XoXN.G.a.2.2.2.2.2.6.8.2.d.z.x.P.x.9.G.x.x.E.E.Q.#X8X,X&X0X&X&X,X&X@X$X$X#X$X1X1X1X=X$X&X%X$X%XOX%X%X%X=X-X$X;X;X;X-X*X*X-X-X=X=X*X-X;X=X*X-X=X-X=X*X#X#X#X%X@X%X&X%X%XXX[.[.[.XX%X*X*X-X%X$XoXE.L.K.P.R.Y.R.R.L.R.]..X.XR.E.R.N.h.j.N.I.U.U.^.(..XE.E.oX^.E.E.^.^.I.U.E.(.^.E.U.~.E.^..X.X.X.X].R..X.X.X.XoXXX^.XXoXE.K.(.E.R.h.j.p.5.5.j.s.s.p.5.5.i.,.8.p.s.s.d.d.b.d.8.p.0.p.0.s.p.8.2.X.o.2.d.8.,.o.p.3.3.,.=.*.*.*.",
"~ ! =.^ ^ ~ ~ 1.>./ ^ ^ =.>.2.2.x.J.c.=.F V P ~ =.2.2.2.a.L.B.d.x.d.d.C.h.z.W.x.x.x.Q.Q.c.u.k.>.! ^ ! ^ L P ^ =.>.>.^ =.>.<.>.:.^ >.>.>.=.>.>./ / t.^ =.>.6.*.2.=.3.2.2.g.2.^ t.2.u.f.g.g.g.g.D.F.S.H.H.S./ T F I ^ / r./ y.'.;X2.>.>.>.,.,.2.,.! ,.a.g.p.2.8.g.}.Q.T.!.oXOX XQ.Q.!.!.`.oXOXOX@X<X<X<X,X1X<X&X&X&X<X,X;X&X$X&X1X=X;X;X;X2X1X1X;X1X1XqXqX,X@X@X,X,X<X>X+XoXOX,X@X@X,X@X$X@X>X&X&X8X4X@XoX^.^.(.(.@X+X(.(.+X).+X).8X&X4X4X4X4X&X4X5X6X0X0X:X*X:XwX;X3X$X$X1X1X1X,X1X,X<X>XoX@X@XQ.+X_.Q.!.Q.(.(.oX+XoXoX(.oXoXQ.Q.!. XOX X}.Q. X(.Q. X X_.).(.Q.).<XW.!.B.t.9.P.@XOX@X@X&X&X&X&X&X@X&X1X&X%X@X&X&X4X;X5X@X@X&X&X,X,X,X,X,XQ.a.a.8.p.2.2.,.2.2.2.p.a.h.h.B.d.a.x.x.P.E.oXoX$X0X0XOXOXOXOXOX$X$X&X$X&X$X$X;X$X=X=X;X&X&X#X%X&X$X$X$X$X&X=X;X-X-X$X$X=X=X=X=X*X-X=X=X-X=X=X$X$X%X#X#X%X%X%X&X%XoX]..X{.R.[.[.oX%X$X$X&X+XE.L.K.L.R.E.E.E.E.R.R.E.E.L.E.E.R.L.b.d.L.U.E.^.^.^.E.E.E.oX(.^.^.^.^.U.U.^.^.^.U.^.E.E.^.^.oX.X.X^..X^.].^.^..X^.E.R.E.K.<.X.P J ` *.5.,.,.5.5.<.,.-.,.5.5.8.s.j.d.d.s.p.9.d.d.d.d.d.d.d.b.8.2.8.;.X.=.;.2.g.p.p.2.,.=.! P ",
">.=.*.*.X.*.=.:.*.-.<.=.*.;.j.N.N.L.L.h.a.2.=.! ^ P ! >.a.h.h.a.L.c.x.x.z.p.x.!.!.U.P.G.g.p.2.=.^ *.*.P P ' :.=.:.*.' :.:.*.*.>.=.=.>.,.,.2.t.y.p.p.<.X.^ ,.g.b.2.2.t.2.2.,.2.r.t.e.,.,.>.>.,.2.>.u.u./ / ^ ^ ^ ^ / / / r.r.>.! >.=.;.1.;.=.*.*.! ! <.g.g.,.=.,.G.J.!.}.!.}.Q.Q.Q.!.!.(.). X).}.@X&X$XOX$X<X1X1X0X<X$X1X1X1X1X1X2X;X:X2XwX:X*X*X0X;X0X0X&X+X+X+X,X&X@XOX&X@X&X,X+X@X&X<X,X,X8X8X8X9X,X`.U.U./.(.(.(._.OX>X_.OX@X>X8X8X&X4X8X0X0X;X6X0X0X:X:X;X=X1X;X5X1X1X;X5X;X5X&X$X%XOXoXoXoX+X(.oXE.U.U.(.OX(. X(.(.Q.Q.Q.E.E.E.oXOX XQ.}.(.!.>X<X>XQ.>X<XQ.W.U.!.W.B.p.z.U.x.<X,XQ.}.,XqXoXE.&XeX&X+X<X8XOX&X@X,X,X,X+XOX>X@X,X,X(.L.a.t.,.8.2.t.2.t.p.a.d.h.a.h.x.h.a.a.G.h.x.P.U.(.&X8X&XOXOXOX$X&X&X@XOX&X$X$X$X$X$X&X1XOX&X$XoXoX#X$XOXoX&X<X&X&X&X;X$X*X;X-X;X-X*X-X-X%X*X%X*X%X-X&X-X;X;X-X$X%X[.[.{.R.R.R.].XX%XoXoX%XR.L.I.R.I.R.E.I.R.R.^.^.^.^.R.E.L.b.K.K.b.L.^.^.E.^.E./.^.^.(..X^..X^.R.R.^.^.R.^.^..X.X^..X^.^.U.R.R.E.^.oX(.^.^.E.U.^.E.U.K.n V P X.X.-.<.<.2.4.5.5.8.p.8.5.8.5.9.0.0.v.s.v.v.v.v.s.s.n.0.s.9.8.8.5.5.5.8.8.d.j.8.5.,.<.;.-.",
"y.t.i.,.r.,.,.i.,.8.h.N.L.I.U.^.x.L.x.x.a.a.p.2.2.<.=.*.<.p.h.x.x.N.L.P.x.c.z.x.Q.c.=.! ^ =.^ L L ^ <.,.p.f.p.>.p.,.=.*.*.' *.-.>.2.t.t.a.j.x.L.T.T.E.L.P.Y.L.L.T.L.h.p.t.,.,.2.2.2.,.,.,.,.2.p.r.u.r./ ^ / / ^ ^ / 2./ ^ ~ ^ ! ;.1.2.1.6.<.o.X.=.*.^ >.;.>.>.t.t.G.T.!.J.P.!.Q. X XoXQ.!.W.<X>X$X<X,X,X,X0X,X<X1X<X=X1X&X&X1X0X2X;X=X=X;X*X*X;XwX0X0X0X4X@X@X&X,X&X&X@XOX$X&X&X@X&X,X&X&X,X&X,X+X+X(.Q.Q.Q.(.(.`.Q.(.+X_.(._.).8X&X4X4X&X&X$X%X;X1X1X;X:X:X:X-X1X;X;X;X;X0X&X&X5X&X$X@X%X%XoXoXOX(./.E.E.!.(.oX(.oXoX(.(.Q.Q.Q.E.^.oXoX(.oXOXoXW.<X!.W.>XW.W.W.W.W.W.`.U.c.g.x.B.x.P.oX,XOX XOX<X#XoX&X<X,X,X1X&X@X+X@X@X@X9XyX@X@X@X!.x.p.8.3.p.t.p.p.t.p.g.g.a.9.g.z.d.p.a.x.x.h.a.h.U.OX@X@X4X&X@XoXoXOX&X&XoXOXOX#XOX#X$X$X$X$XOXoX}.#X#XoX#X$X&X$XOX$X$XoX*X*X*X*X%X#X#X$X*X*X#X%X$X$X&X-X%X-X-X*X%X#XXXXXR.].]..X.XoX+XXX+XU.N.R.R.R.I.^.E.^.E.R.R.R.U.R.E.L.h.b.h.h.N.E.(.E.^.(.^.(./.E..X^.^.^.^.^.R.R.R.^..X^..XR..XR.I.R.U.E.(.^.R.L.E.E.E.E.R.L.b.s.5.6.4.4.;.<.O.-.6.8.8.8.5.0.0.s.s.9.s.s.s.s.s.j.s.s.s.0.5.5.5.5.8.8.8.5.5.5.8.8.5.4.,.5.p.p.8.8.",
"Q.Q.E.E.E.E.E.E.b.R.^.@X&X@X+X(.P.U.P.x.h.x.h.a.p.3.,.^ ! =.p.h.3.p.p.p.3.;.^ =.^ / ^ ! ! ! ~ L ,.p.h.L.P.P.j.i.e.i.i.5.i.a.g.g.,.t.p.a.g.L.E.}.(.OX&X$X%XoX].R.T.U.E.U.L.G.h.g.g.p.t.2.2.t.y.p.u.>./ / ^ / / ^ D v F L ^ ,.u.a.1.1.8.9.q.8.,.+.*.X.H H ^ =.>.=.t.t.u.c.T.!.!.E.T.Q.(.Q.!.U.(.(.oX@XOXoXoX@X<XOXOXOX#XOX$X$X1X1X;X-X-X1X1X;X=X-X:X;X;X&X&X@X@X5X,X&XOX@X@X@X$X@X&X&X&X&X,X,X&X@XQ.Q.W.W.Q._.(.W.Q.).(.(.(.(.(.Q.oX(.oX&X0X@X@X&X6X0X0X;X;X;X2X;X;X;X;X5X;X;X;X&X;X%X&X@X@X&X%XoXOXE.E.U.Q.(.(.oX+X_.oX(.}.Q.}.Q.E..X].oX@XOX+X@X).<X<XW.!.W.(.Q.Q.W.W.W.L.z.a.g.P.c.z.!.}.x.c.z.a.2.8.G.U.G.h.L.L.P.(.,X8X,X@XOX+X).U.N.a.p.p.8.t.p.p.a.a.g.j.d.p.p.a.g.g.p.a.x.L.x.h.x.E.OX(.Q.OXOX@X$X&X&XOXOXoXoX#XOXoX}. XoXOX$XoX}.}.oXoXoX}.oXoX}.}.oXQ.E.oX%X-X%X%X#X%X%X%X#X#X%X%X*X%X=X$X*X*X*X%X$X#XoXoXoXXX+XoXoX+X+XR.R.K.R.R.I.R.E.^.R.E.R.R.R.E.^.L.b.b.K.h.j.b.E.Q.^.E.^.^.^.(.(.^.^..X^.^.R..X^..X^..X^..X^.R.R.E.I.L.R.R.E.U.E.E.E.U.R.L.h.f.5.-.<.4.5.8.8.0.s.5.5.5.8.8.8.s.0.s.s.s.s.s.s.s.s.s.s.s.5.5.s.j.s.s.0.0.0.s.s.s.s.p.s.d.N.R.U.E.U.",
"OXoXOXoX^.^.oXoXoXoXOX+X+XoX(.(.oXoXQ.P.N.x.h.h.a.t.,.=.^ ^ >.2.,.3.2.>.^ ^ =.^ ~ L L H L ^ t.S.E.]..XoXXX.XE.h.d.g.p.<.*.<.5.e.a.a.h.x.L.U.E.^.Q.oXoXoXoX.XE.R.L.L.P.!.Q.E.P.P.L.G.x.h.a.p.t.2.t.t./ ^ ^ / =.=.^ ~ ~ ! >.t.p.p.a.9.q.d.a.9.8.2.;.>.*.! =.t.,.=.,.^ >.u.x.!.E.E.!.U.!. XOXOXQ.!.OXOX$XOX X@XOXOX}.'.Q.oX$X<X<X<X$X$X&X;X-X;X;X;X:X;X-X&X%X@X$X5X@X&X&X&X$X&X&X,X&X&X@X@X,X<XOXoX(._.(./.Q.(.(./.(.(.)._._.(.(.(.(.R.E.+X0X0X5X0X;X2X0X;X;X:X6X;X;X;X;X;X;X:X4X&X4X;X&X$X&X&X%X+XoX(.Q.E.(.oXoX(.OXOXoX(.(.(.(.(.oXoXoXoXOXOXoX}.Q.).W.>X!.>XW.W.W.Q.W.x.z.g.9.8.c.z.x.x.x.h.a.3.g.h.h.p.p.a.L.E.P.L.P.U.Q._.OXOXP.B.x.a.a.8.p.p.p.p.a.j.g.g.g.g.a.a.a.d.g.p.a.z.d.h.a.a.h.P.Q.!.E.Q.@X&X&X$XoXoXoX$X$X$X$XoXoX}.#X#XoXQ.Q.}.oX}.}.}.}.E.}.}.}.T.F.L.Y.R.R.[.].XX#X%X#XXX*X%X*X-X%X#X%X%X*X&X%X%X#X%X+XoX+XXXoX.XI.L.R.R.R.I.R.E.R.U.R.R.U.R.E.E.d.j.j.d.d.d.b.E..X^././.(.E.^..X^.].E.E.R..XR.^.E..X^.].^.R.R.I.E.E.I.I.I.E.E.^.R.V.b.h.j.s.p.5.8.5.5.4.8.8.8.s.8.8.8.0.s.s.s.s.s.s.s.s.0.0.8.0.s.s.s.s.s.v.n.n.s.s.s.j.d.d.d.v.s.v.L.R.U.^.^.E.",
"^.^.^.^.^.^.^.^..X^.oXE.].^.oX$X$X$XOXoXE.U.L.x.x.d.t.;.=.*.*.=.,.3.2.1.=.=.>.>.2.p.L.+X8X0X$XE.OX%XOX%X$X4X&X+XR.L.i.` ` <.j.j.Y.P.R.E.E.E.E..X^.E.E.E.E.E.U.E.Q.U.P.L.G.P.U.W.U.T.P.P.G.c.p.2.u.p.3.,.2.2.t.3.u.c.z.g.2.;.2.p.z.d.d.9.8.9.9.a.c.z.a.2.p.h.a.,.=.>.,.2.2.2.c.T.U.P.B.P.E.!.Q.Q. XOX>X<XOX X!.x.}.W.P.T.}.$X,X$X&X@XoX.X.X#X;X0X2X;X6X;X;X$X$X@X,X$X&X&X1X>X1X1X8X<X&X<X1X&X$XoX_.OX_.Q.W.(.oX(.Q.(.(.OXoX_.(.oX@XE.^.$X5X@X&X;X5X0X0X6X;X:X2X;X0X;X;X5X5X6X&X4X5X&X$X+X$X%X@X&XOX(.Q.(.oX+X(.(.oXoX(.oXoX(.(.oXoXoXoXoX+X@XOXOXQ.(.OX XoXoXW.P.!.W.Q.N.d.g.8.2.X.6.x.h.z.x.L.N.c.N.x.a.t.p.p.a.x.x.h.G.P.oX$X+XL.x.a.9.p.8.p.t.g.a.g.h.h.h.h.g.a.a.p.a.p.p.a.g.g.x.h.2.2.h.Q.,XE.oXoXoXoXOX$X&X}.OX$X$XOXoXoXoXoXOX X].E.oXoX}.oXoX}.].oXoX}.E.D.K.L.P.R.]..XoX#X$X#X*X*X*X*X$X$X$X$X$X%X%X%X$X#X$X+XoXoXoXoX].K.Y.R.R.L.Y.E.E.R.E.E.E.E.Y.L.b.p.j.d.d.b.b.P.E.^.E./.E.E.(.(.^.E..X.XE..X].^.]..XE.^.^.E.^.R.U.I.U.^.U.I.N.v.d.j.a.p.5.5.5.p.p.s.s.0.0.n.n.n.n.b.b.b.v.b.b.v.b.d.s.s.s.s.s.s.s.j.s.s.v.b.b.n.s.v.s.d.v.d.b.b.b.b.N.I.U.^.E.U.U.",
"(.(.oXoXoXoXoXoX^..XoX.XoX^.oX+XoX@X@XOXOXOXoXQ.oXU.h.p.2.2.2.,.;.;.,.2.2.1.>.X.N.P.E.}.oXOXOX+XoX+X%X@X0XyXyX5XE.E.I.K.L.E.+X%X.X].^.oXoXoX^.E.oX.XE.^.E.R.E.E.Q.Q.!.U.P.U.E.!.E.U.U.T.I.P.z.g.u.c.x.g.c.c.L.P.G.c.c.z.c.9.3.8.p.6.8.9.a.x.B.U.I.P.G.h.g.h.x.g.f.,./ >.=.>.2.g.c.P.!.!.P.U.Q.(.<X<X<XQ.W.!.P.J.!.J.g.u.c.!.!.!.^.oX+XoXOX#X%X$X0X1XrXeXrX&X&X5X$X$X&X<X,X1X0X1X0X0X,X1X0X,X&XOXoXoX(.Q.E./.(.+XQ.(.(.(.(.oX(.(.oX].^.%X&X%X%X&X&X5X;X;X:X:X0X:X1X0X;X;X;X;X5X;X5X;X$X+XOX%X&X@X$XoX(.}.(.oX X(.(./.(.oXQ.oX(.Q.oX.X.X+X+X$X&X,X<XOXOX>X@X@XOXQ.P.W.U.P.h.9.;.o.H P o.6.9.6.9.N.N.8.,.p.a.2.,.8.,.2.t.G.U.oX(.T.L.x.a.3.t.2.2.2.x.h.h.h.x.G.x.x.a.p.p.y.p.p.p.p.a.x.L.c.p.p.x.P.E.oXOX@XOX+XOXOXQ.Q.oX#X#X$XoX$XoXoXoX}.}. XoX}.$XoX XE.E.E.T.L.R.E.E.E.^.oX+X&X%X#X%X*X%X*X=X-X%X%X$X%X$X$X%X#X%X%X+XOXoXOX.XE.h.L.P.L.L.R.E.E.].E.E.R.L.j.p.e.a.j.j.K.K.R.U.^.Q.^.^.^.oX.X^.E..X.X^.E..X^.^..XE.R.R..X^.E.R.E.U.E.R.L.a.8.,.,.<.5.8.p.8.5.5.5.5.5.5.j.b.K.R.~.N.V.V.V.b.b.v.v.v.b.b.b.v.v.v.v.v.s.s.v.b.b.b.b.v.M.v.b.b.b.b.N.I.E.(./.(.^.(.^.",
"^.^.^./.^.^.^.^.oXoXOX+XoXoXoX.X(.OXOX@X@X&X&XoX@X(.P.N.x.x.c.d.g.8.2.p.p.2.>.1.N.oX8X0X@XE.E.oX+X@X4X5X0X0X5X4X%X+X%X&X%X+X^.R.(.^..XoXoX.X^.E..XE.^.(.(.E.E.E.Q.Q.oX@X@XoXQ.W.W.U.P.W.U.U.L.x.c.c.x.N.B.P.!.P.W.z.9.z.B.c.6.=.2.6.a.z.N.U.(.(.U.W.U.B.h.h.x.N.P.3.! =.2.u.1.=.p.x.!.Q.Q.P.!.Q.OXOX(.Q.!.U.!.J.u.t.3.2.3.g.x.c.N.P.E.E.E..X+X%XwXwXuXeXwX;X-X;X;X&X;X<X1X1X1X2XwX0X1X1X;X;X&X&X(.(.(.Q.Q. XOX(.(.Q.Q.(.Q.).(.(.E.^.oX%X&X&X5X;X;X0X0X:X1X0X0X;X0X;X;X&X;X5X&X0X5X&X%XoXOX%X#X%X@XOX(.(.Q.Q.Q.Q.E.!.Q.(.(.oX}.(.E.oXoX^.(.OX&X,X,X<X<X+X$X&X&XoX!.W.!.P.x.p.9.a.a.K V Q o.X.o.6.a.X.v k v P =.t.t.,.>.,.g.T.}.Q.L.x.a.p.2.2.p.a.x.h.g.h.h.L.G.x.d.g.p.8.3.p.8.p.2.a.N.h.a.p.6.2.L.E.+X@XOXOXoXQ.E.}.oXOXOX#X#XOXoXoXoXoXoXoXOX XoXoX}.E.T.T.P.G.L.R.R.R.E.E.].#X%X$X#X#X*X*X$X=X%X$X%X%X$X+X%XOX$X@X+XoX+X%X(.L.L.P.Y.K.L.E..XR.E.L.h.g.i.e.,.>.g.d.d.b.U.^.^.^./.^.^.E.^..X.XoX.X^.^..X^..X.X.XE..XR.^.].^.E.R.I.N.8.;.-.-.-.-.4.8.p.s.j.8.p.8.s.0.n.v.b.I.b.v.N.N.v.v.v.v.v.v.M.b.M.b.b.v.v.v.V.v.v.b.V.V.C.V.V.V.V.V.V.V.I.U.I.~.^.E.E.U.^.^.",
").+X+X(.).oX^.oXoX^.]..XoX+XoXXXoXOXOXoXoXOXOX(.oXoXQ.Q.E.E.P.L.L.p.;.2.2.=.=.2.,X&X@XOXOXOX&X%X&X5X0X5X4X4X0X0X5X;X@X4X4X%X4X5X.X.X^..X.X+XOXoXoX^.E.].(.(.(.(.(.(.(.(.(.(.(.(.Q.U.P.P.U.E.P.B.x.x.x.x.x.P.N.x.z.g.z.x.B.x.B.B.z.M.B.U.W.W.Q.W.U./.oX(.P.N.x.P.P.t.=.>.p.3.>.2.=.^ ! X.1.u.g.d.2.k.x.!.P.x.t.=.H =.t.u.u.u.g.c.d.d.s.8.p.L.#X0X1X:X0X0X5X;X&X;X&X&X;X<X1X1X1X1X0X2X1X<X&X$X&X1XOXoX(.Q._.@X(.W._.OX(.(.Q.Q.(.oXE.oX@X&X0X0X0X5X;X;X2X0X:X0X:X;X6X;X;X-X&X;X;X&X&X&X%XOX%XOX+X+XOXOXoX/.!.E.U.Q.P.P.Q.}.(.(.(.Q.E.E..X^.!.Q.+X&X,X>XoXQ.oX@X@XOX(.Q.!.U.N.d.P.(.9Xa.V V ! +.;.2.2.z.N.a.8.a.a.=.=.,.t.a.P.Q.T.x.G.x.a.p.2.p.d.G.x.h.a.a.h.h.h.h.z.g.a.p.p.p.p.p.h.h.a.a.x.E.Q.!.I.U.!.Q.Q.Q.oXOX}.oXOXOX#X#XoXoX}.oXoXoXOXOXOXOXoXOXOXQ.E.E.E.E.I.U.I.I.E.^.OX%XoXoXXXoXoX$X*X$X+X#XoXOXOX#X+X$X%X&XOXoXOX%XE.G.K.R.P.K.L.E..XR.h.f.p.<.=.<.,.t.K.b.h.N.E.(.(.~.E.~.^.^.oXE.^.]..X.X]..X.X.X.X.X^..X.X.X^.R.R.R.5.<.X.-.,.,.<.o.8.9.9.8.5.5.5.0.0.s.n.b.C.^.V.V.v.b.v.b.b.M.b.N.v.v.v.M.v.V.b.V.V.v.v.v.V.~.~.~.~.~.U.I.I.~.^./.~.^././.^.(./.+X",
"(.(.(.(.(.^.+X(.oXoX.XoXOX#XoXoXOXoXoXoXoX(.OX&XoX/.Q.Q.Q.W.P.B.N.9.<.;.,.4.5.p.+X@X@X+X+X@X@X@XoX+X@X4X4X4XyX4X4X4X4X@X4X4X4X4X5X4X4X4X^..X.X^.(.oX+X+X@X(.+X@X(.).Q.).)._.@X>X+X_.Q.W.P.B.B.I.U.U.Q.(.B.N.B.d.d.x.-.o.N.B.d.M.`.U.W.U.W.Q.W.W.+XQ.P.Q.(.W.B.N.L.U.a.H =.a.;.>.=.2.2.X.P H X.;.~ >.2.2.>.1.=.^ ! ! L ^ =.^ =.>.x.s.s.8.5.d.oX%XeX$XrX;XeX0X;X;X&X;X&X&X<X1XqXqX1X0X1X$X#X;X;X#XQ.oXoX(.E.Q.oXoXoXoX(.Q.Q.(.oX(.^.oX%X&X&X0X;X0X0X;X&X0X0X;X;X0X&XrX=X;X-XoX;X&X;X$X@X5X&X.X.XoXOXoX(./.W.P.P.U.P.P.I.Q.Q.E.Q.(.E.E.Q.(.}.oXoX+X%X$XoXE.P.R.^.XX+XoXE.U.U.^./.^.U./.~.V.0.5.8.s.z.N.L.N.L.P.h.;.,.a.G.L.g.t.f.h.x.g.8.t.g.x.h.h.x.p.a.h.a.a.x.x.h.h.a.p.3.t.8.p.h.x.N.L.P.E.(.OXQ.E.E.Q.Q.E.}.OX+XoX$XOXoX}.OX}.}.}.oX}.}.oX@X$XQ.&X&XE.J.Y.E.Q.B./.N.z.P.P.U.1XOX}.Q.oX$X$X#X$X$XQ.E.oXoXoXoXoX&X+XoX!.L.U.T.h.L.P.L.L.P.T.P.G.>.>.*.>.>.>.p.x.h.b.R.E.^.~.E.^.U.U./..XoX^.XXoXE.E.oX.X(.oXE.R.oXE.U.^..XU.d.,.`  .-.5.5.s.0.0.p.0.0.5.8.8.s.0.n.b.b.V.V.b.V.v.b.n.v.b.V.b.b.b.b.N.V.V.v.V.V.V.~.V.0.b.~.~.4Xm.~.~.~.^.~.~.~.~./.^.(.^.^./.^./.",
"(.(.(.+X(.+X+XoX+X+X+XoX+X%X%XOXoXoXoXOXOXoXOX@XoXoX_.(.(.(.Q.P.z.p.,.8.8.j.b.E.+X+X+XoX+X@XOX+X+X%X4X0XyXyX5XyXyX4X4X4X.X4X4X4X5X4X4X4X.X^.4X^.oX(.+X+X@X@X@X@XOX(._.OX_.OX@XOX>X>X@X(.W.U.U.I.T.B.B.B.U.Q.U.d.6.9.z.2.X.z._.(.@X@X_.(.(./.W.U.N.(._.P.I.(.Q.x.U.8.X.p.,.=.! X.X.9.!.+XQ.L.a.2.a.=.~ Q ^ =.^ ~ ^ ! / >.2.=.>.=.} 5.B.N.i.f.E.#XrX;XpX;X0X;X;X0X0X1X;X2XeXtX2X1X1X1X2X;X#X}.E.L.@X@X>XoX(.(.(.Q.(.(.oX(.oXQ.Q.Q.oX%X&X5X5X;X&X5X&X&X5X5X0X;X;X6X&X:X&X;X-X#X;X&X%X%X%X$XoXoXOX&XOXoXoX}.E.P.P.T.T.Q.!.U.U.Q.E.P.E.E.E.E.(.oXOX%X+XOX.XE.E.R.E.E.E.^.R.L.I.E.E.U.E.U.N.b.N.N.s.8.8.d.N.x.x.B.P.L.G.x.G.x.g.a.h.J.N.h.g.h.x.L.L.x.x.a.a.g.a.a.N.h.x.h.d.p.p.p.p.p.c.x.x.P.Q.oXoXOXoX(.Q.(.(.Q.E.(.oXQ.OXOXQ.oXOXQ.Q.oXU.h.L.OX1X#XtX&XP.g.G.Q.E.N.h.B.N.N.g.Q ;.,XqX,XOXoXE.x.p.>.*.X.<.p.x.G.x.x.x.L.U.Q.E.E.P.a.g.h.G.L.Q.T.a.^ *.! ^ *.>.2.a.G.R.E.~.^.^.^.~.~.^.^.E.oX^.].].oXXXoX.XE.T.R.P.L.R.^.oXU.d.8.5.5.-.<.4.5.s.s.s.0.8.8.0.s.s.v.d.v.V.V.V.V.V.V.b.V.b.V.V.v.b.n.b.n.v.v.b.v.v.b.b.v.n.n.~.~.I.b.C.4X~.~.~././.^.~.~.^./.^././.^.^.(.",
"^.^.(.+XoX(.(.+XoXoX.XE.E..X.XoX(.}.oXOX$XoXoXoX@XOXOX@X+XQ.U.B.d.s.0.s.d.N./.4X+X(.(.oX+X+X+X+X+X%X4X4X5XyX4X4X5X4X5X4X4X4X4X4X5X4X5X5X4X4X4X^.^..X+X+X).+X+X_.>X_.@X+X@X_._.+X@XOX_.(._.(.`.(.>X(.(._.@X8X,XW.N.U.~.I.z.;.9.@X(._.@X@X@X_._.@XW.W._.W.P.@X@XM.8.O.P d.-.X.2.X.x.N.P.U.P.P.P.P.B.z.p.a.9.>.! ~ =.8.h.P.!.(. X(.N.5.O.<.d..XoXL.-X$XtX;X0X;X;XwX0X1X&X<X1X1X0X0X0X1X$XoX}.T.T.Q.oX@X@XoXOXOX@X(.oXQ.Q.oXoX/.E.oX%X&X&X5X%X%XoX%XOX&X5X;X5X0X5X;X-X-XoX*X$XoX%X$X#X&X$X+XoX+X$X%X@X@X(.U.N.G.P.Q.U.Q.P.h.x.E.!.N.E.E.U.E.^..XOX%XoX.XXX.XXX].E.R.E.E.U.R.E.^.^.^.^.I.N.L.^.^.I.s.x.d.a.a.p.g.z.c.L.x.j.a.a.a.g.x.h.h.G.L.P.L.L.x.N.a.a.g.p.a.c.h.x.x.h.g.a.j.g.d.x.x.L.U.(.OX+X(._.Q.Q.Q.(.Q.E.U.Q.!.(.oXQ.Q.oXQ.U.}.8X,Xt.h G L.E.Q.P.L.N.T.E.L.x.d.j.N.L.o.P a.2.>.<.3.p.t.^ H ! P X.2.a.a.a.a.p.d.P.(.E.E.P.h.h.h.h.a.p.2.=.! *.X.*.=.p.h.P.P.^.(.^.E.U.~.U.~./././..X]..X[.|.oXoXE.P.N.L.P.B.L.U.^.b.,.X.-.5.8.8.8.0.s.s.n.s.s.0.s.s.v.N.b.V.V.V.V.V.b.V.V.V.V.V.V.n.n.v.V.V.V.V.V.Z.b.Z.V.V.m.4XC.~.~.V.~.C.~.~.~.~./.~.^.~./.~./.^.^./.(.^.",
"^..X(.+X+X+XoXoX^.E.E.R.P.E.E.^.}.}.}.oXoXoX(.(.oXoX(.+X_.Q.N.z.d.d.j.N.V.^.@X4XoXoX^.(.oX+X+X+X+X+X4X5X4X4X4X4X4X0X5X4X4X4X4X4X5X5X6X5X5X4X4X4X^.`.(.`.(._.(._.+X_._._._._.(.(.`.).)._.+X@X@X_.@X,X8X,X_.(._.Q.P.I.d.N.B.! C B.W.(._._.@X@X>X>X@Xz.d.W.U././.z.8.8.X.5.1.>.(.U.U.U.Q.U.Q.W.U.U.W.P.U.z.! v ! z.N.U.OXOX(.OX(.(.(.L.j.9.j.Y..XR.Y.].eX;XeX0X0X5X<X&X&X,X1X0X,X,X2X@X}.}.Q.P.}.oXOXOXOXoXOX@XOXoX(.Q./.oXoXQ.(.@X%X&X&X&XoX].].E.XX$X5X&X&X;X5X&X;X$X%X$X*X$X%X%X%X&X&X+X+X$X+XE.oXoXoXQ.P.P.U.Q.E.P.h.8.a.B.E.I.(.E.T.E.E.oXoXoXoXoXoXoXoX.X].R.E.^.^.^.^.oXoX.XE.E.E.^.(.^.^.E.}.N.p.p.a.p.2.=.a.p.a.j.g.g.f.a.h.x.L.P.P.L.L.L.L.a.a.a.a.a.x.z.x.x.x.h.x.c.x.x.x.L.P.(.+XoX(.Q.Q.U.U.E.Q.E.!.E.Q.E.Q.oXE.E.oX}.OXoXE.E.Q.L.,.H =.h.oXQ.P.L.P.E.B.B.z.d.U.B.2.! 9.2.p.c.L.x.h.a.3.2.;.2.t.3.9.c.h.h.L.E.P.L.L.c.x.x.a.,.! L ^ 2.>.>.,.a.N.T.Q.Q.^.E.^.U.~.I.I.~.E.^.^.oX}.}.XXoX^.(.E.R.R.I.R.L.b.v.0.5.4.4.8.6.0.0.s.s.n.v.v.n.v.v.v.v.b.b.b.V.V.V.n.V.V.n.n.v.v.v.v.V.V.C.~.C.V.V.V.V.V.V.C.C.~./.V.C.~.~.4XC.~.~.~.~.~.~.^./.^.~.^././.^.(./.",
"oXoXoX+XOXoXoX^.oX^.E.U.^.^.(..XoXoXoX}.oXOX@XoX(.oX X(.).W.N.g.d.b.v.V.^.4X4X_.(.(.^.4X^.4X^.+X+X+X4X4X4X4X4X4X4X4X4X4X4X4X4X4X5X5X5X5X4X5X5X4X4X+X@X+X>XOX>X)._.(._._.+X(./.`.(._.(._.(.@X@X@X+X@X4X&X(.(.^.B.E.b.V.I.b.N./.).(._._.@X_.@X@X>X9XB.M.).(.W.(.C.4.8.O.0._.v.+X).U.U.^./.(.^.U.L.I.I.~.V.6.Q <.N.I.^.+X^.U.^.^.U.I.(.&X).L.K.E..XK.R.0X;XrX0X0X8X1X,X&X0XeXqX$XU.oX(.Q.OXOXE.P.P.@X$XOXOXOX@XoXE.OXoX(.oXoXQ.(.$X%X&X:X%X#XoX.XoX.X#X&XoXoX%X4X&X$X#X$X-X;X-XoX$X$X%X.XE..X$XoXE.G.U.oX@XOXQ.P.L.P.x.a.a.h.L.P.!.E.E.E.E.E..XOXoX%XoX].XX.XXX].E.^.^..X^.^..X^.E.E.^..X.X.X.X.XoX(.P.h.x.G.h.p.,.2.2.a.h.d.g.d.a.h.L.P.E.T.P.P.T.L.a.9.p.p.d.x.x.G.x.x.x.x.x.x.x.c.L.Q.oXoX(.oXQ.U.Q.Q.W.U.E.!./.E.P.E.oXE.E.oXQ.U.}.oXP.P.].}.P.h.L.P.P.P.P.U.P.x.W.P.9.a.P.B.a.k.g.g.a.a.a.g.a.d.p.8.9.a.a.x.x.c.p.c.L.x.c.h.g.c.9.=.=.X.=.! ! ;.2.9.x.!.W.W.W.E.E.E.U.I.C.V.V.V.I.^.oXoXoXXX].].(.(.!.U.I.B.z.s.4.X.+.8.q.0.8.s.s.s.v.v.n.b.v.V.b.v.v.V.v.b.V.n.V.V.V.V.V.V.V.V.V.V.C.V.~.V.C.n.V.V.V.V.C.C.C.V.4XZ.~.~.V.4X^.~./.~.~.~.~.~./.~.^.~..X(.^.(.(.",
"oXoX+XoX+XoXoX.X+XoX(.oXoX.X^.oXoXoX}.].oXOX$X$X@XOX).OX(.U.N.d.d.d.v.I.^.4X4X+X.X`.^.+X+X`.4X_.4X4X4X4X4X4X4X4X4X4X4X4X4X4X4X4X5XXX5X5X4X5X4X4X@X@X+X@X_.OX_.).(._._.oX(._.(.)._.(._.(._.@X@X9X4X@X@X4X&X@XoXN.d.d.N.V.V.b.~.@X@X@X_._.@X@X@X@X9X@X9X>X`.W._.).8.n.-._ (.~.4X4XoXW.L.B.I.I.^.^.I.V.^.4X8XoXI.N.^.^.(.(.(.+X$X+X/.^.(.+XoXOXoXI.R.E.;XE.oX%X&XOX8X0X0X@XQ.P.E.oXQ.!.Q.oXoXoXE.E.!.Q.}.oXOXOX@XoXOXOXoXoXoXQ.oXoXOX%X%X$XoXoXXXoXoX%X%XoX].%X%X&X&X#X-X;X;X&XoX%X%XE.L.L.E.oX%XoXg.d.x.N.N.L.L.L.L.x.h.L.U.P.L.L.L.P.P.P.E.^.OX%XoXXXXX].[..XXX.X^..XoX^.E..X.XE.XX^.E.E..XoX.XE.T.E.E.T.N.h.g.a.t.a.g.a.p.a.d.x.h.G.L.P.U.T.U.P.x.p.3.p.a.h.x.x.N.x.x.d.d.g.j.a.d.L./.oX(.Q.Q.(.E.(.(.Q.P.P.U.Q.U.U.E.Q.E.Q.oX}.OXE.L.E.E.P.P.E.}.Q.T.E.E.E.E.L.x.B.U.x.z.x.P.B.9.c.z.9.k.z.x.B.c.z.z.x.N.x.B.P.p.2.p.x.L.x.g.a.8.,.=.X.! ! =.2.2.p.x.x.U.Q.W.!.E.^./.Q.U.V.V.M.N.I.^.oXoXXXoX].oXoXQ.U.N.z.8.2.;.+.+.+.6.8.q.q.q.0.0.q.b.n.v.b.v.v.V.V.v.V.N.v.b.n.b.V.C.C.V.V.C.C.A.~.~.~.V.V.V.V.V.C.C.C.~.~.V.C.C.~./.A.A.n.`.^./.~.C.~.~.~.~.^././.^./.(.(.",
"oX.XoXoXXXoX.XoXoX(.(.(.(./.^.U.Q.}.E.E.}.OX@XOX>X+X(.(.Q.U.N.d.v.d.j.b.I.+X4X+X.X`.+X^./.+X4X4X4X4X4X4X4X4X4XyX4X4X4X4X4X4X4X4XrX5X5X5X5X5X4X+X+X(.(.(._._.).)._._.).).).).).(.`.`.(._._._.@X@X+X(.(.@X@X4X+XN.B.@X).(.4XU.d.8X@X(.Q.(._.>X,X@X).9X9X_.C.U.(.W.`.`.0.A _ V.8X9X(.`.(.+X+X@X+X/.(.~.C.~._.4X@X).+X`.+X(.^.^.U.^.^.^.oX(.R.E.oX.XK.E.$Xb.K.P.E.R.$X,X8XQ.a.p.L.OXU.Q.Q.E.P.T.Q.(.x.L.U.E.E.Q.}.Q.E.oX@XoXQ.oXoXoX].%XoXoXXX].oXoXOX+X%X%XOXoXoX$X$X].%XoXoX[.E.$XOXE.Y.R.R.E.]..Xp.2.;.=.,.a.x.L.h.x.L.P.U.P.P.N.L.P.E.L.P.Y.].+X%XoXXX[.XX.XXXXX^.+XoX^.^..X.X.X.XE.R.E.XXXX].R.J.E.}.P.g.p.p.p.p.a.a.8.8.a.g.d.h.G.J.T.E.E.L.L.x.a.8.d.a.d.M.d.h.x.x.h.z.c.d.h.N.E.(.oX(.Q.Q.E.U.Q./.P.L.P.U.!.E.P.E.oXE.E.oX(.E.OX$XU.E.$X@XP.E.E.(.oXoXE.!.W.!.B.P.W.W.B.B.x.z.z.z.k.9.c.z.a.d.k.c.x.x.z.z.z.z.2.u.G.B.c.g.a.,.>.o.! ~ ! 2.x.a.x.B.B.B.W.W.U.E.E.~.U.I.V.V.V.V.I.E.^.].XX].XXoX/.U.d.8.2.=.X.o.+.6.6.6.7.q.w.0.0.q.v.v.Z.Z.v.v.v.v.v.b.Z.v.Z.n.V.Z.V.C.4X~.C.~.~./.~.~.C.V.V.C.~././.~.~.~.~.A.4XV.V.4XC.C.0.A.~.~.~.~.~.~.~.~.~././.^.`./.(.",
"^..XE..XE.oX(.oX+X+X+X+X+X^.U.E.P.T.T.P.E.oXOXQ.@XoX(.Q.W.B.N.z.b.b.0.0.b.~.^._.^.+X+X.X.X.X4X4X4X4X4X4X4X4X4X4X4X4X4X4X4X4X4X4XrX5X5X5X4X5X5X+X+X+X(.(._.>X_.>X@X_._.).(.).(.(._.>X@XOXoX`./.~.(.oX4X&X+X+X@X(.^.4X4X^.I.oX>XQ.>X+X/./._.>X@X_._.9X9X@X@X_.`.W.4X_.4X9X5.v.v.I.@X+X).+X+X(.oX+X^.+X+X4X_.+X@X4X+X^.^.(.+X^.^.(.+X(.^.^.E.(.].L.j.Y.&XK.h.K.L.N.(.Q.E.E.Q.Q.E.P.x.E.oXP.x.a.h.h.h.L.P.L.h.h.h.h.h.E.oX(.(.OX@X}.oXoX$X%XoX%X%X#X#X#X&X;X%XE..X$X%XY.oX].Y.E.L.%X%X}.oX+X(.L.L.I.2.>.=.,.p.g.z.d.a.x.N.c.x.E.E.L.L.E.E.P.K.x.R..XoXXX%XXX.X.XXXXX^..X^.E.E.E..XXXE..XXX].].]..X].T.Q.P.g.f.h.g.2.p.a.a.a.a.h.z.h.h.x.P.E.Q.Q.T.L.L.p.p.a.g.d.c.d.d.h.h.x.x.G.N.x.Q.}.(.oX(.E.P.P.P.P.P.L.N.P.E.E.U.E.(.oXQ.Q.oXQ.&XQ.E.oXoXU.T.oX(.Q.E.Q.].(.Q.Q.Q.!.Q.W.c.x.B.x.x.x.x.x.x.B.B.x.N.N.x.B.B.P.P.!.P.9.3.x.x.g.9.3.2.X.! =.3.9.p.k.z.x.B.x.x.B.!.U.U.I.I.I.I.C.I.~.I.I.U.E.E.].].oXE.U.N.8.;.;.+.o.;.;.6.q.n.n.q.w.0.0.0.v.v.v.v.v.v.V.V.V.v.v.v.v.V.V.n.V.V.V.~.~.~./.~.~.~.~.C.~.C.~./././.~.~.C.V.4X~.V.V.n.b.n.b.v.V.~.~.~.~.^.U.~./.^./.^.^.`.",
"+X^..X.XoX+X^.E.+XoX+X.XXX+XoXXXL.R.oX^.L.I.^.E.(.(.P.P.(.W.x.N.b.b.b.s.v.b.^.(.+X`.+X(.^.^.(.@X%X%X4X5X4X5XyX5XyX4X5X5X4X+X+X5X4X5X5X5X5X4X+XE.@X+X+X`.4X4X4X@X8X).@X>X(.+X>X_.(.OX@X_.W.P.Q.(.Q.E.^.oXoX+X+X@XoX+X+X+X^.+X^.b.oX+XI.(.E.4X9X/.@X4X~.^.9X(.~.+X>X>X>X_.Q.z.N._.@X>XOX@X@X@X@X+XoXoX@X+X@X@X@X4X4X^.^.^.(.+X+X^.+X(.+XoXE.U.L.a.,.G.Q.P.x.L.Q.@X(.(.(.(.Q.W.Q.Q.N.(.x.U.x.3.x.a.f.I.^.h.b.L.s.h.5.K.oX+X+XoXoX(.^.XXoXoXoX%X%XoX+X$X%X+X%X%X%X%XXXL.R.^.R.^.E.b.R.^.%X^.K.^.E.5.2.;.;.X.;.a.x.z.z.x.L.P.P.P.T.P.U.B.x.L.Q.(.Q.oXoXoX#X#XoXoX[.|.^..XE.E..X.X.X.X#XXXE.Y.E.^.R.R.E.P.h.p.a.a.p.p.=.t.a.a.g.h.h.p.L.g.E.}.P.E.oXL.t.P.9.2.a.9.N.N.c.g.k.z.c.x.B.Q.W.(.oXQ.^..XE.L.P.L.L.L.K.P.E.E.E.E.Q.E.}.(.}.}.E.E.E.].Q.}.U.U.!.U.E.E.E.E.E.R.E.E.E.P.P.L.x.x.z.h.x.N.L.L.P.U.E.Y.L.P.P.P.P.U.L.d.>.=.2.3.=.2.,.=.X.^ >.3.d.d.N.B.B.N.N.B.C.B.B.B.B.U.U.P.U.P.U.+XE.R..XR.K.XX^.0. .X.4.O.O.4.4.0.0.0.0.0.0.0.0.q.v.v.v.v.Z.n.v.V.v.V.n.n.b.v.m.V.~.C.C.A.~.~.~.~.~.~.~.~.~.V.4Xn.A.~.A.~.~.C.~.~.~.~.C.V.V.V.Z.V.C.~.~.^.~.~.~.I.~.^./.(.(.(.",
"oXoX^.^.oX+X+X+X.X.X^.oXoXoX+X+XoX+X%X%XE.E.(.^.Q.P.z.x.Q.Q.B.z.b.b.b.s.s.n.~.^./.(.^.+X+X(.+X4X5X4X4X4X4X4X4X4X4X4XyX0X4X%X4X4X5X5X5X4X4X5X@XoX^.^.^.4X4X+XU.s.U.8X9X/.Q.9X,XQ.Q.@XQ.h.x.Q.(.L.^.E.^..X(.+X+X%X+X+X+X(.^.^.E.N.b.+X(.+X^.+X@X@X@X+XR.V./.^.I.4X>XOX(._.(.B.P.oXoXOX@X@XoX+XOX&XOX@X%X%X%X%X%X+X+X+X(.R.b.I.^.^.oXoX(.E.L.T.P.g.*.2.g.a.g.L.E.E.Q.(.OX_.+X(./.U.N.P.>.9.d.9.L.s.j.b.E.U..XOX^.@Xd.N.E.^.^.(.+X+X%X4X&X+X+X%X+X%X+X%X%X%XOX%X@X+XoXR.R.XX.X.XXXR.E.^.oX^.N.L.K.,.+.;.6.6.6.q.s.q.d.x.N.x.L.P.P.P.L.P.P.P.Q.Q.(.&XoXoXoXoX|.|.|.oXoX.X.X.X.X].].}.XXE.R.R.R.R.R.L.L.L.h.a.p.y.p.t.a.g.g.a.a.j.h.g.G.G.E.}.T.Q.OXE.W.+Xx.a.z.a.d.d.k.c.c.k.x.U.!.B.oXW.Q.oX^.E.L.R.R.R.Y.R.R.U.E.E.E.Q.Q.Q.Q.oX(.oX.XXX.XoX}.Q.E.!.}.(.Q.(..X.X.XXXE.E.T.E.Y.P.L.L.P.T.T.T.P.E.Q.Q.E.E.R.R.T.T.E.U.!.J.2.*.=.=.=.t.2.>.^ *.,.p.d.x.U.U.U.B.M.B.B.B.B.B.W.U.W.W.U.U.U.U.E.E.R.R.K.b.5.O.X.&.4.4.4.4.8.4.4.0.0.0.n.n.v.n.v.v.v.v.v.V.v.v.V.n.b.n.v.V.C.C.~.~.C.V.C.~.C.~.~.~.~.4X~.4X4X4X4X~.V.C.`.~.A.C.~.A.C.V.V.V.V.V.I.~.I.~.~.^.^.^.^.~.^.(.(.^.",
"U.U.U.R.U.^.oX+X^..X.X+XoX+X+X+X+X+X5X@X^.(.oX~.P.P.z.a.x.W.J.z.v.s.s.s.5.s.V.^..X~.^..X^.^.+X4X4X4X+X+X4X4X4X5X4XyX0X9X4X4X%X+X4X5X5X4X5X8X+X.X%XU.s.5.s.b.b.b.8.P.Q.@XyX>XW.@XP.x.9.2.g.N.P.L.E.E.^.(.(.oXoXoX^.+XOX^..XoX^.R.j.(.U.+X(.(.U.(./.oX~.~._.~.~.4X+X).W.Q.@XW.P.(.oX@X@X@XOX+X@X<X@X%X4X%X@X%X$X@X+X4X4XE.b.I.^.+X_.oX(.L.x.P.P.h.P ! *.=.p.P.P.P.P.U./.(.Q.Q.W.W.(.W.2.6.s.d.U.N.b.s.P.E.E.^.E.+X&X4X&XoXoXoXoX.XoX%X+XXX.X.XoX+XoX%X%XoX%X+X+XoX+XE.^.oXoXoX+X.X^.E..X.XI.h.j.-.o.;.6.6.9.a.a.a.9.g.z.h.d.x.P.L.a.P.W.P.j.2.a.!.}.oX}.}.|.oX|.oX.X^..XE.].].XXXX].].].E..XR.L.b.a.f.j.p.t.t.2.p.p.p.y.p.p.a.a.h.G.T.Q.}.Q.].Q.Q.Q.Q.x.p.d.g.d.g.a.k.k.k.N.(.W.z.(.E.E./.^.E.R.R.R.E.E.^.^.E.E.E.(.E.E.E.Q.oX(..X].XX.XQ.Q.E.Q.Q.Q.Q.!.E.R.R.R.E.E.}.E.E.E.E.P.T.U.T.E.E.T.U.E.E.E.E.E.E.E.U.E.!.W.x.3.*.X.! X.2.,.>.*.*.,.a.z.z.W.W.U.B.N.B.B.B.W.!.W.U.U.U.P.P.E.I..X.XI.^.K.' J ` +.4.4.4.5.0.w.0.n.n.n.n.n.n.v.V.Z.v.v.Z.V.v.v.Z.n.V.v.V.V.V.C.~.4XC.C.Z.C.C.~.V.~.~.~.^.~.~.m.4X~.~.~.~.~.~.~.~.~.~.~.~.~.~.~.~.~.~.I.~.^./.~.~.^.^.^.^.^.~.",
"b.K.K.L.K.I.^.+XoX+X+X.XoXXXoX+X+X+X@X@X+X+X+X~.P.W.L.a.k.z.B.x.b.0.0.s.s.s.N.^.I.^.^.^.^.~.^.+XoX^.^.^.+X+X4X5X4XyX0X0X4X4X@X^.4X4X5X5X5X%X^.R.L.j.5.<.5.s.j.d.M.,.6.U._.8.! t.(.B.x.L.E.P.U.}.E.^./.oX+X(.+X(.oX+XoX.XoX+X+X^.U.@XI.+X0X,X/._./.+X`.(.+X(.~.@X@X_.(.`.+X(.W.(.(.oX@XOXOX@X&X@X&X&X@X5X4X4X@X4X/.+X(.E.U.K.b.V.(.oX(.P.x.P.P.a.! P P ! 8.L.U.L.B.P.L.N.B.B.W.(.(.(.N.d.a.9.P.W.E.b.^.^.L.^.oX@X+XoXoX^.^.^.OXOX+X%X%X+XoXoX+X%XoX+X+XoX%XoXXX+X+XXX.XoX+X.XoX+X.X.X^..XU.j.,.-.+.;.1.1.8.9.d.d.9.9.a.a.d.N.N.N.N.Q.Q.U.x.,.,.g.oXoXoX}.|.[.oXoX].^..X.X.X.X.X]..X[..X].E.R.K.h.f.a.p.p.8.8.t.t.a.p.p.h.G.h.h.L.L.}.E.Y.E.E.Q.Q.E.L.9.p.d.d.z.z.a.k.u.z.B.(.Q.x.N.oX@X^.E.oX(.P.E.Y.E.E..X.X.XE.Q.E.E.E.E.oX}.E.]..X].E.Q.Q.Q.W.(.oX_.Q.E.E.E..XE.}.Q.E.T.!.E.E.T.T.E.P.Y.L.P.P.R.E.E.E.P.T.T.E.c.c.u.2.3.=.~ >.*.*.=.>.2.a.g.d.P.U.U.B.N.C.C.U.U.U.W.P.W.U.U.P.E.^.^.I.b.U.j._ ` +.4.&.4.0.n.n.v.v.v.V.b.b.V.V.V.v.Z.v.v.V.v.v.V.v.V.v.V.V.C.C.C.V.Z.~.~.~.~.~.~.~.~.V.I.~.~.V.&.~.~.~.`.4X~.~.~.~.I.~.~.~./.~.~.~.~.~.~.~.^.~.^.~.^.^.^.U.U.I.",
"I.I.I.I.K.V.R.+X+X+XoX.XoX.X.X.XoXoX+X+XoX+X+XE.B.(.U.z.x.B.x.z.s.0.5.s.s.0.d.V.I.U.^.^.E.U.E.^.^.^.^.^.^.R.^.4X4X4X4X+X4X4X4X4X4X4X4X4X.XI.b.b.8.p.p.j.j.s.d.s.U.6.;.8.8.9.8.! c./.+XP.P.Q.Q.P.E.^.^.(.oX+X(.(.oX(.(.(.+X@XOX X(.@Xh.P.@X>XW.(.(.).(.U.~.U./._.@X@X_.(._.(.Q.(.(.Q.P.U.Q.oX@X&X&X@X4X@X@X@X%X+X4X+X^.^.+XU.h.N.Q.(.(.U.x.x.x.6.! Q P K ;.z.L.B.P.P.N.z.c.N.U.(.U.(.Q.U.N.x.W.(.V.N.Q.P.h.E.@X&XoXoXoXoXQ.Q.}.$X&X&X$X$XoXoX.X.X%XoXoXoX%X+XoXoXoXoXE.oXOXoX.XoXoX.XE.^.R.8.*.-.-.;.2.6.9.9.d.z.s.9.8.9.d.B.N.d.P.N.x.N.E.N.8.<.OXoXoXoXoX}.oXoX.XE..X^.].}.[.XX[.].]..XE.R.L.K.L.c.a.p.t.8.,.,.a.2.2.a.h.d.h.G.P.Q.P.P.E. X(.oXOXL.d.a.a.d.d.d.z.c.k.x.W.(.Q.).d.U.(.Q./.oXE.L.E.U.T.E.E.oXQ.E.E.U.R.R.E.E.E.^..X.XE.E.oXoXQ.!.Q.Q./.!.U.R.E.^.E.Q.E.E.T.Y.T.Y.T.!.E.E.T.T.T.P.R.E.R.E.T.P.P.P.a.a.t.p.c.3.o.=./ =.,.t.a.a.g.d.L.I.U.B.B.I.U.W.W.W.W.!.U.E.U.U.I.+XN.5.i.5.' ( ;.4.6.4.4.n.V.n.V.V.v.Z.V.V.b.V.v.V.b.V.b.V.V.b.V.V.b.V.V.~.~.~.C.~.C.~.~.~.C.~.~.~.~.V.V.~.I.V.V.C.~.b.~.~.~.~.^.~.I.I.E.~.~.I.I.~.~.V.V.V.I.^.I.~.(./.^.U.I.B.",
"K.I.I.^.U.K.R.+X+XoX+X+X+X.XoX^.+X^.+X(.U.^.U.I.P.W.N.N.W.(.z.k.v.v.b.v.s.0.s.j.V.I.^.^.(.U.U.^.^.U.U.U.K.s.b.b.b.I.~.^.^.+X+X+X4XXX.X4XK.b.j.b.j.s.9.5.<.4.s.N.d.;.3.p.s.Q.W.2.=.a.L.U.P.U.U.P.^.^.(.oX^.(.(.+X(.Q.^.^._.@X@X).U.oXd.x.B.W.W.Q.`.(.(.`./.~.U.U._.>X+X(.(.(.(._.).Q.B.z.x.W.@X,X;X4X&X&X&X%X@X+X4X(.b.N.@X@XU./.U.U.W.U.q.2.,.=.=.=.X.o.,.a.N.U.N.x.x.z.d.z.x.N.U.Q.W.W.W.U.I.L.I.U.(.x.3.N.P.L.OX+X&XOXoXQ.].oX$X+X%X+XoXoXoXoX$X+X.XoXoXOXoXoX.X.XE.oX%XOXE.oX^.E.L.L.L.,.*.-.=.+.;.9.q.d.9.9.d.d.9.a.N.B.N.j.8.g.c.x.G.a.,.,.(.Q.oXoXoXoXoX}.E.^.].oXoXXX|.].[..X]..X.XE.E.E.d.p.,.,.2.p.p.2.2.>.=.<.3.g.N.P.}.Q.E.E.E.oXoXoX@XN.c.g.9.d.9.a.x.k.c.x.U.W.W.+Xx.h.L.(.(.L.N.U.P.P.L.P.E.E.Q.E.E.R.R.P.R.R.E.E.oXXX.X].oX^.!.P.N.x.L.x.L.K.P.R.!.E.T.P.P.P.P.P.P.U.T.T.T.P.T.T.P.R.R.P.E.E.P.N.6.2.=.>.2.2.^ =.>.2.t.p.g.g.j.g.c.L.E.P.I.U.Q.Q.!.Q.Q.W.W.Q.(.Q.U./.s.X.4.4.( _ &.4.6.6.n.V.C.V.V.V.V.v.n.V.n.V.V.V.V.V.C.V.V.C.V.V.V.V.C.A.~.~.~.~.~.A.C.C.C.V.~.~.V.V.I.~.~.~.V.4XI.b.~.4X~.~.^.~.U.~.U.~.U.I.I.I.I.V.V.V.I.~.I.~.E.E.U.I.N.N.",
"I.b.K.^.I.b.U.+X(.+X.XoX+X.XoX^.+X(.^.^.N.L.L.N.B.B.x.N.P.B.c.k.C.C.b.v.s.v.0.0.b.b.~.(.(.^.E.(.~.K.b.v.s.5.4.i.s.s.b.b.I.I.I.^.~.^.R.I.b.b.j.v.9.s.s.8.6.<.<.4.2.o.2.x.N.d.a.6.d.9.h.W.(.U.W.@XU.^.^.^.(.oX+X(._./.(.(.+XOX<X`.(.@XB.U.U.+X>X+XW.(._.9X@X_.(.B.U.(.(.W.(.).(.(.).(.!.P.N.P.(.,X+X+X@X%X@X@X+X@XU.^.p.4.I.).(.(.W.B.U.N.;.P Q X.;.;.2.6.8.q.x.B.d.z.z.d.d.d.d.z.B.N.x.N.N.x.2.o.U.U.U.d.d.x.p.g.h.h.L.E.}.Q.}. X&X@X@X%XE.E.^.&X5X%XoXoX+XoXoXoXE..XE.E.+X].D.K.B.R.b.j.h.9.<.p.1.-.;.9.z.d.9.8.9.q.d.q.v.M.d.8.9.P.E.U.x.3.2.N.L.P.E.E.Q.].].Q.E.E.E.oXoXXXoX].XXXX}.oXoX].E..X,.;.=.;.2.8.p.8.p.8.,.;.p.h.P.P.L.L.}.Q.L.E.+X(.OXa.d.z.9.d.a.d.z.x.z.x.B.Q.(.W.(.d.p.U.(.P.N.U.P.P.L.P.T.E.E.P.E.E.E.E.P.L.R.].].oXoX.XE.P.L.B.B.x.N.x.B.L.R.R.T.P.J.P.G.P.P.Y.Y.P.Y.P.T.L.Y.P.R.I.L.U.P.P.x.a.>.=.! ~ =.! ! >.p.u.a.f.a.f.g.g.a.x.!.W.Q.Q.Q.Q.Q.Q.Q.!.E.!.U.E.^.v.<.O.O._ _ -.4.4.0.s.Z.V.V.V.V.V.V.V.V.V.V.Z.V.C.~.~.~.~.V.V.V.V.V.~.~.~.~.~.~.~.~.~.~.V.C.C.~.V.V.~.~.I.b.n.s.v.V.4X~.~.4XV.U.U.^.~.U.U.U.U.~.~.I.~.I.I.~.~.I.I.I.I.I.I.L.N.",
"^.I.K.I.I.I.R.+X.X+X.X(..XoX+X+X4X(.+X^.B.L.U.P.N.P.B.z.z.8.a.W.b.b.b.0.5.0.5.4.s.b.U.(.(.^.~./.^.b.s.s.v.s.s.s.s.s.b.U.U.V.b.U.I.b.b.b.b.b.s.s.b.d.s.9.4.4.;.;.-.6.2.8.N.z.z.OXQ.U.P.x.B.!.U.L.U.^.~.^.^.^.(.+XOXoX(.oX@X>X>XQ.(.(.N.U.P.>X>XW.@X_.).).(._._./.N.W.W.W.(._.(.U.Q._.@X(.L.c.N.U.E.^.^.^.oXoX+X+X(.0XU.8.I.@X(.W.`.N.B.z.o.c A o.X.;.2.9.8.8.9.z.z.d.d.d.d.z.M.N.B.N.U.B.B.N.6.;.=.o.=.;.h.z.2.d.h.h.x.E.}.(.}.}.oXoX(.L.i.-.5.N.0X@X^.+XoXoX^.oX^..XR.U.oXI.p.8.j.d.j.s.N.d.s.N.9.2.;.6.s.q.9.8.4.9.k.d.w.q.8.8.B.B.N.N.P.N.g.h.a.d.h.P.P.U.E.T.E.E.^..XoX].].}.]..XoX].E.P.L.b.,.3.p.p.3.2.2.2.3.8.,.X.=.2.;.=.=.2.E.oXL.Q.,X@X+Xa.x.x.p.d.p.z.x.W.W.x.W.OX@XU.>XB.9.x./.W.B.P.U.P.L.P.E.U.L.L.R.E.E.R.R.Y.E.XXR.XX#XoXL.h.c.x.x.x.g.a.d.h.h.d.L.L.L.L.G.L.P.P.T.T.T.T.P.Y.L.T.P.L.L.P.P.G.a.1.^ =.^ ! X.! =.3.g.f.p.y.8.p.j.g.a.L.E.(.}.Q.(.(.Q.!.W.!.U.U.P.I.U.+.` O._ _ -.` n.q.v.v.v.v.v.V.v.Z.V.v.n.V.b.V.v.C.C.~.~.C.V.b.V.V.V.V.I.~.~.I.C.C.V.C.~.C.I.I.~.~.~.~.I.V.' ' s.0.V.4X^.~.~.V.I.U.^.^.^.U.U.~.I.I.I.V.V.V.I.I.~.I.L.N.N.b.B.I.",
"b.I.I.I.I.~..X4X`..X^.+X+X+X+X.X^.^..XI.I.I.I.I.P.B.N.9.2.9.z.z.v.v.v.d.q.q.d.z.c.9.x.(.@X_.!.C.b.b.s.0.8.5.0.s.0.s.d.v.N.U.I.V.d.d.d.h.x.z.d.9.9.j.z.N.z.d.9.8.9.d.z.N.N.d.d.W.U.U.P.B.N.L.U.oX^.^.^.(.).+X).).(.4X@X`.>X>XW.>XW.W.B.z.B.`.`.`._._.).).>X_.).`.N.B.C.A.Q././.Q./.oXW.P.B.x.x.P.E.U.(.oXW.Q.@X X_.+X@XW.B.x.W.OX>XC.B.+.q.k V o.+.1.q.q.q.q.q.s.d.z.x.z.d.s.d.x.N.B.N.d.N.B.9.H ;.X.X.2.k.x.k.u.g.p.x.g.P.P.Q.P.d.p.3.2.,.;.>.2.d.U.OXOXU.P.P.U.U.}.P.N.g.p.x.d.z.x.x.N.z.x.x.M.2.;.2.6.q.q.6.;.q.6.O.O.+.6.6.q.z.L.U.N.x.N.L.x.P.P.x.x.x.P.Q.E.P.P.oXoX}.+X}.oX}.T.L.L.h.a.a.d.a.9.8.8.8.2.8.8.,.8.p.2.=.X.X.=.=.*.*.=.>.8.U.,X>XN.p.c.B.d.9.a.8.B.E.I./._.(.W.W.).J.k.k.W.Q.x.P.G.x.x.P.T.P.L.h.L.E.P.L.Y.R..X.X].oX.Xa.g.c.3.k.>.~ Q ~ =.a.g.P.x.L.P.P.P.P.L.E.P.P.E.T.L.H.E.L.I.P.b.h.d.2.X.! ~ ! ! ~ ! ! =.! g.p.t.g.g.2.f.p.h.T.Q.Q.E.!.U.Q.Q.P.x.N.L.x.d.8.O.` _ _  .4.w.0.0.0.v.M.V.V.V.v.V.v.V.Z.v.V.Z.~.~.I.~.I.C.I.V.V.V.V.V.~.~.I.~.~.~.~.~.I.~.~.V.~.U.V.I.U.V.s.4.' ' ' V.oXoXU.b.R.I.I.^.^..X^.U.~.C.I.~.I.C.I.~.V.I.L.b.v.j.d.N.",
"I.I.I.I.K.I.^.^.+X+X+X.XoX^.+XoX(.^.I.I.~.I.U.I.N.N.d.6.6.d.z.z.M.M.N.M.d.z.z.N.z.z.z.B.W.U.N.z.v.v.s.0.s.8.0.8.0.s.s.s.b.b.v.v.d.a.d.d.z.c.z.z.s.d.x.M.x.z.d.q.8.9.9.s.d.6.q.P.U.U.I.B.N.B.E././.^.(.(.(.+X(.(.).+X_.+X>X>X<X>Xx.!.W.!.W.W.Q.!.).).).).`.).`.`.`.W.W.U.W.(.`.(.U./.U.B.N.N.x.P.p.d./.,X_. X@XQ.U._.>X,X_.W.B.B.B.C.V.M.d.X.} 6.6.9.q.M.d.q.q.d.q.d.z.d.g.z.z.N.a.N.P.B.N.M.2.K Q ! =.1.=.=.1.2.3.9.z.2.3.2.x.x.X.X.X.;.;.;.;.-.=.;.2.6.d.N.z.9.x.N.8.2.8.8.d.9.a.a.d.d.z.N.N.M.2.1.+.O.+.;.;.6.6.&.6.6.6.q.7.q.z.B.P.B.x.x.x.h.a.x.x.z.h.x.P.U.oXU.!.U.Q.}.E.}.h.t.,.,.t.t.a.s.s.a.p.8.8.8.2.8.2.6.9.8.;.<.=.;.=.=.,.;.;.2.j.L.,XP.d.d.h.a.8.a.8.V.U.L.P.U.Q./.(.).W.x.c.Z.x.k.x.L.P.x.N.U.Q.Q.D.G.K.L.]..X.X{.[.{.R.].Q.c.x.>.x.3.! ~ H ! 2.a.x.L.P.P.L.x.P.Q.P.T.E.T.Y.Y.Y.P.R.b.d.p.8.<.=.=.=.! ! ! L ^ ^ L ^ 2.>.=.p.a.a.h.a.h.G.P.E.E.E.P.P.P.G.g.g.x.N.z.s.} K `  .4.w.0.0.0.0.v.v.V.V.Z.V.Z.V.V.V.V.V.V.~.I.~.I.I.I.C.V.V.V.V.~.I.~.~.I.C.C.~.C.I.~.~.I.C.I.I.I.I.N.d.p.s.5.i.n.d.d.I.^.U.R.P.I.U.~.E.U.I.~.I.I.~.~.I.I.N.V.I.b.d.s.d.d.",
"I.I.b.b.b.K.~.^.^.+X+X.X.X+X.X+X.X^.V.I.U.^.U.I.B.N.a.6.9.z.z.z.M.M.M.M.M.M.N.N.B.z.z.x.N.N.z.z.s.s.v.0.s.0.s.s.q.s.d.s.v.v.v.s.a.z.d.d.d.x.x.N.N.z.z.z.M.M.M.z.d.z.q.9.a.9.a.U.W.U.U.B.L.B.U.E.~.^.^.`.(.(.(.`.>X).OX>XW.W.!.B.`.).).W.J.W.`.>X).).`.W.`.`.`.W.).(./.W./.(.(._.+X_._.Q.P.z.d.x.P.B.oX,X>X(.).).Q.(._._.>XW.(.B.M./.V.`.M.q.A +.q.d.M.M.q.q.q.q.d.d.d.z.q.d.z.N.M.N.N.M.z.d.2.Q C Q X.o.o.o.=.9.2.9.a.=.=.! 3.9.X.} X.-.;.;.o.Q Q K C Q ;.9.6.2.d.j.=.;.a.a.g.+.;.;.2.6.q.q.q.q.$.6.+.O.O.O.+.6.6.6.0.q.M.n.q.v.z.x.M.N.B.z.d.d.a.z.x.N.z.x.x.d.d.8.u.=.=.2.t.h.Y.a.>.=.2.8.a.a.s.a.9.8.8.8.8.8.8.8.8.8.6.8.2.;.;.>.2.2.2.;.,.3.P.x.a.a.p.9.a.a.5.L.I.L.W.(.(./.W.(.(.W.U.B.A.x.k.x.!.B.x.c.h.p.b.K.L.]..XXX.XXX.XXXoXoXoX2.g.k.3.3.3.~ ~ ~ +.=.a.N.B.P.Q.U.x.L.E.Q.}.E.!.Q.E.P.N.s.8.5.=.X.*.2.=.X.! ~ H ~ ^ ~ =.=.^ ! ! ! ! ! 2.2.2.a.d.h.d.p.t.u.p.3.2.p.a.d.8.` S _  .4.n.0.0.7.0.n.v.V.v.v.V.V.v.V.V.V.V.Z.C.I.I.~.I.C.I.I.I.I.~.I.I.~.I.V.C.~.~.C.~.~.~.I.V.I.~.I.b.h.d.d.5.0.n.b.s.0.v.I.R.U.I.I.U.E.~.^.U.~.I.~.~.I.U.I.N.b.I.b.d.s.s.s.",
"V.I.I.b.b.b.I.^.^.^.+X+X(.^.^.(.^.~.I.I.I.U.U.b.U.N.a.9.a.z.N.z.M.M.M.M.M.M.M.N.N.x.z.z.x.N.x.N.v.s.v.v.v.v.v.v.v.N.M.z.v.b.v.s.d.z.N.N.z.z.N.B.B.B.N.M.M.M.M.z.B.B.z.d.z.9.z.U.U.W.U.P.B.P.U.I.I.^.^.^.W.(.(.(.(.U.(.(.!.W.>X!.Q.(.W.W.B.W.>X>X).).`.`.W.`.`.W.(./.`.(.(.`.(.W.(.W.(.(./.E._.@X>XOX+X@XOX(.(.>X_.`.Q.W.W.(.>X).C.`.M./.V.M.} X.d.M.M.q.q.0.q.0.d.z.z.z.z.z.z.N.C.z.d.z.B.z.;.K ~ H Q ! o.1.1.2.7.8.7.1.1.+.1.o.6.O.} X.+.o.} Q Q } } A Q | +.;.6.8.+.9.q.9.6.} o.} | +.1.1.+.O.+.$.6.6.$.$.+.4.6.6.6.6.q.7.q.M.d.a.g.N.N.x.d.z.d.s.s.x.N.N.d.8.d.x.B.9.=.;.a.P.Q.L.a.2.9.a.a.9.q.q.a.a.9.p.9.9.a.8.8.9.a.9.6.2.,.1.2.t.2.2.;.;.;.3.a.p.p.a.d.j.8.d.d.b.(.@X(.W.W.W.W.`.`.W.W.>XJ.x.N.x.L.P.P.!.L.K.]..X[.R..XXX[.%X#XoXoXN.2.x.1.3.c.@.o.! ! o.Q d.P.N.I.N.x.Q.L.U.P.N.L.E.T.x.i.;.,.4.;.=.=.;.2.! P H H H / =.H H ! *.^ *.=.^ =.*.*.^ =.=.*.*.=.=.>.o.=.2.8.6.4.P Z ` -.8.n.4.0.0.q.v.v.v.v.Z.V.v.V.V.v.V.V.V.I.I.I.I.I.C.V.V.V.I.I.I.~.~.^.b.~.~.~.I.V.I.V.V.I.U.I.V.b.s.q.j.s.s.b.K.R.b.d.d.N.B.U.U.^.^.U.I.I.~.~.~.~.~.I.I.N.V.L.b.d.s.p.s.",
"b.b.b.V.V.b.K.V.I.R..X+X4X^..X^.^.R.I.I.I.V.V.b.B.z.q.9.z.z.N.z.z.z.z.Z.Z.M.N.N.B.z.z.z.z.x.N.N.N.N.M.z.v.v.M.N.z.M.z.d.d.z.d.d.z.z.x.x.z.z.Z.P.C.B.N.M.M.z.k.z.M.N.z.z.N.z.z.B.W.W.U.B.P.U.I.N.I.^.^.U.~.^.(.(.).Q.>X!.k.>X<XA.3.3.k.J.U.W.W.W.W.W.W.W.W.`.W.`./.Q./.(.(.`././.(.W.(.).Q.W.@X&X@XoX).<X>X).(.).Q.(.`.).).`.`.`.(.`.z.N.U.z.2.9.d.z.z.d.s.q.9.9.d.d.z.z.z.z.N.z.N.z.N.B.N.;.K V ~ H A Q o.1.+.o.6.7.3.7.@.@.+.+.+.} } | ....} Q ] ] } A A E E Q ~ ..} 1.1.o.o.E | } | | +.&... . .#.&.&.6.$.+.O.$.+.;.&.6.;.6.9.s.9.a.N.N.x.d.d.9.8.a.z.x.N.d.9.q.z.z.1.X.=.1.c.c.a.8.6.9.a.9.9.a.9.q.a.9.a.9.p.a.9.8.8.a.9.6.2.2.2.;.2.6.;.,.2.=.8.g.a.9.p.a.a.8.p.8.s.N.U.U.Q.W.A.B.U.Z.z.B.!.U.k.a.x.!.U.P.T.R.Y.R.]..X.X.XXXXXXXR.XX<XyX=.3.3.3.o.~ ~ ~ ~ ~ =.o.q c z.(.N.z.x.x.c.p.a.G.L.h.X.-.O.-.2.8.2.<.H ~ *.! b F H v c v P ! P H P K ! ! ! Q P ! ! ! ! ! ^ ! ;.;.;.=.` _ _ O.4.5.n.n.0.0.n.v.v.Z.v.v.Z.v.v.v.V.V.C.C.I.I.I.C.I.V.V.I.V.I.I.V.b.~.b.b.V.V.I.V.V.V.I.V.I.V.N.b.b.d.s.s.b.s.s.b.V.N.b.b.s.N.V.U.U.U.I.I.I.C.~.~.I.C.V.V.N.N.L.b.b.d.s.s.",
"b.b.I.I.I.V.b.b.b.I.^.`.^.(.+X+X~.~.R.I.V.b.V.b.z.a.9.9.z.z.z.z.z.z.z.z.N.Z.B.z.z.x.B.x.x.z.x.z.M.M.z.M.d.M.z.z.M.M.N.z.z.M.M.d.g.z.z.z.a.z.z.B.B.A.B.B.z.z.q.k.z.M.z.N.B.B.B.C.P.W.U.P.U.E.U.z.V.^.^.^.U.^.(.Q.`.<X>XJ.3.3.B.3.o.! 1.8.x.x.B.B.W.A.>XA.).).`.`._.`.`.W.W.`.).).9XQ.).).N.d.B.B.OX>X XQ.).>XW.>X(._.<X>X`.Q.W.!.`.W.U.z.x.o.o.z.d.z.q.d.d.d.s.q.9.9.q.d.z.z.N.N.z.N.M.8.} C C K P Q ! ~ ~ X.o.o.+.7.$.$.] | | @.| ] } #.@...Q E E B N M A ] E W C E Q E A N Q } Q ] } } ........+.....#.$.6.$.@.+.+.6.7.6.6.;.6.a.9.d.d.d.d.a.d.a.d.z.N.z.a.a.d.B.z.z.1.+.3.=.=.2.6.9.9.9.9.q.q.9.a.a.s.a.q.p.8.p.9.8.6.8.8.2.;.6.2.,.6.2.;.2.8.2.8.a.8.2.3.a.d.s.d.d.5.8.6.z.(.W.B.x.x.z.k.k.B.U.c.3.c.P.x.x.G.E.L.D.R.%XXXXX{.[.[.].XX}.,XC ~ o.~ ~ E c c b c 0 A C q c C ! 2.;.1.=.! ! =.,.=.X.*.X.X.o.8.2.o.>.=.H . R 2 L H v C H Q P H H ! H H P ! H ! X.=.! ! Q ~ X.=.! K _ G ` -.-.4.5.0.0.n.n.V.V.v.v.V.v.V.V.V.C.C.U.~.I.C.C.I.V.I.K.V.V.I.I.I.I.^.b.n.0.v.V.V.V.C.I.I.N.v.s.j.d.d.j.0.0.j.v.v.v.b.V.I.V.N.N.V.V.I.U.~.~.I.I.I.C.V.b.b.V.N.N.N.b.h.d.j.",
"b.b.V.b.I.I.b.b.K.I.I.~.^.^.^.^.^.^.U.I.I.I.b.b.z.9.9.z.z.z.z.z.Z.z.z.Z.B.N.Z.z.z.B.B.z.z.z.x.x.z.M.M.M.M.M.M.M.M.V.M.M.M.M.M.M.z.z.z.z.z.z.M.N.B.B.A.B.M.k.z.M.M.B.Z.N.U.W.C.W.U.W.U.B.U./.U.d.v.I.^.~.~.~.^.I.z.z.z.k.3.3.3.3.9.1.o.=.3.k.x.B.A.W.>X>X>X>X>X`.`.).(./.`.(.).).Q.N.U.`.x.d.N.x.(.>X>XW.).).).<X_.>X).W.W.W.(.>XW.`.(.C.z.A V 6.z.d.d.z.z.z.d.q.9.a.a.q.z.z.z.d.z.a.8.Q c v K =.~ o.+.o.o.~ ..+.o.6.$.$.] { W [ ..{ ....+.{ E B E B y y B ] ] A E E N E B M E } B B E E ] ]  .#.#.#.#.&.$.$.6.6.4.$.q.q.s.8.2.1.6.a.d.a.a.9.g.d.d.a.d.z.M.d.9.9.k.k.9...X.1.o.X.2.a.a.9.9.q.q.q.9.9.9.s.9.q.9.9.8.9.6.2.2.6.2.8.8.6.8.8.8.8.,.9.2.2.,.2.2.8.a.h.j.v.d.p.p.,.a.W.W.B.z.Z.z.z.Z.B.W.z.l.=.2.x.Q.$XL.D.L.E.XXXX{..XY.XX.X].Y.=.b ~ ~ ~ ~ ~ ~ b c b M } } N k c M V V v k k h v v V -.O.X.X.X.o.X.Q b b ~ b D F ~ h 2 h k V X.Q C ! ~ P ! ! ! X.=.! Q Q Q A K ! Q P _ Z _ 4.-.4.0.0.0.n.v.v.V.v.V.V.Z.b.V.~.C.~.U.C.I.V.I.I.I.V.I.V.V.I.I.b.b.~.I.s.8.s.N.V.V.I.I.I.s.s.0.p.j.s.p.9.4.s.v.b.v.v.v.M.V.V.V.V.b.V.C.~.I.C.C.C.V.N.N.M.b.b.b.N.N.h.v.d.",
"b.b.b.b.b.b.V.I.b.b.b.b.I.^.~.^.^.~.I.I.~.~.I.b.z.z.z.N.x.z.z.z.Z.z.z.z.Z.N.Z.z.B.B.B.B.z.x.B.B.z.M.N.M.N.N.N.M.N.Z.N.M.z.d.M.v.z.N.x.N.Z.x.N.B.z.A.W.C.Z.M.M.M.B.B.N.N.C.U.B.B.U.U.P.B.U.^.U.d.-.v.I.~.^.^./.C.W.z.z.x.B.3.~ 7.;.=.o.3.l.c.k.z.x.A.A.`.A.W.`.`.`.`.(.`.).(.(.W.(.x.U./.d.9.j.3.2.(.>X(.>X<X(.).).(.(.(.).).).`._.`.W.).B.Q c o.q.q.d.z.d.d.s.s.s.q.d.d.d.9.p.6.6.1.o.A A } X.} X.~ ~ ~ o.o.+.o.@.%.@.7.@.%.W y ] ] W ] E W B W B E B N y B B A E A M E A N W N N E ] ] B ]  .+.{  .$.$.&...+.$.+.$.6.q.6.6.+.2.,.9.a.8.6.9.d.d.6.X.! 1.N.B.d.1.6.9.z.1.! X.o.2.9.9.8.2.6.q.q.s.9.9.s.9.9.9.9.8.8.8.6.8.2.6.6.8.<.,.a.d.j.8.9.p.9.8.8.a.d.p.a.a.s.8.8.q.h.s.3.k.x.z.z.Z.B.N.x.z.c.!.!.9.! ! ~ H j.K..X%XXXY.{.%XXXXXK.K.!.b =.~ ~ ~ ~ =.o.~ ~ 3.6.6.;.} Z } o.P A H A K H V K ! ;.-.;.2.>.H G H ^ x v ^ 1./ >.a.B.W.N.U.OXB.=.=.X.X.X.X.X.=.X.~ ! ! ! Q P Q X.X._ _ ` 4.4.5.n.0.8.0.n.V.v.Z.v.V.V.V.C.C.C.C.B.B.I.I.I.V.I.V.I.I.I.U.I.V.I.U.V.s.q.V.I.I.I.I.N.N.s.s.9.0.9.p.8.8.v.s.s.n.j.v.v.v.b.N.N.b.b.v.v.v.V.V.b.v.v.v.s.j.b.b.d.v.b.N.b.v.",
"b.b.b.V.N.B.N.N.d.d.z.N.x.N.C.I.~.U.I.I.V.b.b.b.b.V.b.N.x.z.B.B.N.N.N.N.N.N.N.V.v.v.v.v.M.v.M.b.V.V.N.b.V.V.V.V.b.N.b.v.b.M.b.v.z.N.N.N.M.N.M.b.v.V.U.V.I.C.V.b.N.V.V.b.V.U.U.I.~.I.V.I.~.U.I.V.1.1.z.B.B.B.A.B.Z.M.m.M.6.| | @.+.1.1.o.6.s.M.q.8.M.W.C././.`.`.<X`.(.`.<Xx.z.8X).W.W.U.x.z.a.9.~ u.,X>XOXW.>XW.).(.).<X>X(.(.).Q.W.>XZ.3.l.3 8 k.z.q.9.N.5.b.5.s.s.b.b.s.s.5.<.8.O.A A } A E | o.o.o.o.@.o.=.o.@.o.o.@.~ | ~ W W E E E ] E B W } E N y y B B W B B C B A B B C B A E E E [ ..1...@.$.@.@.$.6.6.$.6.w.7.6.@.7.k.;.2.1.2.a.x.z.2.=.1.1.! =.x.z.! 1.6.8.;.X.X.-.8.8.0.p.0.5.8.8.5.8.9.9.9.9.9.9.a.;.=.;.8.9.8.2.6.6.8.s.b.v.0.5.5.5.5.p.0.i.i.s.j.s.g.d.a.d.d.d.z.x.N.B.C.B.N.B.W.B.B.L.x.c k g = H ^ x D oX#X[.*X,.^ I v H ! =.o.1.7.1.1.o.~ ~ o.7.1.o.~ ~ Q } } X.;.1.X.Q ~ o.;.X.X.1.=.~ F F v b ^ 2.J.c.3.2.p.P.P.c.2.9.c.k.3.g.6.=.o.+.;.=.! ~ ! X.X.Q P Q o.X.;.6.a.d.s.a.a.q.9.z.B.N.M.N.A.N.B.U.U.U.B.B.B.V.I.R.I.I.V.I.I.I.V.V.V.I.C.V.V.~.V.B.B.I.B.z.9.p.s.d.d.a.p.a.a.q.d.z.N.z.z.z.N.M.N.N.N.M.d.d.z.v.v.b.v.v.V.b.v.V.v.b.v.V.v.v.v.",
"v.b.b.n.N.B.B.B.N.B.N.N.M.N.B.N.V.b.b.b.b.b.v.v.b.b.N.b.z.x.N.B.N.M.M.N.V.M.M.V.N.N.V.b.N.V.N.V.b.N.V.I.I.I.I.I.N.N.V.b.b.N.b.b.N.N.b.v.M.v.v.v.b.N.V.C.I.C.N.v.v.N.V.N.b.V.I.b.C.I.I.I.U.U.V.V.x.9.9.9.7.9.z.z.Z.M.k.k.%.@.#.7.k.9.1.o.| ;.q.d.8.q.n.M.A._.`.U.`.).).Q.>XB.3.Q.OXx.3.=.! =.1.9.=.o.9.U.>X>X>X>X).).).).`.OX(.).).).>Xz.l.l.~ ~ @.M.q.q.b.p.b.i.5.j.s.0.5.0.0.n.O.K C A } } } | o.o.o.o.o.o.o.@.~ o.o.@.+.o.o.} ~ E W E E E E E E B N M N N B N N B B B B C C W B E B N C E | @.#.@.@.+.+.$.7.7.6.w.w.7.$.1.6.7.6.6.3.1.1.9.3.@.3.2.o.Q ~ o.X.H o.X.O.O.-.;.8.8.8.0.8.8.8.i.8.8.9.9.9.q.a.8.6.8.2.;.2.6.8.,.;.;.;.8.s.d.s.s.p.5.5.0.5.0.0.s.s.s.a.d.a.d.d.a.d.s.P.x.d.B.Q.U.x.9.Q.x.2.V . o - O 9 2.! v x '.1X*.F P ~ H H C Q ~ +.1.7.2.1.1.3.9.9.6.7.8.6.6.1.o.o.o.o.o.| ~ ~ X.>.1.;.2./ ~ L L / / t.u.3.2.3.c.k.B.Z.9.1.3.8.a.8.3.1.2.2.3.3.1.1.,.;.;.X.K Q X.o.;.2.9.s.d.a.d.s.a.d.N.U.B.P.C.z.z.N.N.N.M.N.Z.U.I.I.I.V.L.I.V.I.V.N.N.V.V.C.C.C.I.U.W.U.B.d.p.8.8.9.p.9.a.a.d.9.a.9.a.q.a.q.s.N.z.z.N.M.z.z.z.n.v.b.n.v.v.v.v.N.v.v.v.v.v.s.v.",
"v.v.b.v.z.z.M.N.M.x.z.z.d.z.z.d.b.j.v.v.v.v.v.b.h.z.N.N.x.Z.x.B.v.M.N.M.N.N.N.N.V.V.N.V.V.V.N.N.v.M.N.C.I.V.V.V.b.v.v.b.N.v.N.d.N.N.N.b.N.b.N.b.N.b.M.I.~.N.b.b.s.v.b.v.v.v.b.v.b.N.B.B.V.V.V.V.B.z.z.9.1.1.6.@.m.M.m.w.7.$.6.7.9.6.;.Q A X.8.v.q.q.8.q.V./.`.U.(.(.).W.W.x.3.x.P.9.o.~ ! ~ o.;.Q v h ! k.!.).OX).<X).).).<X).W.`.A.A.l.m.l.%.l.{ k.9.q.s.b.s.s.s.0.0.j.s.0.8.0.Z M M A ] } | o.o.o.o.o.o.o.o.o.+.o.o.o.+...o.....| [ E W A B W B B B N N y N e N N M N B B A B E E N N N E } | | @.$.@...@.$.%...@.@.........#.1.7.8.1.o.1.1.o.1.X.} ~ X.Q } +.o.X.} X.-.6.8.8.0.5.8.8.0.0.i.8.8.8.6.8.8.6.2.+.+.;.;.2.;.-.=.-.-.0.j.v.s.s.j.5.5.5.s.0.0.i.s.s.a.a.a.a.a.9.a.p.U.B.I.W.W.B.x.d.2.K P +.W.>Xv.O ! v o *.p d ! ^ P =.2.1.=.o.+.1.1.6.8.6.2.1.8.8.2.8.9.9.9.9.2.1.6.;.;.3.6.X.X.o.;.=.=.=.~ I F F r.3.t.2.2.3.9.z.3.N.B.9.8.1.2.9.1.2.1.1.9.a.9.9.2.1.,.X.K K } +.2.1.;.6.9.a.d.a.9.9.9.s.N.C.C.z.9.z.z.N.N.N.N.M.I.V.V.V.V.I.I.V.N.N.V.N.b.V.V.I.M.V.C.N.d.9.6.2.p.q.9.9.8.8.a.a.p.8.8.9.9.9.9.9.d.9.9.z.N.z.z.d.n.v.j.0.s.v.v.v.v.v.v.v.v.s.0.s.",
"v.Z.v.v.z.z.d.9.9.9.q.s.q.d.d.v.b.v.b.v.b.b.b.b.z.N.N.N.B.z.x.z.N.N.M.N.N.V.V.B.V.V.V.b.b.v.V.v.v.N.V.V.C.V.b.b.V.V.v.N.N.v.v.N.M.d.b.B.I.V.N.V.N.d.d.B.I.V.d.d.0.v.N.v.v.v.V.b.v.v.N.N.b.b.V.I.W.W.).).B.z.w.1.q.q.q.7.@...#.@.o.o.} K } +.q.q.M.M.M.q.9.q.M.W.B.W.(.B.B.B.k.z.3.o.=.o.X.X.X.~ H o.C A ~ z.B._.>XW.`.>X>XW.).).W.>XA.Z.A.~ W W B q.7.q.s.b.i.j.b.i.5.b.b.0.` _ C c e C A } } | | o.o...o.o.@.#.o.+.o.+.o.o.o.o...#.} E B N N N B N B N N N N N N N N M M N B E B C B A E Q W E ] ..$.$.@.......] E } { { | | ..+.1.8.6.3.1.1.} } E Q } } ~ +.8.6.-.X.O.;.4.4.4.8.8.8.8.8.8.0.0.8.6.6.6.9.8.6.-.o.o.+.2.2.1.=.X.-.5.0.0.s.s.0.5.5.s.s.j.s.s.s.p.p.a.a.a.9.a.9.9.x.B.W.Q.U.d.9.8.;.X.6.@.M.V.V.A } `.C c h =.*.P >.=.=.1.1.8.8.1.7.q.q.8.1.1.2.2.z.9.9.8.8.1.7.2.7.2.2.8.6.8.2.1.=.;.=.! L b z F >.3.3.,.8.9.g.9.9.z.9.8.9.k.3.1.6.1.1.3.9.9.8.1.;.;.! Q K ` +.8.6.6.;.;.2.9.8.9.9.s.9.9.z.U.W.N.9.9.z.Z.Z.N.N.N.N.b.b.N.C.I.I.I.I.V.I.I.I.C.I.I.C.C.B.d.9.6.8.9.q.a.a.a.9.p.9.9.9.9.6.9.9.d.q.9.9.1.8.9.z.z.d.q.j.v.v.q.q.s.v.0.v.s.q.s.0.s.0.0.",
"v.q.q.d.N.M.z.9.d.d.d.z.M.z.N.M.v.v.j.s.v.d.h.d.N.N.N.B.N.x.z.x.M.N.M.M.M.B.B.B.C.B.B.B.V.N.N.M.M.B.B.B.B.C.B.B.C.N.N.N.B.M.M.z.9.s.N.B.I.N.z.B.x.z.N.x.B.P.N.9.q.d.M.M.v.M.v.z.M.M.M.M.z.N.A.(.W.W.).W.z.9.q.9.m.k.6.+.] ] } } +.O.X.X.6.0.8.+.6.M.N.M.6.;.0.M.z.Z.W.z.N.B.9.9.;.Q H Q Q ~ X.~ Q 8.+.~ C @.8.W.>X`._.>X>XW.W.>XA.A.A.A.A.W r y B 7.7.q.s.b.j.j.s.5.0.j.s.` S k C S M A W ~ } o.o.o.o.o.+.+.o.o.+.+.+.+.o.o.| | | | | E E E W B N B B M B M B N N N N M N N B A B N B E E E Q E E ..$.$... .{ ] ] ] E ] | ......| +.@.@.1.6.@.| E Q E E E } } o.1.;.+.X.+.+.6.6.8.8.9.8.9.9.a.9.q.7.6.6.9.6.6.+.-.+.;.6.8.;.} C J ` ;.8.0.s.9.8.j.d.v.d.j.s.s.s.a.a.a.d.d.d.d.d.a.q.d.N.d.2.K c < M M.m.M.w.Z.w.| `.$.O.M.2.+.q.2.;.=.1.9.9.8.7.6.q.q.q.8.6.8.9.z.d.9.8.8.9.9.9.6.6.6.6.6.9.6.<.;.=.^ H b z H ~ =.3.p.9.9.z.9.2.9.k.1.1.9.z.6.2.8.1.6.6.9.9.3.1.2.=.Q K K o.6.q.6.6.+.O.+.;.;.=.8.9.8.8.q.N.W.C.d.z.M.M.M.M.Z.Z.V.N.N.V.N.N.b.v.N.I.I.I.I.N.b.N.M.d.0.6.6.6.8.8.6.8.9.9.9.6.9.9.8.8.6.a.s.d.6.6.1.2.1.9.z.z.d.d.v.v.v.s.s.v.v.v.v.s.s.s.q.0.s.0.",
"6.8.8.9.z.N.N.z.z.z.M.z.M.M.z.z.b.v.v.v.d.v.d.d.z.N.B.B.B.B.x.Z.N.B.N.d.d.N.C.C.B.V.B.B.V.N.C.V.N.B.B.B.B.U.U.W.U.N.M.N.B.z.s.d.a.a.z.P.I.N.h.N.d.N.N.N.B.W.B.a.d.z.M.d.v.M.M.d.z.d.z.d.d.z.B.W.B.W.A.B.9.1.6.@.k.7.+.] N B E | +.X.} o.8.q.q.+.6.6.M.M.M.q.0.7.9.9.Z.z.k.z.+.~ ~ A E Q K E } } } o.~ } A C ~ 9.3.@.1.k.7.o.o.6.l.%.l.A.A.#.r y B | 7.d.8.b.s.b.0.0.s.8. .n S A Z C A A } | o...o.| ..o.o.o.o.o.o.o.o.o.o.o.o.| | E | | } } ~ Q A B B M N N M B N M M N N N B A C N N N B E ] } { ....{ { { { { { ] ] ] { { { { +.| } ....@.@.| E } ~ E E } Q A } } } | O.O.;.4.8.8.9.9.9.9.8.9.6.6.&.+.+.+.| } o.o.O.X.X.} H c V Z ` 4.s.0.p.s.v.b.N.h.b.j.j.j.d.c.z.x.x.B.x.N.z.j.9.;.Q V v M 7.z.C.Z.C.Z.Z.n.8 A q.7.M. .6.+.;.8.a.d.a.8.9.9.6.q.q.0.6.;.2.6.8.8.9.a.9.9.9.9.;.8.s.9.a.q.2.X.=.~ H b z F =.a.2.a.9.9.8.9.9.6.3.9.2.1.6.6.2.9.8.8.1.3.8.p.a.9.6.+.P C Q +.6.0.6.+.o.o.X.X.X.} X.+.+.+.+.6.M.V.M.M.B.M.M.M.V.V.V.C.V.V.s.0.5.;.9.0.s.d.s.8.8.5.6.&.&.6.8.q.8.6.q.s.d.d.9.8.8.2.6.6.8.6.8.6.2.2.6.2.6.9.d.d.z.z.n.s.v.q.v.v.v.s.q.0.v.q.0.0.0.0.",
";.6.4.8.6.a.M.B.z.N.M.M.x.z.d.d.N.v.b.v.N.v.x.Z.N.N.B.B.B.N.z.x.N.M.M.q.q.M.V.V.B.V.V.V.V.V.B.V.A.N.V.B.C.C.U.A.V.n.q.q.d.6.6.9.9.2.8.d.N.N.N.N.z.N.B.B.U.U.B.N.d.d.q.M.M.V.N.M.q.M.M.d.q.d.M.V.A.W.)._.C.z.9.1.6.| ] ] A B E ~ } Q } +.8.q.0.6.;.6.6.M.M.q.6.6.9.6.q.3...o.Q E E Z Q | Q E Q E o.Q } } ~ C | 6.6.@.1.6.7.9.6.7.%.#.l.m.m.%.r y B y 7.d.s.d.b.b.j.q.0.O.Z n Z X.Q } ~ } | +.#.| o.o.o.o.o.+.o.@.o.| o.| o...o.| } | | | } ..| | E ] E E M N N N N N N N N N B Z B C N N N B E } { ..{ { { ..#.{ { { ] ] ] ] ] ] | } E E } ] } | E } } E E ] ] ] A A E ] } X.O.+.6.6.6.6.6.6.1.1.+.+... .} } } } o.O.| A C Z A K ` V J <.s.s.p.d.b.N.N.b.b.h.d.b.x.x.x.G.B.N.B.L.N.N.9.=.P H =.s.M.B.Z.V.M.m.w.M.t O $.M.q.| 6.1.o.;.8.q.6.+.@.1.6.q.q.8.4.+.+.;.;.2.8.9.a.9.a.a.8.2.8.6.2.+.X.K ~ H F F H ~ 2.a.3.3.8.1.3.6.6.7.1.8.8.1.9.2.2.q.3.6.9.8.9.9.9.9.,.X.K A o.6.8.+.&.+.+.;.o.X.X.! ! } Q } } } +.8.q.d.M.N.Z.M.V.V.M.V.V.s.6.<.;.<.<.6.8.;.-.*.+.;.6.6.6.7.q.q.w.q.q.9.8.6.;.o.=.;.=.;.;.;.;.;.1.2.8.8.8.8.a.a.9.d.0.s.v.v.v.v.v.s.v.s.s.0.8.8.4.5.",
"8.8.6.2.;.;.d.N.M.N.N.N.M.z.z.d.v.v.v.v.v.N.Z.N.N.B.B.B.B.x.B.B.M.B.M.6.8.M.Z.M.N.Z.B.M.Z.B.M.Z.C.V.V.B.B.M.M.M.M.7.4.6.8.6.+.+.+.K Q 2.d.N.z.z.N.x.N.W.Q.B.B.P.q.q.q.d.Z.W./.C.M.M.M.M.M.M.Z.B.W.A.W.`.A.M.k.@.A N A | | B B E A X.6.9.q.6.6.8.6.4.4.6.;.O.;.6.k.@.1.| V Q E ~ ~ E Q } C N Q ~ E A ..C b E 6.~ @.6.6.6.z.A.C.k.l.l.l.A.m.l.r W N 3 6.d.v.d.N.v.s.0.X.C V S A J | o.+.@.@.+.| ~ | o.} ..o.+.+.o.o.o.o.o.} ~ o.| | | | } } } } | | ..| } E B M B N N N A N B N N M W E E C B E ] ] ] { { ..$...{ ] { { { ] ] ] { W E ..} ] [ } | ] E [ E E B A { ] A A E } } | } +.+.+.2.1.;.o.o. ... . .} | | +.O.+.o.A M K X.6.0.` J 5.v.0.0.b.b.h.N.b.h.b.h.N.x.x.B.N.x.N.N.N.N.a.2.6.9.z.N.B.V.N.6.k.k.M.M./.A O &.6.q.7.6.1.6.2.2.8.6.;.2.6.8.9.9.9.6.;.2.6.2.6.8.9.9.d.a.d.2.X.! ! K V A P ~ H L ~ >.=.=.X.;.2.7.7.6.@.6.9.8.8.1.1.d.9.6.8.7.6.9.p.9.9.9.9.=.Q H Q 6.M.m.6.+.6.6.6.2.+.=.X.+.X.X.X.} A Q o.X.+.6.q.M.M.M.M.0.v.s.0.4.O.4.6.5.8.4.<.-.-.<.8.$.+.+.O.+.+.+.+.X.} } K K Q X.o.K K P P K ~ ;.2.p.8.8.8.6.2.6.a.0.s.v.s.q.v.v.0.v.v.0.0.8.4.4.;.",
";.;.2.1.;.1.6.9.z.x.N.N.N.z.x.z.v.d.M.M.M.N.N.N.P.B.x.A.B.B.B.B.Z.z.z.9.9.9.m.B.Z.M.C.C.z.z.Z.z.m.Z.B.Z.8.@.@.o.o...~ E M N c M H C A H X.z.U.z.B.z.z.z.z.Z.k.z.q.q.k.z.M.M.C.C.M.M.m.Z.M.k.q.M.z.k.Z.B.q.M.z.@.} #.@.1.E C N N } 6.q.6.6.8.6.6.6.6.6.6.4.O.| K Q E E A A W } ..@.| } E E Q E E E C E E M r q +.7.@.6.6.+.k.A.M.l.m.l.m.l.l.E y W r b @.z.d.d.b.0.O.Z h c } +.+.1.+.@.o.o.#.#.o...| ........o.| | | | +.| #...+.| ..o.o...o.| | ..| +...| E E C N M M B C B N N B A B B M B E E ] { { ..#...{ ..{ { { { ] ] ] W E [ ] [ { ) B B B ] ) ] W B ] B ] E A B B E E E Q | @.+.} | o.} } ......O.+.+. .} C q M A +.6.6.d.! G 1.z.9.a.N.N.N.x.x.x.x.L.P.x.L.L.x.B.L.P.N.N.8.2.q.N.d.d.M.N.d.8.d.d.d.P.N.Q C Q 1.d.q.7.6.8.8.8.0.0.8.0.8.s.8.8.6.4.4.<.5.8.<.;.,.X.G J -.P J J J K P K K ^ h G ,.X.*.;.o.2.2.6.9.6.6.6.6.9.8.8.a.9.2.3.8.6.1.2.6.9.2.P k K 0 9 =.C.V.M.z.q.n.9.6.;.8.9.,.;.1.2.;.X.K Q ! K o.=.o...2.6.2.+.4.4.4.<.+.4.5.4.6.5.5.,.<.;.-.6...E A } } Z S C Z A Q X.| Q A c C Q K C H Q ! ;.6.8.2.2.8.8.2.8.0.n.v.v.v.v.v.v.s.s.8.4.;.4.4.",
"1.1.2.1.;.;.8.9.z.M.N.N.Z.z.z.M.v.v.M.d.M.M.M.N.Z.B.Z.J.B.z.z.x.z.z.k.k.7.9.z.M.C.M.z.z.z.Z.C.z.B.7.1.1.@.} } Q c q w 0 c M C C C M A c c c ~ A c c C Q =.z.x.B.`.C.B.A.`.A.A.B.k.z.z.z.M.M.k.k.z.q.Z.Z.z.k.k.1.| | @.@.E N C E ;.6.0.6.+.6.0.8.6.8.6.8.6.4.+.+.~ E E Q } +.@.1.@.@.@.@.@.+...~ ..E E E ~ B 8 M | ~ $.7.@.q.M.$.m.m.%.l.k.l.[ E W b N E o.-.X.X.A S m V E +.;.6.+.+.o...o.o.~ #.o.o.o.+.o.| | | | o.| +.o.+.+.o.| o.| ......o.| +.+.o...} } E E E B B N N N B N B A E B B C E [ { { ....#.#...{ ] ] { ] ] W ] ] W W E E ] A B B B B B ) ] ] ] ] ] A W A E B E E A E Q } } } o.| ..&.$.6.6.+.| E Z C Z A X.;.8.9.8.X.Q ;.d.d.a.d.d.d.N.N.N.N.N.x.x.N.B.B.B.N.d.8.2.6.d.N.N.z.N.P.P.B.z.N.x.d.N.g.1 v ! X.o.2.8.9.q.8.4.4.8.9.5.-.` <.4.<.P V S K k 7 o = 9 g j 0 V V G V V x 9 4 2 : v 2.,.=.8.;.6.1.1.;.;.6.6.6.a.6.8.d.z.d.d.z.2.2.2.=.Q C C H k k V Q C e Z 1.q.q.q.6.8.8.d.d.9.9.q.9.6.;.o.X.C H K H P o.2.6.5.5.4.;.;.;.4.5.;.<.-.X._ ` ` _ S A ] K C c k e C X.;.} c 0 h V V H P K C H K P o.=.;.;.2.6.8.6.4.8.0.0.0.0.8.0.0.0.8.4.O.-.;.;.",
";.1.1.;.;.1.2.9.z.z.z.z.z.N.z.N.M.M.z.M.M.M.N.Z.B.B.A.B.Z.c.l.k.z.z.z.z.k.k.k.z.Z.k.k.z.Z.z.z.l.9.@.@.@.@.@.~ N e e e e q r e M b c c q 1 8 q q 0 M o.~ c e K 1.`.C.Z.Z.V.Z.Z.M.k.m.k.m.m.M.m.q.k.9.Z.V.M.q.7.@.} } @.7.E M B } 8.8.0.0.q.q.q.q.q.8.6.7.8.6.6.;.o.o...o.@.+.1.1.@.@.1.6.3.6.@.@.1.~ Q E ~ Q q w E A +.6.+.1.7.E m.%.#.%.%.7.[ ~ e W E b C } X.A S k N } 1.6.1.+.o.o.....~ #.~ @.| ..o.o...o...o.| | o.| | +.| +.o.......o.+.| #.+.+.| | | | } | E E B N N N E E B A E C B E E } ..........#.{  .] } { { ] W E ] B B B W W B B B B y B ] ] ] ] ] ] B B A A E E E E E W E ] +.@.@.6.6.6.@.+.O.} A A Q +.6.6.9.q.s.9.3.1.=.2.d.x.d.x.x.N.N.L.x.x.B.x.N.x.x.x.x.z.a.2.d.N.P.B.N.B.P.B.U.P.U.z.c.x.2.i # 2 h 9 c H ! V m n K O.*.J x g g j 9 4 - * o < < O - g j k j > 9 g x j g 9 f v z P ,.! X.2.o.6.6.p.d.9.9.8.8.8.2.;.-.=.X.P H ! } Q G h g v V c C ! X.V w 0 c 0 M X.a.d.6.2.;.2.2.2.t.d.a.8.;.X.X.X.Q V V H X.P O.<.;.,.5.<.X.<.;.X._ K Z J _ E K A } } Q } Q Q K c 9 2 q C X.K K H H H H K P P Q ! X.;.8.p.2.4.8.8.8.5.4.4.8.4.4.4.+.O.+.;.4.",
";.1.1.;.1.=.1.1.d.z.z.N.z.z.z.z.M.q.d.M.z.M.M.N.Z.B.Z.Z.c.l.3.3.k.z.z.Z.z.z.z.z.B.M.Z.N.z.z.k.6.| 6.w.1.o...| e r C } E B c N E N q w e e e c q M e M e e c w w m.A./.C.Z.Z.Z.A.q.z.k.k.q.M.k.w.z.q.k.A.A.q.@.| A Q +.k.E M N } 6.6.q.M.N.M.v.d.q.8.6.8.0.8.8.6.@.o.1.@.o.@...o.1.o.@.6.6.6.1.1.1.+.| C B E c C M b E Q E } o.C  .#.W [ #.$.~ E e C E b C | X.Q A S A +.6.;...@.+.+.o.o.#.o.#.o.| o.....o...| o.+.#.| o.o.| | | o...o.| +.+.+.+.| +.+.| +.| ....Q E E E C E E E E E E E E E } | #...#.....{ { { } { { { { ] ] ] ] ] ] B B W ] ] ] ] y ] E B W W ] ] B W W E E ] } | } Q | @.@.6.$.6.&.O.o.| Q A | ;.8.s.d.9.9.q.d.d.8.X.o.8.x.z.d.d.d.d.x.x.B.L.G.N.x.a.9.a.d.d.z.x.x.z.N.P.U.N.B.W.U.E.P.L.N.>.x = X = > X o 2 * O O - 9 g 4 , > * * * , 4 5 , V P -.*.*.` J n k z n V G J ` *.*.^ =.=.! =.-.X.X.+.;.;.;.<.X.X.,.1.;.<.X.X.! X.V z h h k k h h x v v v C c 0 O - w V o.2.;.2.a.d.9.2.1.,.;.=.! ! ! ! X.H V H ^ V P O.<.8.s.8.-.O.O.X.` J Z Z Z X.} A K } Q K V k 9 1 q K X.X.P P K Q H ! X.X.Q H P Q ! ;.8.8.2.8.8.8.8.8.8.8.8.4.4.;.;.;.-.;.4.",
"1.1.;.;.1.;.1.1.9.d.z.N.N.N.z.d.q.z.d.k.z.z.z.Z.z.Z.B.c.k.c.l.l.z.z.k.k.k.k.c.z.z.k.z.k.6.1.3.7.6.$.@.} B B E E } @.6.6.} E b e N q e M M y M e c 8 8 7 r M r e E q.A.B.Z.A.Z.l.7.q.k.w.q.q.k.k.k.q.k.M.Z.M.+.{ N E E k.c C e } +.4.q.M.N.M.w.0.q.q.8.8.6.7.6.6.+.o.;.o.@.;.;.@.1.1.;.1.2.1.1.+.o.+.o.M M C M Q C N M M M C ~ C N ] A o.} | b W b b E b C C A C A M N | 1.+.+.@.@.@.o.@.~ o.~ #.| | | o.#.| ....#.| | | | | | | | ..o.o.o.@.o.+.o.o.+.o.o.o.~ | E E } [ } | | | | } } } ~ } ..| #.+.#.@.| ....} | | | | | [ ] [ ] ] E W E ] E ] ] ] E E E B E B B ] W W ] ] ] ] [ } } E [ #.@.@.+.;.;.;.O.} A V 1.6.6.9.a.8.9.9.h.z.2.o.o.=.1.3.z.z.z.c.x.x.x.z.x.x.z.9.;.,.2.8.z.z.d.9.d.I.U.B.C.W.U.W.B.N.h.! v = X s v c q k n S j > * * , ,   , ; %   - n P P P P G P ` P U z x g 4 > g j n F G L P X.*.-.` X.X.K V V P *.<.-.-.=.P G G P P v x h x F V z h h v s 2 2 0 h w h h v H ! P P ! ^ ! ! H H H H F v x v v h 2 s F V U v z G X.X.X.;.O.-.} K Z A ( } +.1.X.C 0 1 7 h c v H H C V V H Q P Q X.o.X.! H P K Q *.8.8.5.4.4.5.4.4.4.6.8.4.4.;.4.;.;.4.;.",
";.2.+.1.;.;.;.;.2.6.d.z.z.z.d.z.9.k.q.z.z.Z.x.Z.z.B.Z.Z.Z.z.Z.c.z.k.k.z.k.9.9.k.k.k.Z.Z.k.k.9.7.@.N y E Q E | @.k.q.w.l.7.#.N 8 r q N B e e N N B W | B q y B @.A ..@...7.B.Z.6.7.7.7.7.q.w.k.M.q.m.q.q.Z.Z.7.O.C E M 1.8 b q Q 6.q.d.M.M.q.q.q.d.n.q.q.q.8.0.8.7.3.1.1.o.;.+.3.1.+.;.+.+.1.@.1.o.~ Q V Q Q c M C V C b C C C V S } } +.o.} c b e b b W E N M N Z N A ..$.@.+.@.@.@.@.#.#.@.@.#.| | | | | o.o.| ..| +.| | | | } | ~ o.o.o.o.o.o.| o.o.@.+.| | ~ } } | | | +.| | ..| | | ..| | | @.....| | ..[ | { | { ..} } } | ] E E E E E ] E ] ] E ] E ] ] E ] ] W ] ] ] [ W W } } [ } | #.@.;.+.} A C Z H C 8.8.p.9.9.d.d.d.d.a.9.2.>.X.X.=.u.9.a.z.x.x.9.2.2.a.h.a.9.8.9.p.a.x.N.x.d.N.B.B.Z.C.Z.N.d.2.=.x # 2 x H >.a.p.-.<.-.5.` n 4 , a   + +   % g U P ` *.*.' ` ' ` P j j f g g g x j g g g x n G H V J G V v z G P X.>.,.>.` G G G H U z z z x x x x x v h h h h k 9 1 2 0 c v h 2 2 2 s v v F v F H ! L H v h 2 h v z x g g j x n V ` O.O.O. .O.&.6.;.X.K k 9 7 7 0 V C C c h h v K H H K P ! X.P H Q K H K X.;.,.4.0.8.0.8.4.4.4.5.5.4.;.;.-.4.+.-.",
"2.1.1.;.;.;.;.;.;.2.9.9.q.d.z.d.k.c.k.k.z.z.z.Z.B.Z.Z.c.l.c.z.k.9.l.k.k.k.k.k.k.k.9.z.C.B.Z.k.@.~ c E #.@.@.3.7.6.%.@.6.l.6.#.~ 3 r y e q N ] [ @.} E ~ | @.} E W E b B | q.m.z.M.7.@.7.m.k.k.k.w.M.q.$.k.M.7.6.Q E C E w c M A 0.M.M.M.d.v.d.q.q.v.n.q.q.8.0.q.z.a.9.1.3.o.o.o.1.1.;.+.;.1.1.;.1.~ ! Q X.~ V E Q Q H H ~ E C Q K X.} ;.o.o.b b e 0 b ~ Q Q ] } } } ..@.6.$.+.+.o.o.#.o.~ #.@.~ ~ | | ....+.o.....o.| | | ..} | } | | o.o.o.o.#.o.o.o.#.o.o.| } } } | | ..+...| | | | | | | | | | | | | ..} } } [ } | } | [ } } ] E E E E E E } ) E E E ] } } [ ] ] ] ] ] ] { { ....#...#.+.| E } K c 0 q V Q X.9.a.9.s.d.d.z.c.g.k.9.;.~ Q Q H o.=.1.2.9.a.3.>.,.2.p.a.a.d.p.6.2.8.9.a.d.x.N.M.k.m.q.q.+.C V 9 v *.p.a.x.B.x.2.-.4.5.5.-.U , + ; @   * x ' *.P P ' -.` U g 4 f 4 > , 4 g x z x V z g > 4 4 4 h 4 9 g g g g p p > s g g x U F F D z z x g l x z x h h v v k 9 = k h s 2 2 h x v v z F v v x h h # = : # # > s h z x z G V g 9 j n Z X. .O. . .O.A w O o - 0 k k h k v G H V z x V V K K K ! P C P K P H K X.4.4.0.0.0.8.5.4.6.4.8.4.-.;.;.4.4.O.",
"1.;.;.;.+.1.=.+.;.+.2.6.6.9.d.z.z.k.z.z.z.k.z.z.x.z.k.3.1.1.>.+.1.1.1.8.9.c.k.k.=.E e c V E ~ c b o.l.6.#.6.l.7.@.6.6.@.+.| | +.8 8 8 7 r A | E } [ #.| ] B 8 3 8 3 7 r A [ @.k.A.w...7.m.k.7.k.w.Z.q.| $.7.9.7.} C ~ N C e A S +.M.M.M.w.M.d.q.q.q.v.q.q.8.q.q.9.k.9.7.3.2.=.@.=.o.o.;.;.1.o.;.o.o.o.o.o.! E =.! o.Q A Q Q Q ! V X.K X.~ o.b c e b b E ~ @.@.+.+.@.@.+.@.@.@.+.o.| o.o.@.~ ~ @.| | o.....+.o.....@.| ..| } | ~ | | ~ | ~ o.o.o.+.o.o.o.+.o.o.+.| | | | | | o.o...#.| } | ..| } ] [ ~ E | } ] } } } } | } } ] } ] } } } ] } } ] ] ( } E Q ] } } { { { { ] { { ] #.| ..| | ..E b q c c V C Q ! P 2.6.a.a.9.a.9.a.9.9.2.H v V F v Q K H P =.,.2.3.8.2.2.;.2.2.;.X.P V V X.9.N.N.N.q.v.d.d.X.k k 0 H ! 2.a.d.d.3.2.-.*.X.Y L D ;   . + * p G *.*.` -.P G P -.,.,.-.P n x k n V n z g x x k z 9 - 9 j j g s > : * ; * : a g z I F x U z x x z D F z F F F v z k h h 2 h v h s s d 2 = = = X # X # o # > 2 = : > > * p ; : > > * = 9 - k Z _ S w 6 O = = - 4 9 h k z z V V z k z z V v V G C H K ! Q ! Q K C P X.4.8.5.5.8.0.0.5.0.0.5.4.;.4.4.4.4.-.",
"+.-.4.&.-.-.+.;.;.;.1.1.1.6.1.o.1.6.6.1.4.&.6.0.9.p.2.X.Q ! X.X.! X.X.! H v c v h h 0 0 h k v C ~ o.=.o.~ X.=.=.! o.o.~ 2.3.~ C w 8 w w 8 8 r S M t q w 8 8 3 O 3 1 7 8 q M B E %.$.@.@.l.l.k.l.k.q.8.6.+.} ;.q.q.Q Q Q c M C E +.6.M.v.q.9.9.d.d.d.d.9.q.q.q.q.9.k.a.7.3.@.;.+.o.o.~ @.@.3.@.=.@.~ o.=.o.~ o.o.=.~ o.o.Q C E C H Q ! ~ ! ~ C c k c c ~ 1.7.8.1.@.%.o.6.@.@.+.+.o.@.#.o.+.@.o.o.@.+.@.#.o.#.o.~ o.| o.o.o.#.o.| | | | | | +.#.@.~ | | o.| | ~ | .. .} } }  .} ]  . .{ } } } } } } } } } } } Q ] A E Q K } ] } A A ( _ _ } _ _ A } ( S m S ( } +.| } } } ( A E ] +.} } A S e e M V c c C X.=.X.K X.~ } +.6.d.9.2.-.! H V V J V z = = = * x P =.X.G z g 9 f 9 9 > g > > - 9 G 9.R.E.E.j.I g > > : h ! >./ ,.>./ 3.u./ ^ ^ F 2 # . =   o 0 V K K | o.1.8.9.q.a.9.q.q.a.6.o.` P S n > 9 j k k j 0 g 9 9 4 4 - - - > %   * g x l x z z x x z x x x x f j j j f j z G g s > g s p s x 9 9 0 4 4 5 = * = = * > g g > %   % % <   < * = 4 O % 6 O < < . , , f f f l x z z j j j j l z k G H H v v v H Q H K K H P } 1.8.0.8.4.-.4.0.0.' n.' n.' _ n._ _ ",
";.;.O.4.4.;.-.4.o.1.2.1.2.;.+.;.1.6.7.7.7.6.6.6.8.6.;.X.! *.X.^ ! Q H C c k h h 0 k k v k 9 0 0 h C ~ Q Q ~ Q A C H ~ b h c c h w w 7 w 7 7 w q M t q e S ( } | } C e 7 8 e } @.~ E ~ o.l.Z.k.7.q.q.q.w.q.+.X.4.1.~ O.} k 7 k | | 6.q.q.s.9.s.d.9.a.q.9.9.9.q.q.q.k.k.9.6.1.@.@.6.o.| o.o.3.@.@.3.o.! o.=.o.~ o.;.o.o.~ ~ ~ o.! ~ Q Q Q ~ Q C c b c c Q ;.1.3.1.~ ~ o.@.;.;.@.1.o.@.~ | o.~ | o.o.| +.~ o.o.o.@.o.o.o.| o.~ | | ~ | ~ | | | ~ | | +.#.@.+.| +.#.+.........} } } } } } ] ] } ] ] ( A ] A A A A A E ] E ] } A ] A  ._ _ A A S A ( S A  .&.;.O.} A ..} ] ] } | | o.N M M M M k q k k V Q ;.1.;.X.Q c k h V ~ -.;.o.X.C k 0 9 5 = < . - j n G V g * 4 g g x x g 4 , G G n g > , > > ; % ; p , * * > 2 2 = > ~ >.>./ g./ F : # X * = * - 0 Z X.+.6.7.1.1.7.8.6.6.9.9.9.9.6.1.+.+._ m M x g 9 j h h j j g 9 , O = - > =   % > g g s g g x x x l g s > 4 4 f 4 4 f f f z g > p s > > > 0 q q k m k j 0 > , , - p p *   . .   % % * , - o % 5 6 < < O * , , 4 f x z D x f f f x z z z x g h h v v V V V V H C V V K X.1.8.0.4.4.' 0.' 0.' n.' _ n.' ' 4.",
";.4.-.<.;.4.4.;.X.2.9.8.@.o.1.7.6.$.@.1.6.6.6.;.=.X.X.P Q ! ! H V v h 0 0 h k c k c k h 0 9 h c v C Q X.o.X.Q C Q C V b e h c E A S e q M A } +.6.6.| E A A E Q N S M C A E A A E E N N ~ %.l.k.q.k.q.q.Z.q.O.$.1.+.o.E q 7 w +.+.&.7.q.q.9.9.a.d.d.z.d.q.q.q.q.q.k.k.k.7.1.@.@.1.@.o.o.o.@.@.1.o.o.o.o.;.o.3.+.1.o.@.! C ~ 1.=.+.X.~ Q Q Q A V c k c ~ ;.3.6.1.o.| ~ 6.6.o.o.@.o.o.o.o.| o...o.+.o.o.o.o.| o.o.o.| } o.| ~ | ~ } } #.+.@.| O.| E | } ~ ~ | | | ..O...} { } ] ] } } ] ( ] A E ( A ] A E A E ] K } Q } Q E K } } A _ _ }  . . .} O.X.` _ `  .O.+.} ] Z N C S M w V k w 0 0 q c V } ;.a.9.o.C h 0 c q q C Q X.K V h j j k m V G Z V Z G z z V V G z n G G P X.<.p.<.-.P G x g 9 > p ; - > > = * > = - X   > s h x : : $ = : : = * o h K O.4.6.6.6.k.9.9.9.6.8.9.k.z.k.q.z.M.M.-.( 7 > 7 x V G k 5 9 7 4 - = , - 9 g > > g g x j x g g g h g 2 > > j f f j j j f 4 4 g > > > > 2 9 m S m S A A S n V V V V V G z x g g 4 > o < X X 4 O O < . O = . % % * 4 j z g g 4 4 4 f j x x z z z x v H P H H H C C v V A ~ -.4.4.4.5.5.0.0.4.n.' w.w.&._ n._ ",
"4.O.4.O.+.-.;.4.X.;.8.6.1.;.2.8.4.+.+.6.q.6.;.o.Q K H H H H v h 0 0 2 9 h k V v v v c k h h c H Q Q ~ X.o.o.o.! A c c v v c c M S q e B } +.6.q.6.&.+.O...} ( A A c w 8 q e N Z ~ W W N t N ..6.q.m.7.7.Z.m.7.q.l.@.E q r 8 8 Q $.6.6.q.9.6.8.6.9.a.9.d.d.q.v.q.k.k.9.9.7.1.1.1.1.;.#.o.o.1.o.@.@.=.;.3.3.1.;.;.o.=.1.} A X.9.1.1.;.X.X.o.o.~ A b c c A o.1.8.6.@.@.o.@.1.@.} o.o.o.o.+.o.o.o.+.@.+.@.o.#.o.o.| o.| o.} | o.+.+.} [ ~ | } } } ~ | } | | | } | | } } } } A ( A A A ] A ( ( ) A A } A } A ] Q ] } E } } } | | } } O.O.O. .` Z M m q m S S S S S M c M M A Q A C M C S M C C H Q o.1.1.;.Q v 0 0 q 9 9 q k V c k 0 S S Z _ ` ` O.O.O.-.O.X.X.O.;.<.P X.*.<.-.*.P P P I J G z g *   > 4 - o - k V k 9 k h 4 # . . # $ # # #   X X * v X.8.q.q.7.6.+.+.+...o.} } o.+.Q Q Q } ..| ) 4 g g V X.5.8.X.J X.` P G j 5 O < > > - > 9 > 9 x g g g g g g > > , , , % , , , o * > g h g k P <.X._ A ( _ _ S n V V V V G J P K g n K ` P k 2 O < . . < O w q O < < < * 4 4 - O * * , > f j x h v v v h k v v v v V H C V H X.;.` 4.4.4.0.0.0.4.n.' _ ' ' 0.' &.",
"4.O.O.4.-.4.;.4.2.6.6.6.8.2.2.7.+.1.6.9.q.8.o.K Q K H H H V c h 0 9 0 0 k V V V C H P K V c v c b c c b G b b c c c 0 c c 0 0 q M M A O.6.&.| } ] } } | | o.| | +.A e 7 7 w c M r B E E N y B W $.l.l.7.q.w.7.m.l.+.W 8 8 8 3 r  . . .4.6.6.6.8.a.6.8.9.d.n.q.q.9.l.9.9.7.6.1.6.1.@.@.;.1.@.@.o.o.1.1.1.;.;.o.o.o.1.1.~ Q ..1.;.7.1.;.+.@.1.o.Q A c c b Q o.1.6.1.@...@.@.+.o.@.#.o.o.o.o.o...o.} o.o...=.#.+.} Q E Q E E Q } Q ..o.~ Q Q E E A Q E Q Q Q E Q ] K ] A E } A ] A A ) E Q E } A } } Q Q K K K | } Q } } X.| } } A S q w 6 - 3 8 7 w k Z ] Q A M q q M C C A K C C M C X.=.=.X.o.2.;.} V w 2 w h c C C K K Q o.-.8.O.;.&.&.O.+.-.;.O.O.O.X.O.O.` P P P K J G z 9 > - - * = = - > > O 9 k c A +.;.O.K Z n m h > *   s $ # X . i : v ;.8.z.q.7.6.O.E Q A Q E A Z A A E Q Q A _ _ _ ) V n Z ` <.8.0.0.8.8.5.-.` n 0 5 9 9 4 4 > > 4 9 g 9 9 4 2 > > > > 4 4 4 4 - - , = > 9 k M K +.9.@.o.} Q _ ` ( A M V M c r y y W X.P V c v H X.2.-.0.v.8.~ Q K M - O < < o O o < O O o * = 2 2 2 h h z z x k v v v v G v v V K X.` &.4.&.4.0.0.0.n.4.0.' &.&.&.' ",
"-.4.-.-.4.;.4.4.a.9.8.8.9.9.1.1.6.6.o.} X.| K H K C V V v k h 9 9 0 0 v V H H K V V C C C C v c c c c c c 2 1 0 w c c v h c V Q } | O.@.$.+.| } O...| } } E } A Q Q | o.| A t 8 e e r b B B E E [ @.7.%.$.@.%.$.$.$.#.N r r 3 r t t A +.8.6.9.d.s.p.9.9.d.M.q.8.9.9.9.7.6.6.6.2.@.6.6.6.3.1.1.o.@.1.o.@.@.o.o.o.o.=.1.o.Q ~ 1.o.1.1.1.1.2.@.o.~ Q C c c c E ~ ~ ~ ~ E ~ +.@.1.1.@.o.@.@.@.o.o.o.+.o.@.+.o.~ ~ E b b c e e c e c e q e q w q q w M C E E E ~ E Q } } } } } } } } } } } | | } } | | } | } | } | X.} } } } Q A C S M M M C A } O.+.O.| } } } | X.+.} } K C M c c V K Q Q K V c V P K c 9 - 9 q v V K } ;.2.2.;.1.4.4.+.4.;.O.O.O.O.` K m k k n m k m j - * - > 4 9 - > > 9 z J X.-.=.o.+.9.n.6.+.4.4.K n n k g , . . . X # = > v ! 2.8.8.6.6.@.} Z E Q } ~ Q } Q } A E A Q _ _ &._ n n k m Z P ` O.-.O.X.O.O.-. .` V G G n x g x n k x j g 9 g 9 9 > g z n j 9 4 - n q q k A +.&.+.o.} } Q X.}  .| } } E E W W y y V V C A Q E A A S _ 6.w.7.9.M.q.6.+... .o.X.! ~ 4 4 - = = = = = 2 2 d z v x v h v F G b v v V H ` -.-.4.-.4.0.0.4.4.0.4.4.' &.&.",
"4.4.;.;.4.4.4.8.a.9.8.8.9.8.3.1.q.+.K S S C K Q A v c h 0 9 2 9 h k c C K Q K X.K A C V C A K A V M C C b q w q 1 q c c c E X.+.O.} } ] Q A } | } } } Q } } | .._ } | X.| } ] ] E M e r t y B { W ..l.l.[ #.l.%.l.%.l.[ r r u u 3 8 A +.8.6.0.j.d.d.d.d.9.9.8.6.1.1.7.8.1.1.6.6.1.1.3.6.@.;.6.@.o.1.o.o.o.@.1.o...o.o.o.Q Q ..1.@.@.3.1.1.o.} E C E C c c N V N A M V E ~ o.o.o.+.+.~ +.o.} X.~ o.o.~ Q E C V b q 0 w w 0 q k c A A Q Q ~ ~ } Q A Q ~ o.o.;.;.o.| } | X.| X.| o.| | O...X.X.| } } } } Q } } } } Q E E E A C Z C N Z A } } K A Z } } } X.o.o.} } o.X.} X.! X.X.o.P C k 0 2 2 9 k 1 1 7 k A } +.1.2.6.9.q.6.1.X.| _ K Z V n j 0 0 9 0 j j g 9 5 - , = - - > - - * x G X.5.5.<.P K ;.} } 1.1.} } O.O.Z n k - % *   $ # # X * v X.8.d.q.9.6.6.+.| } Z K } } Q A A K } } | | ' _ _ ( m m n V Z K K J X.` K K P _ ` ` P J V V V n k h V z k n n n V V J J ` -.<.O.X.K 4.O.} } +.7.6.&.E } } } } | | O.| } [ ~ W W W W c c e c e M C A A N A ..1.l.l.%.7.6.$.+.@.1.1.+.V M k q q 2 2 2 # = : 2 2 2 : 2 h z v v v x v H _ ` ` -.' 4.4.4.4.n.0.4.&.' 4.4.",
"4.4.4.4.4.4.4.8.6.7.3.7.8.9.9.9.O.} } K K Q Q Q A V c k 9 2 9 0 C K Q P Q K } X.X.o.=.=.>.o.K V A V C V c 0 q c c b N C Q 2.6.o.| | +.O.| A A A E A ] } } } } } } ` } } E Q } } E E A C q 8 t N [ | l.l.~ $.Z.l.l.#.$.] 8 r u u 3 w ) 6.w.8.6.6.6.a.d.9.2.-.+.;.@.2.1.1.7.1.6.6.3.6.@.1.@.;.;.1.#.3.1.@.o.6.1.@...o.o.o.E E +.1.@.6.6.1.@.} Q ~ b E E M e c M M b c c V K Q Q A Q ~ ~ ~ K A A A b c c e c c c c c c c c b V A K Q ~ ~ o.} Q C M c c A Q o.~ o...o. .X.| X.| o.o.X.X.O.O.| | } K A K A A V Z A A K A A Z Z Z A A } A } K Q E Q A X.| o.O.o.o...} +.X.X.X.o.} H v 1 2 9 k V c h 9 c C Q X.+.;.6.9.0.+.K M M M M C n m z j k k j j 9 g j 9 > , - > - - , > g V X.,.,.;.<.X.X.` X.*.Q o.o.o.o.+.o.} J w 9 9 , , , % # : 2 X h +.j.9.q.6.6.1.O.K Z K } | o.o.X.} } } } } X.} _ _ ( ) S n m V Z _ P Z J Z Z J _ ` `  .P A G Z K K J n x m V V G Z P P J J G P -.4.6.+.&.6.$.+.........E E } | } ] ] ] | ] [ [ [ [ [ [ [ E B N N e e r M q M B N E ~ | ......+.@.@.+.+.Q E Q K H b c c c s 2 = = : = = = s h c x c v H ( _ ` ` _ &.' &.4.4.0.4.n.n.' 0.",
"4.4.8.5.4.8.4.4.0.8.8.0.q.d.8.1.X.C A Q K H K K v A K Q H A Q ! X.` } +.6.;.+.4.;.6.;.+.o.X.X.} Q A M c m q t S _ } O.+.;.+.| Q A E Q } E } E } } } ] } ] K ( A _ } _ _ _ }  . . .] } | N 7 r A ~ #.#.#.t r %.#.m.l.[ y u u r r t q B ..6.6.;.+.2.;.Q C v c C K +.;.8.6.4.8.6.6.6.6.6.+.;.+.4.9.o.1.1.1.;.+.+.+.+.+.;.+.X.O.O.+.;.1.6.2.O.} A A | } } A V A V c M V V M V N M q M k w q q h k q k c M c k M M C K C M C K } } } Q X.X.X.X.o.X.X.C h 0 k V C K } K } o.} K } } X._ A C c q q k c M k M K } A C K } Q } X.} K C A C A E E A A C M } } o.o.o.+.@.@.X.X.X.X.X.X.V k M h 9 0 h k v C 2.+.;.+.1.+.| A X.A q w 0 7 0 7 7 > > > > > > p > > > * ; : > > , 9 V X.-.8.8.-.-.X.` ` *.` ` X.=.~ o.! } H k 7 h x j 4 > > a p = 2 2 = 2.8.9.q.9.;.| } K } } K K ] } } _ _ ( ( ( ( ( ( ( ( ( j k V Z K ` } _ A J A J _ _ _ ` ` } ` ` _ P P _ _ M m V n m V J ` J P J V V J o.;.@.6.$.$.$.$...] C E } ..#.#.W [ W [ [ #.[ [ [ W [ } } E W E M N e N y N B E E W { { { | } | ..+.@.+.+.} ~ K V h 2 2 2 2 2 = = 2 2 = 2 h v v x h V Z J _ K K } X.0.4.' ' n.n.n.' ",
"4.4.4.4.5.8.8.8.0.0.8.8.8.3.+.X.Q C A K A A K C H C C C H P Q X.| K } ;.8.6.6.6.6.7.8.1.O.X.| } Q E N M S q k ( O.O.+.+.O.} } A E } ] } } A } A ] K Q } } ] A A A A A _ _  .} } } ] ] | A t r t W #.#.%.{ y m.%.%.#.W W t r y y u u M  .$.1.1.2.K C v k k v V C +.;.6.6.6.;.1.1.;.+.;.2.6.;.;.+.;.1.1.1.1.;.6.6.;.;.;.;.6.2.6.6.o.o.X.o.o.o.X.} K K K K K } } } Q Q A M c k q 0 M q q 0 q m M C C C A Z A A V A K A Z K } X.K K K K X.} Q X.X.} 2.~ C c k 1 2 0 C A K C C A C M Z C C C C C Z C X.} Q } A C A K A V A K } A C V Q Q } ~ ~ E E C C E | +.+.~ ~ ~ | ! X.K Q K v h = = - 9 c H Q ! C C C S c k 0 9 7 - - 5 1 7 O O , - > > p > > > , > p s x z U F ` X.<.-.-.=.-.X.P K ` X.X.X.X.X.Q Q C c h h h k h 0 g g p g g f : = 2 ~ 2.9.7.9.| } K A } X.o.o.} }  . .} _ _ } ( ( ( ( ) ( ( ( A J A ` ` ` ` K ` K K J J G Z G J J J _ _ _ ` ` ` ` K Z V V Z A K ` K P V V Z K |  ...| { { { W W E E | W #.~ #.[ W W [ W [ W [ [ ..[ } [ E E W A E E W W E E E ] { { | | ......+...+.o.o.} A c 1 1 2 2 h h h 2 2 2 > h v v v v j n Z A J K ` } ( ( ( _ ' ' n.' ",
"5.4.-.&.4.4.4.4.q.8.6.8.1.1.=.o.K C C C v C K v H C M V K Q X.=.O.| +.6.7.6.6.7.6.6.6.6.+.O.| Q | A c e m w S _ 6.@.+.O.} } } ( E } } } A } A ] Q ] Q ] } A A B S n ( ( ( ( ( ( } A ] } ] N r 8 y W W #.] y %.$.%.%.#.%.#.) y t t r t S S c c V c k h k c V v c X.;.8.8.6.6.;.;.8.4.1.6.8.8.6.6.1.2.1.;.;.;.;.6.2.2.4.6.9.9.8.6.1.o.K A K Q C V H A A V V C V V q c c c q h h q h k k S C K } o.6.2.;.o.X.K Z V V c C K X.o.X.` X.=.*.o.X.=.-.*.K C v 0 = o O 1 k k 0 0 k V V V c M V V C A H A M C K A Z A A A C V M c c k M A } } +.o.E C b c N C o.@.@.o.o.o.X.} A M k 7 - O 7 9 g 7 0 k k 9 7 7 0 8 w w q q q k S N M q 8 0 x g g l x g g g z x U G P Y P P X.*.` P V G K P ` ` ` X.X.P J V h h 2 2 O O 5 j 5 > 4 f s p s s s $ c c.6.d.6.6.} } } | X.X.X.X.O.O. .} _ } ( } ( ( ( ( ( ( ( (  .` ` _ _ _ ` K K _ A A Z A Z Z A A J ` _ X.O.O.} } ` _ A Z A J J P P K Z Z Z K K } | { { { [ ] [ [ [ [ ~ #.W #.[ [ W W W W [ [ [ { [ { } [ [ [ [ [ } ] E E E E { { | { ....| | +.@.+.+.+.@.} ~ L b s 0 q k k k h 2 2 1 2 - 2 2 9 0 k V A _ K ` _ ( _ ' _ n.' n.",
"n.0.0.5.0.0.0.0.6.6.;.1.1.1.1.1.X.Q Q V c V C c V C C K ! o.1.1.6.6.6.6.6.+.;.4.+.6.6.+.+.+.O.| } N q q t u w  .+.+.....} ] } _ Q ] E Q E E A A ] K ] } } Q E A A _ _ _ _ _ ( A ) ] }  .} ] N w r y r W y r { ) l.%.%.%.#.y t r t w u 3 3 - 7 q v v v V V V k k Z X.6.8.2.;.;.;.;.;.;.+.2.6.<.O.X.o.o.~ X.X.X.X.O.o.-.;.;.2.;.-.P C c k k c k h C V V V c k h 9 v K X.Q K C V c M C K ` X.X.X.-.;.o.X.Q K Z V m q q k C X.X.X.O.X.o.o.=.o.=.X.X.} Q P K V V Q =.X.} K C C V c c c c c V M v c c q M S k q k h 7 7 7 0 q q M V Q Q } o.} E C N M b M C M e q 8 q q q h q w w q c 0 c c h v K K c K } | O.+.O.X.| } E Q A Z S M k z h g g 9 g 9 j x x l x U F F D V G J V V V J P X.` P P J z h 9 2 0 h 9 > 5 9 q V V z n F z x x d 1 h u.6.6.@.O.....+.O...X.} } O.O. .}  ._ ( ( ( _ _ ( ( ( _ _  .} } ` _ K A Z S n Z Z A A P _ Z A A A A _ _ _ K _ _ K K J _ _ V Z K K J _ _ } ]  ...} } { | [ [ ~ | [ #.W #.W #.[ W W [ [ [ [ [ [ [ [ [ [ } [ ] ] [ ] E } [ [ } | { ....| ....$.+.....+.1.1.@.2.o.C b h k h h v v c h 9 2 2 0 4 0 j m Z J K K ' ( _ _ _ &.' ' ",
"-.4.0.0.4.4.0.0.;.=.X.o.=.o.~ } Q K K c k M C c c C X.-.;.;.1.6.6.6.6.6.$.O.+.+.4.&.+.....+.+.O.} S w w w 6 w _ +.+. .} _ ( ( _ K E } ] A A A A E } } } } } ( ( ( ( _ _ } ( ( ) A ] } } { } B N W N r y y t ) y { W t y t u t ) t t w u 3 3 7 9 k v V v v k c x j Z ` O. .` X.` X.+.4.;.O.` J Z X.X.*.X.` P K ` K } X.X.*.X.X.O.G n k 0 9 > - - 4 9 9 0 j j g 9 n _ O.-.X.X.X.} _ _ ` ` _ _ ` ` K K J _ ` X._ _ V V m n n Z A _ X.O.-.-.-.O.X.` Z V m k k k V K K Q X.! C c 0 9 2 1 - 1 1 2 9 9 1 7 - O - 8 7 - - 7 q c k q q q o.} } E b 0 8 2 8 e b E A o.1.7.q.6.6.4.o.Q A A K O.O.| o.6.8.1.q.q.q.q.q.4.| A } A A A ] } } } V k j g 9 9 9 j > 4 g g h x x k z k n V k n n J n z k k 0 4 4 4 = 2 j j j q j k k k k k v k g 9 s > 0 V 2.O...}  ....... .O.' &._ &._ _  .( ( ) ( ( ( ( _ _ _ _  .X.} _ _ ( S S w j S S V S A A ` _ ( ( ( _ _ ` _ _ } ( ( Z A Z K K K H H C E } E } | ] W ] } [ [ [ ~ #.[ W W #.[ [ [ [ [ [ [ [ { { ] { [ { ] { ] ] ] ] } {  .}  .{ {  .| ...... .O. . ...O...} | o.+.o.X.K C V 0 0 0 k 0 9 h k j w 0 h c V K K ` J J ( _ _ n.' ",
"_ ` ' 4.4._ ` 4.6.-.X.X.~ C V V c h h 0 9 k V c H X.1.8.2.+.;.+.6.@.+.&.+.&.$.6.6.6.+.....+.@.+. .A w w w w t &. . . .} { ( ( ( ] } A A A A A A } } A } } } } ( S ( ( _ _ } _ _ A ]  .} } ] ] ] W ] ] ] ] ) y t u r u t y t y ) { ) ) ) q 7 O < - 2 0 0 9 0 h c 0 m A J J _ K K ` K J S q 9 0 0 - - 7 > 5 = = , o = > - 5 - > 4 n V V k h 9 9 0 > 7 g z V V V V J J _ J K ` ` X.J Z V V V A ` } O.X. .X.X.X.` ` Z k 0 w 0 0 j m G P ` K K K J V n k j j k V J X.C C V c 0 9 7 h k c c c V C A Q K } X.| } } A S w q k w w c M Z M B ~ ~ | @.7.k.z.z.M.z.q.7.6.6.A ] } ..O.+.+.+.q.z.z.7.6.9.9.9.q.8.6.7.q.6.O.} +.O.O.4.q.q.q.8.4.;.O.X.K S k j 4 0 k n z x 9 0 4 9 j j j j 4 j 9 9 7 4 4 - - 4 7 0 q k n S S S } } Q } X.X.X.K v 2 9 k ;.} ..| } } } }  ._ &.&._ _  .&. . .( ) ) ( ( ( _ _ _ _ X. .`  . ._ _ S S S S S S A S S m m q q t m S (  . ._ _ _ A _ A K K K C A A E ~ } } | } Q [ ..[ W [ W #.[ [ [ W [ [ [ [ [ [ [ [ { {  .] ] { { } { { } } ] } { } }  . .} | |  .|  .#.&...+. .] S 8 q M M M M c k 0 h h k 9 1 - - 9 9 7 0 0 M V K K _ ` ` _ ' &._ ",
"` _ ' <.4.` -.8.2.X.Q } K M k h 9 1 9 k h M V C o.;.6.6.6.;.+.+.+...| ..+.6.6.%.6.6.$.O.O.+.+. . .( m w w w ) ` +.O. .{ _ ( ( ) } } E A A A A ] A } A } } } ` } _ A _ _ _ } _ } } ( ] } ] ] ] | ] ] ] ] { ] B ) r y ) { { ) { ) ) ) ) ( B c 0 1 - 1 2 9 0 2 2 2 9 0 k m V J K Z n k 7 = o o - 7 9 g g 9 4 4 9 9 > 9 > 9 4 4 g 9 - 4 g x x n G P V z K P X.P ` ` -.O.` Z n m m k m j q j k S S V V S V k q 0 0 0 0 9 5 9 4 w 0 j 9 g 9 9 9 j j g j 9 9 9 j V K K 2.X.P C v k c V V k c v V C K K +.+.;.O.C 0 - 7 h M M S A O.q.N.A.B.A.Z.z.z.k.k.l.9.l.9.9.7.@.O.7.w.7.w.7.6.6.@.@.6.7.6.2.6.8.k.q.7.6.0.7.q.v.M.6.6.6.7.q.k.v.q.n.w.0.7.4._ Z B S m M M k q 9 5 m k j m n k m m 0 0 g j j 9 0 x J _ _ _  . .O.#.] ] A ] } } } ~ ~ 2 x X.+.| .... .] ( } _  ._ _  .( _ ..&._ ( ( ( ( ( ( ( ( ( ( ` } _  . .} _ _ _ _ ` _ ` ( ( (  . ._ _  . .O.O. ._ ( _ _ _ _ _ P Q K K K Q } o.} | | | | @...| [ W #.W #.[ [ #.W [ [ [ [ [ [ #...{ { { ] { { } } } } ] } } } ] ] } } } }  . .|  . .&.#.....( S A E A Z Z } X.} } Q K C v 0 2 2 7 0 9 0 0 9 c C K K U _ ( _ ( _ ",
"_ ( ( _ _ _ ` ` Q H V C C c w 0 0 1 0 C A A Q } 1.;.;.1.6.6.;.+.+.O.X...&.6.6.+.&.@.+.| ..O. .} ..] M w w t S _ .. . . .} ( } ] ] } } } A ] A ] } ] A A ] } }  ._ _ _ } _ ( _ ( } ( ( } } ] E } | { ] N ) ) B ] ] { ) ) ) )  .{ { ( ( ) E A c q 0 9 2 0 0 9 - O - 5 6 4 k Z J Z S n S V Z V V k 9 9 9 4 9 9 g j x q 9 9 4 9 4 - 7 9 g 7 - - - - 2 9 g z G n z n 9 9 0 0 0 k m j q j 4 w 9 - O < o o O O = 6 4 q 7 4 9 q k q j m k m k h h V V V V m h 4 7 9 h k 0 w c K o.o.o.X.-.=.+.o.-.X.X.O.X.X.A k 7 - q | +.0.d.n.q.d.M.k.z.z.z.k.Z.z.z.9.k.9.9.9.z.k.q.q.w.0.w.6.6.6.+.O.O.4.6.6.o.K ! ..6.6.+.O.} | +.6.9.7.7.8.9.q.q.m.M.n.w.n.w.q.7.q.6.O.} A ( _ _ A J S j j k q 4 0 0 0 k V V Z K X.` } `  .} } (  .} ] } } | o.| ~ Q = k d.X.} ..} ] ] A ( X.O.&._ ( &._  ._ ` ( ( ( ( _ ( ( ( ( ( _ _ _ ( _ `  ._ _ _ }  . .` ` ( ( ( _ _ } ( _ (  . .} _ ( _ _ _ } X.} } } } } } } } } } | @.| | [ [ W #.[ [ [ [ [ [ [ [ #.[ #.W { { ] ] ] ] { } ] A ] } ] ] ] } _ ( _ }  .}  . . . .( ( }  .} A A A A B Q } Q A Q K C C C v c M 9 q h 0 0 0 h k V V _ _ _ _ _ _ ",
"I J J ` P J J J G V C v c e 8 7 q 8 7 w A ] A | | | +.+.+.....| ` } _ _ O.&.&.O. . . .O.O.O. . . . .B r 8 e Q 1.@.+.| } ] ] } { A ] ] } ( { ( _  .} A Z K } } Q [ } Q Q ] } } } ] } E E E A E [ ..} | | } E B E ) ] { { { ) ) ) ] { { } { ( ( ( ( ] A A V N c c 7 - 1 9 V Q Q X.o.X.X.Q X.o.o.o.X.X.` J V m k k k m k m m m M S z k c h h 2 1 O = = = 1 2 h b v 9 0 0 h h h 2 s h 2 1 O 7 M M M c c e q V Q } Q Q ~ o.+.1.@.1.;.6.;.+.X.K V c k c c c C Q | o.o.&...&.&.&.&.&.&.&.&.-._  .X.` K c 0 3 O w } 6.9.M.q.7.m.m.m.n.m.k.k.3.@.#.3.l.l.9.3.l.3.k.k.3.7.3.6.1.6.7.9.7.3.6.1.7.1.~ E +.7.@.6.1.} } @...] #.| | ~ E } } } ..$.7.m.k.k.k.k.k.7.@.| } } | @.} _ A M k M c M q k t S A | X.} | +.+.| | | | } E E E } } } ! } Q O S } O. .+. .} } Q Q Q ! o.X. ._  ._  ._ _ _ _ ( ( ( ) j ( ( } } K } K X.} X.} } } } } } } } _ _ _ _ _ _ _ _ &._ _ _ _ &._ _  . .} ..} .. ... ...|  .........] [ [ { [ { { { .. .{ { #.{ ....] { _ ( ( ( ( (  .( { _ ( ( _ _ E } Q } } } } Q ] } o...} } } } E | } | } } Q E C E E ~ Q Q A H Z V k 0 9 0 j j j j k k n V V G ",
"n Z n n G G G V H C v c c q 8 7 3 8 7 t  .O...&.|  ...+...+... . . .}  .O.O.O.O.}  .O.O. . . .` ] { B q 8 e E ..+.| } E ] ] ] ] } } ] }  . . .{  . .| | } } } } Q } E E E E Q Q Q E E E A E Q } [ } | ..| ] E ] .. .( ( ) ( { (  .{  ... .{ { ( } ] ] E E C B M A K K X.o.;.;.-.=.o.o.X.X.+.-.-.-.O.X.X.` _ P K A A ( ( K A A A K K Q P H C G b h q c s 2 2 2 2 h h h x x h x h 1 2 0 b ` +.$.7.+.@.o.@.@.6.7.1.+.+.1.1.1.6.6.6.8.6.6.1.6.6.6.7.1.1.@.@.@.1.1.+.$.$.%.w.w.&.&.4._  .&.O._ _ n k X 3 q Q 7.M.M.k.$.+...+.6.6.w.q.7.l.l.3.3.7.3.@.k.l.9.l.k.3.7.3.k.9.7.9.9.7.7.6.7.1.7.1.o.~ @.9.7.7.6.| Q } | ..6.@.@.| | } } } .. .} | | +.@.7.k.k.k.w.6.%.@.1. .} K C M m m q M M q w 8 q M t } +.+...| | | } E E Q } ~ ! Q Q K 7 S O.O.} +.O.O.X.Q ! ! } X.X._  . . . . .&._ _ _ &._ ) ) ( _ A K A K Q Q } } ! } Q } ` } } _ _ _ _ _ _ _ _ _ _ _ _ _ _ ' _ &.} } }  .} { } } } ....+.+...{ A W [ { { { { ..{ { { &.&.&. . .{ } } { _ { _ _ ( ( } _ ( ( _ } ( } } } E E E E E } | | | } } } } [ E } | } } } } ~ Q E C C A A A ! K J n k j 4 j 0 g x j x z z z ",
"n S m k x z n z v v c c c w 8 8 w M M B } ] A ]  .....O...O. .| _ _ _  . .O. . .O. . .O. . .}  .| { A r 7 q A ..+.| } E } | { ] ] ] } ] (  ._ {  ...&.+.} E K } } E E E E E E E E E E E E E E } E Q } ....} } ..] B y t t S ) ) ..{ { .. ...{ { ] ] E ] E A N M C A X.o.+.+.+.+.+.+.X.X.X.X.O.+.+.O.X.X.X.X.X.| O.| } } } ( A A C V C A A H C C E C H C b k h 2 0 0 h k v v x v C P ! o.| | ..+.1.7.1.1.1.1.@.+.7.6.1.7.6.6.9.7.6.$.6.6.6.7.7.q.6.@.1.@.6.$.@.+. ... . .( ( _  .O.` ` ( j 5 O . N +.z.N.z.9.9.9.7.@.+.+.@.$.6.w.7.7.k.9.7.9.7.1.l.l.9.l.9.7.7.7.l.l.3.7.7.7.6.6.3.%.7.7.#.o.%.3.7.l.q.7.@.@.6.q.9.7.7.6.@.#.+.+.| } } } | | | | +.@.6.7.9.7.6.$.$.&.&.O.X.| } Q A A A M q e M S N Q | o.| } ] ] E E E Q } ~ K K Z S S &. .` O. .O.| } } ~ X.~ | _ _  . . . . . ._ ( _ _ ) m ( _ } A A A } Q } { } } } Q } ] } } _ _ _ _  .( _  ._ _ &._ ( &._ _ } } } } } } } } | ..$.$.$.+...} #...{ { ........{ ..&.#.#.{  . .}  ._ _ } ( } ( ( ( ( _ } _ _ ] } } } ] E } Q } | } } | } | | } ~ ] | E } } | | Q Q C E C E A Q ` _ _ J S m 0 9 j j h j k x x k ",
"n m n k k k j k 9 0 q c c c M r t t S A } ]  .....O.|  .......O.{ _ _  . . . . . .O.O. . . . .} ..| N r 7 8 A +...} } ] } | | }  . .] }  . ..... ...$.O.} E A ] E } Q E Q E E E Q E Q E E E } } Q [ } | | | ....$.&.#.#.$.%.%.%.{ #.{ ..#. .{ {  .] E A E B c r M C X.+.1.2.6.6.X.o.X.} | X.X.X.X.X.| | | O.o.| | |  .} } ] E E E E H E K A A C ~ H Q Q ~ Q H b h k k k k c k k V K Q ~ }  .&.6.@.1.7.1.1.@.@.1.+.+.+.@.@.6.6.7.6.6.7.7.7.$.&.+.......@.+.@.$... .+.+. ._  . . .O.( 4 O O q ` 5.3.k.z.k.8.7.q.q.q.7.7.7.q.6.6.6.7.l.3.7.7.l.k.k.3.9.7.9.l.9.k.l.7.7.7.7.7.7.7.7.6.6.6.7.@.@.6.@.@.6.k.k.7.@.6.7.7.6.6.7.9.7.7.7.6.@...| ..| } } | ] | | | ....| &.+.+.+.+.+.O.| C A C S M M c c q M E | | } } } E E Q } } Q Q K Z S q 4. .` &. .O.O.o.| | } | X. . ._ } _  ._  ._ ( &._ ) S ( ( } } K E } } } } } } } } } } } } _ _ ( _ _ ( _ _ _ _ _ _ _ _ _ _ } } E } ] } } ] | } | O.O.+.&.$.$.#...#.#.#... .{ ..#.&. .( ( { ( (  .( ( } ( } _  . . . .} _ } } } } Q } | | +.X.| } } | | | } } ] E E E } } } ~ E E E C C E A S A A K J Z V m V n S n m z n m ",
"n Z n n n k j 9 h k c c B M N c S S A } }  ...&... . .| |  .....} } }  . . . . . . . . . . . .} } ] S q 7 7 M Q Q } | } } ( } ] ] { (  . .{ .._ {  . .} } _ _ ] } } } } } K ] ( E Q E } E Q } | | } { | }  ...#.} ..{ ..&.&.{  .{ { { { {  .{ ( { { { ] E B N t S A } +.+.O.+.+.+.X.} } } Q } } ....| | | | | |  .| | } | ] ] ] E E E E A A A A C C C K H H K A K P K C V c k k ! Q Q A A K } | ..+.6.6.6.$.&.6.| | | O.+.&.+.+.@.$.&.$.&.+.......} ........{ } `  . ._ _ ( V q 6 6 9 k P -.8.8.1.;.=.2.q.z.q.6.q.q.6.q.q.6.7.q.9.l.7.6.7.l.k.6.7.7.l.9.3.7.7.7.7.l.7.7.7.7.3.7.7.@.%.7.%.6.7.@.7.7.q.k.q.7.6.w.6.@.6.6.7.6.7.7.k.@.} W E } | @.@.@...~ } } } }  ... .#...$.+.+.Q } K C S c k w w c K } } } } } } } { } } K E } P _ 0 `  .4.;.` &.+.+.........o. . . . . .( } } &.( _ ( ( ( ) ( } } } ] }  . .} } } } } } } } } _ { ( ( (  .(  ._ ( ) &._ ( ( ( } } Q Q } Q } } } K A A } } O.@...{ { { { ..{ ]  ...{ _  .( ( ( ( _ ( } _ } _ } _  .}  . . .}  .} Q ] } } | O.O.O.| } } ..O.o.| } } E E A } A } A E A A K C C Z S S S K K _ _ ` J Z J Z J Z V G ",
"J J J J Z V V m v M C A C B N e S N ] .. .] } ( .. .| | |  .O.|  . . . . . .O.O. . .} } } _ ( ( A B N M c q k M H ~ X.o.| _ } } } } { ( { ( _ {  . . .} | } }  .} } } } } } } _ } } } } ] } } } | } } } } { } ...... .....#.#.......{ { ..{ { { { { ( ( ] ] ) N S A Q } | o.o.+.+.O.X.} X.} X.} | } } } } } } [ } { { } ] { ] ] A A A A A A A A A A A C A A A K K Q Q P P K H C k q k M Z ] ] ] A } +.6.6.+.O...+.1.@.6.6.+.$.&.+...| { ] ] } } ....} } } } }  . .} Z k 0 q 4 - z j j k G X.*.-.=.1.6.6.6.2.1.+.v.q.8.6.8.6.q.w.9.l.9.k.l.k.7.@.7.7.9.w.6.%.7.7.6.7.6.7.6.@.@.%.6.%.7.3.6.l.l.7.7.6.$.$.7.w.k.w.w.%.@.%.$.+...@.@...} } } | | @.#.| ..| #.+...| &.&.$.$.7.6.6.$.1.O.} K C A V c c c C Q } } } } | } } } } ] } K ` J j _ ` 4.4. .+.&.+.+.O.+...O. . . .}  .} } } _ ) ) ( &.( &. .} ] } } }  .} | } ] { } { } } { _ _  .(  .( } } &.&._ _ &.( ( ( } } } } } } } } } } } K K } K ] ] W W ] ]  . .{ .... .( ( {  .( _ { _ ( { _  . . . . . . . . .} } } } } } } } }  .| } | +...| | | | } Q ] A ] K A A A A A A C C V V S n S Z J _ _ _ K K K K A K ",
"_ _ ` _ K P K C H A A A E Q E E t w A  . ...+...| | O.| .. .| | O.O.O.} _ _ `  .` _ } _ ( A Z S S t w q q 0 9 0 k V K | O.| }  .( (  .{ _ ( {  . . . . . . . . .} } } | } } } } E Q } } } } } } } } } | } } } ..+.....{ ........{ #.{ { ..{ { ..( { { { ] ] ] ) B A } ..+.@.1.$.@.+...| | } | | | ] ] ] ] ] E ] ] ] ] ] ] ] ] ] } } ] } } } ] } E A K E A K A K C H K K Q } X.! X.} Q A Z M q 8 A A | @.6.$.$.$.7.6.6.$.6.$.4.&.6.$.O.} A A _ ] A E A A A Q } | 4.;.` m j n V V m n Z G J ` P G v Q =.} C C } 1.2.;.6.8.9.2.8.6.7.7.7.@.6.7.6.@.@.7.w.q.7.7.6.7.6.7.l.3.7.%.7.l.l.3.l.7.@.3.l.7.+.+.+.+.@.w.w.7.q.7.1.$.@.| | @.| | ..@.@.@.| +...} | | +.+.#.| +.#...#.+.&.+.+.| X.} C V C V V V c V H Q } } } } } ] ] } K ] ` K n n m ` 4.` O.O.+.+...+.#...+. ... . . . . .O.&.( ( ( ( &. .(  .{ }  .....{  .} { } }  .} } } ..{ _ (  . .{  .#.( &.) ( ) &.) } } } } K } } } } } | | | K E A E ] ] ] { { {  ... ..._ _  . ._ _ ` _ ` _  . .O.O. . . . . .(  .} } } } } ] } } | | X.+.| O.| ..| o.} } K Q Q Q Q Q Q K A K K A S S S S V S A A K _ K _ A _ K _ ",
"J G J J J G Z K A A Z A Q o.......A } ..]  .+. . .| .... . .} | O.O.X._ A S A A _ } ` ( A S n k q 7 O O O O = - O 1 k K } X.| } { _ (  . . ._  .( _  . . .} ` } Q } } } | } } } } } } } Q E Q } K } } .... .}  . . .............{ { .. .{ {  ...{ .. .{ { ] ] ] B A Q | +.O.+...+.+...| } | } } | { } { ] { } { ] { } { ] { { ] E E E A A B Z A Z A A E A E A A K K Q } ~ ! Q Q +.o.+.o.o.| | } N t N A } O.+.6.6.$.+.O...O...+.+...| K A A C M 7 7 7 O - O - - 9 k m j j k x 9 f f f 4 > > 4 > 2 2 1 1 9 q 9 1 k V } 4.6.;.-.+.o...Q E } #.@.@.} @.7.7.w.7.7.k.3.l.l.k.l.l.k.k.k.l.l.6.@.@.3.%.k.Z.m.q.q.M.k.6.q.7.$.6.6.+.+.6.+.+.@.+.@.#.@.7.q.7.+.o.......| +.#. .......+.+.| +.o.X.P C V c v h k V K Q } } } ] } Q ] _ _ ` Z j G 4 _ ` ` &.O.O.+...+....... . . . . . .+.+._ _ &.&.( (  . .....{ ..........}  .} } } } } |  ...&. . .{  . .&.&.( &.( &.( ( } ] A ] Q } ] } K ] _ ] } ] } } E E ] ] ( ( ( ( {  .&.&. ._  ._  . . . .O.O.-.O.O. . .} ( } _ ( } Q } } } | | | } | O.O.o.| o.O.O.| o.X.} X.} Q X.Q Q K K K P A _ _ K A A J J _ _ K _ J _ K K _ ",
"J n j n n n Z J V N C } } E E E +.....X.| | | ..+. .} | O.} } +.O.X.` A A _ _ K A A P Z S V m q - O O 5 j n V V j o 4 j _ V } _ _ &._ ( O.&.` _  ._ _ ( _ _ _ O.O.O.+. ._ Z A A A A K ( K ( J ( K } O.O.O.} } _ _ }  . . . .O.&.&... .{ &. . .{ &. . . . . .{ ) N Z ] | | } | O.| O.+.+. .}  .} ....} { | ..{ A  .{ { } { } | ..} _ A ( A A _ _ A } _ K A K _ } ~ X.K V c k c q C S C Q o.o.o.| X. .` _ ( A S S S ( ( _ _ _ ( S V V V k 9 g j z z k g 2 > > > 9 > = = - 4 4 > 4 x g g g f g g g 9 9 0 0 0 0 4 0 4 j 9 k X.K G ;.4.+.+.+.+.6.4.4.@.+.1.6.6.$.;.6.8.7.q.k.z.k.k.9.7.9.k.7.@.@.7.q.k.z.M.q.q.8.q.q.6.+.+.O.+.+.+.+.+.O.} | &.7.7.q.@.@.+.+.| O.+.+.....o.| | | O.+.;.+.o.X.X.! H v x 9 9 g V K } } ` _ ( _ _ A A J U ( U n n J _ ` X. .O. .O. ...&.+.O.O.| | } | } o...X.| | o.|  .........O...O...} | | | } } X...O...| ..O.+.+. .( &._ ( ( _ `  .] } ....} ] } ..} ] } } } ] ] E ] } } } ] A A _  .O.O.X.}  .O.O.X.-.X.` -.O.X.}  .O.O.} _  . .` O.o.X.| X.| X.X.+.o.o.o.O.o.o.o.+.X.X.X.O.` A J ` ` ` ` ` ` P P ` ` } ` _ A K K Z P ` ` _ K J K ",
"n z m n m j 4 0 V c N Q ~ E E Q } } X.+.X.X.+.@.+.X.| O.O.} A E K P _ P _ J K J O.P m 9 > 5 4 0 _ K K K ` ` ` P 9   * 5 n m ` } _ _ _ &._ _ _ ( O.4.4.-.-.-.-.-.` ` O.O.-.X.` ` ` ` ` ` ` `  ._ ` X.X.` _ ` }  .` _ _ _ _  . . .( ( (  . .&.O. . ._ {  . . .O._ N Z A | O.O.O.+.6.$.$.@.O.| |  .] { { ) ] ] | { { { } }  . .} } &.O. . ._ _ A A _ K J Z n m k m 0 0 9 7 9 0 0 w 7 9 q c M A X.O.A ( X.+.;.4.4.8.4.( k w 0 q 4 4 4 > 7 g j j g g g g x z x g p : > = - 4 g g g g > > p p g l z n V V j 9 4 j m n k z 4 - k 9 - z -.6.6.;.O.O.+.6.+.+.+.+.+.;.6.7.q.q.k.M.Z.z.9.2.9.9.k.q.9.9.9.6.6.6.;.X.} } | O.1.1.6.6.6.;.o.| ..+.;.6.6.6.&.X.| o.+.;.+.+.| ] o.....o.+.X.X.X.8.2.;.=.! K F v g 9 - > x Z K J A A A _ J Z G n f l f 4 4 f m n n S Z _ }  .......X...| O.O.+.+.O...O...O...O.o..... ...O.....+.~ } X.+.+.X.+.+.X.X.X.o.| X.} X._ ( ( ( J Z K ( } ] } | ..} .... .] } ] ] E A C B Z A A A } } X._ ` O.O.O.-.-.` ` X.Z n m 9 5 - j S K ` }  . .O.~ X.X.o.+.X.o.o.o.;.o.;.+.=.+.=.X.X.X.-.*.P _ X.P P K K P J G G m Z K K P K ` K ` ` _ J Z K ` ` ",
"D z U n m 4 5 5 q 0 0 b M c c c C S A Q } +.z.(.0.+.+.;.+.E V M K K K X.` P V k 4 * o O 5 j K *.` ` ` X.` _ P J U 4 5 o - 4 n n ( _ _ ' ` _ _ U k j n n m f q j j m m n V J Z V Z Z V V n S n n K J J Z S n n S _ _ A _ _ _ } _ S ( _ O.&.+.4.O.&.O. ._ _  . . .c q c S E } X.+.+.+.O.O.| | } } ] } .. .{  ...O.&. . ._ ..O.} } ;. . .-.4.O.O. .m k 0 9 9 4 4 4 2 2 2 - 1 9 0 2 0 c V M c v P ! -.O.;.O. ._ A S ( n m q n ( Z n n z x v G U j > g g l l l d l s g s g > > = < * > > g g g g x z 4 9 x z n n z j z n g g G x 4 j C K +.;.6.;.;.O.-.-.;.;.;.4.8.s.b.s.8.4.1.2.;.o.;.Q k 1 - 1 9 9 k C C C V k h k v V V K K K K A A A K C Z A Z S A A A A A A A K o.} ~ ~ Q Q K K c k 2 2 2 2 2 2 g p > > j J P S V J J Z G V n j f , , , % * 4 m n n n S A _ }  .| | X.o.o.o.o.o.} | X.| | } X.| +.+...O.} } } } X.+.1.=.-.=.X.X.X.+.-.-.O.-.-.4.) ( n ( V Z A A E A C C E } } }  ...| } } A E E A C C c 0 0 0 0 n _ ` -.` ` ` _ V z g 9 > o   - V _ *.O.X.X.O.X.;.1.=.=.X.P K H H K H C C V v c k k j g - o % = * * * * o +     > 9 h z n z z z k n J K ` P K Z ",
"U z j j 4 - 5 5 1 = 3 1 7 1 1 1 2 1 - O O = c ~ q.2.;.;.-.~ P K g g x x x f , o < . * g U n I X.K K ` P P P P I P j 4 , - - 9 5 , 6 o , O o . < < O 5 , 4 4 , 5 - = = = > 4 j z n n z j j j j j h k m k x j 9 j 4 0 4 j k k k q 4 0 n n n S n Z 0.4.4.&.4.&.4.4.| A M S A } | +.O.+.4.6.+.X.O.O.Q | +.+.O.+.+.O.&.4.0.4.6.4.6.;.-.` K J J n j 4 h g j 9 0 g j 9 h k h h 0 k k e c K Q P V V v H P A J Z n n j q k n n n n m n Z n z l l z U z z D l p a a a l D > > g g g x n G P ^ =.:.*.:.>.,.,.5.9.9.4.` U j n k g g j g 4 g 9 j m P X.<.P V X.X.=.-.,.5.9.s.-._ n f 9 9 0 0 k h 9 2 9 0 j j 9 h c V C v M k k k V V V K P K K K K C H K X.X.P C H V G K Q X.Q A G b h h k c H H v h h 9 s h : > > = 4 k n z n n n 4 > 4 > % , & & 4 , % 4 n G Z Z Z S S A ` o.o.o.} X.} X.} o.X.*.+.o.X.o.O.X.X.} } Q Q Q P Q Q P ~ ! ! *.=.` X.` K k g 4 0 q m j n G G P _ A A C b A A K } Q _ Q K A A C b Q P K C V V V n m G J J P G J z g > > > > > 9 G n n V J _ X.-.-.H L ~ L P H H H P P H H F v v c z x j 4 * %   < * * * # * # * * * * ; > > , : =   - z P ` P n k ",
"x g f > , o O 5 3 1 1 1 1 = = 1 - - 2 9 1 1 1 2 0 1 1 2 9 2 2 2 > : * = ; *   . * * > D G U U G ` J _ I G U U U J f 4 f f f j 4 j , % < %   % % & , , f f f f f > > > , > 4 z n l j z x z z D U j j z m k k j j 4 4 4 0 w 4 4 5 5 4 f 4 f 0 j j 4 f n J  .8.n.b.6.} C C V A A A Q X.1.;.&._ O. .' _ _ ( } _ ( A _ _ ` ( J J _ J Z n j j j f 4 4 z x j j g f 4 4 > 2 2 2 g c V C v C H V v v F v j j j m n n n V n n U n n Z J ` P P V n z z l z g g p f d p p p l x z G G ` ,.8.a.j.j.a.5.5.<.5.5.<.5.5.p.j.b.b.j.5.' G x g l z j g - , > g g > * , > > 4 4 4 f , , f , , , , , X o * * , , > > j 9 4 - > 7 j z n G P V G V G V G P K P P K J G G V J K H V V n h 2 2 = 1 1 2 2 2 d 2 2 2 2 s s f g f > * > j j n U f % % , & % & % % , , % , f n G J J V V Z P ~ ~ ~ ! ! o.! ! X.} ! o.~ Q ! ~ K H A P ! Q ! Q ^ ~ v k h s x x g g g > , % * % 4 4 f z n G J P ~ F H ~ F b F ~ P K P K ~ H H H V V V V n z z n z n n n j f f > > > ; > > : g P G G z V I P K V ~ b b b b F F F 2 2 = * X # o * ; * %   +   +         + + + @ @ ; # * # * # + +   ; > s g l g g ",
"f f > , , o O , 2 1 1 2 1 1 1 = o o o - 2 2 2 2 2 2 = = 2 1 2 1 > > * ; * * * *     * p x z F L n n n z z z z x f % % z U _ ( j ( f % < + +   % % , & & & , a a ; > f g f f f z x l l z z x x x U z g f f 9 f 4 f 4 0 4 j j 4 4 f x z z l j j z n z z m j j 4 4 C k k M C C c c q A } o.` _ &.4.n.' _ ) k m k 0 4 4 j 4 5 5 4 4 4 > > 4 j x U I U U U U z l x x H L L ~ ! 2.8.8.-.;.X.v v v F z n z m j j j j m j m n _ -.4.<.4.-.<.-.` J j f f p f g f s d p p ; > : * , > 4 g , > g k U ` ' -.` J Z m j n n I P ` P U g > * , p f > *   + % * * ; > , * * * % , , 4 , , % , , s p > % % & * 4 g 4 - = o = - > - g k n z G V n v V V m n V V V G V z x g 2 > - = : 2 2 s s s 2 2 2 2 2 2 s h x g , * % * * 4 z x x 4 % % & a & & & & , &   % , , f n G U n n k h b b C C ~ ~ ~ P H Q H ~ Q H ~ Q ! Q Q P H P L ~ F s $ #   # .   + % * & , > 4 % , , > f f f j s h d h s 2 s s x v z v D D x z G G G V n z x z x x l f 4 > , ; a p a : p : s F P P J G n n 9 * = = $ # # .   . = ; # X X # = # * * % + * ; , ; ; # @ @ @ ; ; $ @ @ @ @ $ $ * $ ; : ; ; * * ; > ",
"l l f > 4 - * O 3 1 1 1 1 2 2 1 s 1 = = = = > 2 h 2 2 2 2 = = X # + +     + + # # # * ; > a f g f f g j x n x x , % & U _ U n U U f % % + + + & & & @ + @ @ & & % * ; , , , a > x x x U D x x x x l f f f f g g 4 4 > 5 4 4 f j j f x x l l l l f j j j j j m m h 0 0 c V C V V k M C C ( _ _ _ _ ( ( 4 4 4 4 5 4 ( n j 4 , 4 , > , > , , > f l G P T L I U U I F v v c c H K K 2.2.^ v x x z l j f j j j x n n j z Z U ` J n z j n n n k j 9 g g f p , > p p p g g g > g x z x 9 2 - , * o < < * * * , , 5 4 4 p f z z l f > ; + ; p , * * @ * % ; , ; * ; * % a , & % % % & a & a f x D f l f x x k k j g > > - g x x x G G G J J G n G P ` P G n g 7 > - 4 9 2 2 s d h x d s x x x s > > 2 f l , * > > % % > , * % % + + & @ & & & % % % % %   , > f g 4 4 > = O 1 1 2 k c k G b v G b G b G V V v v x h h h = # #   # # ; ; & % % % + . . . % % % % % % & ; # : $ $ $ + # # # + $ # # # # # .   X * ; > > f > 4 f , & , ; % a p p p s p > g > > p > > 4 = < # # $ $ : : s : : : : = : : : > : a ; ; @ ; & @ $ @ @ @ @ @ a $ $ $ @ $ $ $ $ $ # ; : : ; ; * * ",
"I l p > , * , 5 = = = = 2 2 2 2 = = = = : = 2 2 : > = = > > = * * * # # # # +   + * ; ; ; , ; o % o * , f f > % , . & ` U n j U f & + % + + + & @ @ @ @ + @ @ @ * + +   @ & ; ; ; , f f l l l x f f g n U P P P I U x f f 4 f x f l l D U U n n f j j f f 4 f 4 0 7 - - 2 7 7 0 0 1 O o < O 6 < < < , 6 6 4 j 4 j U _ U 4 4 , , , > , p > > f l l l D l f , a p > > : o = 2 9 0 9 c h 2 > g l j f 0 j f j j j j U n z m 4 f j S 4 4 0 0 4 5 4 4 > , , , > p p > > > > - > 4 > = *   . < < o * o o <   o o % * * * < % %   % * % ; ; % @ @ * ; & * ; ; ; ; a a , , , a f f f f f f f f f f f f l z z x x x g g g z G k - * , 9 > f g g x x j > o * = * > * > , > 2 s s 2 s s 2 2 s s h x z H *.>.p.Y I <.*.x , , , % & & a & & & & % % . % % % % > %     < * * < = = # = 1 1 = 1 O = O O o = O O * X o = = = : : # # # # $ # @ + & + % % & & & % & & & & % % & ; $ $ $ $ $ $ $ @ # $ # # $ @ # +   # * * * * # < % , & % % & ; @ a p d p d p ; ; ; ; , * < < < o # : 2 s s s s s s s s s s s a ; p g l p ; , a a a $ a ; a ; a a a a a ; a ; $ @ # $ $ $ ; : p d "
};
