/* XPM */
static char *image__2_1748801244[] = {
/* columns rows colors chars-per-pixel */
"512 512 146 2 ",
"   c #2F2C14",
".  c #2E301B",
"X  c #333216",
"o  c #35351D",
"O  c #39371E",
"+  c #37391E",
"@  c #3B3A1E",
"#  c #363623",
"$  c #393624",
"%  c #373924",
"&  c #3C3B24",
"*  c #373728",
"=  c #393728",
"-  c #3D3C29",
";  c #3F3E30",
":  c #403F1F",
">  c #403E25",
",  c #403F29",
"<  c #403E31",
"1  c #3F4125",
"2  c #3F402A",
"3  c #44421F",
"4  c #49451F",
"5  c #434225",
"6  c #494725",
"7  c #474825",
"8  c #4B4926",
"9  c #44442B",
"0  c #49472C",
"q  c #47482D",
"w  c #4B4B2D",
"e  c #504C26",
"r  c #504E2D",
"t  c #4F512E",
"y  c #53512D",
"u  c #58542F",
"i  c #5B592F",
"p  c #454531",
"a  c #494731",
"s  c #474831",
"d  c #4C4C33",
"f  c #4E4D39",
"g  c #504E33",
"h  c #514E3A",
"j  c #4F5033",
"k  c #4F503A",
"l  c #545334",
"z  c #585635",
"x  c #565836",
"c  c #5B5A36",
"v  c #55543A",
"b  c #58563B",
"n  c #57583A",
"m  c #5C5C3B",
"M  c #615D36",
"N  c #615E3D",
"B  c #5F6037",
"V  c #5E603D",
"C  c #626037",
"Z  c #61613D",
"A  c #68653F",
"S  c #555541",
"D  c #595642",
"F  c #565842",
"G  c #5D5C43",
"H  c #5D5C4A",
"J  c #615E43",
"K  c #625E4B",
"L  c #635F50",
"P  c #5F6142",
"I  c #5F614B",
"U  c #646344",
"Y  c #686645",
"T  c #666845",
"R  c #6A6946",
"E  c #65644B",
"W  c #68664C",
"Q  c #67684B",
"!  c #6B6A4C",
"~  c #706D47",
"^  c #716E4D",
"/  c #6F704E",
"(  c #73714E",
")  c #78754E",
"_  c #666451",
"`  c #696653",
"'  c #676852",
"]  c #6D6B53",
"[  c #6B6758",
"{  c #6E6B5A",
"}  c #716F54",
"|  c #716E5C",
" . c #6F7053",
".. c #6F705C",
"X. c #727255",
"o. c #787655",
"O. c #797856",
"+. c #74735C",
"@. c #78765D",
"#. c #77785B",
"$. c #7A7A5D",
"%. c #726F60",
"&. c #767362",
"*. c #797665",
"=. c #777862",
"-. c #7C7A65",
";. c #777769",
":. c #7A7768",
">. c #7E7B6A",
",. c #7F7E70",
"<. c #807D56",
"1. c #827E5D",
"2. c #817E65",
"3. c #817E6D",
"4. c #837F70",
"5. c #7F8065",
"6. c #7E816C",
"7. c #7F8171",
"8. c #828166",
"9. c #84816E",
"0. c #88866E",
"q. c #86886F",
"w. c #89896E",
"e. c #858372",
"r. c #888676",
"t. c #868873",
"y. c #8A8975",
"u. c #868678",
"i. c #898778",
"p. c #878879",
"a. c #8C8B7B",
"s. c #908E75",
"d. c #908E7E",
"f. c #8F907D",
"g. c #91907E",
"h. c #8E8E81",
"j. c #908E81",
"k. c #8F9082",
"l. c #939284",
"z. c #999584",
"x. c #969884",
"c. c #9A9884",
"v. c #959588",
"b. c #989689",
"n. c #9A998B",
"m. c #A09C8D",
/* pixels */
">.3.>.>.>.>.9.3.e.3.3.3.>.3.>.3.e.7.e.9.7.,.e.e.>.,.,.e.e.e.7.e.4.3.4.4.4.4.4.4.0.4.4.4.4.s.4.4.4.4.4.4.d.4.4.d.4.4.s.4.4.4.4.4.4.4.4.4.3.4.3.3.e.9.e.0.4.0.e.e.e.4.0.e.9.e.0.e.4.3.e.e.0.4.e.4.0.3.9.e.9.9.9.9.0.3.e.9.e.0.0.e.0.0.3.e.e.e.0.0.e.e.e.e.0.e.9.9.9.0.3.9.9.9.3.0.2.3.3.3.2.3.3.9.2.3.0.3.0.e.9.9.0.3.e.3.3.0.0.3.3.3.2.2.3.2.9.0.9.0.0.0.9.0.9.0.4.0.0.3.3.3.2.3.3.2.9.9.3.3.3.3.0.3.3.2.3.3.3.2.3.0.3.2.3.0.3.0.0.e.0.4.3.e.3.3.3.3.3.-.>.2.>.3.3.3.3.3.3.1.1.4.4.4.1.4.3.3.1.3.2.3.1.3.3.3.1.3.3.1.3.3.[ 3.1.[ 3.1.1.1.3.L <.L 3.1.1.2.1.1.1.1.4.:.:.*.1.:.4.*.*.4.*.1.*.1.:.4.1.:.:.4.1.*.1.4.4.1.4.4.4.4.1.4.4.4.4.4.1.4.4.4.4.4.4.4.4.4.4.1.2.3.3.2.3.3.3.3.3.2.*.&.2.2.*.*.@.*.*.*.2.2.:.2.2.3.0.0.2.0.8.0.3.3.3.9.3.0.3.0.3.3.3.3.9.3.3.2.3.3.3.3.9.0.e.9.3.3.0.3.3.3.3.3.3.8.3.9.3.9.3.9.3.3.2.2.3.3.3.3.3.2.3.3.0.3.3.3.3.3.2.3.3.3.3.0.4.r.r.r.4.i.i.i.4.r.4.r.s.4.4.r.4.i.i.i.4.i.r.r.e.e.r.r.0.4.3.3.9.e.3.e.,.e.,.e.e.e.7.p.e.7.e.u.e.u.7.e.7.e.7.e.e.e.e.u.t.u.e.e.u.u.u.u.u.e.e.e.t.e.t.u.7.t.u.e.t.u.7.e.7.e.>.e.6.e.e.7.e.>.>.>.",
">.>.>.3.>.3.3.e.3.4.3.4.3.9.9.9.9.e.7.e.e.e.e.,.,.e.e.7.6.e.e.4.4.4.4.3.3.4.4.4.4.s.4.i.4.4.4.d.d.4.4.4.4.4.4.4.4.i.4.4.4.4.4.4.4.4.4.4.4.3.3.e.9.e.e.9.e.e.e.e.e.4.3.4.3.e.e.e.4.0.e.e.e.4.0.3.9.e.9.e.9.9.0.9.e.9.9.9.9.e.e.0.e.e.0.e.0.e.e.e.e.0.0.e.e.0.e.9.0.9.0.3.2.0.9.9.0.0.3.2.2.9.3.9.9.3.4.3.3.9.0.9.e.e.4.0.3.3.3.9.9.2.3.2.2.2.9.0.8.9.9.0.0.9.e.9.0.3.4.0.9.3.9.9.0.9.9.0.0.2.9.8.9.9.3.0.3.8.2.0.3.2.3.3.3.3.3.0.4.4.e.e.e.3.4.9.3.3.>.2.2.>.2.3.3.1.3.1.3.4.4.4.1.4.3.4.4.1.4.3.4.1.3.3.1.3.2.2.3.3.3.1.3.1.3.[ 1.[ 1.[ 1.[ 1.1.3.1.1.L L 2.3.[ *.1.4.4.:.4.*.*.1.:.*.:.:.1.4.1.4.:.1.4.4.4.4.4.4.4.4.4.4.1.4.4.4.4.1.4.s.4.s.4.s.4.1.4.1.4.3.4.3.3.2.3.3.2.2.2.2.&.@.&.&.&.&.*.*.*.-.*.2.3.3.3.3.3.3.3.9.9.9.9.3.3.3.3.3.3.3.9.0.3.3.3.3.3.3.3.3.3.3.9.3.9.3.0.3.9.3.3.9.3.9.3.3.3.2.3.2.9.2.3.0.2.3.3.3.8.3.2.3.9.3.9.3.3.9.0.3.3.9.3.9.3.3.3.4.r.4.r.r.4.4.i.r.4.4.r.4.r.i.4.i.4.4.i.i.4.r.4.e.0.e.e.4.0.3.3.e.e.e.e.e.7.e.e.e.7.e.e.e.e.e.e.e.e.e.e.7.e.e.e.e.4.e.u.r.u.u.t.e.t.e.t.t.t.7.u.u.u.7.e.e.e.7.e.7.e.e.7.e.6.7.7.7.7.e.7.6.,.>.7.",
"9.>.>.>.3.9.e.e.9.9.3.9.e.e.e.e.e.e.e.e.e.e.e.e.e.7.e.e.e.7.,.e.4.4.4.4.4.4.0.4.4.4.4.i.4.d.4.4.4.d.4.s.d.4.4.4.4.4.i.4.i.4.4.4.4.3.4.2.3.3.3.3.e.9.e.e.4.e.0.e.3.0.3.e.3.3.e.e.e.4.0.4.e.e.4.0.9.9.e.9.e.3.3.4.9.9.e.9.0.e.e.e.0.r.e.e.0.e.e.0.e.e.0.e.e.0.0.3.0.9.3.0.9.3.9.9.0.3.2.3.3.3.3.3.3.3.9.0.e.9.4.3.0.3.9.0.3.0.3.3.8.9.8.2.2.9.8.9.9.9.9.9.e.9.0.0.3.0.0.4.9.9.0.9.0.3.0.0.3.0.0.9.9.3.3.3.3.3.3.3.3.0.3.2.3.3.0.3.e.3.4.0.e.0.9.9.3.3.2.2.-.2.3.3.3.3.1.3.3.3.3.4.4.1.1.4.3.3.4.4.3.4.3.3.3.2.2.3.1.3.3.[ [ 2.[ 1.1.1.2.1.3.1.[ 1.L 1.L <.L 1.2.3.:.4.4.*.4.:.4.4.:.1.4.1.:.4.1.*.1.1.:.:.1.4.1.4.4.1.4.4.4.4.4.4.4.1.s.1.4.4.s.4.1.4.4.4.3.2.3.1.2.2.2.3.2.2.3.3.3.3.&.&.&.*.*.*.2.2.2.2.2.3.3.3.2.4.3.2.9.9.9.0.3.3.9.3.3.3.0.3.3.3.9.9.3.9.3.3.3.4.3.0.0.9.e.e.3.9.9.3.3.3.3.3.2.3.2.3.3.3.3.9.3.9.3.3.3.2.3.0.3.8.3.9.0.3.9.3.3.3.3.3.3.3.3.0.4.4.s.4.r.4.4.4.4.r.r.4.r.4.4.r.i.i.4.4.4.r.r.4.e.r.e.0.0.3.9.3.e.e.e.e.t.e.e.e.e.e.7.e.e.7.7.e.e.e.e.,.e.4.e.e.7.e.e.e.u.r.u.u.u.u.t.u.t.u.u.t.e.u.t.u.e.t.7.e.e.t.e.7.7.e.7.7.e.e.6.e.7.7.7.7.",
"3.9.9.3.e.9.e.e.e.9.e.e.e.e.e.e.e.e.e.e.r.e.e.e.e.e.e.e.e.e.e.>.4.4.4.4.4.4.4.y.4.s.4.4.4.4.d.4.4.4.4.4.4.4.4.d.4.s.4.4.4.i.s.4.3.0.4.4.e.3.e.3.3.e.9.e.r.4.0.e.0.4.e.3.e.0.3.e.0.0.4.e.9.e.e.3.e.9.9.9.0.3.0.9.e.9.9.9.3.e.0.e.e.e.0.r.e.e.0.0.0.e.e.0.e.e.4.0.3.0.3.3.3.0.2.0.9.3.2.3.8.3.3.2.3.9.9.0.9.0.9.e.0.e.3.3.0.3.e.0.9.8.9.9.8.9.3.9.9.9.9.0.0.0.9.e.0.4.0.0.9.9.9.0.3.0.4.3.0.9.9.9.8.0.3.2.0.2.3.3.3.3.0.3.0.2.3.0.9.0.e.4.3.0.3.3.3.3.3.3.3.3.3.2.3.3.3.3.1.4.4.1.3.3.3.4.3.4.1.1.3.1.1.4.2.2.3.2.3.3.3.2.1.3.3.3.[ 3.3.[ [ 1.3.[ 1.[ 3.3.3.3.3.2.4.4.1.4.1.4.*.1.4.4.*.*.1.*.4.4.*.*.4.1.4.4.1.4.4.4.1.4.4.4.4.4.4.4.4.4.4.4.1.4.1.4.1.4.3.3.3.3.3.3.3.2.3.2.2.3.2.2.2.2.3.2.2.3.2.3.3.3.3.3.3.4.3.3.0.0.9.9.9.9.0.0.9.0.0.e.4.3.e.0.e.9.9.9.9.9.0.3.0.4.9.9.9.9.0.3.3.0.9.3.3.3.0.3.3.9.0.2.9.9.0.3.0.2.0.3.3.3.3.3.3.3.3.9.3.9.3.8.3.9.3.3.3.4.4.4.4.r.4.r.s.4.r.r.4.r.4.r.r.4.4.i.i.4.r.4.r.4.e.r.4.4.3.0.e.e.e.t.e.e.e.e.u.e.e.e.e.e.e.u.e.e.e.e.e.e.e.e.e.7.e.7.e.e.e.e.t.e.e.t.e.u.u.e.t.e.t.u.e.e.7.u.e.t.t.7.e.e.e.7.e.e.e.7.e.7.e.e.e.7.",
"7.9.9.e.e.e.e.e.e.e.e.e.e.e.e.e.e.r.e.t.e.u.e.u.e.e.e.t.e.e.7.e.4.4.4.4.4.4.4.4.a.4.i.4.4.s.4.s.4.4.4.4.4.4.4.s.4.4.4.i.4.s.y.4.4.0.0.4.4.0.3.e.4.3.9.e.4.e.0.4.3.e.3.3.4.4.4.r.4.e.3.e.0.4.e.e.9.e.9.e.4.9.9.9.0.3.e.9.9.e.e.e.e.0.0.e.e.r.e.r.e.0.e.e.0.e.3.0.3.3.3.8.3.8.3.0.0.0.0.0.3.3.3.3.3.3.0.4.e.3.4.e.0.3.3.9.4.3.0.e.9.8.8.9.9.8.9.2.3.9.3.0.0.e.9.e.0.0.4.4.9.9.9.0.0.3.0.3.0.4.4.3.0.3.3.3.2.3.2.3.3.3.3.3.0.2.9.9.9.e.e.3.e.3.3.3.3.9.2.9.3.2.9.3.3.1.4.3.3.3.4.1.3.3.4.4.1.4.4.4.2.3.3.3.3.2.2.3.3.3.3.2.3.[ 3.1.3.1.1.2.[ 3.1.%.[ 2.3.3.4.3.2.1.*.4.4.4.*.4.4.*.1.4.*.*.1.*.*.1.1.4.4.:.1.1.4.4.1.4.4.4.4.1.4.0.4.4.4.1.4.4.4.4.1.4.4.2.3.3.2.3.3.0.2.3.3.2.3.2.3.3.3.*.3.2.3.2.2.3.2.3.9.9.3.0.3.0.2.9.0.9.8.3.3.9.0.3.e.0.e.0.9.9.0.9.0.9.9.e.e.0.9.0.0.e.e.9.3.0.3.e.3.3.3.0.2.0.3.0.3.2.9.9.3.3.0.0.0.3.9.2.0.3.9.3.3.3.9.3.3.9.3.3.8.3.3.0.4.4.i.4.i.i.4.s.4.r.4.r.4.r.4.r.r.i.4.4.4.r.4.4.r.4.r.0.4.0.0.r.e.r.e.t.e.e.t.e.e.e.7.e.e.7.e.e.e.e.,.e.e.e.7.e.e.e.e.e.e.e.e.e.e.u.t.u.t.u.7.u.u.t.e.7.u.7.t.e.7.e.e.e.7.e.e.7.7.e.e.7.7.7.e.e.",
"e.9.e.e.e.e.e.e.t.e.e.e.e.e.e.r.e.e.r.u.u.e.e.e.e.u.e.e.e.e.e.e.4.4.4.4.4.4.r.4.4.4.4.4.4.4.4.4.d.4.s.a.4.d.4.4.s.i.i.4.4.4.4.0.4.4.4.4.3.4.4.0.e.0.4.4.0.4.4.e.e.3.4.4.0.3.0.4.e.4.e.4.e.9.4.0.9.9.9.9.9.9.e.3.9.e.9.e.0.0.0.0.e.0.e.e.0.0.e.e.e.e.0.0.e.0.0.4.0.3.9.9.0.9.9.8.3.4.e.0.0.3.3.2.3.0.3.0.0.0.3.0.9.e.e.3.0.e.3.3.9.9.9.0.9.9.8.9.3.9.9.3.9.0.e.0.0.0.0.0.9.9.9.9.0.3.2.3.0.9.2.3.2.3.0.2.3.3.3.0.0.3.0.2.3.3.9.9.e.3.e.3.e.3.9.3.3.3.3.3.3.3.2.3.3.3.3.3.3.3.4.3.3.3.4.1.4.2.1.4.3.3.2.2.2.3.3.2.3.[ 3.1.3.2.2.1.[ 3.3.[ 1.3.3.1.4.3.1.3.3.3.3.3.4.4.1.4.4.4.1.4.1.*.1.*.*.:.*.1.*.:.1.1.:.4.1.4.4.4.4.1.4.4.0.4.4.4.4.s.4.4.1.s.4.4.2.4.3.3.3.3.4.0.3.3.3.0.4.3.3.2.3.2.3.3.3.3.3.3.3.3.9.3.3.2.3.3.0.3.3.3.0.0.3.3.3.0.4.3.0.e.9.e.9.e.9.9.9.9.3.0.e.4.9.9.9.9.3.3.0.3.3.0.3.3.3.3.3.9.9.0.0.9.2.3.3.3.2.9.3.9.3.3.3.9.3.9.3.3.3.3.3.3.3.0.4.4.4.s.i.i.4.4.4.i.s.4.r.4.4.r.4.s.r.4.r.y.4.4.4.y.4.0.4.4.e.4.4.0.e.e.e.e.e.e.e.e.u.e.e.u.e.u.7.e.e.e.e.e.e.e.e.e.r.u.t.e.e.7.t.e.t.7.e.e.e.e.t.t.e.t.u.t.u.e.e.7.e.t.7.t.7.e.7.e.e.e.7.7.e.e.e.e.",
"e.e.e.e.e.e.e.e.u.r.r.e.e.e.e.e.r.e.e.u.t.e.u.u.u.e.e.e.e.e.e.e.y.4.4.4.r.4.4.s.i.i.4.4.4.4.4.d.4.4.4.4.4.4.4.d.4.4.4.4.4.4.4.4.0.4.0.0.0.4.0.3.3.0.4.0.4.0.r.4.e.0.3.0.3.0.4.e.e.e.0.0.9.e.e.e.e.9.e.9.0.4.0.3.0.3.4.0.3.e.e.e.e.e.0.0.e.e.0.e.0.e.e.e.e.0.3.e.4.0.0.2.3.0.9.9.2.3.3.3.3.3.2.3.3.0.4.e.0.e.0.4.0.3.0.9.3.0.e.0.9.0.9.8.0.9.9.8.9.9.9.0.0.9.0.9.0.3.9.0.8.0.9.9.9.2.3.3.3.9.2.3.3.3.3.3.0.3.3.0.2.3.3.3.3.3.0.9.4.4.0.0.0.3.3.3.3.8.3.3.2.3.9.2.1.4.4.1.1.3.3.3.1.3.4.4.4.2.4.4.3.2.2.3.3.2.2.2.3.2.1.1.3.1.3.3.3.3.3.3.3.3.3.3.3.3.3.1.2.3.3.3.4.1.4.*.1.4.4.1.:.*.*.*.1.1.*.4.*.1.:.4.*.1.*.4.4.1.4.4.4.0.4.4.4.4.4.1.4.1.4.4.4.4.4.2.3.3.3.3.3.2.2.0.3.4.2.0.2.2.3.3.2.3.2.2.3.0.2.0.3.8.0.3.3.0.9.9.9.8.3.3.0.3.9.3.0.3.9.3.e.9.9.9.9.9.9.e.e.9.9.e.9.e.e.9.e.e.9.9.3.0.3.0.3.3.3.2.3.0.2.3.3.3.3.0.0.3.3.3.0.4.4.4.3.9.3.3.3.3.3.3.3.3.4.0.r.4.4.i.i.4.4.4.4.4.r.r.r.y.4.4.4.4.4.4.4.4.4.4.r.4.e.e.e.0.r.4.e.e.e.7.7.e.e.7.7.e.e.e.e.u.u.e.e.4.e.e.,.e.e.p.t.u.e.e.e.e.e.r.7.e.u.t.t.t.e.e.e.u.t.u.t.e.e.e.e.e.7.7.t.e.7.7.e.7.e.t.t.7.e.t.",
"e.e.e.r.r.t.e.e.u.e.t.e.t.t.u.u.e.t.u.e.e.u.e.e.u.e.u.e.t.e.e.e.4.4.r.4.4.r.4.r.4.4.4.s.4.d.4.4.4.a.a.4.s.d.4.4.i.4.i.4.4.s.y.4.4.0.4.4.4.0.4.e.3.4.3.0.4.e.4.0.e.4.e.3.e.4.0.r.0.4.4.4.3.e.0.4.9.9.9.3.e.3.0.3.9.e.9.3.0.e.0.e.0.e.e.e.0.e.9.0.0.e.0.e.e.e.3.0.0.0.4.0.9.3.9.9.0.3.2.2.2.3.3.9.3.3.3.0.e.e.3.0.e.3.3.3.9.3.9.0.9.8.9.9.8.9.9.9.3.0.e.9.4.9.e.9.3.8.3.9.3.9.9.0.9.3.2.9.9.0.3.2.3.3.3.3.2.2.3.3.0.3.9.2.3.0.8.9.0.3.3.4.3.3.9.3.2.3.8.3.9.8.3.3.4.4.1.3.3.3.3.3.4.4.1.4.1.4.2.1.3.3.3.3.2.3.2.3.2.3.3.3.3.3.3.1.3.3.3.3.3.3.3.3.3.3.3.3.3.3.3.2.4.4.1.4.4.1.*.4.4.*.1.%.:.4.:.*.4.:.1.*.:.4.1.*.4.4.1.4.0.4.4.0.4.4.4.4.4.s.4.4.4.4.4.4.2.3.3.3.3.3.3.2.4.2.4.4.3.3.2.3.3.2.3.3.3.2.3.3.0.9.9.9.2.0.9.9.0.3.3.3.3.4.0.3.3.0.e.9.9.9.9.e.9.e.9.9.9.9.3.9.9.9.9.9.0.3.9.9.0.3.3.3.3.2.3.3.2.2.3.3.2.3.2.2.3.3.3.3.4.0.4.3.4.3.3.9.3.3.3.4.3.3.0.4.4.4.i.4.s.4.i.4.4.r.4.r.4.r.4.r.4.r.4.y.4.4.y.4.4.r.4.e.4.4.4.4.e.e.t.e.e.u.e.u.e.e.7.e.e.7.e.e.e.7.e.7.e.e.e.e.e.e.e.e.u.u.u.u.e.t.7.e.e.u.7.u.e.t.e.t.u.7.t.7.7.u.e.e.7.e.e.e.e.t.7.e.e.t.t.7.",
"e.e.7.t.e.7.t.e.t.t.e.e.u.e.t.7.e.e.e.e.e.r.u.e.r.e.u.t.e.e.e.e.4.4.4.4.r.r.r.4.r.4.4.4.4.4.r.4.4.4.a.4.4.4.i.r.4.4.4.r.4.y.4.4.e.e.4.0.e.4.4.0.3.4.3.e.9.4.e.0.4.0.4.0.4.e.0.4.e.4.4.e.e.e.9.e.e.e.0.9.4.0.3.e.0.e.0.e.e.0.e.e.r.r.e.0.4.0.0.0.e.e.e.0.e.9.9.e.4.4.9.9.0.3.0.3.3.3.3.2.2.3.3.2.3.3.e.0.e.e.0.0.9.e.0.3.3.3.0.4.0.8.9.0.9.3.9.9.9.9.0.3.3.0.3.9.2.3.2.3.3.9.9.9.3.2.3.3.9.3.3.3.2.2.2.3.3.3.3.9.3.3.3.8.9.0.3.9.3.0.0.9.9.9.3.3.3.3.3.8.3.9.8.3.3.3.3.3.4.3.3.1.4.1.3.4.4.4.4.1.2.2.3.2.1.4.3.4.3.3.3.3.3.3.1.3.1.3.3.3.3.3.3.3.3.3.3.3.1.3.3.3.4.4.1.4.*.1.4.1.1.*.*.1.*.4.1.*.1.1.:.4.4.1.4.4.4.4.4.4.4.0.1.4.4.w.w.4.w.4.4.4.4.1.1.4.4.3.3.4.4.0.3.0.2.3.3.2.4.2.4.4.4.2.2.4.3.3.3.0.3.0.2.0.3.9.9.9.0.9.9.0.3.0.0.4.3.0.0.3.9.e.9.9.9.9.e.9.4.3.0.4.0.4.9.e.0.3.9.9.3.0.3.0.3.2.3.3.2.3.3.3.0.0.3.0.9.3.0.0.4.0.4.4.3.4.3.3.9.3.3.3.3.4.e.e.r.4.4.4.4.i.4.4.r.4.i.4.4.4.y.4.y.4.y.4.4.0.4.e.r.4.4.e.r.4.r.r.e.e.u.7.7.e.u.7.7.u.e.7.e.u.,.e.e.e.e.e.e.4.4.e.7.e.e.e.u.u.u.e.e.7.u.e.u.t.e.e.7.e.7.u.e.t.e.u.7.u.t.7.e.7.7.e.7.7.7.t.e.t.7.e.",
"e.t.t.t.t.u.e.u.7.u.t.u.t.7.e.t.r.r.u.u.e.e.e.u.u.e.u.e.e.e.7.e.4.y.4.r.y.4.r.4.4.4.r.0.r.r.4.4.a.4.4.i.s.4.4.4.4.r.y.4.4.y.4.4.e.e.3.e.3.0.e.4.3.e.4.0.e.e.e.4.e.4.r.4.r.4.4.r.4.0.e.e.9.3.e.3.9.9.9.9.0.4.0.3.3.e.4.0.0.e.e.0.0.e.e.e.e.e.e.e.e.0.0.0.e.0.0.9.0.0.9.9.3.0.9.0.3.2.3.2.3.3.2.3.0.3.9.e.0.e.e.4.9.e.0.e.9.3.3.0.0.9.9.9.9.9.9.3.3.0.3.0.e.e.e.e.9.3.3.2.3.3.3.3.9.0.9.9.9.3.2.2.3.0.2.3.3.3.3.3.8.3.3.3.3.3.9.9.3.3.0.9.0.9.3.8.2.9.2.9.9.2.3.8.1.4.1.3.4.1.3.3.3.3.3.4.4.1.4.4.3.3.2.3.4.1.3.1.3.1.1.1.3.1.3.3.:.3.*.4.3.4.%.3.3.3.3.3.3.3.3.3.1.4.4.*.*.4.:.4.4.*.*.*.1.:.4.4.4.4.4.1.4.1.4.1.1.4.4.4.4.4.4.4.4.4.4.4.3.3.w.4.s.4.4.4.s.2.4.4.2.4.2.4.3.3.0.2.2.4.2.2.2.4.4.2.3.2.2.3.3.0.0.3.0.3.2.0.3.3.2.9.0.3.3.3.3.3.3.0.9.9.e.9.e.9.9.9.0.3.3.0.3.0.9.9.4.0.3.9.3.4.3.9.3.9.2.0.3.2.2.3.2.3.3.3.2.3.3.9.3.3.4.4.3.3.4.4.0.3.3.3.3.3.0.4.4.i.s.4.i.4.s.4.4.r.4.4.s.y.4.4.4.4.4.4.4.4.4.4.4.0.r.4.4.i.4.r.e.e.e.e.u.e.e.e.e.e.e.u.e.e.e.e.e.e.7.e.e.e.e.e.t.e.u.e.e.e.e.u.u.t.e.t.e.t.e.u.t.e.7.t.7.e.e.7.t.e.e.e.t.e.e.7.7.e.e.e.e.e.7.u.",
"t.u.e.e.u.7.u.e.e.u.e.e.e.u.e.t.u.t.e.u.u.e.e.e.e.e.e.e.e.4.e.4.4.4.4.4.4.y.4.4.4.4.4.4.4.4.4.r.4.4.i.4.4.r.4.4.4.4.4.4.4.4.4.4.9.0.3.3.0.3.3.4.e.9.9.3.4.0.0.4.4.0.e.4.4.r.4.4.e.e.e.9.e.9.e.0.3.0.e.9.3.e.0.e.4.0.0.e.e.e.e.0.0.0.0.e.e.0.e.0.e.e.r.r.e.e.e.0.0.3.2.9.8.9.3.3.3.9.3.3.3.2.3.3.3.0.0.4.0.0.0.4.e.3.4.0.3.9.3.4.4.9.0.2.8.9.0.3.0.4.e.4.e.0.e.0.0.9.9.3.8.3.3.2.0.9.3.9.9.2.2.9.2.2.3.2.3.3.3.3.9.2.9.2.3.0.9.0.0.3.9.9.3.3.3.3.3.3.2.9.9.9.8.9.1.4.4.4.3.3.3.3.3.3.4.1.1.4.1.4.4.1.4.2.3.3.3.4.3.1.4.3.3.3.3.3.4.3.*.4.1.4.3.3.3.3.1.3.3.3.1.%.1.4.4.*.4.4.1.1.1.4.*.4.:.4.1.4.1.4.1.4.*.4.1.4.1.4.4.4.0.4.4.4.w.4.2.4.3.4.w.3.4.1.4.4.4.4.4.w.0.2.3.0.2.4.2.4.4.2.2.4.4.2.2.4.3.3.3.3.0.3.3.3.9.3.3.3.3.0.3.9.3.3.4.0.0.3.9.4.e.0.9.9.9.e.e.9.0.3.0.9.0.9.e.e.3.3.3.3.3.3.3.3.3.3.3.3.3.0.3.3.3.3.2.3.2.9.3.3.0.4.4.4.0.3.4.4.3.4.3.3.4.4.3.4.4.4.4.i.4.s.4.i.s.4.4.4.4.4.y.4.4.0.3.4.3.4.4.4.e.e.4.4.4.4.4.r.e.7.u.e.4.e.e.e.e.e.e.e.7.e.e.7.e.7.e.7.e.e.e.7.e.e.t.e.e.e.p.e.t.7.e.7.7.e.e.e.e.u.t.e.u.t.t.7.e.7.e.u.7.e.7.e.e.e.e.7.t.u.t.e.",
"e.t.7.u.e.t.e.t.t.t.7.u.t.e.u.e.e.u.u.e.t.r.e.e.e.e.e.7.e.e.7.e.4.r.4.4.4.4.4.r.4.0.4.r.4.4.r.4.i.4.4.s.4.4.y.4.4.y.4.4.4.y.4.4.e.3.4.4.3.e.0.4.e.e.e.e.e.e.e.3.r.4.e.0.0.4.0.4.4.0.9.e.9.e.3.0.3.3.9.9.0.e.3.3.0.4.4.0.0.0.e.e.e.9.e.0.e.e.e.e.r.0.0.e.e.0.e.e.0.9.9.3.3.0.9.2.3.2.3.4.2.3.2.9.e.3.0.e.4.0.4.0.0.0.e.3.3.3.0.0.9.9.3.3.3.0.4.e.0.4.0.e.e.e.e.e.9.9.3.3.0.9.9.9.9.0.0.0.9.9.3.3.:.2.2.3.2.2.2.2.3.9.3.3.2.9.9.9.0.3.9.9.9.3.3.8.2.9.3.8.2.2.8.3.4.4.1.4.3.3.1.4.4.1.4.4.1.4.4.3.3.3.3.3.1.4.1.1.3.3.3.3.3.1.3.1.*.3.1.3.3.3.1.3.3.3.3.3.3.3.3.3.4.:.1.1.1.:.:.4.4.:.4.:.4.1.4.*.4.:.4.1.4.1.4.4.4.4.4.1.4.0.0.0.0.2.s.3.3.w.4.3.3.4.4.4.3.1.3.3.4.2.4.2.3.3.4.2.2.4.3.0.2.4.4.2.3.2.3.0.2.3.0.0.3.2.3.0.3.2.0.3.4.e.3.0.3.e.3.0.3.9.3.e.9.9.9.9.3.9.3.9.3.9.9.9.0.0.9.9.9.9.3.3.0.3.0.3.3.3.2.2.9.0.3.0.3.3.3.0.4.4.4.4.4.4.4.4.4.3.4.4.3.4.4.4.4.4.s.4.4.i.4.4.4.4.s.4.4.r.4.4.0.4.0.3.4.4.e.4.4.4.r.e.r.4.r.4.e.u.7.e.e.e.u.7.7.u.e.7.u.e.e.u.e.e.e.e.e.7.u.e.u.e.e.e.r.e.e.e.e.e.t.u.t.u.7.t.t.7.e.e.7.e.e.e.e.t.e.7.t.e.e.7.e.7.e.t.7.7.e.e.",
"e.e.t.e.e.u.7.u.e.e.t.7.e.p.7.u.u.u.e.e.t.e.e.e.e.e.e.e.e.e.e.7.4.r.4.4.4.4.4.r.4.r.4.4.4.4.4.0.4.4.4.4.4.4.4.r.y.4.4.4.0.4.4.y.4.e.3.e.0.4.e.4.r.4.e.4.9.e.3.e.e.0.4.4.4.0.4.e.e.0.4.e.e.0.3.4.3.3.9.e.0.3.9.0.3.0.0.4.e.0.0.e.0.0.e.e.e.0.4.4.e.e.r.e.e.e.0.e.4.0.3.9.3.2.3.3.2.9.9.2.3.2.3.3.e.0.e.0.3.e.4.4.4.0.0.3.0.3.0.3.9.9.2.3.3.0.0.e.e.0.0.e.e.r.e.e.0.3.9.9.0.e.0.0.0.4.0.3.9.9.2.9.2.2.3.2.2.3.3.2.0.3.3.9.9.0.9.9.3.3.3.3.3.2.3.3.3.3.3.2.8.9.2.9.3.4.1.1.4.4.4.1.1.1.4.4.3.3.3.3.3.1.3.1.3.3.4.3.3.1.4.3.3.1.3.3.3.3.3.*.3.%.3.3.3.1.3.3.3.3.%.1.1.*.4.4.*.1.1.*.1.4.:.4.*.4.1.4.1.4.4.1.4.4.4.1.4.1.4.4.4.s.0.4.4.4.4.2.3.3.3.3.w.3.3.3.3.3.w.3.4.2.0.4.4.4.2.4.0.4.0.2.2.4.4.4.0.3.0.2.3.3.0.2.3.0.3.0.3.0.0.3.0.3.3.0.0.3.4.4.4.3.3.0.9.0.3.9.9.9.3.9.e.3.9.3.3.e.9.0.0.3.3.3.3.0.9.0.2.3.3.0.9.9.0.3.3.9.3.0.0.4.e.4.4.e.4.4.4.0.4.4.e.e.e.e.4.4.4.4.4.4.4.r.i.4.4.s.y.4.4.y.4.r.4.3.4.4.4.e.r.4.4.4.r.4.4.i.e.e.e.7.u.7.e.e.e.e.e.e.e.7.u.e.7.e.e.e.7.e.u.7.e.e.e.e.e.e.u.e.e.e.7.u.t.e.u.7.7.e.t.e.e.7.u.t.e.u.t.7.t.e.e.e.e.t.e.e.u.e.e.e.",
"u.u.p.p.u.7.t.t.p.7.t.p.u.e.u.t.r.t.u.e.e.e.e.e.e.e.7.e.e.e.e.e.4.4.4.4.4.4.r.r.4.4.4.4.r.4.r.4.4.i.4.4.4.4.4.4.4.4.4.4.4.4.4.0.e.9.0.3.e.e.r.0.0.0.e.0.e.9.e.9.4.0.4.r.4.e.e.4.3.e.e.3.3.e.3.e.3.9.3.4.9.e.e.3.e.3.e.3.0.e.e.e.e.e.e.0.0.e.9.0.0.0.0.e.e.0.0.e.0.0.3.3.0.0.3.3.3.3.2.3.3.2.3.0.4.0.3.0.3.0.0.e.e.3.3.0.3.9.3.3.3.9.3.0.3.0.e.0.e.e.e.e.e.e.0.r.e.0.0.9.3.9.0.0.0.0.4.0.9.9.3.2.3.3.2.3.3.3.3.3.3.2.3.2.3.2.9.9.3.9.3.8.9.2.9.2.8.8.2.9.3.8.8.3.3.3.4.4.1.1.4.4.4.4.1.4.4.1.1.4.1.4.4.1.3.3.1.3.3.3.1.3.1.3.1.3.1.4.1.3.3.3.1.3.3.3.3.3.3.3.3.3.4.:.1.:.4.4.4.4.4.:.4.1.4.*.:.4.4.*.1.4.1.*.4.1.4.4.1.4.4.4.4.0.4.0.4.0.w.3.3.w.3.3.3.3.3.3.3.3.3.0.3.3.2.2.4.2.4.2.4.4.0.4.2.0.3.2.3.3.3.0.3.3.3.2.2.0.3.3.3.0.3.0.4.3.4.3.0.3.0.0.3.e.9.3.3.0.3.9.9.3.3.0.3.0.0.3.e.3.e.3.e.0.0.2.9.9.0.9.3.0.2.2.4.2.3.2.3.4.4.e.r.4.4.e.4.e.4.4.r.4.e.4.r.4.s.4.4.i.i.4.s.4.4.i.4.4.4.r.r.4.0.4.3.3.3.3.3.0.4.0.r.e.4.r.r.4.e.e.e.u.e.e.e.e.e.u.7.e.e.e.e.e.e.t.e.u.e.t.e.e.e.t.e.e.e.4.7.e.u.7.e.e.e.7.e.e.e.u.7.u.t.u.7.e.e.7.u.e.7.e.t.7.7.7.t.u.t.e.u.7.",
"7.7.p.p.u.p.p.p.u.u.7.7.7.7.u.u.e.e.e.e.e.,.e.,.,.7.e.e.e.e.e.4.4.4.4.3.4.4.0.4.r.4.4.4.4.4.4.4.s.4.i.s.s.4.4.r.y.4.4.4.4.4.4.4.9.e.3.4.0.4.r.4.4.r.e.e.0.e.e.9.r.4.e.4.e.e.e.0.e.4.9.9.4.3.3.e.e.0.3.0.9.4.0.0.0.9.9.0.4.0.e.e.0.e.0.3.0.9.0.e.e.0.0.e.e.e.e.e.0.4.0.8.9.9.0.2.9.2.3.3.3.0.3.0.e.0.4.e.e.3.e.0.e.0.3.3.e.e.9.0.3.3.3.9.0.4.0.e.0.e.e.e.0.r.e.e.r.0.3.0.0.3.3.3.4.0.0.3.3.3.3.3.3.2.3.3.3.3.3.3.3.2.3.3.3.2.0.3.0.9.9.9.3.3.9.8.3.2.3.8.9.2.2.9.1.4.4.1.4.4.4.4.1.4.4.4.3.3.4.1.4.3.1.3.1.3.1.3.3.1.3.4.3.3.3.1.1.3.4.3.3.3.1.3.3.3.3.1.3.3.1.3.4.1.1.4.1.4.1.4.1.4.:.4.4.4.:.4.1.1.4.4.4.4.1.4.4.4.4.4.4.4.0.4.4.4.0.4.3.4.w.3.3.3.4.3.w.1.3.3.4.2.2.4.4.2.2.4.0.4.2.0.4.2.2.4.0.3.3.3.3.2.3.3.3.3.3.3.8.3.3.3.3.0.0.3.3.0.3.3.3.3.3.3.3.3.3.3.9.3.9.3.4.0.3.e.3.0.3.0.e.0.e.3.4.3.9.9.3.9.8.3.3.9.2.3.3.2.3.0.e.4.4.0.4.4.4.e.e.4.4.r.4.r.4.r.4.i.s.4.4.i.i.r.s.4.4.i.y.4.r.4.4.0.2.3.2.3.3.3.r.e.e.4.e.r.4.i.e.e.e.e.e.e.e.7.7.u.7.e.e.e.7.e.e.e.e.e.e.u.e.e.e.u.t.7.7.u.e.4.e.u.t.t.t.u.e.7.7.e.t.e.7.e.e.e.7.t.e.e.7.u.e.t.e.u.7.t.t.u.t.7.",
"p.u.p.7.p.7.7.p.7.u.u.u.p.u.u.7.t.e.e.e.e.e.7.e.4.4.,.e.,.7.e.,.4.3.4.3.3.3.4.4.4.4.4.4.4.4.e.3.4.4.4.4.4.4.r.4.4.4.4.4.4.4.y.4.0.4.3.3.4.0.4.4.0.4.4.e.4.4.e.e.4.e.e.4.0.e.e.e.3.0.e.3.0.4.9.3.9.3.e.9.9.9.3.3.3.e.e.9.0.4.0.4.3.9.9.e.e.0.e.e.0.e.e.e.0.0.e.0.0.0.4.9.3.0.3.0.3.3.2.3.4.0.0.4.0.4.0.3.9.0.e.e.e.0.3.4.0.3.3.3.2.3.2.0.4.0.e.e.0.e.e.0.e.e.e.e.e.3.0.3.0.e.0.3.0.0.4.0.0.3.2.2.2.3.3.2.2.3.3.3.0.3.3.3.0.3.9.0.9.9.9.9.8.9.9.9.9.3.2.9.2.9.2.9.3.3.3.3.3.1.1.4.4.4.4.1.3.3.3.3.3.3.3.3.3.3.3.3.3.3.3.1.3.1.3.3.4.3.3.1.1.3.3.3.1.%.3.%.1.1.%.3.1.*.4.:.1.4.4.:.4.:.4.1.4.1.4.4.4.4.*.1.1.4.4.4.1.4.4.0.0.1.4.4.4.0.2.4.3.4.2.3.3.3.3.2.4.4.3.3.3.3.0.4.2.0.4.3.2.2.4.3.2.0.4.4.3.0.0.2.3.0.3.0.2.3.2.3.3.0.0.2.3.3.0.3.3.0.e.0.9.3.3.0.3.0.3.9.3.9.3.9.3.3.9.9.3.3.3.3.3.3.0.0.9.0.9.9.9.9.0.3.3.3.0.3.0.9.0.0.0.e.e.4.e.e.e.4.3.0.e.4.e.e.4.4.4.4.4.4.i.4.4.4.4.i.4.4.4.r.4.r.4.3.3.2.3.3.3.3.4.4.e.4.e.4.r.4.e.e.u.7.7.e.u.e.e.e.u.e.e.7.u.e.u.e.e.t.e.e.e.t.e.e.e.e.e.e.e.e.e.7.e.7.e.7.e.t.t.e.7.e.e.t.7.u.e.e.t.7.e.t.e.7.e.u.u.e.e.e.e.t.",
"7.p.7.u.p.7.u.7.u.u.u.7.7.u.e.u.u.e.e.,.>.7.4.,.e.e.e.e.e.>.e.7.4.4.4.4.4.4.4.4.4.i.4.4.4.0.4.0.9.e.4.0.0.4.e.3.0.e.0.3.3.0.0.4.4.3.e.3.e.e.0.4.e.9.e.9.e.e.4.e.4.4.4.4.r.0.4.0.4.4.3.0.4.0.e.9.3.0.3.0.0.3.3.3.4.3.3.e.e.0.e.0.e.4.e.0.e.0.4.e.e.r.e.e.e.e.0.0.0.0.3.3.0.3.3.9.9.3.3.8.9.0.0.0.9.9.4.0.0.3.0.e.9.9.9.3.3.3.4.0.3.0.3.0.3.e.0.3.0.e.e.e.e.0.4.e.e.0.4.e.0.0.4.0.3.0.3.3.3.3.3.3.:.2.3.3.3.3.3.3.3.2.2.3.9.9.3.0.9.9.0.9.3.3.0.3.0.2.3.2.3.3.2.3.3.3.3.3.3.3.3.3.1.3.3.4.3.3.3.3.1.3.1.3.4.1.3.1.3.3.3.3.3.2.3.2.*.4.1.4.1.4.1.:.*.1.1.*.1.1.*.4.*.1.*.4.4.1.4.4.4.1.4.1.4.:.:.1.2.3.2.3.2.3.3.2.9.3.8.9.9.8.9.9.0.0.3.4.4.0.2.0.3.3.3.3.3.2.4.4.0.3.3.3.3.4.4.0.2.2.4.0.4.2.0.0.3.2.3.3.0.3.3.0.2.3.2.3.9.3.3.0.3.0.9.9.9.9.9.0.3.3.3.2.3.3.2.3.0.3.3.9.2.3.3.3.3.3.3.9.0.9.9.9.3.0.e.9.9.e.9.3.3.3.3.3.e.9.e.9.3.e.3.e.9.e.>.e.e.9.e.9.e.e.,.e.4.e.e.4.r.4.4.r.4.4.r.4.r.r.4.4.4.2.-.:.3.9.3.3.e.6.9.9.6.e.e.e.,.e.e.e.e.e.e.,.,.e.e.e.4.e.e.e.e.u.e.7.e.u.e.4.7.e.e.e.e.7.u.e.e.e.7.e.7.e.e.t.e.e.e.e.e.e.7.t.e.t.e.e.u.t.e.e.u.7.u.t.7.t.e.t.",
"p.p.p.p.p.u.u.u.7.7.t.u.u.7.u.7.e.e.e.e.4.,.e.e.e.6.7.4.7.e.e.4.4.4.4.4.4.4.s.4.4.4.4.0.r.4.r.4.e.4.0.9.3.3.0.3.3.3.3.3.3.3.3.e.4.4.3.e.4.0.4.e.9.e.9.e.e.4.4.0.4.e.4.4.4.4.e.4.0.3.0.4.0.4.3.e.9.4.9.3.3.3.0.0.9.0.0.e.e.e.e.4.0.0.e.4.0.e.0.4.0.0.0.e.0.e.0.4.e.0.e.0.0.3.9.3.8.3.3.3.3.0.4.9.9.e.9.3.3.0.4.3.0.9.3.3.3.3.0.4.3.4.3.0.0.3.0.e.0.r.e.e.e.e.0.0.0.e.0.0.4.r.0.4.0.4.e.0.e.3.3.3.3.2.3.3.3.3.3.3.3.3.3.0.8.9.9.9.2.3.9.3.0.3.2.3.3.3.3.2.3.2.3.2.4.1.1.4.4.1.4.4.4.3.4.1.4.4.1.4.4.3.4.3.3.3.3.3.3.3.2.2.3.3.2.3.4.1.4.:.:.:.1.:.4.1.*.4.1.*.1.1.*.4.*.4.1.4.1.4.*.4.:.4.1.4.4.4.3.3.3.2.3.3.0.3.9.9.9.9.9.9.3.8.0.2.2.0.4.0.4.2.3.2.2.3.3.4.0.2.4.2.0.2.2.0.2.0.4.0.4.2.0.2.4.2.0.3.0.3.2.0.3.3.3.3.3.0.9.0.9.3.0.3.9.8.9.9.3.2.3.2.3.0.3.0.0.3.2.0.0.9.9.2.3.2.2.3.9.9.9.9.e.9.e.3.e.e.e.9.3.3.3.9.3.3.3.4.9.e.4.9.9.3.e.6.e.6.6.e.9.e.e.9.9.e.0.4.4.e.e.e.r.4.4.r.4.r.4.r.4.r.3.3.:.2.>.>.2.9.9.t.6.9.e.q.6.e.e.e.4.e.4.e.e.e.e.e.e.7.e.e.e.u.e.7.u.4.e.4.,.u.e.e.e.e.4.u.7.e.e.7.e.e.7.e.7.e.u.t.7.u.7.e.t.u.u.7.7.e.7.u.t.e.t.u.e.e.u.e.e.e.",
"t.u.u.7.t.7.u.u.p.t.7.u.t.7.e.u.e.,.7.4.,.e.e.7.e.7.e.e.e.e.7.e.4.4.4.4.a.4.i.i.y.4.4.0.4.0.4.0.0.3.3.e.3.e.0.3.3.3.3.0.3.0.3.4.3.3.3.3.4.9.e.0.e.9.e.3.e.e.3.e.e.e.4.r.4.r.e.r.4.4.0.4.3.3.0.3.4.0.9.e.e.0.3.e.e.0.0.e.0.e.e.0.4.0.0.0.0.9.e.0.e.0.e.e.e.0.e.e.0.3.0.4.9.9.9.8.3.0.9.9.9.0.4.0.e.0.4.0.e.0.4.0.0.3.3.9.9.9.9.0.0.4.0.4.4.0.e.e.0.4.4.r.0.0.4.r.4.r.0.4.4.0.0.4.e.0.e.0.0.4.0.3.3.3.2.3.2.3.3.2.2.3.3.3.0.3.0.3.3.8.2.3.0.2.2.0.0.3.3.3.3.3.3.2.3.3.3.3.3.4.3.1.3.4.4.1.3.1.3.3.3.3.4.3.3.1.3.3.3.1.3.3.2.3.3.2.:.:.4.1.:.1.4.1.1.*.*.1.*.*.1.*.4.4.4.1.4.4.4.1.1.4.:.4.4.1.4.1.3.3.3.3.3.3.3.3.2.9.8.0.9.0.9.9.4.2.4.0.4.2.4.3.3.4.2.0.3.3.2.3.3.0.2.0.3.0.3.4.3.0.0.2.0.4.2.4.3.3.0.2.3.2.3.2.0.3.3.3.8.0.3.0.3.9.3.9.3.0.0.3.3.3.3.3.3.2.3.3.3.9.9.8.3.2.2.3.3.2.3.0.9.9.9.9.3.e.e.9.9.9.3.3.e.3.3.e.9.e.9.9.e.3.e.3.>.e.e.6.e.6.e.7.e.e.e.e.4.r.0.4.4.r.4.r.4.r.0.4.r.4.0.4.3.2.2.>.-.3.3.9.9.6.6.e.6.e.9.e.,.7.e.e.e.e.e.7.e.e.e.7.e.e.e.e.e.e.7.e.e.7.e.e.e.e.e.7.e.e.7.e.7.7.e.7.e.7.7.t.7.t.e.7.u.t.e.7.e.e.u.t.t.e.t.e.t.u.7.t.e.e.u.7.",
"7.t.e.t.u.u.p.7.7.u.u.e.u.e.e.7.t.e.e.e.,.e.e.e.e.e.e.e.e.e.3.e.4.4.a.4.4.i.4.4.4.r.4.4.r.4.0.4.4.e.0.3.0.4.3.3.3.3.3.3.e.3.0.4.e.3.e.3.0.3.e.4.9.e.9.e.9.e.e.e.0.4.r.4.r.4.4.0.r.0.4.0.4.0.3.0.9.3.3.0.e.4.e.0.e.e.0.e.e.0.0.0.e.e.e.e.e.e.0.e.0.e.e.0.e.e.e.0.0.0.4.0.9.9.9.9.9.3.9.2.9.9.9.0.e.3.0.4.e.3.0.3.0.4.9.3.4.0.4.0.4.0.0.4.0.e.e.0.4.0.0.4.0.e.0.4.0.4.4.0.0.0.4.r.e.0.e.e.e.0.3.e.4.3.2.2.2.3.2.:.2.0.0.2.9.3.3.2.3.3.3.9.3.3.3.3.3.2.2.3.2.2.3.3.4.1.3.4.3.1.3.3.3.1.3.4.3.4.1.4.1.3.1.3.3.4.3.3.3.3.2.3.3.2.4.1.3.1.:.4.4.*.4.*.1.*.4.1.4.1.1.4.1.*.1.4.1.4.:.4.4.4.1.1.*.4.4.:.3.3.3.3.0.3.3.0.9.3.9.9.9.8.8.9.0.0.4.2.3.0.2.0.4.2.4.2.4.2.3.3.3.0.3.3.4.2.0.3.2.4.2.0.2.4.0.0.0.3.3.3.3.3.3.2.2.0.2.0.3.3.2.0.9.9.9.9.3.3.0.2.3.2.0.3.3.0.0.3.9.2.2.3.2.3.2.2.3.3.3.4.9.e.9.e.9.e.e.e.3.e.4.3.9.e.9.e.3.9.e.9.9.9.e.9.e.9.6.e.9.e.e.9.6.e.3.e.4.r.4.r.r.4.r.4.4.4.r.4.4.4.3.4.3.3.-.3.>.-.>.9.9.9.9.e.6.9.e.6.e.e.e.7.7.,.e.e.4.e.e.e.4.e.7.e.e.e.e.e.e.e.e.u.e.e.e.e.,.4.4.e.7.e.7.e.7.e.e.e.7.e.t.e.e.7.e.e.7.e.t.7.e.u.e.u.e.e.u.t.u.t.t.u.",
"u.e.u.e.u.e.u.u.u.e.e.u.e.e.u.t.e.u.e.7.e.e.e.e.e.e.e.e.7.e.e.e.4.a.4.a.4.s.4.4.4.4.4.0.4.y.4.0.0.0.3.0.4.0.3.0.3.3.9.0.0.3.3.3.4.0.9.e.4.9.e.e.e.9.e.9.0.4.r.4.y.4.4.r.4.4.r.0.4.0.4.3.0.3.3.0.0.9.9.e.0.e.e.e.e.e.0.e.0.e.e.e.0.e.0.e.e.0.e.0.3.0.e.e.0.e.e.0.0.0.4.4.3.0.9.9.2.3.2.0.3.3.9.9.0.0.0.4.3.e.0.0.3.9.0.3.9.0.4.4.0.e.4.0.0.e.0.e.4.0.4.0.0.r.4.0.4.0.0.4.4.0.4.0.4.e.r.0.0.0.4.0.0.3.2.2.2.3.3.2.3.3.3.3.3.3.2.3.0.3.9.2.0.3.3.3.0.3.3.2.3.3.3.2.3.1.4.1.4.1.4.1.1.4.3.3.1.4.3.1.4.4.4.1.3.3.3.1.3.1.3.3.3.1.3.3.1.4.1.4.1.1.4.*.4.*.1.*.1.1.1.*.1.:.4.:.4.4.4.1.*.4.1.4.4.1.4.4.3.3.3.3.9.0.3.2.3.9.9.9.9.8.9.9.2.4.3.4.2.4.4.2.3.3.0.2.2.0.3.2.2.4.4.3.3.2.3.0.0.4.4.0.2.4.4.2.2.0.3.3.2.3.3.3.3.3.0.2.9.8.0.9.3.0.9.9.0.2.3.0.3.0.3.2.2.0.0.8.2.3.3.2.3.3.2.3.3.9.0.e.9.e.e.3.e.9.e.9.e.9.3.9.e.e.9.4.3.9.e.4.9.,.e.6.e.>.>.e.6.e.e.9.e.3.e.e.0.4.r.4.4.4.4.r.r.4.4.4.4.4.4.3.3.*.3.2.3.-.9.9.6.9.9.9.e.6.9.e.e.e.6.e.e.e.7.e.e.e.7.4.e.e.e.t.7.e.e.e.e.e.e.e.e.7.e.e.4.,.e.4.e.6.e.e.7.e.7.7.u.7.e.t.7.e.e.t.u.e.e.7.u.t.t.7.e.t.t.u.7.e.u.t.",
"e.u.u.e.e.e.e.e.e.u.u.e.7.t.7.u.u.e.e.e.,.e.e.7.7.t.e.e.e.e.e.4.4.4.i.4.i.4.i.i.0.4.4.4.0.4.r.4.4.e.e.3.3.0.4.3.3.9.9.3.e.3.e.0.e.e.e.3.e.e.4.0.4.0.9.e.4.0.4.e.4.4.r.4.r.r.r.4.y.4.y.4.4.4.0.4.3.e.3.0.0.e.0.e.0.e.e.0.e.0.0.e.0.e.e.e.e.e.e.0.e.e.0.0.e.0.e.3.4.0.0.0.e.3.0.3.3.0.9.3.9.3.3.4.e.e.e.e.0.e.4.4.0.3.3.e.4.0.9.0.0.4.0.e.4.e.0.0.0.e.e.0.4.4.0.0.0.4.r.0.0.e.r.4.0.e.0.4.4.4.0.4.4.2.2.2.:.3.2.3.3.2.0.3.3.0.0.3.2.0.9.9.3.0.3.0.3.2.3.3.3.2.3.2.4.1.3.3.3.3.3.3.1.3.4.1.3.3.4.1.4.1.4.4.4.1.3.3.3.3.3.3.3.3.2.2.4.:.4.1.4.*.4.1.*.1.*.1.*.*.4.4.4.4.1.4.4.1.4.4.4.1.*.:.*.4.1.1.2.3.3.3.9.3.3.0.9.2.9.9.9.0.9.8.0.4.0.2.0.2.2.4.3.2.3.3.4.2.3.3.0.4.0.2.3.3.0.3.0.4.2.0.2.0.0.2.3.3.3.2.3.2.2.3.0.3.3.0.9.3.3.9.0.3.0.3.3.0.0.3.3.2.3.0.3.3.3.9.3.3.2.3.3.2.3.3.9.9.3.3.9.3.0.e.9.e.3.e.9.e.e.e.9.9.9.e.e.3.3.9.e.9.3.e.6.e.e.6.e.e.6.e.e.e.e.e.4.r.4.4.y.y.4.4.4.r.r.4.r.4.4.4.3.3.*.3.-.>.>.9.9.6.6.9.9.6.6.6.6.,.e.e.,.e.e.,.4.e.e.e.4.7.e.e.e.e.t.e.u.e.e.7.e.e.,.3.e.e.,.,.7.e.7.e.e.t.u.e.e.t.e.e.t.e.u.7.7.t.t.u.t.e.u.e.e.u.7.e.u.t.e.e.",
"u.u.7.u.u.u.e.p.u.e.7.u.7.u.u.e.e.e.e.e.e.e.e.e.e.e.e.e.t.e.e.e.4.4.4.i.4.i.4.4.4.4.4.y.4.4.0.4.e.4.e.3.3.4.e.3.4.3.0.e.e.0.0.4.e.0.e.e.9.e.e.e.3.e.0.4.e.4.0.4.4.y.4.r.r.4.0.4.4.y.4.0.0.4.4.4.0.3.e.0.e.9.3.0.e.0.0.0.e.e.r.0.e.e.0.0.0.0.e.e.e.0.e.e.0.e.0.3.0.4.e.3.0.0.0.0.0.0.4.4.0.2.0.e.e.0.0.0.0.3.0.9.9.9.e.0.0.4.4.0.4.e.4.0.4.0.3.4.e.0.e.0.0.e.e.e.0.4.0.4.4.0.0.4.4.0.e.e.e.0.0.4.0.3.3.3.2.3.3.3.3.3.2.3.3.3.9.3.3.0.2.3.0.0.3.3.0.2.2.3.3.3.3.2.4.3.4.1.3.3.3.3.4.1.4.3.1.3.1.3.3.4.1.4.3.3.3.3.3.3.3.1.1.3.3.4.*.1.4.4.4.4.*.1.*.*.4.1.*.1.1.1.:.4.4.1.4.1.1.4.4.*.4.4.4.1.4.4.9.3.3.9.3.3.2.9.9.3.8.0.9.8.2.9.2.4.0.4.3.4.4.2.3.2.3.3.3.0.3.3.0.2.3.2.0.3.0.2.2.2.4.4.4.0.4.4.3.2.0.3.3.0.3.2.3.3.3.0.9.0.0.3.0.4.9.0.9.3.2.3.3.0.2.0.0.3.3.9.3.2.2.2.2.3.3.3.9.9.3.e.e.9.0.4.e.9.e.9.e.9.e.9.9.e.e.9.9.e.9.e.6.e.9.6.e.9.7.e.e.9.e.6.4.e.3.e.4.4.y.4.4.4.r.r.r.4.4.r.4.4.4.4.3.3.*.2.3.-.>.9.6.9.9.9.6.9.6.6.e.,.e.,.e.7.7.e.e.e.e.7.e.e.e.e.e.e.e.e.e.e.,.4.e.,.,.e.>.e.7.e.e.e.t.e.u.7.e.e.e.e.7.u.7.u.e.7.e.7.t.7.e.t.7.e.u.t.t.e.u.e.t.7.",
"e.7.u.e.7.e.u.7.e.e.u.e.u.e.e.e.e.e.e.t.e.u.e.u.e.u.u.e.e.e.7.e.s.4.i.4.i.4.4.4.s.4.4.4.4.y.4.0.4.0.e.e.0.e.3.4.0.9.e.e.e.4.e.3.e.4.4.0.4.3.0.4.e.e.3.0.4.r.4.r.4.4.0.4.4.r.4.r.0.4.y.0.4.0.y.4.4.0.e.3.9.4.0.9.e.e.e.4.0.e.0.r.0.e.e.e.e.e.0.e.e.e.0.e.4.0.e.3.0.4.0.0.0.4.e.0.3.0.0.0.3.0.0.0.e.e.e.e.e.e.3.e.9.4.0.3.4.4.0.4.4.0.0.4.0.4.0.e.e.0.e.e.0.e.0.e.4.0.0.4.r.0.4.0.0.e.0.0.e.e.0.0.3.3.3.3.2.2.2.2.2.2.2.3.2.0.3.9.3.3.3.0.2.3.3.2.3.3.3.3.2.2.3.3.1.3.3.3.4.1.4.1.3.3.3.3.4.3.4.3.3.4.1.4.1.3.3.3.1.3.3.3.3.3.3.1.1.4.1.:.1.1.*.*.1.*.*.*.1.*.4.*.4.*.4.1.4.4.1.4.4.1.*.1.4.4.1.4.3.2.3.3.3.3.0.3.9.8.9.9.9.9.9.9.4.2.2.4.3.2.2.4.3.4.3.2.3.2.4.2.3.0.3.0.3.3.3.0.4.0.0.2.0.2.2.0.3.0.3.3.3.0.3.0.3.0.2.3.3.4.0.0.0.0.0.3.0.0.3.0.3.3.0.3.3.0.0.9.3.3.3.2.3.3.9.4.e.3.0.9.3.e.e.4.e.e.9.e.9.e.4.e.e.9.9.e.e.9.e.9.e.>.6.e.9.7.9.3.9.7.e.6.e.9.e.e.r.4.4.4.4.y.4.r.4.0.r.4.0.4.r.4.3.2.2.&.>.>.3.>.3.6.9.6.e.9.6.>.,.e.,.e.,.e.e.>.4.e.e.e.4.e.e.e.e.e.e.7.,.4.,.,.>.,.6.>.,.e.e.e.7.7.e.t.e.t.u.7.t.7.t.e.e.e.t.t.u.e.e.e.e.u.u.t.e.e.u.7.t.e.t.u.",
"e.t.u.7.u.e.e.u.u.r.r.u.e.e.e.e.e.e.7.e.e.t.r.e.e.u.r.e.e.e.t.e.4.i.4.4.4.i.4.s.e.3.9.e.4.3.3.0.e.0.0.3.3.3.4.0.r.4.0.4.e.0.3.e.3.4.e.4.0.3.4.4.e.e.4.0.4.r.4.4.y.r.y.4.4.r.4.4.4.4.4.0.0.4.0.0.4.0.4.0.4.0.4.0.0.3.e.e.0.e.e.r.e.e.0.e.0.e.0.0.r.r.e.e.e.0.e.e.0.4.0.0.3.0.3.3.2.0.0.3.9.9.3.0.0.4.0.4.e.r.0.4.4.r.4.4.0.0.4.0.r.0.4.0.4.0.4.4.0.4.0.e.0.e.0.e.r.0.4.0.0.4.0.0.r.r.4.0.4.r.4.3.3.0.9.0.3.2.-.2.:.3.3.3.3.3.9.2.0.3.0.3.0.2.0.3.3.3.3.0.2.3.2.3.1.4.3.4.3.3.4.4.3.3.3.3.3.3.3.3.3.1.3.3.3.3.3.1.3.4.2.3.2.3.3.3.4.4.4.1.*.*.1.%.1.*.*.1.1.4.1.4.1.4.4.*.4.1.4.4.4.*.1.4.1.4.4.4.3.9.3.9.0.9.9.3.3.3.8.2.9.9.9.8.3.3.2.3.3.3.3.3.0.2.3.0.2.3.3.3.3.0.3.0.3.3.3.3.0.3.0.2.3.0.2.0.0.3.3.3.0.3.3.0.0.3.3.0.2.0.3.0.3.9.9.0.9.2.0.0.2.3.0.2.3.3.3.3.3.9.2.3.3.9.0.9.9.9.e.e.e.e.0.0.e.3.e.e.e.4.r.4.e.9.e.9.e.>.9.e.e.e.e.9.e.9.e.>.e.9.e.e.6.6.9.e.4.r.4.4.r.4.r.4.4.4.4.4.s.4.4.4.3.2.2.3.3.3.3.3.>.6.6.>.6.6.>.6.>.7.e.>.>.e.e.,.e.e.9.7.e.e.e.7.e.e.e.,.>.e.7.e.>.7.>.e.e.t.e.e.t.e.e.e.7.e.u.t.u.t.e.e.t.7.7.u.t.u.e.e.t.e.t.u.u.7.u.u.t.t.e.e.",
"e.7.e.e.e.e.e.7.u.4.4.e.e.u.u.e.e.e.e.e.e.e.e.e.u.e.e.u.r.e.e.e.i.4.4.i.s.4.i.4.4.e.e.9.e.0.4.4.e.4.4.4.4.4.0.4.4.0.4.e.0.4.0.e.0.3.3.0.4.e.0.3.e.e.e.4.0.4.4.0.4.4.r.4.4.y.0.y.0.y.0.4.4.0.0.4.0.4.e.3.0.4.0.3.0.e.e.0.0.e.e.0.0.4.0.e.e.e.0.e.r.0.e.0.0.e.e.0.0.0.0.e.0.4.0.9.9.9.3.0.9.9.4.0.0.0.0.e.0.4.4.0.0.4.0.0.r.4.0.4.0.4.4.0.0.0.0.r.r.0.0.e.e.4.4.0.0.4.4.r.4.r.0.4.4.0.4.0.0.0.0.4.3.3.0.e.3.3.:.-.:.2.2.3.9.3.3.3.3.3.2.3.3.3.3.3.0.3.3.3.2.3.3.2.3.3.3.1.1.3.1.3.3.4.1.3.1.4.1.3.3.3.3.1.1.3.3.4.2.4.3.2.2.3.4.1.1.:.1.*.1.*.*.*.*.1.1.*.*.4.4.1.4.1.4.4.4.1.4.1.1.4.4.4.4.4.1.4.3.3.9.9.3.3.2.0.0.3.9.9.8.9.9.8.4.3.0.3.0.2.0.2.0.3.3.3.3.2.2.3.3.2.3.2.0.3.2.0.3.3.3.3.3.3.3.3.3.0.3.2.2.3.3.2.3.2.0.3.0.4.0.3.9.9.9.3.0.3.3.3.0.3.3.3.8.3.0.2.3.2.2.3.3.9.9.e.9.e.0.4.e.4.4.4.e.e.4.4.4.0.4.0.9.e.9.e.9.e.4.9.9.e.6.e.6.e.6.e.6.e.6.e.e.e.e.>.4.y.r.4.4.r.4.4.4.4.4.s.3.4.4.4.3.3.3.3.2.%.3.3.3.6.3.9.>.9.9.6.e.>.4.7.,.4.7.e.7.e.e.e.7.e.e.e.7.e.7.e.e.,.>.e.>.,.,.e.>.e.e.e.7.e.e.t.u.t.u.7.7.e.7.u.e.e.e.e.e.7.e.t.e.7.e.e.e.t.7.e.e.7.7.e.",
"e.e.7.e.e.u.e.e.r.r.r.r.e.u.e.e.7.u.e.e.e.e.e.u.e.e.e.e.e.e.e.r.4.a.4.i.4.4.i.4.e.e.3.e.0.4.3.e.e.0.4.4.4.4.3.4.e.4.0.4.4.e.4.e.3.4.4.0.4.3.3.0.e.e.e.e.4.r.0.4.r.r.4.r.4.r.y.4.4.4.0.4.4.0.y.4.0.0.4.0.0.e.4.e.r.0.0.e.e.e.0.4.3.9.e.0.3.e.r.0.0.0.e.e.e.e.e.0.4.0.0.0.0.0.0.0.3.0.0.3.9.8.9.0.4.4.e.4.0.0.0.0.0.0.r.0.4.0.0.r.4.0.r.4.r.4.4.0.e.e.e.e.e.0.4.0.4.0.0.4.4.0.0.4.e.0.0.4.0.4.9.4.9.9.0.0.3.3.3.-.:.2.2.3.3.9.2.2.3.3.0.3.3.3.0.2.2.3.2.2.3.3.3.2.1.4.4.1.4.1.4.3.1.4.3.3.4.3.1.4.3.1.3.3.3.3.3.3.4.2.3.3.3.3.3.3.4.1.*.1.1.*.%.1.*.*.*.*.4.*.:.1.4.1.1.4.4.4.1.4.4.4.4.1.4.1.4.4.3.3.3.3.3.3.3.3.9.8.8.9.9.9.9.9.0.2.3.0.3.3.4.0.3.0.2.0.3.2.3.4.3.0.3.3.3.0.3.3.2.3.0.3.3.3.3.3.0.3.3.3.3.2.0.3.3.3.0.3.3.9.0.0.9.9.9.9.0.3.3.0.3.0.3.3.8.3.3.3.3.2.3.3.3.9.e.9.0.e.4.e.0.4.e.4.e.e.4.0.e.4.e.4.3.e.9.e.e.9.9.9.9.7.9.7.e.6.e.6.e.e.>.9.6.e.e.9.4.4.r.4.r.r.4.r.4.s.4.4.4.4.4.4.3.3.3.3.3.3.3.3.9.6.9.6.6.6.9.6.7.>.,.4.>.e.7.e.e.e.,.e.e.e.e.e.e.,.e.4.6.>.>.-.>.6.>.e.e.e.7.e.e.e.7.e.e.t.e.t.t.e.e.7.t.u.e.t.7.t.e.7.7.e.t.7.7.e.t.e.e.e.u.t.",
"e.e.e.e.4.7.e.e.u.4.4.4.e.4.4.e.e.u.t.e.e.r.r.e.e.r.u.e.e.t.e.e.4.4.s.4.4.4.4.i.e.e.e.e.9.e.4.0.e.4.4.4.4.4.e.4.4.r.4.r.4.4.e.4.e.0.4.3.0.3.e.4.e.4.0.4.e.e.4.r.4.4.r.4.r.4.4.y.s.4.s.0.0.4.4.4.4.e.e.0.4.4.0.0.e.e.e.e.0.9.3.e.0.e.9.9.0.e.e.e.0.3.4.0.0.4.0.0.4.0.4.0.9.4.3.9.2.3.3.0.3.9.3.9.e.0.0.0.4.4.r.4.4.0.4.4.0.4.4.0.0.4.0.0.4.0.0.4.0.0.e.0.e.0.e.0.r.4.0.0.0.4.0.r.0.4.r.0.4.0.0.0.0.3.0.3.3.3.2.-.2.:.3.3.2.3.3.3.2.0.3.2.3.0.3.9.3.0.3.3.3.2.3.2.3.3.3.3.3.3.3.3.3.3.4.1.3.3.3.3.3.3.3.3.1.4.1.3.2.4.2.2.1.4.1.4.1.*.1.*.*.1.1.%.*.*.1.4.*.1.4.4.4.4.1.4.1.4.4.4.4.4.1.4.4.4.1.4.9.2.9.3.3.2.0.3.3.3.9.9.9.8.2.9.3.3.3.2.0.3.3.3.3.3.3.3.3.3.0.2.3.3.0.2.2.3.3.3.3.0.3.3.2.0.0.3.2.0.0.3.3.0.3.3.0.3.2.3.3.0.3.9.9.9.0.8.3.0.2.3.9.3.0.2.3.3.2.8.9.3.3.3.9.9.9.9.3.3.e.e.e.e.4.e.0.4.e.e.e.0.4.r.e.9.e.9.9.e.3.e.9.e.e.e.>.e.9.,.6.e.e.e.e.e.6.e.y.4.4.r.4.4.0.4.4.4.4.4.4.4.4.4.3.3.3.3.3.3.3.3.e.6.9.9.9.6.6.9.>.e.>.e.e.,.e.,.6.7.e.9.e.e.>.e.e.e.e.e.7.7.>.>.6.>.>.e.6.e.9.e.7.e.t.7.e.e.7.e.7.u.e.t.7.e.e.7.7.e.e.7.e.7.e.7.7.e.7.e.u.e.7.t.",
"4.4.r.4.u.4.u.4.i.4.r.i.u.4.4.e.e.e.e.e.e.e.u.e.e.e.e.e.e.e.e.e.i.4.r.4.r.4.4.r.4.e.4.e.r.4.0.4.e.4.4.0.e.4.e.r.r.4.r.4.e.4.e.4.0.3.3.e.3.e.0.3.4.0.4.4.0.4.4.4.4.y.y.4.4.0.4.r.4.4.4.0.4.0.4.s.0.e.4.0.0.0.e.0.0.e.e.0.e.0.0.e.e.0.3.9.9.e.9.e.0.0.0.0.e.0.0.3.4.9.0.3.9.3.3.3.3.3.9.8.9.3.0.4.0.4.4.0.0.e.0.4.r.4.0.0.4.0.4.0.e.0.4.0.0.4.4.0.e.e.0.e.e.0.4.e.0.4.0.r.4.0.0.4.e.e.0.4.0.4.0.4.0.4.3.0.9.3.2.2.2.2.2.2.3.3.3.2.3.3.3.3.2.3.0.3.3.3.3.3.2.2.:.3.1.4.3.4.1.4.4.4.1.3.3.1.4.3.3.4.4.1.3.4.4.1.4.4.2.3.3.3.3.3.3.2.4.*.*.1.*.1.1.*.1.*.4.*.1.4.1.:.4.1.1.4.4.1.4.1.1.4.1.4.4.4.4.1.3.3.2.0.3.3.9.2.3.3.8.9.3.2.2.0.0.3.0.3.0.2.3.3.0.3.0.3.3.3.0.3.3.0.3.0.3.2.0.3.3.2.3.3.3.3.3.3.2.0.0.3.3.3.2.3.3.2.3.0.0.2.9.9.9.9.9.2.0.3.0.3.9.3.3.3.9.2.3.3.9.3.9.3.9.9.e.9.e.9.3.e.e.e.e.4.4.e.0.e.4.r.4.0.9.e.6.e.e.9.9.e.e.e.>.e.e.3.4.9.6.e.9.e.9.6.e.e.4.r.4.4.4.4.4.4.4.4.4.4.s.4.4.4.4.4.3.4.3.3.3.4.9.9.6.6.6.9.6.9.e.>.4.e.e.,.7.e.e.e.e.e.7.e.e.7.9.e.e.e.e.6.>.>.>.7.e.>.e.7.6.9.7.e.7.e.7.u.t.e.u.e.7.e.t.e.e.e.e.e.7.e.7.e.7.e.7.7.7.e.7.e.7.u.",
"i.i.4.r.4.e.4.u.4.4.4.4.4.e.u.4.t.e.e.u.e.e.e.u.u.u.e.u.t.e.e.t.4.i.4.r.4.r.4.4.e.e.4.0.4.4.4.0.4.e.4.4.e.e.4.4.4.e.4.e.4.e.4.e.e.4.0.4.0.4.4.e.r.4.r.4.4.r.0.e.4.4.4.4.s.4.i.4.0.4.r.0.4.y.0.0.e.0.e.e.e.e.r.4.e.e.0.e.e.e.e.e.9.e.0.e.3.0.9.9.e.r.e.r.e.r.e.e.0.4.3.0.3.0.2.3.3.0.3.0.3.9.8.0.4.r.0.4.4.0.4.0.4.0.4.0.e.0.e.e.0.4.r.4.4.0.r.0.e.0.e.e.e.0.0.4.4.0.4.0.0.4.0.4.e.0.r.4.e.0.4.4.3.4.0.0.9.3.2.2.3.2.3.3.2.3.0.0.3.0.2.0.3.0.3.3.3.3.3.2.2.2.2.:.3.3.3.1.4.4.1.1.4.3.3.4.1.3.3.1.3.3.3.1.3.3.1.4.3.3.2.3.2.2.3.3.4.1.*.1.*.*.%.*.*.*.:.1.4.1.4.1.4.4.4.4.4.4.4.4.1.4.4.4.4.1.4.4.3.3.3.3.3.3.3.0.3.0.0.2.0.0.3.2.2.3.3.3.3.3.3.0.3.3.2.3.3.2.3.2.3.2.3.3.0.3.3.3.3.0.3.0.0.3.0.2.3.3.3.3.0.3.2.0.0.3.0.3.3.9.9.8.0.8.9.9.3.3.2.9.3.2.8.3.2.3.2.3.0.3.3.3.e.0.3.e.9.e.e.e.4.e.4.4.r.e.4.4.0.4.e.4.e.9.e.9.e.4.9.3.9.6.7.9.6.e.9.,.9.e.>.7.e.e.e.e.r.4.4.r.a.4.s.4.4.s.4.4.4.4.4.4.4.4.3.2.3.3.4.4.e.e.9.9.9.6.9.7.>.e.7.6.e.e.e.7.e.7.e.7.e.>.7.e.e.>.>.e.e.e.,.>.3.>.>.3.e.9.e.e.e.7.e.7.e.7.e.7.e.7.t.e.7.e.7.7.e.7.e.7.e.7.e.e.e.e.u.t.t.e.e.t.",
"4.r.4.4.u.4.u.4.4.r.u.4.u.r.e.u.t.e.e.u.e.u.e.r.e.e.e.u.t.e.e.e.r.4.4.4.y.4.4.r.r.4.r.4.4.0.4.r.4.4.r.4.4.4.r.4.e.e.e.4.e.4.e.4.3.4.e.3.3.3.4.4.4.e.4.0.0.4.r.4.4.y.4.y.4.4.s.4.r.4.4.4.4.0.0.4.0.e.0.e.e.0.0.e.0.3.e.0.0.e.e.0.0.4.3.e.e.3.9.3.e.0.e.r.r.0.e.0.4.0.0.4.0.9.3.2.9.9.0.4.3.9.4.0.0.0.0.0.0.0.r.0.4.0.r.4.0.4.0.4.4.4.0.0.0.0.4.4.e.e.0.0.e.4.e.0.0.r.4.4.0.4.r.0.e.e.0.0.0.e.4.0.0.4.3.e.4.3.3.-.2.3.3.2.3.3.3.3.3.2.3.3.3.3.9.3.3.3.3.3.3.2.2.:.4.3.4.1.3.1.4.3.3.3.1.4.4.3.4.1.3.1.4.3.4.1.4.4.3.2.3.3.3.2.3.2.1.*.1.*.1.1.%.1.1.*.4.*.:.4.4.4.4.4.1.1.4.1.4.1.4.4.4.4.4.4.4.4.3.3.3.3.3.3.3.0.3.3.9.8.3.8.3.0.3.3.0.2.0.3.0.3.3.3.0.3.2.0.3.3.3.0.3.3.3.3.0.2.0.3.3.3.3.2.3.0.3.0.2.0.3.0.3.3.2.0.3.3.3.9.3.9.3.3.0.9.0.3.9.3.3.3.2.2.3.2.3.3.3.9.3.9.9.e.3.3.e.9.e.e.e.4.e.0.4.0.e.e.e.e.4.r.9.e.9.e.9.9.9.9.e.>.9.6.e.>.>.e.,.9.6.9.e.9.9.e.4.4.i.4.4.4.s.4.4.s.s.4.4.4.4.4.4.4.4.2.2.4.4.3.9.6.9.6.6.6.>.6.7.,.e.e.e.7.4.e.e.7.e.e.7.e.>.>.e.7.9.e.9.6.>.>.>.>.>.3.>.3.4.>.6.e.e.e.7.t.e.7.e.t.e.t.e.7.t.e.e.e.7.e.7.e.e.e.t.e.e.7.7.u.e.t.",
"i.4.u.4.r.u.4.u.r.4.r.u.4.r.u.u.e.e.r.e.t.r.u.u.e.r.e.e.e.u.e.e.4.r.r.4.y.4.r.4.4.r.4.0.r.4.0.4.4.0.4.4.r.r.4.0.4.e.e.0.4.e.4.e.0.3.4.0.4.0.0.3.0.4.r.4.4.e.4.0.4.4.4.4.4.4.4.s.4.y.0.0.0.4.4.0.0.e.e.e.0.e.e.0.e.e.0.e.e.0.e.0.3.e.3.0.9.0.3.3.3.9.0.e.0.r.e.e.0.0.4.0.0.0.0.0.9.9.4.0.0.4.0.4.0.4.4.r.4.4.0.4.0.0.4.0.e.0.0.e.r.0.4.0.r.4.0.0.0.e.e.e.0.0.0.e.0.4.0.0.4.0.0.4.0.e.0.4.4.0.0.4.0.0.0.4.0.3.2.-.2.3.2.3.2.3.3.3.0.3.0.3.3.0.2.9.3.3.3.2.3.3.:.2.1.3.3.3.3.4.4.4.1.3.1.3.1.3.3.3.3.4.1.3.3.4.4.1.3.3.2.3.2.3.3.2.*.1.*.1.[ %.1.*.1.*.1.4.4.1.4.1.1.4.4.4.*.4.4.4.4.1.4.1.4.1.4.1.2.0.3.3.0.0.3.3.2.0.3.9.3.9.2.0.3.0.3.3.3.2.3.3.2.0.3.3.3.3.3.2.3.3.0.2.0.3.3.3.3.3.2.0.0.3.3.2.3.3.0.3.0.3.3.2.9.3.0.2.0.3.9.3.9.9.2.3.2.3.9.3.2.3.3.3.9.3.9.9.9.3.9.9.9.e.9.4.9.e.e.4.e.e.e.4.e.4.4.0.4.4.0.4.e.9.e.9.e.4.e.6.e.e.3.e.e.>.e.4.6.4.e.>.e.e.7.e.4.s.4.4.i.4.4.4.4.4.4.4.4.2.s.4.4.w.4.4.4.4.4.4.9.e.6.e.9.>.9.6.>.e.e.e.9.e.e.>.3.e.e.>.e.,.e.e.e.>.>.6.>.e.>.-.>.e.6.7.6.4.>.e.>.,.,.e.7.7.e.e.u.7.e.7.e.e.7.e.7.t.7.e.e.7.t.7.t.e.e.t.u.e.e.7.",
"r.e.e.e.e.e.7.t.e.e.e.u.e.u.r.r.e.u.u.u.e.e.e.e.e.e.e.r.e.e.e.e.e.e.e.4.4.r.4.4.r.4.4.4.4.4.r.4.4.4.0.4.0.4.0.4.0.0.e.0.e.e.9.3.0.e.e.e.e.9.e.3.9.e.0.e.e.0.e.e.3.e.9.e.3.e.3.e.e.0.e.0.e.e.0.e.e.e.0.e.0.0.e.e.e.e.0.0.e.e.e.e.e.e.0.e.e.9.0.0.3.3.9.e.0.e.e.0.9.9.e.0.e.e.e.e.0.0.e.0.0.r.4.0.0.4.0.4.0.4.0.4.e.e.0.e.e.0.3.e.4.0.0.4.4.0.0.4.4.y.0.4.4.0.4.0.4.r.0.4.0.4.4.0.e.0.r.4.0.4.4.0.3.4.0.4.9.3.3.3.2.3.3.0.3.3.9.0.3.0.3.9.3.3.3.3.0.3.3.3.3.3.-.2.2.2.3.3.3.2.2.2.3.3.2.2.3.3.3.2.2.3.>.:.3.2.>.3.:.3.2.3.2.:.3.3.2.3.2.[ 2.2.2.[ 1.1.1.4.3.2.2.2.4.2.4.2.3.3.2.4.4.3.2.w.4.2.s.1.3.9.3.0.3.0.2.3.3.3.0.3.0.3.3.3.0.3.0.3.3.3.2.3.0.3.3.3.3.3.3.3.3.3.2.3.2.3.3.0.2.2.3.3.3.3.3.2.3.0.9.9.8.2.3.0.3.9.9.2.9.0.4.9.e.3.9.3.9.4.3.e.3.9.9.e.9.e.6.e.3.9.4.9.e.9.4.9.,.e.e.4.e.9.4.e.4.4.e.e.e.4.e.e.e.4.e.>.e.3.3.e.>.e.9.4.6.4.3.e.e.,.e.e.e.e.,.e.e.e.4.e.e.4.e.e.,.e.e.e.e.e.e.e.4.4.3.4.3.4.4.4.0.4.4.0.6.e.>.>.9.6.6.e.e.6.>.9.>.e.e.>.7.e.>.e.,.9.e.e.7.>.>.>.>.6.6.>.>.7.>.9.e.e.e.7.e.4.e.e.e.e.7.e.e.4.e.u.,.,.e.e.e.e.e.e.u.e.e.u.e.e.t.e.",
"e.e.e.e.e.t.u.e.e.e.t.e.u.e.4.r.t.u.r.r.r.u.u.e.u.e.e.e.t.e.e.t.u.e.u.e.r.4.r.4.4.4.0.4.r.4.0.r.4.y.y.4.0.4.4.4.r.e.e.4.4.0.4.0.4.e.9.e.9.e.9.e.3.e.4.e.4.e.3.3.3.9.9.9.0.3.0.4.0.4.0.4.0.0.e.e.e.0.e.e.e.e.e.0.0.e.e.e.e.0.0.e.0.e.0.e.9.0.e.3.9.e.e.3.e.0.0.4.0.e.e.0.e.0.0.e.9.e.e.3.4.0.0.4.0.r.4.4.4.0.0.9.0.e.e.0.e.e.0.e.0.4.0.4.0.4.0.4.0.4.0.0.0.4.y.4.0.4.0.0.4.r.0.4.e.0.4.0.4.0.0.4.9.e.3.0.9.9.3.3.-.-.3.9.3.3.3.9.9.9.3.3.2.3.8.3.3.3.3.9.3.2.3.-.3.3.3.2.3.2.2.>.2.3.3.3.:.3.3.:.2.2.2.3.2.3.2.3.3.3.2.3.2.2.2.:.2.[ 1.2.1.3.[ 1.2.2.3.1.3.3.3.s.2.4.2.4.3.3.4.2.1.3.4.3.4.4.2.4.0.3.2.3.3.3.3.3.3.0.2.3.2.3.3.0.2.3.3.3.0.3.0.3.0.3.0.2.2.0.3.0.3.3.0.3.2.3.3.2.3.3.2.3.0.2.3.0.3.2.8.9.9.9.3.3.2.9.3.9.3.3.3.0.>.9.,.4.4.6.4.6.e.4.6.>.6.>.e.9.e.,.9.7.>.6.e.e.e.e.9.e.7.e.e.9.e.0.e.3.9.e.e.9.e.9.9.e.9.7.e.>.e.6.,.9.>.e.e.>.e.e.e.e.4.u.u.4.7.e.7.e.e.e.e.e.e.e.,.e.e.4.e.>.r.4.0.4.4.4.y.4.4.0.3.3.7.e.7.6.6.9.9.9.9.e.e.e.e.>.,.e.4.7.e.e.3.7.9.6.6.6.>.>.,.>.>.9.9.>.e.7.3.7.,.e.e.e.4.e.e.e.e.e.e.e.e.e.e.e.e.7.7.e.e.e.t.e.e.r.r.e.e.e.",
"7.e.e.t.e.7.e.e.u.t.7.e.r.r.u.u.u.r.r.u.r.r.t.e.e.u.u.e.r.e.u.e.r.r.4.r.4.e.4.r.4.4.0.4.4.r.4.r.4.0.4.y.r.4.r.4.4.0.r.4.e.4.4.4.4.0.e.3.9.e.e.9.4.0.9.e.9.4.0.4.9.0.e.9.3.9.9.0.4.4.4.0.4.0.0.3.e.e.0.0.e.e.e.0.0.e.e.0.e.0.e.e.0.e.e.e.0.e.e.e.3.3.0.0.0.e.3.e.e.e.0.e.e.e.0.e.4.0.e.0.0.4.4.0.0.0.4.0.0.4.4.0.e.e.e.e.0.e.0.0.0.4.4.y.0.4.0.y.4.0.0.4.0.4.0.0.0.4.0.4.0.0.0.0.0.e.0.e.0.0.9.0.e.9.0.3.3.3.3.>.-.-.3.3.3.3.3.3.9.3.9.9.0.3.3.3.3.3.3.2.3.3.3.3.3.3.3.3.2.3.3.2.3.3.2.3.:.3.2.3.3.3.2.3.3.2.2.>.3.:.-.3.3.3.2.*.[ 2.1.2.[ 3.[ 3.2.3.4.4.2.3.4.1.2.4.4.2.w.1.2.4.s.2.3.3.3.3.3.3.3.0.3.0.3.2.0.3.3.3.3.3.0.3.0.3.3.3.0.2.2.3.3.0.9.3.3.3.3.3.3.2.3.2.3.3.3.2.3.3.3.3.3.0.3.3.2.0.0.9.9.9.9.2.3.9.9.3.3.3.0.0.4.4.e.9.7.9.9.7.e.9.>.e.>.e.e.>.>.e.6.e.7.9.e.e.e.6.9.e.9.e.e.e.e.e.e.e.e.e.e.7.e.3.7.9.7.9.e.6.>.e.>.e.9.e.e.9.7.e.e.e.4.e.e.4.u.4.e.7.e.e.e.7.7.e.7.e.6.e.6.e.e.e.4.0.4.4.4.0.4.0.e.9.9.e.6.>.9.7.9.6.e.9.6.9.,.3.>.e.e.,.e.,.7.e.e.9.7.9.>.>.>.>.>.>.,.>.6.>.e.>.e.7.e.,.e.4.e.e.e.7.e.e.e.e.e.7.e.e.e.e.e.e.e.e.7.e.e.e.e.e.e.u.",
"u.e.e.e.t.u.7.t.e.e.e.u.4.i.4.r.t.r.r.r.u.r.u.t.u.e.t.r.e.e.e.e.4.4.r.4.r.4.0.4.r.4.4.r.r.4.r.4.4.0.4.0.4.0.4.0.r.e.0.4.3.0.4.3.3.3.3.9.e.3.9.e.3.3.4.4.3.0.4.9.3.3.3.0.e.3.e.3.4.0.0.4.0.4.e.0.0.e.e.e.0.0.e.e.e.e.0.e.0.e.e.0.e.0.e.0.e.e.0.0.0.e.3.e.3.9.3.0.0.e.e.e.0.e.e.0.e.e.4.0.0.4.r.0.4.e.0.4.3.4.0.3.0.4.0.0.e.0.e.e.4.0.4.s.4.0.4.0.0.4.4.y.4.0.4.0.4.0.r.4.0.4.4.r.e.0.4.0.e.4.4.4.9.9.e.9.3.3.>.2.>.-.:.3.2.3.2.3.3.9.3.3.3.3.3.3.2.3.3.9.3.3.2.2.2.2.3.3.3.3.2.3.2.3.3.>.3.2.2.2.:.3.2.3.:.3.3.2.3.3.2.2.2.3.2.*.[ 2.2.3.[ 2.2.2.2.2.1.4.4.3.4.1.3.3.2.4.2.4.4.2.2.4.4.2.w.3.4.2.3.2.3.3.3.0.3.3.2.0.3.3.3.3.3.2.3.0.3.3.0.3.3.3.0.2.0.3.2.3.3.0.2.0.3.3.3.0.2.3.3.3.2.3.0.3.3.3.3.8.2.9.9.3.0.2.3.9.3.0.4.3.3.0.9.7.9.7.9.9.>.e.9.,.e.6.e.e.e.6.e.>.9.6.e.9.e.6.9.e.e.e.e.3.e.3.9.4.e.9.9.e.e.e.9.e.e.6.>.e.>.e.e.9.7.>.e.6.e.,.e.,.e.e.e.e.,.u.e.e.e.,.e.3.e.e.e.4.e.e.e.e.7.e.4.0.3.4.4.0.0.4.9.3.e.3.e.7.6.>.9.>.>.6.9.>.9.6.e.>.>.4.7.e.4.e.6.e.e.e.>.6.>.6.>.6.>.6.>.e.>.e.>.e.7.e.e.e.e.7.e.e.e.e.7.e.e.e.e.7.e.e.e.e.e.e.e.u.u.e.u.t.e.e.",
"7.t.7.e.e.t.u.7.e.e.r.r.i.i.u.r.r.r.u.r.r.u.u.u.e.u.t.e.e.e.t.e.r.e.e.0.e.0.e.e.e.e.0.4.4.0.3.3.2.4.4.0.0.4.0.4.4.0.4.e.4.4.3.3.4.3.4.3.e.9.e.9.4.3.3.4.3.4.e.4.4.3.e.9.0.3.0.0.0.3.e.e.0.e.e.0.e.0.0.e.e.e.e.0.e.0.e.e.0.e.0.e.0.0.e.0.e.e.e.e.0.4.3.0.e.e.3.4.e.0.3.0.4.0.e.e.0.0.4.0.4.0.0.4.e.0.3.0.0.4.0.3.0.3.e.e.0.4.0.e.0.s.4.4.4.0.s.4.0.4.0.4.0.4.0.4.0.0.4.0.4.0.4.4.e.e.0.0.4.0.4.0.9.9.4.9.3.3.3.-.3.-.-.>.3.3.2.3.3.9.3.9.3.3.2.3.3.3.8.3.3.3.3.3.3.3.2.3.3.2.3.2.3.3.3.2.3.3.:.3.2.3.>.:.2.3.2.3.3.2.3.-.3.2.*.&.1.1.[ 2.2.[ 2.3.3.3.3.3.1.4.4.4.w.2.4.2.4.2.4.4.4.3.3.w.1.4.3.w.3.2.3.3.0.3.0.2.3.0.2.0.3.3.3.3.3.0.2.3.3.0.2.3.2.0.0.3.3.3.3.0.3.0.2.2.2.0.3.3.2.3.3.3.3.0.3.3.8.9.9.3.3.3.3.0.3.0.3.4.9.e.9.9.e.6.e.>.>.e.6.6.4.9.6.e.e.9.7.e.9.9.e.6.e.e.e.e.e.>.e.e.e.7.e.e.e.e.e.3.e.e.e.e.e.6.e.6.e.9.7.9.6.e.e.e.6.e.e.>.e.4.e.e.,.e.e.4.e.,.e.9.7.e.e.7.e.7.e.e.e.7.e.e.4.4.4.4.4.9.e.4.9.e.6.e.>.e.7.9.6.3.>.6.6.>.9.>.>.7.9.4.7.e.,.6.e.7.9.3.6.>.>.>.6.6.>.7.7.3.9.>.3.7.e.,.7.e.4.e.7.e.e.t.e.t.e.e.e.u.e.e.e.e.e.t.e.r.e.e.e.e.e.e.",
"7.t.t.e.e.7.e.e.e.4.r.4.r.4.4.r.u.e.r.r.r.r.r.u.r.u.r.r.e.u.e.e.e.e.e.e.e.4.4.0.e.e.3.0.0.4.3.3.3.3.4.4.4.4.s.0.e.4.0.4.3.0.0.4.e.0.3.e.3.9.9.e.3.4.e.3.4.0.9.9.9.0.e.9.3.3.3.e.3.0.4.0.e.e.e.r.0.e.e.e.e.0.0.e.e.0.e.0.e.4.3.0.9.e.4.0.e.0.0.e.e.0.e.4.0.3.3.0.3.3.3.e.0.4.0.0.e.4.0.0.4.r.4.0.0.e.e.3.3.0.0.e.e.9.0.3.e.0.e.e.0.4.4.y.0.4.4.4.4.y.4.0.0.4.4.y.r.4.4.0.0.r.0.0.0.e.e.4.0.r.0.4.0.e.0.4.9.3.3.-.>.>.-.3.3.3.3.3.3.3.9.3.3.9.3.9.3.3.3.3.9.3.3.2.3.2.3.3.9.3.3.2.3.:.3.3.2.2.2.3.2.2.2.3.2.2.3.2.3.2.-.3.2.3.2.*.[ 3.1.2.[ 1.2.3.3.2.3.3.4.4.1.4.1.4.2.4.1.w.2.4.4.3.4.2.w.4.3.3.3.0.3.0.3.3.3.3.3.3.3.3.0.2.0.3.3.2.0.3.3.3.0.3.0.3.3.3.0.3.3.2.3.3.3.3.3.3.2.2.2.0.3.2.3.2.0.3.3.9.8.2.0.2.3.3.3.0.3.e.9.9.e.e.9.e.e.e.e.e.e.e.9.7.,.9.6.e.e.9.e.7.e.e.6.e.3.e.e.e.e.e.e.9.9.e.e.4.e.9.9.e.9.e.>.e.3.e.e.6.>.e.e.9.e.6.e.e.e.e.e.e.e.4.e.e.e.e.e.e.,.e.e.>.3.e.3.e.,.7.,.e.e.3.4.0.3.0.e.e.9.0.e.>.e.>.6.7.6.e.e.6.3.6.6.>.>.6.e.>.>.e.e.,.e.e.9.e.7.e.7.>.e.>.>.>.3.>.6.>.>.e.e.e.,.e.e.e.7.e.t.e.u.e.e.e.e.t.u.e.e.e.e.t.e.u.e.e.u.u.e.u.r.e.",
"e.7.t.u.u.7.t.7.e.r.r.r.4.r.i.i.e.u.e.t.r.r.t.e.r.r.r.r.u.e.e.e.e.e.e.e.e.0.4.4.0.4.0.4.4.3.3.2.2.4.3.4.4.4.0.0.0.0.4.0.0.0.4.4.e.e.e.e.9.e.9.e.e.3.3.3.3.4.e.e.3.0.9.9.4.0.e.3.0.0.0.e.0.e.e.e.e.e.e.0.e.0.e.e.e.e.0.e.0.4.9.9.e.0.e.e.0.0.e.e.0.e.0.e.e.0.e.0.3.0.0.4.4.0.4.0.0.e.0.4.0.0.4.r.e.0.4.0.3.0.3.e.0.4.3.0.0.4.e.0.0.4.4.0.0.0.0.0.y.0.0.0.4.0.4.0.4.0.0.4.0.4.0.4.e.0.0.4.0.4.0.3.e.e.0.3.9.3.3.3.3.-.-.3.3.3.3.3.3.0.3.3.9.3.3.3.2.3.3.3.3.3.3.3.3.3.3.2.2.8.3.3.3.2.2.3.3.>.2.2.3.3.3.3.>.2.2.3.3.3.-.2.-.-.-.*.[ 2.2.[ %.2.3.2.1.3.3.2.1.4.4.4.2.4.4.2.3.3.1.3.4.1.3.3.3.3.3.3.0.3.2.3.3.3.0.3.3.0.3.3.3.3.3.0.3.3.2.3.3.3.3.3.3.0.0.2.3.0.3.0.2.3.0.3.3.3.2.3.3.3.2.0.3.3.3.3.9.3.3.0.3.3.3.9.9.9.9.9.9.e.e.3.e.6.9.e.e.6.e.e.9.7.9.e.6.e.9.7.6.e.9.7.e.9.e.e.e.e.e.9.e.e.>.e.9.e.3.e.e.e.9.4.e.6.e.6.e.9.e.6.e.e.>.e.e.e.e.e.7.4.e.e.e.e.7.4.e.e.,.e.7.,.4.,.e.7.7.e.7.e.7.9.4.4.0.4.3.e.3.e.>.>.e.e.e.6.e.6.9.9.9.>.>.6.6.>.>.,.,.e.,.e.7.e.>.9.e.9.9.>.e.>.>.7.>.6.>.e.>.e.3.e.4.7.,.e.e.e.e.e.e.r.u.e.r.r.u.r.t.u.e.u.e.e.t.e.e.e.u.e.e.t.",
"e.u.e.7.e.e.e.t.e.e.4.r.i.i.4.r.u.e.e.t.r.u.r.r.u.r.r.u.r.e.t.e.e.0.0.0.0.4.4.0.4.3.3.4.4.4.3.2.4.3.3.2.3.4.4.4.4.4.0.4.4.e.0.e.0.e.4.0.e.9.e.e.3.e.3.3.3.0.e.e.3.3.9.e.3.0.4.0.4.e.0.4.e.9.0.3.e.0.e.0.e.e.e.0.0.e.e.e.3.0.9.0.0.e.e.0.e.e.e.0.4.0.e.e.0.e.e.0.e.e.0.4.0.e.0.4.4.0.4.r.4.0.0.4.e.4.0.4.e.e.3.0.4.3.0.4.0.e.e.e.0.0.0.4.4.0.4.4.4.4.0.4.y.4.0.0.0.4.0.r.4.0.e.0.e.e.e.0.e.e.3.0.e.0.e.0.9.3.2.3.>.-.-.-.-.3.2.3.3.3.0.0.2.3.3.9.3.9.3.9.3.2.2.3.3.2.3.3.3.3.3.2.3.3.3.3.2.2.3.>.:.2.2.3.:.3.3.2.2.-.3.-.-.-.-.-.2.2.3.3.2.2.1.1.3.3.3.3.4.4.1.4.4.2.2.4.3.3.4.3.4.w.4.3.3.3.w.3.3.3.3.0.3.0.2.3.2.3.0.3.0.2.3.2.0.3.0.3.0.2.0.3.9.3.3.3.3.2.3.3.3.3.2.3.3.2.3.3.3.3.3.3.0.3.0.2.2.0.3.3.0.2.0.3.9.3.e.9.e.9.e.4.9.e.e.6.9.e.6.6.e.9.9.7.e.9.e.e.e.9.e.9.e.e.3.e.4.6.e.e.e.e.e.e.e.e.e.e.4.e.e.e.3.e.>.e.6.7.9.e.e.e.e.e.e.9.e.e.e.e.e.e.4.e.e.e.7.e.e.7.4.e.>.e.e.4.e.>.e.,.e.4.4.4.3.e.e.9.e.e.e.e.>.e.6.e.6.e.6.6.9.6.9.>.6.>.e.9.3.,.e.6.e.e.e.6.e.e.e.6.>.6.>.>.>.3.9.>.7.>.3.,.e.6.e.e.e.4.e.e.e.e.u.u.u.u.u.u.e.e.e.e.u.e.e.e.e.u.e.e.e.e.",
"7.7.t.u.7.u.t.7.e.e.e.e.u.e.u.e.r.e.e.e.u.u.u.r.r.u.r.u.e.e.e.4.e.e.9.0.e.9.3.9.3.3.0.4.0.3.3.3.4.3.3.2.4.3.3.4.4.4.4.4.4.4.4.4.4.4.3.0.4.e.3.3.3.4.3.3.3.4.4.9.e.0.e.0.4.e.0.0.e.3.4.3.4.0.3.0.e.e.0.e.9.e.0.9.e.e.0.e.0.e.e.e.0.e.e.e.e.q.0.e.e.e.0.e.e.e.0.e.e.0.4.4.0.4.4.0.0.4.e.e.0.e.e.e.0.4.0.3.0.4.0.4.3.3.0.4.e.e.0.0.4.0.0.0.4.0.0.4.4.r.4.4.0.4.0.4.r.4.0.0.4.0.0.4.0.0.e.0.4.e.0.4.e.e.0.e.9.3.>.-.-.:.-.2.3.2.3.3.3.3.3.3.3.9.3.3.3.2.3.3.3.2.3.2.3.2.2.3.3.2.2.3.2.3.3.2.3.-.3.2.-.3.2.-.3.2.3.3.3.2.:.2.*.2.-.*.2.2.2.2.[ [ 2.2.3.3.3.3.3.4.1.4.2.4.2.3.3.3.3.4.1.w.4.3.3.w.1.4.0.3.3.0.3.3.0.3.3.3.3.0.3.0.3.0.3.3.3.3.3.3.3.3.3.0.0.2.3.2.3.3.2.3.3.3.2.3.3.2.3.3.3.3.3.3.3.9.3.3.2.0.3.0.3.9.3.9.4.e.4.0.3.0.e.9.e.e.6.e.9.>.7.e.9.e.e.6.e.9.e.6.9.7.e.6.e.9.9.e.e.e.e.9.e.9.e.6.6.e.6.e.e.9.e.e.e.9.e.e.9.e.7.9.e.e.9.7.9.7.e.e.e.e.e.4.e.,.e.4.e.e.e.e.e.3.,.e.e.7.e.e.9.e.4.4.0.4.4.0.3.4.e.>.>.,.9.6.e.7.9.6.3.>.6.>.9.e.>.6.4.>.e.>.>.,.e.7.9.7.3.>.6.>.>.6.>.,.6.3.6.e.>.>.7.e.e.e.e.e.7.e.4.e.e.u.u.u.r.u.e.t.t.e.e.u.e.r.e.u.e.e.e.t.",
"u.t.7.7.t.e.e.e.e.e.e.e.e.u.e.u.e.e.r.e.e.t.e.r.e.e.e.e.r.e.r.0.3.9.3.3.2.-.3.3.3.2.3.e.*.W [ 3.4.4.3.3.3.3.3.4.4.s.4.1.4.4.4.4.3.0.e.e.3.4.3.e.9.4.e.3.4.3.3.e.e.4.3.0.0.4.e.4.3.0.0.3.3.9.0.0.0.e.0.e.e.0.e.0.0.4.0.e.e.e.0.e.e.e.0.0.e.e.e.e.0.e.e.e.0.e.0.e.3.0.4.0.4.0.0.4.3.0.0.0.e.e.0.4.4.0.4.0.4.e.4.0.2.3.3.0.0.e.e.0.0.4.4.4.0.4.4.0.0.0.0.0.r.0.4.y.4.0.4.0.r.4.4.0.r.e.4.0.4.0.4.0.0.9.9.e.0.3.-.>.-.3.:.2.:.3.3.3.3.3.8.3.9.3.2.9.3.9.3.3.3.3.3.3.3.3.3.3.3.3.3.2.2.3.2.3.2.3.-.3.3.2.3.3.3.3.2.3.:.2.2.*.2.*.2.2.[ 1.[ 1.3.2.3.3.2.3.2.3.4.2.4.4.4.2.3.3.2.3.4.2.3.w.4.3.4.2.w.4.2.3.3.3.3.0.2.3.0.3.3.2.2.0.3.3.3.0.2.0.0.2.0.3.3.2.3.3.3.3.0.2.0.2.2.3.2.3.0.2.3.8.3.3.0.2.0.3.3.3.3.3.9.4.0.4.e.9.0.4.3.0.e.3.9.e.6.e.e.6.e.e.9.e.e.6.9.e.9.7.e.e.e.e.9.e.6.e.e.e.3.e.7.e.e.4.e.e.e.9.e.e.6.e.e.e.e.e.4.e.4.e.9.3.>.e.9.e.e.7.e.,.e.4.e.u.4.u.e.e.e.4.6.7.4.,.9.,.e.3.e.7.>.e.0.4.4.r.4.4.0.4.6.9.e.9.e.e.6.9.9.9.6.6.6.9.6.9.e.e.e.,.e.e.e.e.e.9.e.>.>.e.>.6.>.6.3.>.6.>.>.9.e.e.e.,.7.e.e.e.e.e.e.e.e.u.t.e.u.e.u.e.e.u.e.e.e.e.e.r.e.r.e.e.",
"7.t.u.e.e.7.e.u.e.e.e.t.e.r.u.r.e.r.e.u.e.e.u.u.e.r.e.r.e.e.e.e.9.0.0.9.9.e.r.e.y.r.3.[ L ` ] ` 3.3.3.3.4.4.2.3.s.1.4.s.4.4.4.4.e.9.e.3.3.e.e.3.4.9.3.3.3.3.3.3.9.e.0.9.0.4.0.4.0.3.0.4.0.0.4.e.e.0.e.e.0.e.e.9.4.0.0.4.e.0.e.0.e.0.0.e.0.e.e.0.e.e.0.0.e.0.e.e.0.4.0.4.0.e.0.e.e.e.e.e.e.0.0.0.0.4.0.3.0.3.0.4.3.3.0.4.0.e.4.0.s.4.0.y.0.4.s.4.0.4.4.0.4.0.0.4.0.0.4.4.0.0.0.r.0.4.0.e.0.4.0.4.9.3.0.e.3.3.-.3.3.3.-.:.:.2.3.3.3.9.3.3.3.9.3.3.9.9.3.9.3.3.3.3.2.3.3.2.2.3.2.3.3.2.3.2.3.2.3.3.2.3.3.3.2.2.3.3.3.2.2.:.:.2.2.*.3.1.[ 2.[ 3.2.2.2.3.2.3.1.1.4.1.3.4.2.2.2.4.2.4.3.3.4.4.3.w.2.4.2.0.0.2.2.3.0.8.3.3.3.0.9.3.9.2.0.3.3.3.3.3.3.0.0.3.9.3.2.3.3.3.3.3.2.3.3.2.3.3.0.2.3.2.3.3.8.9.2.3.3.9.0.3.e.3.0.3.3.0.4.4.4.3.e.e.9.e.e.>.6.9.6.e.6.e.e.e.6.9.6.6.e.6.7.9.e.e.3.e.e.3.e.e.e.e.6.e.9.e.e.6.7.9.6.e.6.6.9.e.6.e.6.e.>.e.e.e.6.e.e.4.e.e.4.u.e.e.7.e.e.e.e.4.,.4.7.e.e.e.7.e.e.e.4.4.4.r.0.4.4.3.e.e.6.e.6.e.6.e.6.6.>.6.>.9.4.e.e.>.>.e.,.>.e.>.>.e.>.e.e.>.e.>.,.>.4.>.>.9.6.7.,.e.,.e.e.,.7.e.e.e.7.e.e.e.e.e.e.r.r.e.e.e.u.u.u.r.e.e.e.e.e.e.",
"7.e.7.e.e.t.e.7.t.e.e.e.e.4.r.e.e.e.e.e.u.e.e.e.e.e.e.e.e.e.e.4.e.0.3.3.3.0.-.| +.W J K } } [ } [ 2.2.2.3.2.2.3.1.4.4.1.s.4.4.4.9.e.3.0.3.4.3.3.0.3.e.e.e.3.e.3.9.9.3.e.3.0.4.0.e.4.0.0.0.4.e.e.0.e.e.0.e.e.0.0.e.0.e.e.e.0.e.e.e.e.e.e.0.e.e.0.e.0.e.e.0.e.e.0.4.0.e.0.0.4.4.0.e.0.0.e.e.0.e.e.4.0.4.e.4.0.3.0.0.3.0.e.4.0.r.4.4.4.4.0.0.4.y.4.4.r.0.4.0.4.4.0.0.4.r.0.4.4.0.4.e.0.4.0.4.0.4.0.9.3.3.e.0.3.3.2.2.:.2.:.:.3.3.3.3.3.3.3.9.9.9.3.9.3.9.9.9.3.3.3.2.2.2.3.2.3.3.3.3.3.3.3.3.3.3.2.3.3.2.2.3.3.3.2.:.3.:.2.-.:.-.2.2.3.2.[ 3.[ 1.2.2.2.3.3.4.4.3.4.w.1.3.2.2.2.2.4.4.4.2.2.3.3.3.3.3.3.0.3.0.3.3.9.0.0.3.2.3.2.3.3.3.2.2.0.3.3.3.2.3.3.2.0.3.3.3.2.3.3.0.3.3.0.3.3.3.3.3.2.0.3.3.9.3.3.3.0.9.9.9.0.4.e.4.4.e.4.e.e.9.7.e.6.e.e.9.7.e.9.e.e.6.e.e.e.e.e.9.e.e.e.e.6.e.e.e.e.e.3.e.9.e.9.7.9.e.e.9.e.e.9.e.e.e.7.9.e.e.6.e.e.6.e.e.e.e.e.e.4.u.,.4.u.4.e.7.e.e.e.e.7.e.,.7.e.e.e.e.e.0.4.4.4.4.0.0.3.e.e.e.6.e.6.9.7.3.9.9.>.6.6.e.>.>.e.e.3.4.e.,.e.e.6.e.>.>.6.6.>.>.6.>.6.e.>.4.>.9.7.e.>.e.>.e.e.e.e.t.e.u.e.e.e.e.e.e.e.u.e.e.e.e.e.e.u.t.e.e.t.",
"7.t.t.7.e.e.t.t.e.e.e.r.u.e.e.r.e.e.r.t.t.7.e.e.e.t.e.e.r.4.r.0.-.=.| W E E H h D J ` @.&.| | @.[ 2.3.3.3.3.3.3.4.3.3.3.3.3.3.3.3.e.3.e.e.3.4.3.3.e.3.4.e.3.9.e.9.9.9.4.0.e.0.3.3.e.e.e.e.e.e.e.e.e.0.e.e.0.9.e.0.4.e.e.0.e.0.e.w.0.e.e.e.0.e.e.e.0.0.e.e.e.e.0.0.9.e.e.e.0.e.0.e.e.0.4.9.0.e.3.0.4.0.4.0.3.0.4.3.e.0.4.0.e.e.0.y.0.4.s.4.0.0.4.0.4.r.0.0.4.0.0.4.0.0.4.0.0.4.0.e.0.0.4.9.9.9.9.3.3.9.0.9.3.3.3.3.:.3.:.3.2.3.3.3.0.3.0.9.9.9.9.0.3.3.0.3.e.3.3.3.3.3.3.3.2.3.8.2.3.3.3.3.3.2.3.2.3.3.3.3.2.3.2.2.:.2.:.-.-.-.*.[ 1.3.L 1.[ 3.3.2.2.3.2.3.3.2.3.3.2.2.3.4.3.3.2.1.4.s.4.4.4.s.4.0.3.9.9.8.0.9.9.3.2.2.3.3.2.2.3.0.3.0.2.3.0.3.0.2.3.0.3.0.0.3.2.3.3.3.3.0.3.0.3.2.3.3.0.9.2.9.3.0.3.9.9.9.0.3.e.e.9.4.e.4.e.e.e.e.9.9.e.6.7.9.e.9.e.6.6.e.9.e.e.e.6.6.e.9.e.9.e.e.e.e.7.e.e.>.e.6.9.7.e.e.6.e.e.e.9.e.e.6.6.e.e.e.9.6.6.e.,.7.e.7.4.e.e.4.u.,.4.e.,.e.e.7.e.e.e.,.e.e.e.e.4.e.e.3.e.4.0.e.9.9.e.9.e.e.>.e.6.7.e.9.>.>.3.9.6.9.e.e.6.4.4.e.>.e.3.9.e.3.,.7.7.3.6.>.6.>.>.e.>.e.9.4.e.e.,.e.e.e.7.e.e.u.e.e.u.e.e.t.e.e.e.e.u.e.t.u.e.e.t.e.e.t.7.",
"u.7.7.u.u.7.7.e.r.e.e.u.r.e.e.e.u.e.e.e.e.u.e.e.e.e.e.7.4.4.4.4.[ ] W K D G K W K =.9.&.| @.@.| [ 2.3.2.3.3.2.2.1.3.3.1.3.3.3.3.e.3.0.4.3.3.3.9.3.3.3.3.4.9.e.4.e.9.e.0.4.3.0.e.0.4.0.e.0.4.0.0.e.0.e.e.e.0.e.0.e.0.0.e.0.e.e.e.e.e.e.0.e.0.e.0.e.e.e.e.e.0.e.e.e.e.e.0.e.0.e.e.0.e.4.0.9.e.3.0.3.0.4.0.4.0.4.0.e.0.e.4.4.0.0.e.4.4.4.0.0.4.4.0.0.4.4.0.r.0.4.4.r.4.0.0.4.r.0.4.3.0.3.e.e.9.e.e.3.3.3.0.0.3.3.3.3.2.3.2.-.-.3.3.3.9.9.9.e.9.9.9.3.0.e.3.3.0.0.3.3.3.3.2.2.3.3.3.3.3.8.3.2.3.3.2.3.3.2.3.2.3.:.3.2.3.2.:.2.*.*.=.1.1.[ 1.1.3.2.1.3.2.3.3.3.2.3.3.3.3.3.3.2.2.3.3.3.3.1.4.1.4.2.1.3.0.9.9.9.3.8.0.3.0.0.9.3.0.3.3.3.3.3.3.2.3.3.3.3.3.2.3.3.3.0.3.0.3.0.2.3.2.3.3.3.3.3.2.9.3.3.9.3.3.3.9.0.4.e.4.9.e.e.3.e.4.3.e.9.e.7.e.e.9.e.6.e.9.e.e.9.7.9.6.e.e.e.9.e.6.e.6.3.e.9.e.e.e.e.e.e.e.e.9.9.e.e.6.6.e.6.>.9.e.e.>.6.e.e.e.e.e.e.e.e.e.4.e.u.4.e.e.e.e.e.e.e.e.e.,.e.7.e.e.e.e.,.e.e.3.e.e.9.e.3.,.e.6.9.e.6.e.6.>.6.6.9.6.>.9.,.>.>.e.e.7.7.e.7.4.,.>.e.3.9.>.3.4.e.>.7.9.>.e.>.,.,.>.3.,.e.6.e.e.e.e.e.e.e.e.7.e.e.e.u.u.t.e.u.r.e.e.u.e.e.e.e.e.",
"7.u.t.e.e.e.e.e.e.u.e.e.r.4.r.4.u.e.7.u.e.e.e.e.e.7.e.e.4.y.4.4.| W E _ ` } @.3.| } } +.+.| +.*.1.3.3.3.2.3.1.3.1.3.3.3.2.3.3.3.3.e.4.9.4.3.3.3.e.3.4.9.0.4.e.0.3.9.3.e.9.e.3.e.e.0.4.0.e.0.e.0.e.e.0.0.e.e.9.e.0.4.0.4.e.e.e.0.e.e.e.0.e.e.w.e.0.e.e.0.0.e.0.e.e.0.0.e.0.e.e.0.e.e.0.4.4.9.e.3.0.3.e.4.0.3.e.4.0.0.4.0.4.0.0.4.4.0.0.4.4.4.0.0.4.0.0.4.4.0.4.r.0.4.r.4.4.0.0.4.e.4.e.9.9.9.9.9.3.3.3.3.9.3.-.3.-.3.3.-.-.-.-.3.3.3.3.0.0.3.9.e.3.e.0.3.0.3.0.3.0.3.3.3.2.3.2.9.2.3.3.9.3.3.3.2.:.3.3.3.3.:.3.2.3.:.*.2.2.*.&.@.[ 3.[ 3.[ 3.2.3.2.2.3.3.2.4.3.3.3.2.2.2.2.3.2.3.4.4.4.4.4.s.4.w.0.9.0.9.9.9.9.9.0.3.9.9.3.9.9.2.3.2.0.3.3.0.3.3.3.3.3.3.0.3.3.3.2.3.2.3.3.2.0.2.8.3.2.3.3.9.9.3.0.9.9.4.3.e.e.0.e.3.e.e.e.e.e.e.9.e.e.6.9.e.>.e.9.7.e.e.e.6.e.e.>.e.6.e.9.e.e.6.e.e.e.9.9.e.e.9.e.9.6.e.e.6.9.e.e.6.6.e.e.>.6.e.e.>.,.9.7.e.e.7.e.e.e.e.e.e.4.u.e.4.e.7.e.e.e.e.e.e.e.7.e.7.e.e.9.e.3.e.4.e.3.9.7.e.>.e.7.>.6.>.>.9.6.9.6.>.9.>.7.9.e.7.e.,.e.7.9.e.7.9.9.3.e.>.>.9.e.>.e.6.,.9.e.6.4.4.,.,.e.e.7.e.t.u.u.e.e.e.e.e.e.u.r.u.u.e.e.e.e.u.e.e.u.e.",
"t.7.e.e.t.e.r.e.e.e.e.r.e.r.e.r.e.e.t.e.e.e.e.4.e.e.e.e.0.4.4.4.=.] K ` | +.| | | 2.3.-.@.-.=.} [ 3.2.2.2.2.3.3.3.3.3.1.3.3.3.3.0.4.9.9.3.4.3.9.3.4.0.3.e.3.e.4.0.9.9.9.9.3.0.9.3.3.0.e.0.e.4.3.0.e.e.e.0.0.e.9.4.r.0.0.e.0.0.e.0.0.e.e.0.e.e.e.0.e.0.e.e.e.0.e.e.0.e.e.0.e.e.0.e.4.0.0.0.3.9.0.4.0.4.0.3.0.4.0.e.e.e.0.0.4.4.0.0.4.4.0.0.4.s.4.0.r.4.0.0.4.0.0.4.0.0.4.0.0.4.r.9.0.3.0.9.e.9.0.3.3.3.0.3.3.3.3.-.3.3.3.*.-.3.3.e.9.e.3.e.e.3.e.0.3.0.e.e.e.4.0.0.0.9.3.9.3.3.3.9.9.3.0.0.9.3.3.3.2.2.:.3.2.2.:.2.2.2.:.*.*.@.| 2.3.2.1.3.1.3.[ 4.1.w.4.4.2.2.3.3.3.3.3.2.2.3.2.1.4.3.1.4.2.4.4.3.9.8.9.0.3.9.9.3.0.9.9.0.4.9.0.3.0.3.3.3.2.0.3.0.2.2.3.3.2.3.0.3.3.0.3.3.3.3.3.3.3.3.3.8.9.3.9.3.4.4.0.0.4.4.e.e.e.e.e.4.e.3.e.e.6.e.6.e.6.e.6.e.e.6.6.e.e.6.e.9.e.e.9.e.9.e.e.e.3.e.e.7.e.4.e.6.e.6.e.9.e.7.e.>.e.e.9.7.9.e.6.6.e.9.e.6.e.e.,.e.e.,.e.e.,.u.4.7.e.e.e.e.7.e.e.,.e.e.e.e.e.e.e.e.3.e.e.e.9.e.9.3.>.e.>.6.>.e.7.>.6.9.>.e.e.>.e.9.e.>.e.,.e.4.7.e.6.9.7.e.7.e.e.7.3.,.3.,.e.e.,.e.e.7.e.4.e.>.e.e.e.e.e.t.e.e.e.e.e.e.e.r.r.r.u.e.u.e.u.e.e.t.e.",
"e.u.e.u.e.u.e.e.e.e.t.e.u.u.u.e.e.e.t.7.e.4.e.7.4.4.4.s.4.4.4.4.2.K } W &.| | | 2.-.*.&.*.@.@.| } 2.2.2.3.3.*.3.3.2.3.2.3.3.3.3.3.9.9.9.3.3.3.3.3.3.9.3.0.3.4.e.3.3.0.4.0.4.4.0.3.0.4.0.0.0.4.0.0.e.0.e.0.e.e.0.4.0.e.3.0.e.0.0.e.e.0.e.0.e.e.e.0.e.e.0.e.e.0.e.0.e.e.0.0.4.4.r.0.e.4.0.9.e.9.e.9.9.9.9.3.0.4.0.e.0.0.e.e.0.4.0.0.y.4.4.0.4.0.0.r.4.0.0.y.4.y.4.e.0.e.0.4.4.e.4.0.3.3.0.0.3.3.3.2.3.3.e.3.3.3.2.3.2.>.3.3.=.-.3.3.9.4.9.e.9.9.9.9.9.e.4.0.4.e.e.e.4.3.3.e.9.3.3.e.0.3.3.3.0.9.3.3.3.:.>.>.2.:.-.3.*.-.2.-.&.@.+.1.2.[ 2.1.3.2.3.3.2.3.2.3.3.3.3.4.1.4.4.1.4.1.4.1.1.4.4.4.4.1.4.8.9.8.9.9.2.9.3.3.3.3.0.4.0.3.9.0.3.2.3.3.2.3.3.3.0.0.3.2.2.3.3.3.9.8.9.8.9.3.3.9.3.9.3.9.3.9.9.6.e.>.e.e.9.9.e.3.e.e.9.e.e.e.7.e.e.7.e.6.e.e.e.3.e.4.e.e.e.3.e.4.e.e.e.e.e.e.4.e.e.e.4.e.e.4.e.e.e.9.e.e.e.4.e.6.e.6.6.e.>.9.7.9.e.e.6.e.7.e.e.7.e.e.e.u.,.e.e.e.e.e.e.7.e.e.4.9.7.e.6.e.e.e.7.e.9.e.9.9.e.9.7.3.e.>.e.>.6.>.6.6.>.7.e.e.7.9.e.>.e.,.e.7.7.4.7.,.,.>.7.3.e.e.4.,.e.>.4.>.e.7.e.7.e.,.e.e.7.e.e.t.r.u.u.e.t.e.e.e.e.u.e.e.u.e.u.e.e.u.e.e.p.e.e.",
"e.e.e.u.e.e.r.u.e.r.e.e.e.e.e.e.7.t.u.7.e.e.e.e.s.0.r.4.0.4.3.2.3.` ` ` | | +.@.2.*.*.@.&.@.| | L | *.*.2.2.2.3.3.2.2.3.3.2.2.2.3.3.9.9.8.3.3.9.3.3.3.3.3.3.4.4.3.0.2.0.9.9.0.9.0.4.0.3.4.0.0.0.e.e.3.3.4.e.0.0.e.0.e.0.e.0.e.r.0.e.q.e.e.e.0.e.0.e.e.0.e.0.0.e.e.e.0.e.0.e.0.e.0.e.0.3.9.9.0.3.e.e.9.e.e.3.0.3.e.e.e.0.e.e.e.0.4.0.4.0.4.4.0.4.r.0.4.y.4.0.r.0.4.0.0.4.4.0.3.0.4.0.9.3.e.3.3.3.3.9.0.0.0.3.:.3.3.3.>.3.3.*.*.3.4.3.9.3.9.e.9.e.0.e.e.e.4.0.e.3.e.0.0.0.3.0.e.e.3.3.3.9.3.0.9.3.3.3.-.-.*.-.-.-.-.&.@.2.&.@.*.@.[ 3.[ 2.%.2.%.3.2.3.3.2.3.2.3.3.4.1.4.1.1.4.4.4.4.4.4.1.1.4.s.1.9.9.0.9.9.0.9.2.0.0.9.3.3.3.0.9.3.3.3.0.3.2.3.2.2.2.2.3.3.3.3.2.8.9.9.9.9.2.2.9.2.3.9.2.3.9.9.9.e.9.e.9.6.9.7.>.e.e.6.e.9.9.e.e.7.e.e.9.e.e.7.e.e.e.e.e.7.e.e.e.e.e.e.4.e.4.e.e.4.e.4.e.e.3.e.9.e.e.e.e.6.e.e.e.e.>.e.9.e.e.9.7.e.6.>.e.e.9.e.6.e.e.4.e.4.e.,.u.4.e.4.e.e.7.7.e.e.,.e.e.e.7.e.6.9.e.e.6.e.>.7.9.3.e.e.>.>.7.e.>.>.e.3.,.7.e.e.,.e.7.e.3.4.e.,.e.e.4.e.,.4.7.7.4.e.,.e.,.e.,.e.e.e.,.e.e.e.e.e.e.e.e.e.e.e.e.u.e.u.e.p.e.u.e.u.7.e.u.7.u.u.7.7.u.",
"u.e.e.e.u.e.e.e.e.e.e.e.u.e.e.e.e.e.e.e.e.e.e.4.s.4.0.4.4.4.4.2.&.` E ` K +.| -.@.*.+.+.@.@.| | } } | 2.%.2.2.3.2.3.3.2.2.3.2.3.3.3.3.9.3.3.3.9.3.2.3.3.4.3.3.4.3.3.0.3.9.0.3.0.3.0.0.4.0.4.0.0.e.4.3.0.0.e.r.4.0.4.0.e.0.e.e.e.e.0.e.e.e.0.0.e.e.e.e.e.e.q.e.e.e.0.e.0.4.0.4.e.e.e.e.4.3.e.9.e.9.9.4.9.0.4.4.0.0.e.e.e.0.e.e.r.0.0.0.0.s.4.4.0.y.0.y.0.0.r.0.4.4.0.e.3.0.4.0.3.e.0.e.9.9.0.3.3.0.9.9.e.9.3.3.3.>.-.-.3.2.*.*.>.9.e.9.e.9.e.4.3.e.e.e.e.e.e.3.0.e.e.0.3.3.3.0.e.3.3.3.3.3.3.3.3.9.3.2.>.-.-.-.:.3.-.2.2.@.+.=.@.[ 1.3.1.%.2.3.2.3.3.3.3.2.3.2.3.4.4.1.4.4.4.1.1.4.2.4.1.4.4.1.4.3.8.9.9.9.8.9.0.2.4.0.4.0.3.3.4.3.3.3.2.3.3.3.2.3.3.3.3.3.2.3.2.2.3.2.3.3.2.9.3.2.3.3.3.3.3.3.e.3.9.9.7.e.>.6.e.9.7.e.9.7.e.e.9.7.e.,.e.e.7.e.7.e.e.e.e.,.e.e.e.4.e.4.e.e.e.e.4.e.4.e.4.4.e.e.e.9.e.>.e.e.e.3.e.6.e.,.9.6.>.e.9.>.e.9.e.e.6.e.e.e.4.,.e.u.e.e.4.e.4.e.e.e.e.e.9.e.e.e.7.e.e.e.e.7.9.e.e.6.e.9.e.7.3.e.>.9.3.6.6.7.>.4.e.e.>.e.7.7.e.,.e.7.e.e.7.7.4.4.7.4.4.e.,.e.7.e.,.,.e.e.7.,.e.e.7.e.e.7.e.,.7.7.e.e.e.e.e.p.e.e.p.u.e.e.p.u.u.e.e.u.e.u.e.",
"e.t.u.e.r.e.r.e.r.e.u.u.e.e.e.e.t.7.7.e.,.9.e.e.4.4.s.2.2.4.4.2.3.=.| +._ -.@.3.*.*.*.@.&.&.@.| *.[ [ +.%.2.3.2.3.1.3.3.2.2.3.3.2.2.3.2.9.3.9.3.9.3.4.4.0.3.3.0.0.2.3.0.9.9.0.3.9.9.4.0.0.4.0.9.0.0.0.4.0.e.e.0.e.0.e.9.0.e.0.r.e.e.e.0.0.e.e.e.e.w.0.e.e.e.e.0.0.e.e.4.0.e.e.0.0.4.0.0.0.e.9.3.e.9.0.3.0.4.0.4.e.0.4.0.e.0.0.4.4.4.0.4.0.4.0.0.4.4.4.4.4.4.0.0.e.3.0.0.4.0.4.0.0.e.9.9.3.0.3.3.3.e.9.3.3.3.3.3.3.-.3.3.>.-.-.>.3.3.3.4.3.3.9.3.3.3.3.4.0.4.e.e.0.3.4.3.2.2.3.3.3.3.3.:.*.*.2.2.3.3.-.-.-.-.3.3.>.-.-.2.@.| *.*.3.3.[ 2.2.2.2.3.3.2.2.3.3.3.2.3.1.4.4.4.4.1.4.4.1.4.3.3.1.4.4.4.9.9.2.9.9.0.3.0.3.0.3.3.0.4.0.9.0.3.0.3.3.2.0.3.3.2.2.3.2.0.3.3.9.2.3.3.2.3.2.3.9.3.3.2.3.3.9.3.9.7.9.7.9.e.e.e.9.9.7.9.e.9.e.e.e.e.6.e.e.6.e.e.4.e.,.e.e.e.e.4.e.e.e.e.e.4.e.e.4.e.4.e.e.4.e.e.e.e.e.e.>.9.e.e.e.9.e.e.e.e.9.7.e.6.6.e.e.9.e.7.e.e.e.e.4.e.4.u.e.e.7.e.3.7.e.7.e.6.e.e.>.e.7.e.9.e.6.e.e.6.e.>.e.>.e.9.6.,.3.>.>.4.7.>.4.7.e.4.e.,.e.7.e.e.>.e.e.e.4.,.e.7.,.e.e.e.,.e.e.7.e.e.7.9.e.7.e.4.e.e.e.4.e.e.7.u.t.e.e.u.u.e.u.e.p.e.7.u.e.u.e.u.e.u.",
"e.u.e.e.e.u.r.e.u.r.t.u.e.t.e.e.7.e.e.e.e.e.9.e.s.4.s.4.3.3.3.2.2.=.-.&.| -.*.*.*.@.*.*.@.*.*.+.1.` ` [ [ 1.3.3.3.3.3.2.2.2.2.3.3.2.3.2.3.9.3.9.3.3.e.3.3.4.0.4.9.9.3.3.8.9.0.3.9.0.0.3.0.0.4.4.4.e.4.0.4.0.0.4.0.0.4.0.0.e.9.e.0.e.0.e.e.0.e.q.e.0.e.e.0.0.e.0.0.e.e.0.e.4.0.0.0.e.0.4.0.4.9.0.9.9.9.9.0.4.4.0.0.e.0.4.0.e.0.0.0.s.0.4.0.0.0.4.0.0.4.0.0.r.4.0.0.4.0.9.e.9.9.9.3.e.e.3.0.3.3.9.9.9.3.3.3.9.2.3.2.3.3.3.3.-.2.2.3.3.3.3.3.3.3.3.3.3.3.3.3.0.e.e.3.9.9.3.3.-.3.3.3.-.2.:.*.&.-.:.*.-.&.&.&.*.*.2.| | | +.| &.2.*.1.[ %.2.2.2.2.2.4.2.4.2.3.3.3.4.4.4.1.1.4.1.1.4.4.1.2.1.4.3.3.3.9.9.9.9.3.8.3.9.3.0.3.3.0.3.0.9.3.0.3.3.3.2.3.2.3.3.2.3.3.2.3.3.2.2.3.2.3.3.3.3.3.3.2.3.9.3.3.e.e.7.9.9.6.e.9.>.7.9.e.>.e.e.e.9.e.9.9.e.7.e.e.e.,.e.4.e.e.4.e.e.e.4.e.e.e.4.e.7.e.e.e.e.e.3.e.>.e.e.9.e.e.e.e.9.e.6.e.6.e.e.9.e.9.9.6.e.9.9.e.7.u.4.e.e.,.u.4.e.9.e.e.,.7.e.,.e.e.7.e.e.e.e.e.e.e.e.6.e.3.e.>.e.e.7.9.3.>.3.7.6.e.>.e.7.e.e.e.7.,.e.,.e.,.e.7.4.e.>.7.e.3.7.e.>.,.e.e.,.e.7.>.e.e.,.e.e.e.4.e.4.e.e.e.e.e.t.e.e.u.u.e.u.u.e.t.e.e.e.e.u.u.7.u.e.",
"e.e.r.r.e.e.r.e.e.e.e.e.e.e.e.e.e.e.7.7.e.e.e.e.4.4.4.4.4.4.3.[ K K | } @.&.*.@.*.@.@.&.@.&.+.&.[ | | [ ` ` | 2.3.3.3.3.3.2.3.2.3.3.3.2.3.9.9.3.e.0.3.e.e.e.e.e.4.0.0.2.3.9.3.0.0.3.3.0.9.4.0.4.0.3.0.3.4.0.4.0.4.e.0.e.e.0.e.e.e.0.e.e.e.e.e.0.e.e.0.0.e.e.e.e.e.0.0.e.0.0.e.e.4.0.e.0.4.0.3.0.9.e.9.e.e.3.0.4.4.0.4.0.e.4.4.e.4.4.0.4.s.4.4.0.4.4.0.0.4.0.0.4.4.0.3.e.9.3.e.e.0.4.9.9.3.3.3.3.9.3.9.2.3.3.9.3.3.3.2.3.3.3.3.3.>.3.3.3.3.3.>.3.3.3.3.3.3.3.3.3.3.9.e.0.3.3.3.2.&.-.2.3.3.3.-.*.-.*.-.&.&.| +.+.@.| | +.@.=.2.=.2.3.2.2.2.3.3.3.2.4.2.2.3.2.4.2.4.1.4.4.4.4.4.4.4.4.3.3.4.1.3.1.0.8.0.8.0.9.9.3.0.3.3.0.3.4.4.3.3.2.0.3.3.3.3.3.2.2.3.3.3.3.3.2.3.2.-.3.2.2.3.3.9.3.3.3.3.9.9.9.3.9.9.7.e.6.6.e.9.7.6.e.>.e.6.e.e.7.e.7.7.9.>.e.e.e.e.e.e.e.e.7.e.e.e.7.e.e.e.e.e.9.e.6.e.e.e.9.3.7.e.e.e.e.e.e.e.6.9.e.6.6.e.6.7.7.9.e.7.e.e.e.4.e.e.4.e.4.u.e.e.7.e.e.e.,.e.7.e.e.e.6.6.e.7.>.6.>.e.e.e.>.>.e.>.e.3.,.e.6.3.>.>.e.>.e.>.e.9.e.e.6.e.,.e.,.7.e.e.e.4.>.4.e.,.e.,.>.,.e.>.e.e.,.e.e.e.e.e.e.e.e.e.e.e.e.e.r.e.e.p.e.u.t.u.u.u.t.u.u.u.e.e.u.u.p.",
"r.e.u.e.e.e.e.e.e.r.u.e.u.e.e.e.7.e.e.e.e.7.9.e.4.4.4.4.4.3.1.L K K } | *.-.2.-.&.*.*.@.&.+.&.+.1.%.1.%.| ` L | 2.2.2.3.3.3.3.2.2.3.2.3.9.9.2.2.3.0.0.3.3.0.0.4.0.3.3.3.0.3.9.9.0.9.3.3.3.0.9.0.0.9.3.3.4.0.4.0.4.r.4.0.e.e.0.e.e.e.0.q.0.e.e.e.0.e.e.e.0.e.0.e.e.e.e.0.4.0.0.e.0.4.e.0.0.0.4.4.9.e.9.e.3.0.4.0.4.4.0.4.3.0.4.0.4.0.y.0.4.0.y.0.0.4.0.4.4.0.4.0.0.e.e.9.9.4.3.3.3.0.3.e.3.3.e.0.0.3.9.3.9.9.3.3.3.3.3.3.2.3.3.3.3.3.3.3.3.3.3.3.9.e.3.4.3.4.3.3.e.0.9.9.3.3.>.>.-.:.3.3.3.3.-.-.-.2.:.-.*.@.&.*.=.&.-.*.@.&.2.@.[ 1.2.3.2.3.3.3.4.2.4.4.4.4.4.2.1.4.4.4.4.1.4.1.1.4.1.1.3.1.4.3.8.9.9.9.9.8.3.2.0.3.0.3.3.0.4.3.0.3.0.2.0.2.3.2.3.3.2.0.3.3.0.2.3.3.2.3.3.3.3.0.3.3.9.9.9.e.9.4.e.6.e.>.>.e.6.e.>.e.e.9.7.9.9.7.e.e.e.e.e.6.e.e.e.e.e.e.e.4.e.4.e.4.e.e.e.4.e.e.7.3.e.e.7.7.e.e.e.e.e.4.e.3.7.e.4.e.e.e.e.e.e.e.9.7.>.e.9.e.6.e.7.e.4.e.e.4.e.e.7.e.e.7.7.e.3.4.e.>.e.6.e.e.e.e.9.7.e.>.e.e.e.6.e.>.3.9.>.6.9.>.7.4.e.7.e.7.e.7.7.4.,.e.,.e.4.e.7.4.7.>.,.>.,.>.>.,.7.7.e.e.7.e.e.4.,.e.e.7.e.7.e.e.e.e.e.u.e.u.u.u.t.u.t.u.u.u.u.e.e.p.p.e.e.u.",
"u.e.e.e.r.r.u.e.e.e.e.e.u.e.u.e.7.e.7.e.e.e.9.e.4.4.4.2.| L D D | ` +.*.*.2.&.&.&.1.*.*.*.&.@.@.| | [ 1.2.| D J D D L L 2.3.3.3.3.2.2.3.3.9.3.3.3.3.3.e.3.e.3.0.0.3.0.0.2.9.9.0.9.9.0.2.3.9.0.0.3.e.3.0.0.4.0.4.0.4.0.e.0.0.e.e.0.e.e.e.e.0.0.e.0.e.q.e.e.e.0.e.0.e.e.4.0.e.e.e.4.0.e.e.e.4.0.3.9.9.9.9.0.4.0.4.0.0.4.0.0.3.0.4.0.4.4.4.4.4.4.4.4.0.4.4.0.4.0.4.e.e.e.9.e.9.3.3.3.e.e.3.3.3.e.e.0.3.3.3.9.9.9.3.3.3.-.-.3.3.3.3.>.3.3.3.9.e.3.4.4.3.e.9.9.e.3.0.e.9.3.3.3.3.2.3.0.3.-.-.-.-.-.-.:.:.2.2.*.*.*.*.@.@.2.*.| @.-.&.3.3.2.%.2.%.3.3.2.3.2.4.2.2.4.4.s.4.1.1.4.4.4.1.4.4.4.4.3.3.3.3.3.9.8.9.9.9.0.0.3.3.0.3.3.0.9.0.0.3.3.0.3.3.3.0.3.2.3.3.2.3.2.3.2.3.3.2.3.2.3.0.9.9.9.3.9.9.e.e.3.e.6.e.e.3.e.6.e.4.4.6.9.6.e.e.>.e.7.e.e.e.e.7.4.e.,.e.e.e.e.e.e.e.4.7.e.e.e.e.e.e.7.e.e.9.e.7.9.e.9.e.e.e.e.9.e.9.e.3.e.e.e.e.e.9.e.6.e.9.7.e.e.e.e.e.4.u.4.e.e.,.e.>.e.4.7.4.e.7.e.e.e.7.7.e.e.9.6.e.>.>.e.3.e.>.e.7.>.e.,.6.7.3.,.e.e.e.e.e.,.e.e.7.e.6.e.,.e.4.,.e.>.7.7.>.>.>.>.e.e.,.e.,.e.e.e.e.e.,.e.e.,.e.7.u.e.r.u.e.u.u.e.u.7.u.u.t.u.u.u.e.u.u.e.u.",
"e.e.u.e.r.e.e.e.u.e.u.r.u.e.e.e.e.7.t.7.e.e.e.9.e.a.9.+.D L 2.3.=.&.&.*.*.2.*.*.@.&.*.@.@.*.*.*.1.| | 1.1.<.[ [ | %.<.[ [ 2.2.3.9.2.8.-.3.8.3.9.0.3.2.0.3.9.0.3.9.9.0.9.9.9.9.9.3.2.9.8.3.9.3.e.3.e.0.3.e.3.3.e.9.e.0.e.e.0.e.e.e.0.0.e.e.e.e.0.e.e.e.e.0.0.e.e.e.0.e.e.0.0.0.3.0.e.4.0.e.0.e.9.e.9.9.e.9.e.9.9.0.4.0.0.4.0.4.0.0.3.3.0.4.e.4.0.4.0.0.4.e.4.3.3.3.e.0.9.9.e.e.9.4.9.4.4.3.0.e.3.3.0.3.3.9.3.0.3.3.9.3.3.3.3.3.3.>.3.3.e.e.4.3.9.e.0.3.4.3.4.0.e.9.9.3.3.3.3.3.3.2.2.3.2.-.2.:.>.2.:.:.:.-.>.-.-.-.&.@.&.@.@.=.3.-.*.*.*.3.2.3.2.4.4.2.4.4.4.2.4.4.4.4.4.4.1.4.4.4.2.4.2.2.4.2.3.2.3.8.9.9.0.3.3.3.0.4.9.9.9.4.9.3.3.3.0.3.2.3.0.3.0.3.2.3.3.2.3.-.3.3.>.3.3.3.3.4.3.4.0.9.e.9.e.e.9.6.e.>.e.6.e.e.e.6.e.6.e.9.9.e.7.e.7.e.4.e.7.e.e.e.4.e.4.e.e.e.7.u.e.e.7.e.7.e.e.7.e.7.t.e.7.e.e.e.e.e.e.e.e.6.6.e.9.9.9.6.e.>.e.9.e.6.e.e.e.e.e.e.7.e.4.e.7.9.,.e.e.e.e.7.>.e.e.e.e.e.e.e.e.6.9.7.9.e.3.e.>.e.3.9.>.>.6.>.>.>.7.7.e.e.e.e.7.e.7.,.e.e.7.e.e.e.,.4.e.>.>.>.,.>.>.,.e.e.7.e.7.>.e.e.>.e.e.7.e.e.e.e.e.e.e.t.u.e.t.u.u.e.u.u.u.e.p.u.e.p.u.e.p.",
"r.e.e.r.u.e.r.e.e.u.e.e.e.e.u.e.e.t.e.e.e.e.e.e.a.' S K %.3.2.%.-.-.@.*.*.2.2.*.2.*.*.=.*.2.2.3.4.3.3.3.3.2.1.%.1.[ %.%.<.[ [ 3.2.3.9.9.2.3.9.9.9.3.9.3.3.0.3.e.3.0.9.9.9.9.9.9.0.9.9.9.9.3.0.0.3.0.4.0.9.0.3.0.9.e.e.0.e.e.0.e.e.e.e.e.q.0.e.e.e.0.0.e.e.e.e.0.e.e.0.e.0.e.4.0.e.e.0.e.0.e.9.0.9.9.9.e.9.9.9.e.4.0.4.9.0.3.0.4.4.0.e.4.0.3.0.3.4.0.0.4.4.0.3.0.e.0.4.e.e.9.9.e.9.4.4.4.4.4.3.e.3.3.0.3.3.3.3.0.9.3.3.3.2.3.2.3.3.3.9.9.9.e.3.3.3.e.3.0.0.4.3.4.e.9.9.3.9.2.9.3.3.3.3.3.3.3.3.-.3.2.:.2.-.>.3.-.2.&.@.*.*.@.@.@.2.2.-.2.3.3.3.3.4.2.4.4.2.4.4.4.1.4.1.4.4.4.1.4.2.4.2.2.4.2.4.3.2.3.9.9.9.8.9.3.8.3.3.9.3.3.3.0.0.0.3.2.0.0.3.3.2.2.3.2.3.2.3.2.3.2.2.2.3.3.3.3.0.0.4.4.e.3.9.3.e.>.e.9.e.6.6.9.>.e.e.>.e.6.7.e.9.e.9.e.7.e.e.e.,.e.e.e.e.e.e.7.e.7.e.7.7.t.e.7.7.7.t.e.e.7.e.e.e.3.>.e.e.3.3.e.e.e.6.e.e.7.e.>.e.6.e.6.e.9.7.e.e.4.e.e.e.e.e.e.7.e.e.6.6.e.e.e.e.e.4.e.4.e.,.e.e.e.e.9.6.e.>.e.>.7.3.7.9.>.e.>.>.>.4.>.e.>.e.e.e.e.e.7.e.e.e.>.>.7.>.7.7.7.>.7.>.>.>.>.>.e.>.e.e.7.7.e.e.e.7.e.,.e.e.e.e.e.r.u.u.u.e.u.u.e.t.e.u.e.e.u.u.e.u.e.",
"r.e.e.r.e.e.r.u.r.u.u.e.e.t.e.e.t.u.t.7.e.e.e.e.=.H [ | 2.&.2.4.3.2.2.*.*.*.-.-.2.*.*.*.2.3.9.0.4.4.3.3.w.1.3.1.3.3.3.3.2.2.2.3.-.9.3.2.2.-.2.9.0.9.3.3.3.3.9.9.0.3.3.0.8.0.9.9.3.0.9.9.9.9.0.0.e.e.0.4.0.4.e.0.9.9.0.e.0.0.e.e.0.e.e.0.e.0.0.e.e.e.0.e.e.e.e.0.e.0.e.0.e.e.0.4.e.0.e.0.3.e.e.9.e.9.e.9.9.e.9.9.4.9.4.4.4.0.3.0.4.0.3.0.4.0.4.0.4.0.4.0.0.e.0.3.e.4.e.4.4.e.4.e.4.0.4.4.3.4.e.3.3.0.3.3.3.0.3.9.3.9.9.3.3.3.3.3.9.3.e.9.9.9.4.3.e.3.4.e.3.e.e.4.3.0.9.3.3.3.3.3.3.3.3.3.3.2.3.2.3.3.3.3.2.3.3.-.3.=.@.&.2.*.@.+.*.2.2.:.2.3.2.3.4.2.4.2.2.4.4.2.4.4.4.4.4.4.4.4.4.4.4.0.4.2.3.2.3.3.3.8.9.9.2.9.9.9.3.3.0.0.3.9.3.0.3.0.3.0.2.0.3.3.3.3.3.2.2.3.2.3.3.2.3.3.3.0.3.4.4.4.3.4.3.e.e.e.>.7.>.e.e.>.9.6.6.e.9.3.e.>.e.7.e.,.e.e.e.e.e.e.4.7.e.4.e.4.e.e.e.e.e.t.e.e.e.e.e.7.e.7.7.e.e.9.e.e.e.e.e.e.e.9.e.e.7.9.>.e.9.e.>.e.e.e.6.e.e.7.e.>.e.7.e.7.e.,.,.e.7.e.e.e.4.e.e.e.e.e.7.e.e.e.6.e.e.>.>.e.6.>.6.3.6.7.e.>.e.e.,.e.e.7.6.e.>.e.,.e.,.e.,.>.3.>.7.>.>.6.>.>.7.>.>.>.>.>.e.e.e.e.e.e.e.e.e.e.e.e.e.4.e.7.u.e.u.e.u.e.u.e.u.u.u.u.e.u.p.u.u.e.",
"e.u.e.e.r.e.e.e.e.e.e.r.u.e.e.e.7.t.e.t.e.e.e.6.| ` e.=.3.3.2.3.3.3.3.2.2.*.*.=.@.*.2.2.9.2.9.9.3.3.3.3.4.4.4.s.4.3.3.3.3.3.2.2.-.-.2.3.2.2.2.3.3.3.2.3.0.3.0.3.4.2.0.3.9.9.8.9.3.9.9.9.9.9.9.0.0.3.4.0.4.0.e.3.0.e.9.e.e.e.e.0.0.e.e.0.e.e.e.e.q.e.e.0.0.w.e.e.e.0.e.e.0.4.0.4.e.e.4.0.0.e.9.9.9.0.9.9.9.9.9.e.0.4.0.0.0.3.e.4.0.4.0.4.0.4.0.4.0.4.0.4.3.3.0.3.4.e.4.e.e.4.e.3.4.4.4.4.4.4.4.3.0.3.3.3.2.3.9.9.9.9.3.3.3.2.9.3.e.e.e.9.e.3.e.0.0.4.0.3.4.0.3.3.3.9.9.3.9.3.3.3.3.3.3.3.9.3.3.3.3.3.:.3.3.3.-.3.3.-.| @.$.*.*.*.2.:.*.2.*.3.3.3.2.4.4.4.4.4.4.4.4.1.4.4.1.4.1.4.4.2.4.2.4.4.3.3.0.2.2.3.2.2.3.3.9.3.0.9.3.3.3.3.3.2.3.0.3.2.3.0.3.3.2.0.3.3.3.2.3.3.2.3.3.3.3.3.3.0.0.4.e.4.4.e.9.6.e.9.e.6.e.e.e.6.e.>.7.9.6.e.e.e.e.,.e.6.e.4.e.e.e.e.e.e.e.e.7.t.7.7.e.7.7.e.t.7.t.7.e.e.e.e.e.e.e.e.9.e.7.9.6.e.7.9.9.e.e.6.,.6.e.6.>.e.e.e.e.e.e.e.e.,.e.e.6.e.,.e.e.e.6.e.e.e.e.7.e.4.e.e.4.e.6.e.6.e.e.>.>.e.6.>.>.e.>.9.e.e.e.e.e.e.e.e.e.7.e.3.4.e.7.>.6.>.>.>.3.>.3.>.>.6.6.>.>.6.>.7.>.e.7.e.e.,.e.e.4.e.e.e.e.t.e.u.u.u.u.e.u.u.e.u.e.u.p.e.e.e.u.u.",
"e.u.e.e.u.e.e.e.e.e.t.e.e.e.u.t.e.e.e.t.e.e.>.;.| [ a.=.3.0.3.2.3.3.3.2.3.2.*.2.*.-.2.3.3.3.3.3.4.4.4.4.w.1.4.1.3.3.1.4.4.1.1.1.-.$.-.2.9.9.2.9.3.3.3.3.9.0.3.3.3.3.0.0.0.8.3.3.3.3.9.9.3.3.9.9.0.e.3.0.4.9.9.0.9.e.e.0.e.e.0.e.e.e.0.e.0.e.0.0.e.0.0.e.e.e.e.0.e.0.e.e.e.0.4.0.0.0.0.4.e.0.9.9.e.9.e.9.0.9.9.e.0.4.0.4.4.0.4.4.4.0.3.0.e.0.3.0.9.9.4.0.3.0.3.4.e.4.0.4.e.4.4.e.e.4.4.4.4.4.4.e.3.3.3.3.3.3.3.3.9.3.3.3.8.3.3.3.9.9.e.9.e.e.0.e.3.4.e.3.0.4.3.0.0.3.3.9.3.3.3.3.2.3.3.3.3.9.3.3.2.3.>.3.2.>.>.-.2.-.@.@.@.&.*.@.&.*.2.-.2.3.2.3.2.0.3.4.4.2.4.4.1.4.4.4.4.4.4.4.2.2.3.3.3.0.2.3.3.2.2.3.2.3.2.3.9.9.9.9.4.0.3.0.0.0.3.0.9.9.9.3.3.3.9.3.3.3.3.2.2.3.3.3.3.3.4.3.4.4.e.4.4.4.e.4.9.e.6.e.6.e.9.6.7.9.9.e.6.e.>.e.9.,.e.7.e.e.7.e.e.e.e.e.e.e.e.e.e.7.t.e.e.7.e.e.e.e.e.e.7.e.e.7.6.e.9.e.4.e.4.e.e.9.e.6.e.>.6.e.9.4.9.7.9.e.e.7.6.e.e.e.7.e.e.e.e.,.7.e.e.9.e.7.e.e.e.e.,.e.4.e.e.9.e.6.e.>.9.e.e.>.>.9.,.9.6.e.7.e.e.e.7.e.9.,.e.e.e.>.e.4.>.>.>.>.>.9.,.>.6.>.7.>.7.6.>.>.>.;.>.,.e.e.e.e.e.e.e.7.e.e.e.e.u.e.e.e.u.u.e.u.u.u.e.u.e.t.u.u.e.u.",
"4.r.r.e.e.r.r.u.r.u.e.e.e.t.7.e.e.7.e.e.e.7.-.&.*.| e.-.3.2.4.y.3.2.3.3.2.3.3.2.3.3.3.2.3.9.9.0.s.4.4.3.4.4.4.4.4.4.4.4.4.s.4.1.+.@.@.-.2.2.3.2.2.3.3.3.0.3.3.3.0.2.2.3.3.3.0.0.2.0.9.0.0.3.9.9.3.3.0.3.3.0.e.3.e.0.0.e.0.e.0.e.0.e.q.e.e.e.e.e.0.e.e.e.e.0.0.e.0.e.e.0.e.e.e.0.e.e.0.e.9.e.9.e.9.9.9.9.e.9.9.9.4.e.4.0.0.4.0.0.0.4.e.3.3.0.e.4.e.e.3.3.3.e.9.0.e.4.4.4.4.4.0.4.r.4.r.4.e.4.4.4.e.3.0.3.3.3.9.3.3.9.3.9.9.3.9.3.e.3.3.3.e.9.e.e.4.0.3.0.e.3.0.4.3.3.3.3.9.3.0.3.3.9.9.3.3.2.9.3.3.-.>.>.3.>.-.-.*.*.*.2.@.| | +.&.-.-.*.&.3.3.3.3.3.3.3.4.4.4.4.4.4.4.1.1.4.1.4.4.4.4.4.3.3.3.3.9.3.3.2.2.3.3.3.3.3.9.9.3.4.0.3.3.3.3.2.3.0.2.0.0.2.0.9.3.2.3.3.9.3.3.3.9.3.4.0.0.3.4.4.4.e.4.e.e.6.e.>.e.6.>.e.e.>.7.9.e.6.e.9.,.e.e.3.,.e.e.e.e.4.e.7.,.e.e.4.e.7.7.e.7.t.7.7.7.7.7.7.t.7.7.t.4.e.e.e.9.e.e.e.6.e.9.e.e.e.9.e.4.6.e.>.e.>.9.7.e.7.7.e.e.,.4.7.7.e.e.7.e.7.e.>.e.4.e.4.e.e.e.e.e.e.9.e.e.e.7.9.>.e.6.>.7.>.e.e.e.e.e.7.e.e.e.e.7.7.4.e.>.7.6.,.e.>.7.>.>.6.>.e.>.6.>.9.6.>.>.-.>.>.>.7.7.e.e.t.e.,.e.7.e.e.e.e.u.u.u.e.u.u.e.u.u.u.e.u.e.u.e.u.",
"r.r.e.e.e.e.e.e.e.r.e.e.e.7.e.e.e.7.e.e.e.e.;.&.3.+.*.3.4.3.3.3.2.3.2.2.3.3.3.3.0.3.9.3.3.9.9.0.2.4.1.3.4.2.4.1.1.2.4.4.1.4.1.2.=.@.@.@.@.*.2.2.3.2.2.2.2.9.9.9.3.0.3.3.3.3.3.8.2.3.9.9.3.9.0.3.e.0.e.3.3.3.0.4.0.e.e.0.e.e.0.9.e.0.e.e.e.q.e.0.e.e.e.q.e.0.e.e.4.e.0.e.0.e.e.e.0.e.4.r.e.0.9.e.9.e.9.e.9.9.e.9.0.3.4.0.4.0.3.e.4.0.0.4.0.3.e.3.9.9.0.3.3.9.9.e.4.e.4.4.e.4.4.e.r.4.4.4.4.4.4.e.0.3.3.3.9.2.3.3.9.9.2.3.3.3.9.4.3.9.e.e.9.e.9.e.3.e.4.4.4.4.0.e.0.3.3.9.3.2.9.3.3.3.3.3.3.3.3.3.3.3.>.3.3.3.-.-.@.-.2.*.*.@.+.+.*.*.*.2.2.3.3.3.3.3.3.4.0.2.4.2.4.4.4.4.4.4.1.4.1.4.4.1.3.9.3.3.3.3.3.-.3.2.2.3.3.3.3.4.3.0.4.0.2.0.0.3.9.2.3.3.3.2.3.9.0.3.3.2.3.3.2.3.3.3.4.3.4.0.0.4.3.4.4.e.>.e.9.e.7.9.e.e.6.e.e.>.9.6.9.7.4.e.,.e.e.,.,.e.4.e.e.e.e.4.e.e.7.e.7.7.e.7.t.7.e.7.t.7.7.e.7.e.e.e.e.9.e.e.9.9.e.e.e.9.e.6.e.6.e.>.e.e.6.9.4.4.,.e.7.e.,.e.6.e.e.,.e.9.e.6.e.e.e.e.4.e.e.e.e.e.e.9.e.e.7.9.7.7.e.>.9.7.>.3.e.e.9.e.e.,.e.7.7.e.e.,.e.,.e.4.,.>.9.6.>.>.6.9.6.>.e.>.>.7.>.6.>.>.>.>.>.e.4.e.7.e.e.e.7.e.e.e.t.e.u.e.u.t.u.e.u.e.u.u.e.u.u.u.u.u.",
"e.e.e.r.r.e.r.e.e.e.e.r.e.e.e.e.t.e.7.,.,.4.-.&.{ &.3.e.3.2.3.3.3.3.3.3.2.2.3.3.3.0.0.0.9.9.8.3.4.4.s.2.1.s.4.4.4.4.1.4.4.4.4.4.3.3.2.=.@.&.2.3.3.2.2.2.3.2.9.9.3.3.0.3.2.0.3.0.3.3.9.0.0.4.0.0.e.e.3.0.e.0.e.e.e.0.e.e.e.0.e.0.e.e.e.0.e.0.e.e.e.0.e.0.e.e.e.0.0.0.e.e.0.e.0.e.e.0.4.0.0.e.9.9.9.9.9.9.e.e.9.9.e.3.0.3.0.3.0.4.0.4.0.4.e.4.0.0.e.9.3.3.9.3.e.9.e.4.e.0.e.e.e.4.e.r.4.0.4.e.e.e.3.4.3.9.3.3.3.3.3.3.4.3.3.9.3.0.e.3.9.9.3.e.3.4.e.3.0.3.0.3.3.4.3.3.3.3.3.9.3.0.3.9.2.9.9.3.9.2.3.-.3.2.3.-.-.-.-.-.*.&.@.*.*.*.@.*.*.*.2.2.2.3.3.3.3.3.3.4.4.4.4.1.4.1.4.4.4.4.4.4.4.4.3.3.9.3.9.2.2.3.2.2.3.2.2.3.2.2.3.3.3.0.3.3.3.0.9.9.9.0.3.0.0.3.2.0.3.4.3.3.0.3.9.3.3.4.4.4.4.4.e.4.4.7.9.9.3.e.9.3.e.6.9.e.9.e.3.e.3.e.7.6.e.>.3.7.e.e.7.e.4.e.e.e.e.7.t.7.e.t.7.u.7.e.7.t.7.e.e.7.t.7.e.9.7.e.e.,.e.e.e.6.9.7.6.e.>.e.>.e.e.>.e.7.7.e.e.,.e.>.e.,.e.,.,.e.4.e.4.e.e.e.7.e.e.e.4.e.,.e.7.e.e.9.9.e.9.9.7.9.6.>.6.e.>.e.7.e.,.e.4.3.e.e.e.e.>.e.7.e.4.7.7.e.e.e.6.>.>.e.>.6.>.>.>.6.7.e.;.,.,.4.7.e.e.>.7.e.e.e.7.e.e.e.u.u.u.e.e.t.u.u.u.e.u.u.e.u.e.u.",
"e.9.e.e.e.e.t.e.r.4.4.i.i.4.4.4.e.0.e.9.3.3.*.+.| &.3.3.3.3.2.3.3.2.2.2.2.9.9.3.0.3.0.3.9.9.9.9.0.9.0.2.3.2.9.9.3.3.2.0.0.3.3.3.2.0.0.3.%.%.1.2.3.2.2.3.3.2.2.3.9.0.9.9.0.3.3.3.3.3.3.0.0.3.e.e.0.e.e.0.3.0.e.e.0.e.e.0.e.e.e.0.0.0.e.e.e.0.e.t.e.y.e.e.0.w.e.0.0.4.0.0.4.0.r.4.0.4.0.0.4.e.0.0.4.0.4.0.4.0.4.9.0.4.4.0.4.0.4.0.4.9.e.0.9.e.0.e.0.3.e.3.3.0.3.e.e.7.e.7.e.7.7.e.e.6.e.,.,.>.,.>.>.3.3.4.3.4.4.3.3.4.4.3.3.4.4.4.3.3.3.3.3.4.4.3.9.9.9.4.e.9.4.3.4.4.4.2.3.3.3.4.2.s.4.3.4.4.4.1.2.3.3.3.3.3.3.3.%.3.1.[ 1.%.1.%.&.+.*.2.2.:.*.2.:.2.3.3.3.3.3.3.2.2.3.4.9.2.3.2.3.3.9.2.9.3.3.9.1.4.1.4.1.4.4.*.4.1.4.*.4.4.4.4.4.4.4.4.s.4.4.4.4.4.4.4.s.4.4.4.4.4.4.4.1.4.4.4.1.4.4.4.4.4.4.0.4.4.4.4.4.4.4.4.4.4.4.s.4.4.4.4.7.9.e.6.9.7.e.6.t.e.7.9.7.9.7.e.7.e.e.7.7.7.t.7.7.t.7.7.t.7.7.e.7.e.e.e.7.e.7.e.e.e.e.6.e.3.4.e.e.3.9.,.e.>.,.e.,.e.e.e.7.e.7.e.4.e.0.4.e.e.e.4.4.4.r.4.4.4.r.4.e.e.e.7.e.7.e.9.4.4.4.4.4.4.4.4.e.7.e.7.7.7.e.,.e.,.e.,.e.4.7.4.,.3.3.6.>.6.>.>.e.e.>.6.>.7.3.>.>.7.>.e.4.,.4.3.,.e.e.4.e.e.t.e.e.p.u.u.u.t.e.u.u.u.u.u.u.u.r.r.",
"t.e.e.e.e.t.e.e.r.r.r.i.4.4.4.4.9.3.3.3.3.3.2.*.| @.*.:.2.2.3.3.3.3.3.3.3.3.9.0.3.0.9.9.9.3.0.4.3.9.3.3.0.9.9.3.0.3.0.9.3.9.2.2.3.3.3.3.2.1.%.%.%.3.2.3.2.3.2.3.3.3.3.9.4.0.e.3.0.3.3.9.4.0.e.0.0.4.4.0.e.e.e.r.r.e.r.0.e.e.e.0.e.e.e.0.e.0.e.e.e.0.0.e.e.e.0.e.4.0.r.4.4.0.4.0.0.r.0.4.0.0.4.4.0.4.0.3.0.4.4.0.3.0.0.4.0.3.0.e.0.3.4.4.e.e.4.4.4.e.9.e.e.e.3.e.e.7.e.e.7.e.e.7.7.e.e.7.9.7.6.,.4.4.4.4.4.4.3.4.3.3.4.3.4.4.3.3.9.3.3.0.9.0.9.0.e.9.e.0.3.9.3.3.3.2.4.4.3.3.3.w.3.1.4.w.1.4.4.4.3.3.3.3.1.3.3.3.3.%.3.3.%.3.%.3.*.@.%.2.:.2.:.2.>.2.2.>.2.3.3.3.3.3.3.0.9.3.3.2.-.3.3.3.3.3.3.2.4.*.4.*.1.4.1.4.1.4.1.4.4.1.4.1.4.4.4.4.4.4.4.4.4.s.4.4.4.4.4.4.4.0.4.4.4.4.0.4.4.4.4.4.4.4.4.4.4.4.0.4.4.4.4.4.4.4.4.4.4.4.4.s.9.e.6.e.e.9.9.6.6.7.6.e.e.6.e.6.e.7.7.e.e.7.e.7.7.t.t.7.7.e.t.7.e.e.4.e.e.9.e.9.>.7.e.e.e.e.7.6.,.4.7.e.7.e.e.7.e.e.6.e.e.9.e.e.e.4.4.e.e.4.e.r.r.r.4.r.r.r.4.r.7.7.e.e.7.e.>.3.4.4.4.4.4.4.4.4.7.e.e.e.e.e.7.e.,.e.,.4.,.7.4.7.e.>.e.>.e.>.3.7.6.>.4.6.9.6.6.3.3.>.>.7.7.e.e.,.e.7.e.e.>.e.e.e.u.7.7.u.t.u.u.u.r.r.u.u.u.r.u.e.",
"9.e.e.e.e.e.e.e.r.r.4.4.4.4.3.%.3.2.3.2.3.2.3.3.@.@.@.@.&.-.2.0.3.3.3.2.3.0.9.0.0.3.0.3.9.0.0.0.0.3.9.9.3.9.3.0.9.9.0.3.0.3.3.3.0.3.3.9.4.2.1.{ [ 1.3.3.3.2.3.2.3.3.3.9.9.e.0.0.e.9.e.0.0.e.e.e.4.4.e.e.e.r.r.r.r.e.r.e.e.e.e.0.e.e.9.e.e.e.0.e.e.0.e.e.0.e.0.e.4.r.0.4.0.0.4.0.0.e.4.r.0.4.4.0.4.9.0.4.4.0.0.4.0.4.0.4.4.e.0.4.9.9.e.9.e.9.e.0.e.e.0.4.e.e.e.e.e.e.e.7.e.e.e.e.6.e.7.9.6.,.7.>.4.4.4.3.4.3.3.4.3.3.4.4.4.4.4.3.3.3.0.3.e.3.3.3.9.9.3.3.0.3.3.0.4.w.4.2.w.1.4.3.3.4.4.4.4.4.4.4.3.3.3.3.3.3.3.[ 3.%.%.3.3.3.3.%.2.*.| +.*.2.2.:.3.2.2.:.2.:.3.3.3.3.4.9.9.3.9.3.3.3.3.3.3.3.3.2.1.4.4.*.*.1.*.*.1.1.4.1.1.4.4.4.4.4.4.1.4.4.0.4.4.1.4.4.4.4.s.4.0.4.4.4.4.4.4.s.4.4.4.4.4.4.4.4.4.4.1.4.4.4.4.4.1.4.4.4.4.4.4.4.7.6.7.e.6.7.9.e.e.6.e.7.e.e.e.7.e.7.e.7.e.7.7.e.e.7.7.t.e.t.7.e.e.e.e.7.e.>.7.e.e.e.7.e.7.e.,.e.e.7.e.7.e.e.e.9.e.6.e.6.9.7.e.9.4.e.4.4.e.4.4.4.4.r.r.4.4.r.4.4.e.e.e.6.e.7.e.e.4.4.4.4.4.4.4.4.e.7.7.e.e.,.7.e.e.e.,.7.,.e.e.,.6.4.>.e.>.>.>.>.>.e.>.e.>.7.6.>.7.>.7.,.e.,.e.>.7.e.e.e.e.e.e.e.u.7.u.u.u.u.t.u.t.e.e.e.u.u.e.e.",
"9.9.9.9.e.0.e.9.4.4.4.4.4.4.3.3.3.3.3.2.3.2.-.2.-.&.| | &.2.3.3.0.3.0.3.3.2.9.9.9.9.8.3.0.3.4.0.9.0.9.0.3.0.0.4.0.0.9.9.0.9.0.8.3.9.8.9.4.3.%.1.| 1.%.3.2.3.3.%.9.9.9.3.9.9.3.e.9.4.0.3.e.0.e.e.e.0.e.r.r.r.e.0.e.e.0.e.e.r.e.r.0.0.e.e.0.e.e.0.0.e.e.0.e.0.e.9.0.4.0.0.4.r.0.4.e.0.4.0.4.0.0.4.0.4.4.0.4.4.0.9.3.0.4.0.0.3.3.e.9.e.9.e.9.e.3.e.3.4.3.3.3.3.3.3.>.e.7.e.7.6.7.e.e.e.,.7.,.4.,.7.,.4.4.3.4.4.4.4.:.3.3.4.4.4.4.3.9.3.3.4.3.0.0.3.3.9.0.3.0.4.3.0.4.2.4.2.4.4.3.4.4.4.4.2.w.4.1.4.3.3.3.3.3.2.3.1.3.3.3.%.3.1.3.3.:.2.*.+.%.2.*.3.:.>.2.2.3.3.3.4.0.0.9.9.9.3.9.9.3.3.3.3.3.3.3.3.4.1.4.1.*.4.4.1.4.4.*.4.4.4.1.4.4.4.4.4.4.s.4.1.4.4.4.4.4.1.4.4.4.4.1.4.1.4.4.4.4.4.3.4.4.1.4.4.4.4.4.1.1.4.4.4.4.s.4.4.4.s.4.4.9.e.e.6.e.e.e.7.e.e.6.e.6.e.6.e.6.t.7.e.7.t.7.e.7.e.e.7.e.7.e.7.e.4.e.e.e.e.e.e.7.e.e.9.e.,.e.7.>.e.e.>.e.7.e.7.e.e.e.,.e.e.7.e.e.4.r.4.4.r.0.4.0.4.4.4.r.4.r.4.e.7.e.e.7.e.e.4.4.d.4.4.4.4.z.4.e.e.e.e.e.7.e.e.,.,.7.4.7.,.,.e.e.>.e.>.7.9.6.6.6.6.6.>.e.>.3.e.4.,.>.e.>.e.7.e.e.>.e.7.7.e.e.t.u.t.t.p.u.u.e.u.e.e.e.u.4.e.e.e.",
"7.e.>.e.3.3.3.>.2.:.2.>.3.3.3.%.2.3.3.2.2.2.*.&.2.=.| @.2.0.0.3.3.3.9.9.0.3.0.0.2.0.3.9.4.0.4.0.0.4.0.0.0.4.0.0.9.0.0.3.9.0.3.9.3.0.3.0.3.3.2.2.1.[ [ 2.2.2.%.3.3.3.3.3.3.3.3.0.9.9.9.0.3.e.0.4.e.0.r.e.r.r.0.e.e.e.e.e.e.r.e.e.e.e.0.e.0.e.e.e.r.e.e.0.4.0.4.0.4.0.4.4.0.0.4.r.e.0.e.0.4.r.0.4.0.4.4.0.9.0.4.9.0.3.e.4.3.0.3.0.e.e.e.9.3.e.e.3.e.3.3.3.3.3.3.e.3.e.e.e.4.4.4.0.7.4.e.4.,.4.,.3.3.>.4.4.4.4.:.4.3.3.>.4.3.4.4.4.3.3.0.3.3.3.0.9.e.0.3.3.4.0.3.3.4.4.2.4.2.4.2.2.3.2.4.3.4.4.1.4.3.3.3.3.3.3.3.3.1.3.1.%.%.3.3.1.*.3.2.+.&.*.2.2.*.2.3.3.3.3.3.3.3.0.0.3.3.3.9.3.9.9.3.3.3.3.3.9.1.*.4.4.*.4.4.*.:.4.1.4.1.4.1.4.4.4.4.4.4.4.4.1.s.4.4.4.1.4.4.4.4.4.1.4.4.4.4.4.4.4.4.4.3.3.:.3.1.4.4.4.4.4.4.4.4.4.4.4.4.4.4.4.e.e.4.e.4.4.0.4.6.e.6.e.e.6.e.6.7.e.7.e.e.e.7.t.e.7.t.e.e.7.7.e.e.e.e.e.7.e.e.7.e.e.e.7.,.e.,.4.e.7.e.7.7.e.e.e.7.9.7.e.e.e.>.e.4.e.4.r.e.e.4.r.4.4.r.4.s.4.4.i.e.e.e.7.4.r.4.4.4.4.4.d.4.4.4.4.e.7.e.e.e.e.7.3.e.>.e.>.4.e.,.e.>.e.6.e.4.6.6.>.3.6.6.e.>.6.6.6.e.7.>.7.e.e.>.e.>.e.e.e.7.e.7.t.u.u.u.u.t.e.e.u.r.r.4.r.e.4.r.4.",
"9.9.e.9.9.3.3.3.3.2.:.3.3.%.2.3.-.3.9.3.3.9.2.+.&.| +.&.3.0.3.3.8.0.0.3.3.3.2.3.0.3.3.0.0.0.0.3.3.0.0.4.0.0.4.9.0.4.0.3.9.9.9.9.3.2.0.0.4.2.2.4.2.%.[ 2.3.2.2.3.3.>.2.3.3.3.0.e.9.e.e.3.3.0.0.4.r.r.r.e.0.e.0.e.e.e.0.e.e.e.e.0.e.0.e.e.0.e.0.e.0.4.0.e.0.e.0.e.0.0.0.r.4.4.0.0.e.e.0.4.0.4.4.0.4.0.9.4.0.4.4.0.4.0.4.0.e.4.0.e.e.9.9.e.e.3.3.e.9.3.e.4.9.4.3.9.e.>.,.7.3.3.4.4.e.4.>.e.e.>.3.4.4.4.4.4.4.4.4.:.4.4.3.4.4.4.4.4.3.9.e.3.0.4.4.3.3.9.0.e.e.3.0.3.w.4.4.2.w.3.4.4.3.w.3.4.4.4.4.4.2.3.3.3.3.3.3.3.3.3.3.3.3.3.%.%.*.3.2.&.&.*.*.2.2.:.2.3.3.3.2.3.3.3.3.3.3.3.3.3.9.9.9.3.9.2.3.2.4.1.4.1.1.1.*.*.1.1.4.1.4.:.4.4.1.4.4.4.4.4.4.4.1.0.4.4.4.4.4.4.1.4.4.4.4.4.1.4.4.4.4.1.3.3.3.4.4.4.1.4.4.4.4.4.4.4.4.s.s.4.s.4.9.e.9.e.0.0.4.0.6.e.e.9.e.e.e.6.7.6.e.e.7.e.7.e.e.7.7.e.e.e.e.e.e.4.e.,.9.e.3.e.e.6.e.e.e.e.e.7.e.e.9.e.e.e.e.4.e.e.,.e.7.e.e.e.e.4.4.4.4.r.r.4.4.r.e.e.4.i.4.4.e.e.e.e.r.4.4.r.s.4.4.4.4.4.4.4.e.e.,.e.e.,.e.,.,.4.,.e.e.7.,.e.e.3.e.>.>.>.e.9.>.4.>.e.e.>.>.e.3.7.>.6.>.,.4.,.e.>.7.3.3.,.e.e.u.t.t.u.e.u.u.u.r.4.i.4.4.u.4.r.",
"9.9.9.9.3.3.3.3.3.3.3.2.3.3.3.2.2.3.2.3.4.9.2.| } | &.2.2.3.2.2.3.3.2.3.3.0.0.3.9.9.0.9.0.3.9.3.0.9.3.0.0.3.9.3.0.9.9.3.0.2.3.3.0.0.2.4.2.2.2.2.3.2.[ %.2.3.3.3.-.3.-.2.3.3.0.3.0.9.e.0.e.0.e.0.0.e.e.e.0.e.e.e.e.0.0.e.e.y.r.0.e.e.0.0.e.e.e.e.4.0.e.0.0.e.4.0.r.4.4.0.0.4.0.4.0.0.0.0.0.4.0.4.4.0.9.0.0.9.9.0.3.e.3.0.4.0.0.4.9.e.9.9.0.3.4.3.3.e.3.9.4.3.e.3.4.e.e.4.3.4.4.4.>.e.>.4.,.>.e.,.>.4.3.4.4.>.4.>.3.4.4.4.4.4.4.4.3.4.3.0.0.3.3.0.e.3.3.4.3.e.3.0.w.4.4.2.3.3.3.3.3.w.3.3.4.1.4.4.3.3.3.3.3.3.3.3.3.3.3.3.3.%.3.%.*.*.*.2.*.+.&.*.*.2.:.2.2.3.3.3.9.3.3.3.3.3.3.9.3.3.3.2.3.3.3.3.4.4.4.1.4.4.4.1.:.4.1.*.1.4.1.1.4.4.1.4.4.4.4.4.0.4.4.4.4.4.4.4.4.4.4.4.4.1.4.4.4.4.4.3.3.3.4.1.1.4.1.4.1.4.4.1.4.s.4.4.s.4.4.4.9.9.9.3.3.9.0.3.e.e.6.e.9.7.9.e.>.e.7.6.e.7.e.7.e.e.7.e.7.e.e.7.7.e.e.e.e.7.e.e.3.e.6.e.e.7.,.e.e.e.e.7.e.,.e.e.6.e.e.9.6.e.6.e.4.e.0.4.r.4.4.r.4.e.4.r.4.4.4.4.e.e.e.e.4.r.i.4.4.a.4.s.4.s.4.r.4.7.e.e.7.4.,.e.9.,.e.,.e.7.e.e.6.e.>.e.e.>.>.7.7.6.e.>.>.>.6.>.>.6.>.>.e.>.6.>.>.e.>.e.3.e.e.e.e.e.u.u.u.u.e.7.4.r.4.i.4.r.r.4.",
"3.3.9.e.3.3.3.3.:.-.:.:.2.3.3.3.3.3.3.2.3.3.-.| ` | -.3.3.3.0.9.3.2.3.0.2.0.3.2.0.9.3.0.9.0.9.0.3.3.4.0.9.0.9.3.0.0.3.0.9.3.9.0.3.3.3.2.4.4.4.2.3.2.2.1.%.2.3.3.3.>.3.3.2.3.3.3.e.e.0.e.e.e.0.e.0.e.0.e.0.e.0.r.e.0.e.0.e.0.e.e.r.0.e.e.e.0.0.0.0.4.4.0.4.0.e.4.4.0.0.4.0.r.4.0.e.e.4.e.4.0.4.0.0.3.4.0.4.4.0.4.0.4.0.4.0.4.4.e.e.9.e.3.3.4.3.4.3.3.3.3.3.3.3.3.3.4.3.e.3.4.4.0.e.,.e.7.3.e.>.e.4.4.3.4.4.3.>.>.4.4.4.4.e.4.4.4.4.3.3.4.4.e.4.4.3.e.3.4.0.3.e.4.4.4.w.4.4.4.1.3.3.3.3.3.4.4.1.4.3.3.3.3.3.1.3.3.3.3.3.3.1.3.3.4.*.+.&.2.2.*.+.*.2.*.-.2.2.2.3.3.3.0.0.3.0.3.3.3.9.3.3.3.2.3.2.3.*.1.4.4.4.1.*.4.:.:.4.4.4.4.:.4.4.4.4.4.4.4.4.4.4.4.4.4.4.4.4.4.4.4.4.4.4.4.4.4.1.4.4.3.3.3.4.:.4.4.4.4.4.4.4.4.1.4.4.4.4.4.4.4.e.3.e.e.9.4.4.4.e.9.e.9.e.9.e.9.>.,.e.6.7.e.6.e.7.e.t.e.7.e.e.,.e.e.4.e.e.e.6.7.e.e.7.e.e.,.e.7.e.>.e.e.e.e.4.e.e.e.7.e.e.e.e.e.e.e.4.4.4.4.0.4.r.4.r.4.4.a.4.4.e.7.e.e.4.i.4.i.4.4.4.4.4.4.r.4.e.e.e.4.4.,.,.>.4.3.>.4.4.4.e.7.e.6.e.e.>.e.9.6.9.>.>.6.6.e.6.4.e.>.>.>.>.>.3.6.7.>.e.3.e.>.>.e.e.u.7.u.e.e.e.e.u.4.i.4.i.4.u.4.",
"3.3.3.0.3.3.3.4.3.3.2.2.2.3.3.3.3.2.3.3.3.e.3.} } *.3.9.3.2.9.9.0.2.9.9.3.9.9.0.9.0.3.4.3.0.3.3.9.9.9.9.9.9.9.9.2.3.0.4.3.3.8.0.3.3.3.3.3.3.3.3.3.3.3.2.2.3.2.[ :.3.3.2.:.:.3.0.0.e.e.4.0.0.e.3.e.e.0.e.e.e.e.3.r.e.3.0.0.r.r.0.0.e.e.e.e.0.e.4.4.0.4.e.0.e.0.4.4.0.r.4.0.0.4.0.e.e.0.4.0.4.0.4.4.0.4.0.e.0.e.e.0.e.9.9.0.3.3.3.9.e.9.4.3.4.3.e.9.4.3.9.3.9.3.3.4.2.4.4.4.4.2.4.3.4.4.4.4.4.4.4.4.4.>.4.4.,.3.>.4.4.3.3.4.4.4.4.3.3.0.3.3.3.4.e.0.4.0.4.0.4.e.0.4.2.4.4.4.4.2.4.4.4.4.4.4.4.2.4.3.3.3.3.3.3.3.3.3.3.3.1.4.3.1.%.*.*.*.*.-.-.2.2.:.-.*.2.*.3.3.3.9.9.2.3.3.9.3.3.9.3.2.3.3.3.2.>.4.4.1.1.4.4.*.1.*.4.4.*.4.1.4.1.1.4.4.4.4.1.4.4.4.4.4.4.4.4.4.4.4.0.4.4.4.4.4.4.4.4.4.4.4.1.4.3.4.4.1.4.1.4.s.4.4.4.s.4.4.4.4.4.4.4.4.4.4.0.0.4.4.0.4.0.4.0.0.3.e.e.>.e.e.4.7.e.e.,.e.e.e.e.6.e.e.4.4.e.e.e.e.e.e.e.4.e.,.e.e.4.7.e.e.,.e.e.,.e.e.e.,.6.e.,.e.4.e.4.0.4.4.r.4.4.4.s.4.i.4.i.4.s.4.e.4.r.4.4.r.4.4.4.i.r.4.4.4.r.s.4.0.4.4.w.4.4.4.4.4.4.4.4.3.4.3.4.9.3.4.>.e.>.>.9.>.6.6.>.4.6.>.6.6.>.:.;.>.e.e.e.>.e.e.3.e.e.4.d.j.4.j.4.4.4.4.r.4.r.4.4.i.4.",
"9.3.4.3.3.3.4.2.3.2.3.2.3.2.3.3.3.2.2.2.2.9.2.| +.*.2.3.3.3.9.9.3.0.0.3.0.9.3.0.4.0.0.0.0.3.0.2.9.9.9.3.9.0.8.9.9.0.0.0.9.3.3.3.3.3.3.3.2.3.3.3.1.3.3.3.3.2.3.3.-.3.-.-.-.3.3.e.3.e.0.0.4.e.e.0.0.9.9.9.3.0.0.0.r.0.4.3.e.e.0.e.e.e.0.0.e.4.0.0.4.0.0.0.4.0.4.0.0.4.4.0.0.4.r.4.0.e.3.4.3.0.4.e.0.4.4.0.0.e.e.0.3.9.9.e.9.e.e.0.9.9.e.9.3.3.3.3.e.3.3.3.3.3.4.3.4.4.4.4.4.4.4.4.4.4.3.4.4.4.4.4.>.4.4.4.3.>.>.4.3.4.4.4.4.>.>.4.4.3.4.4.3.4.3.0.4.r.4.4.3.0.e.4.0.4.0.2.2.w.2.4.4.1.1.4.4.1.4.2.3.3.3.1.3.3.3.3.4.1.3.3.4.1.3.4.2.2.*.2.*.-.*.*.2.:.2.*.:.2.2.2.3.3.3.3.9.9.3.3.9.3.3.3.3.3.3.3.4.4.4.4.4.1.4.4.1.*.1.4.4.*.4.4.4.4.4.1.4.4.4.4.4.4.4.4.4.4.4.4.4.4.4.4.1.4.4.4.4.1.4.4.4.4.4.4.1.4.4.4.4.4.1.4.s.4.4.4.4.4.4.4.w.4.0.4.4.4.4.4.0.4.4.0.0.4.4.0.e.7.6.,.e.4.4.>.7.e.4.6.e.3.e.e.e.e.e.e.e.,.4.e.e.4.e.e.e.e.e.e.6.e.e.e.e.e.7.9.9.e.e.e.e.e.7.4.e.e.4.r.e.4.4.e.4.r.4.4.4.4.4.4.e.e.r.4.4.r.4.r.4.s.4.4.4.r.4.r.4.0.4.4.4.4.4.4.e.3.3.e.>.e.e.>.e.6.>.7.>.e.>.7.>.>.7.>.>.e.>.6.>.>.>.>.=.=.-.9.6.9.7.>.>.3.6.e.4.4.4.4.4.4.4.4.r.4.i.4.r.4.4.4.",
"3.3.9.3.4.4.2.4.3.3.3.3.2.3.2.3.3.2.3.3.2.9.>.+.&.*.-.2.2.9.9.3.3.0.3.0.9.3.9.0.3.0.4.0.0.3.0.0.8.9.0.0.9.8.9.9.9.9.9.9.2.2.3.3.4.1.3.2.3.3.3.2.3.4.3.3.3.3.3.2.2.:.3.3.3.3.9.e.0.e.e.0.0.e.0.4.3.3.9.9.3.e.9.0.e.0.9.3.3.e.e.0.e.r.e.e.e.0.e.0.0.0.4.4.4.0.r.0.0.0.0.e.4.4.0.0.e.0.3.0.9.e.0.3.4.0.4.0.0.4.0.e.9.e.9.9.9.3.0.3.9.e.9.4.4.3.3.e.3.3.3.9.9.3.3.9.4.4.2.4.4.4.4.4.4.3.2.0.4.4.4.4.4.4.3.3.3.3.4.>.3.4.4.4.4.3.4.4.3.3.4.4.4.4.4.4.4.4.4.4.4.e.4.0.4.w.4.4.4.4.4.4.3.4.4.1.2.4.4.4.3.3.3.3.3.3.3.3.3.3.3.3.4.3.1.%.3.2.2.2.-.-.*.*.:.3.:.2.2.*.*.-.2.3.3.9.3.9.3.9.9.3.3.2.3.3.2.3.4.1.4.4.4.4.4.1.4.4.4.*.1.4.4.4.1.4.4.1.*.4.4.4.1.4.4.4.1.4.4.4.4.4.4.4.4.4.4.4.4.4.4.4.4.4.4.4.4.4.1.4.4.4.4.4.4.4.4.4.s.4.4.4.w.4.4.4.0.4.0.4.4.4.4.3.4.4.4.4.9.,.,.4.3.e.4.4.e.,.e.7.e.e.4.e.e.e.e.e.4.e.e.e.e.e.e.4.e.e.7.4.e.e.e.4.4.e.e.e.e.7.e.e.,.e.,.e.4.4.4.4.4.4.4.r.r.4.4.r.i.s.4.d.4.e.4.r.4.r.4.i.4.4.4.s.4.r.4.4.4.4.w.4.4.4.4.4.3.3.3.3.4.3.3.>.>.e.>.e.6.6.>.>.7.>.>.6.e.>.e.>.6.>.9.6.-.;.:.9.6.6.6.9.6.e.9.9.4.a.j.4.4.4.4.4.4.4.r.4.4.4.i.4.",
"9.9.9.8.0.2.4.2.2.3.2.2.3.2.2.%.3.-.3.3.2.3.3.-.3.3.2.-.3.9.9.2.2.4.0.3.9.0.9.3.4.0.0.0.4.0.4.9.0.3.3.8.9.0.9.9.9.3.8.3.9.0.9.0.4.4.2.3.3.2.3.3.2.[ [ 1.L <.[ [ -.-.3.3.3.3.0.e.0.e.e.e.3.0.0.3.0.0.0.e.0.0.e.e.0.0.9.9.3.0.e.0.e.0.0.e.e.0.4.0.e.e.r.0.r.e.4.0.4.r.4.0.r.0.4.0.e.0.0.e.3.0.4.0.9.4.0.4.4.0.e.e.9.9.9.e.0.4.3.e.9.e.e.3.4.9.3.3.e.3.4.3.3.3.4.3.4.4.4.4.2.4.4.4.4.4.4.4.4.4.4.4.4.4.4.4.3.,.3.4.4.4.3.3.4.4.4.3.4.4.4.4.3.3.4.4.4.4.0.e.4.4.4.4.4.4.2.4.2.0.2.4.3.3.4.3.4.2.2.4.3.3.3.3.3.3.3.3.3.3.3.3.3.3.4.4.3.2.:.2.2.-.2.-.2.2.2.:.:.2.-.*.-.3.9.3.3.2.3.0.3.3.9.3.3.-.3.3.*.4.1.1.4.1.4.4.*.4.1.4.4.*.1.4.4.4.4.4.*.4.1.4.4.4.s.4.4.4.4.4.4.4.4.4.4.4.4.1.4.4.4.1.4.1.4.4.4.3.4.4.4.1.4.4.4.4.4.4.4.4.4.4.4.4.4.4.4.2.4.4.3.4.4.0.4.3.4.0.e.e.>.e.e.e.4.3.e.e.4.e.e.9.e.e.4.e.,.e.e.e.7.e.e.7.e.e.4.e.e.e.e.7.e.e.e.e.e.7.e.7.9.,.e.6.e.,.4.4.4.4.4.4.4.4.4.0.4.4.4.4.4.4.e.e.r.4.4.4.r.4.r.4.4.4.r.4.4.r.0.4.3.4.4.4.4.4.4.4.3.4.3.3.3.e.e.>.e.>.>.6.4.>.>.9.>.e.6.6.6.>.9.9.6.9.5.;.-.6.>.>.>.3.9.9.6.7.4.4.4.4.4.4.4.z.4.u.4.r.4.d.4.4.",
"4.s.4.4.2.4.2.4.2.2.3.3.*.3.2.3.2.3.9.9.3.3.9.3.3.9.3.3.-.2.3.3.3.3.9.9.0.9.9.9.0.0.4.3.0.9.9.0.3.3.3.3.3.3.9.2.0.4.9.9.0.3.9.4.1.1.4.3.3.[ 1.[ <.L [ <.1.L [ 1.-.-.3.0.r.e.0.e.3.e.0.e.0.e.4.4.3.9.0.0.3.9.9.0.r.9.8.9.9.0.0.e.0.e.0.e.e.e.0.3.e.e.e.0.0.e.e.0.4.0.0.4.0.4.4.0.e.0.3.e.3.0.3.3.0.4.4.0.4.0.0.3.9.e.9.e.9.9.0.3.9.9.e.3.3.4.3.e.3.4.3.3.3.3.3.4.4.4.4.4.4.4.4.2.3.4.4.4.4.4.4.4.3.,.3.4.3.3.4.3.3.4.4.4.4.3.3.3.4.4.4.4.4.4.4.4.4.r.4.4.4.4.4.4.4.4.2.4.4.2.4.4.4.4.3.3.3.3.4.4.3.3.3.3.3.3.3.3.3.3.1.4.4.4.4.:.>.2.3.:.3.3.-.3.2.3.3.2.:.2.2.:.-.3.3.3.3.3.3.9.9.3.3.3.3.3.3.3.*.4.1.4.4.4.4.4.1.4.*.4.*.4.1.4.4.4.1.%.:.4.4.1.[ 1.4.4.*.4.4.4.4.4.4.4.4.4.4.4.4.1.4.4.4.4.4.1.2.2.3.3.4.4.1.4.4.4.4.4.4.4.4.4.4.4.4.s.0.4.4.4.0.4.0.4.4.4.4.4.e.4.4.4.e.e.e.4.,.4.4.e.e.4.e.9.e.,.e.4.e.e.e.e.e.e.,.e.e.e.e.4.e.e.e.e.e.,.e.9.6.e.,.e.e.3.4.3.3.4.4.4.4.4.4.r.r.4.r.r.4.4.4.4.4.4.s.4.r.4.r.4.4.4.s.4.4.4.4.4.4.s.4.4.4.4.4.4.4.3.4.4.3.3.4.3.3.6.4.6.e.>.7.>.6.>.e.>.6.4.>.e.>.>.>.6.:.-.-.-.-.6.>.9.9.6.9.9.4.4.4.4.4.4.4.4.4.z.4.4.s.4.4.4.",
"1.4.1.1.4.2.w.3.4.2.2.2.3.2.3.2.3.2.2.9.3.3.9.3.3.0.0.2.2.-.-.3.2.2.9.0.9.0.9.0.3.0.9.0.9.9.9.9.2.9.2.3.2.3.3.3.4.3.2.3.3.2.2.2.4.3.3.3.3.L L 2.2.1.3.4.4.3.2.2.| | *.4.r.e.3.0.e.e.e.0.4.0.0.3.3.9.9.9.2.3.2.3.9.9.9.9.9.0.0.0.e.0.4.0.9.4.4.0.0.0.e.e.e.0.e.e.r.4.4.0.4.0.r.4.e.0.0.4.0.4.e.0.4.0.4.0.0.4.e.3.9.9.9.9.9.9.3.9.9.e.e.3.3.3.9.4.3.9.3.9.3.e.e.3.2.4.4.4.0.4.4.4.4.3.4.4.4.4.4.4.4.4.4.3.4.4.4.4.4.4.3.4.4.4.0.4.4.4.4.4.4.3.4.e.4.4.4.e.e.4.4.3.2.4.w.4.4.w.w.4.4.1.3.3.3.3.4.4.3.3.3.3.1.4.1.3.3.3.:.4.:.1.3.4.3.>.2.2.:.2.3.2.2.>.:.3.>.2.:.2.-.:.:.2.2.3.3.9.3.9.9.3.3.2.2.3.4.4.4.4.1.4.1.*.4.*.4.1.4.*.4.*.%.*.4.4.4.*.[ [ [ %.1.1.*.4.4.4.0.1.4.4.4.1.4.0.4.4.1.4.4.1.4.:.4.4.3.2.4.4.4.4.4.4.4.4.4.4.4.s.s.4.4.4.4.4.0.4.4.4.0.4.4.4.0.4.9.e.4.e.e.e.e.4.e.4.4.e.3.e.4.e.e.e.e.e.e.4.e.,.e.4.e.e.4.7.e.e.>.7.e.,.e.e.e.7.e.,.e.7.4.e.4.3.4.4.4.4.4.4.4.4.4.4.4.4.4.s.4.4.s.4.4.0.4.r.r.4.r.4.4.4.s.4.s.0.4.4.4.4.4.4.0.4.0.4.4.4.e.3.3.e.e.>.e.>.>.3.6.>.7.3.9.6.>.e.e.>.6.6.9.>.-.=.;.6.6.>.6.>.6.9.6.e.4.4.4.4.4.z.4.4.4.4.4.4.4.4.4.j.",
"4.4.4.s.w.4.2.4.4.2.3.3.3.2.3.2.-.-.2.3.2.3.9.2.:.3.e.9.3.2.-.-.2.3.3.3.0.0.0.9.9.9.9.9.9.9.9.2.0.3.3.8.3.3.9.9.3.2.2.*.=.*.&.*.2.3.1.1.[ 2.1.2.3.3.4.4.4.3.3.[ %.&.-.0.0.e.4.0.e.e.r.0.4.0.4.4.3.9.0.9.3.-.2.3.2.3.3.9.9.9.9.0.3.4.0.3.9.0.0.9.e.e.0.0.e.0.0.e.0.0.0.0.0.0.e.0.0.e.4.0.4.0.4.0.0.4.0.4.3.9.9.0.e.9.e.e.e.9.9.e.9.e.9.3.3.e.3.4.3.9.3.3.3.3.3.4.4.4.4.4.4.4.4.4.4.4.4.4.4.4.4.4.4.3.4.4.,.4.3.4.4.3.3.4.3.4.4.3.3.4.4.4.4.3.4.4.4.4.0.4.4.4.4.3.4.4.0.2.4.4.4.4.4.4.4.1.3.1.3.1.3.3.3.3.3.3.3.3.4.3.3.3.3.3.4.1.2.2.3.3.3.3.-.3.3.2.:.2.:.2.:.:.-.>.2.3.3.3.3.2.3.9.9.3.3.2.3.3.4.1.1.4.4.4.4.4.4.*.*.4.1.4.4.1.4.4.%.L L [ *.4.4.4.4.4.4.1.4.*.4.4.4.4.4.1.4.4.4.1.4.4.4.4.1.4.4.2.3.3.1.4.4.4.4.4.4.4.4.4.4.4.4.4.0.4.4.s.0.4.4.4.4.0.4.0.4.4.e.e.4.4.4.e.4.e.4.e.4.4.e.4.e.4.e.e.e.e.7.e.e.e.e.e.e.e.e.e.e.e.e.e.e.e.e.e.e.9.7.e.e.,.4.4.4.0.4.3.4.4.4.4.4.0.i.4.4.4.i.4.4.s.4.4.4.4.4.y.4.r.4.r.4.r.4.4.r.4.4.4.4.4.4.4.0.4.4.0.0.4.0.4.e.3.6.e.>.e.e.6.>.9.>.9.>.e.e.>.e.>.e.6.3.6.6.-.-.>.>.-.9.6.9.9.9.6.r.4.i.4.4.4.4.4.4.4.z.4.4.4.4.4.",
"4.4.4.1.4.4.3.4.4.3.4.3.3.3.2.-.3.3.3.9.3.2.3.3.2.3.0.4.4.3.3.2.*.2.3.2.3.3.9.3.3.0.8.3.0.3.3.3.4.0.9.9.0.9.9.0.3.3.-.-.*.-.2.*.[ 2.1.1.1.3.3.4.4.4.4.2.3.4.4.4.:.*.2.0.r.0.0.r.r.e.e.0.4.0.0.3.9.0.0.3.2.3.>.3.3.2.3.9.3.9.9.9.0.0.3.3.9.e.3.0.e.e.r.e.e.e.e.e.4.r.4.4.r.4.0.e.e.4.0.4.0.4.e.4.4.0.4.0.0.3.e.3.9.9.9.9.9.9.e.3.e.9.e.4.4.3.3.e.3.3.9.3.3.3.e.3.4.4.4.2.4.4.4.4.4.2.4.4.4.4.4.4.3.4.3.4.4.4.4.4.3.4.4.4.3.4.3.4.3.4.4.4.3.4.4.4.4.4.4.e.e.4.3.3.4.2.4.4.2.4.w.2.4.4.4.4.4.4.4.4.3.3.1.3.3.3.3.3.1.3.3.:.4.1.3.4.>.3.3.:.3.2.3.-.3.3.2.:.:.-.-.2.3.:.-.>.3.9.9.9.3.9.9.3.3.3.3.9.4.4.4.4.4.1.4.1.4.4.1.4.4.*.4.4.4.1.[ %.1.4.4.4.4.4.4.4.4.4.1.4.4.4.4.0.4.4.4.4.4.4.4.4.:.4.4.4.4.3.3.3.4.1.4.1.4.4.4.4.4.s.4.4.s.4.4.4.4.4.4.4.0.y.4.4.r.4.0.r.4.4.4.4.e.4.4.4.4.4.4.e.4.e.4.e.e.4.4.e.e.e.4.e.e.e.,.e.4.e.e.e.7.e.e.e.3.e.e.7.e.e.>.e.3.9.4.4.4.4.4.4.0.4.r.4.4.4.4.4.s.4.4.i.4.4.4.y.4.4.4.4.4.s.4.4.r.4.4.0.4.4.4.s.s.4.4.4.y.4.4.r.4.e.4.e.9.e.e.e.>.e.e.3.7.6.7.>.>.e.>.4.6.>.>.>.:.:.-.6.9.6.>.9.>.9.9.9.4.4.i.4.4.4.4.j.4.4.4.4.4.j.4.4.",
"s.4.4.s.4.4.2.4.2.4.2.0.4.4.2.3.3.3.-.3.9.3.9.0.-.9.3.-.3.0.9.=.*.*.2.3.3.3.3.0.e.9.3.3.3.3.3.3.3.3.3.3.2.3.3.3.e.4.0.4.0.3.e.e.4.4.4.4.d.4.d.4.e.9.3.3.3.4.0.3.-.*.e.r.0.e.e.0.e.r.0.e.e.0.e.0.e.3.3.3.3.3.3.0.e.3.2.3.3.3.3.e.3.0.9.e.e.9.9.9.e.e.e.r.e.4.4.4.0.4.r.e.r.4.r.4.0.r.4.0.0.3.e.0.4.0.3.0.0.e.0.e.e.4.e.e.9.9.4.0.3.9.4.9.3.3.3.9.3.3.3.>.3.3.3.3.e.3.4.4.3.4.3.4.3.3.4.3.4.4.4.4.3.4.3.4.4.>.4.4.3.4.3.4.3.4.3.3.4.4.4.4.4.4.0.4.9.3.e.e.e.3.3.3.4.0.4.4.4.4.4.3.4.4.3.3.0.3.3.0.4.4.1.4.1.4.4.4.:.4.1.4.4.:.4.1.4.4.1.4.4.4.1.4.4.:.4.:.4.*.*.*.-.-.:.3.3.4.3.3.3.4.4.2.2.3.3.3.4.1.4.4.4.4.1.4.4.1.4.4.1.1.4.4.4.*.4.s.4.4.4.4.4.4.*.*.4.4.4.4.4.4.4.4.4.4.4.4.4.4.4.4.1.4.*.*.3.3.3.3.4.4.4.4.4.3.4.4.4.4.4.4.e.e.e.0.4.4.e.4.e.4.e.e.4.r.4.e.4.4.4.4.4.4.4.4.i.4.4.4.4.4.4.4.e.e.7.e.e.7.t.e.7.e.7.t.7.e.7.e.e.e.9.e.9.7.9.e.9.9.9.e.4.3.4.3.2.3.3.4.4.e.0.e.0.4.0.4.e.e.0.4.r.4.r.r.4.4.r.4.4.4.4.r.4.r.4.4.s.4.4.4.s.4.4.s.4.4.4.4.4.4.4.4.4.4.3.4.4.3.3.4.>.e.e.e.7.e.e.6.3.e.3.3.>.:.-.2.3.3.3.3.e.9.9.e.4.4.4.4.4.4.0.4.r.4.0.4.e.r.4.r.",
"1.4.4.1.0.2.4.0.2.4.4.0.4.2.3.2.3.-.>.3.2.3.3.3.e.3.&.` [ *.9.9.&.*.2.3.3.3.0.3.e.9.3.-.2.3.4.e.3.3.3.3.3.3.e.3.0.0.3.0.9.e.0.4.4.4.4.4.4.4.s.4.e.3.0.3.3.e.3.e.:.-.e.e.9.e.e.e.r.e.e.e.e.e.e.e.e.0.0.3.0.9.e.e.e.0.3.3.3.3.3.3.e.3.9.3.9.9.e.e.0.e.e.e.r.r.r.e.4.0.0.4.0.0.4.0.0.4.r.4.e.e.4.e.e.4.e.e.3.4.4.9.e.0.e.3.e.e.3.4.9.e.9.4.3.4.3.3.e.3.3.3.3.9.3.4.e.4.3.3.e.3.3.e.4.3.e.3.9.3.4.3.3.3.3.4.4.3.4.4.3.4.4.4.3.3.4.4.4.3.4.3.0.9.4.9.4.0.e.9.9.e.4.e.4.2.4.2.2.0.0.2.4.2.3.3.3.3.3.3.4.:.4.4.4.*.*.4.4.*.*.4.1.4.4.4.*.4.:.4.1.4.4.4.1.4.1.:.1.4.4.*.3.-.-.-.3.3.4.3.3.3.4.3.3.2.2.3.4.4.4.1.*.1.4.*.4.4.4.1.4.4.4.*.:.*.1.4.1.*.4.1.1.4.4.3.*.*.*.:.*.1.4.4.4.4.1.4.4.1.4.4.4.4.4.4.3.3.3.3.4.1.4.4.4.4.4.4.4.1.4.4.3.e.e.4.0.e.3.e.e.0.e.4.4.0.0.4.4.s.4.4.s.i.4.i.4.4.4.4.4.4.4.4.7.e.7.e.e.7.7.e.7.e.e.e.e.7.e.7.6.e.6.e.9.q.9.t.6.e.9.9.0.3.3.0.3.3.4.0.4.0.4.3.3.e.e.4.e.4.0.4.4.4.4.4.4.r.4.4.s.4.r.4.r.4.4.r.4.4.4.4.4.4.4.4.4.4.s.4.4.4.s.4.4.4.4.3.e.3.>.4.,.9.7.4.e.9.e.7.3.3.3.3.3.3.3.3.e.3.e.3.3.9.e.4.r.4.0.r.0.4.4.e.e.e.4.r.e.4.r.4.",
"4.4.4.4.4.4.4.0.0.0.4.4.3.3.2.2.3.2.-.3.3.3.3.3.3.9.0.9.3.3.2.*.-.&.*.3.3.3.3.0.2.:.:.-.-.-.3.3.2.2.3.4.0.0.0.0.3.0.e.3.0.3.0.4.4.4.4.4.4.4.4.4.4.e.9.3.0.e.4.e.*.:.r.e.0.e.e.r.r.0.e.e.e.0.e.4.0.e.3.e.9.0.e.0.0.e.0.3.9.3.3.0.3.9.9.e.3.e.9.e.3.3.e.r.4.r.r.4.e.r.r.4.4.0.4.r.e.0.4.0.3.e.e.9.e.4.e.9.e.e.4.e.0.3.e.0.3.3.3.3.9.9.3.3.e.3.3.9.3.3.3.3.3.9.3.9.3.3.4.e.3.e.9.4.3.e.e.3.3.e.3.3.3.3.4.4.4.4.4.4.4.4.4.3.4.3.3.3.3.e.4.0.3.e.4.e.e.3.3.e.9.9.e.4.4.0.4.2.4.4.4.4.2.3.3.3.3.3.2.3.*.4.4.:.*.1.4.1.:.1.4.1.4.:.4.4.4.1.4.1.4.*.*.4.:.4.1.4.4.*.4.1.3.-.&.&.%.3.3.3.3.3.3.4.2.3.3.3.1.4.1.4.4.1.4.4.*.1.4.4.4.*.:.4.*.*.:.4.4.4.4.4.1.4.4.1.*.*.*.*.*.*.1.*.4.4.4.4.4.4.4.4.4.4.4.4.3.3.4.3.4.4.4.4.4.4.4.4.4.4.4.4.9.e.9.e.3.0.4.9.0.e.0.4.4.e.4.e.4.d.4.s.4.4.4.4.s.4.4.4.4.4.4.s.e.e.t.7.7.u.7.e.u.t.7.7.6.e.7.e.9.9.9.9.7.9.9.6.9.e.9.9.0.4.3.4.3.3.4.4.e.e.0.4.e.e.0.e.4.e.4.e.s.4.r.4.4.4.r.r.4.4.4.4.4.r.0.4.0.s.4.s.4.4.4.4.4.4.4.4.4.4.4.4.r.4.e.4.e.,.e.e.e.,.e.e.7.e.e.e.3.e.3.9.3.4.e.e.e.0.0.4.e.9.3.0.0.4.4.r.r.4.4.4.4.r.4.4.r.4.4.4.",
"s.3.s.4.0.4.2.4.4.4.4.2.3.2.3.3.3.3.3.3.3.9.9.9.0.0.e.e.0.:.=.*.2.-.*.-.>.2.3.3.-.-.3.-.:.-.-.2.3.3.0.e.e.e.3.e.e.e.3.0.3.0.4.4.4.4.4.4.4.s.4.4.0.e.e.e.4.e.e.0.-.&.e.e.3.e.e.0.e.e.r.e.r.0.e.0.0.4.0.e.9.4.9.e.0.3.9.9.9.9.3.0.0.e.9.9.0.e.3.9.3.3.4.e.r.r.e.r.4.0.4.0.4.r.e.4.4.4.r.4.e.e.9.e.0.e.e.9.e.3.3.0.e.4.3.e.3.e.e.3.3.e.4.e.3.4.3.3.9.3.3.9.3.3.3.3.3.e.9.4.e.3.4.9.4.0.3.e.3.3.3.3.4.4.4.3.4.4.,.4.4.>.4.4.4.4.4.4.4.4.3.3.3.3.0.3.3.4.0.3.e.3.3.3.2.2.4.4.2.4.2.2.3.2.2.3.2.3.2.3.4.1.4.4.4.4.:.4.4.4.:.4.4.1.4.1.4.4.4.1.4.4.4.1.4.:.1.4.4.*.*.4.-.3.-.3.2.3.3.3.3.4.4.2.3.3.2.3.4.4.4.4.4.4.4.1.4.4.4.1.4.4.4.*.*.*.*.4.1.4.1.4.4.4.4.4.4.1.1.%.1.*.%.[ *.4.4.1.4.4.1.4.4.*.1.4.4.4.4.4.4.4.4.4.4.4.4.4.4.4.4.4.e.9.e.e.e.e.9.e.4.e.4.e.0.4.r.4.4.4.i.4.4.i.4.4.4.4.s.4.4.i.4.4.e.7.e.e.e.e.e.7.e.7.e.e.e.7.e.7.e.9.9.3.9.e.9.e.9.9.9.9.3.0.3.3.3.4.4.0.4.4.0.e.9.e.4.e.0.e.e.9.4.4.4.r.s.4.4.4.s.4.4.s.4.r.4.r.4.4.4.4.i.4.4.s.i.4.i.4.s.4.4.4.4.r.4.r.e.e.7.e.,.e.e.,.e.>.,.3.e.3.3.3.3.3.3.e.e.e.e.e.e.3.0.4.4.0.4.4.4.0.r.r.r.4.r.4.4.r.4.r.",
"2.4.0.4.4.4.4.2.3.2.3.3.3.2.3.3.-.3.2.3.3.3.0.4.e.3.3.3.2.2.3.0.3.:.*.*.-.*.&.-.>.2.-.-.*.:.3.e.0.4.0.0.4.0.4.y.0.3.3.0.3.e.4.0.4.3.4.3.4.4.4.4.0.4.4.4.0.e.e.e.:.-.e.3.3.e.3.e.r.e.e.e.0.r.4.0.3.0.0.e.0.3.3.3.3.3.3.0.3.e.0.3.e.0.3.e.9.3.3.e.4.4.4.4.4.r.4.4.0.4.e.e.e.4.e.4.0.4.e.3.e.e.e.9.4.e.e.0.3.3.4.4.0.9.e.3.3.0.3.3.3.9.e.3.3.3.9.3.3.3.9.3.3.3.3.3.9.4.3.3.3.4.3.e.e.9.3.3.3.3.3.3.3.4.4.4.4.4.4.3.3.4.4.4.3.3.4.4.4.4.3.4.e.3.3.e.e.3.0.3.0.4.3.3.4.4.4.4.2.4.4.4.3.3.3.0.3.3.3.3.4.4.*.1.1.4.4.1.4.4.4.4.1.4.4.4.4.4.4.4.4.1.4.4.4.4.1.:.4.*.4.*.-.2.2.2.&.3.3.3.3.3.3.3.3.3.3.3.4.1.4.4.4.4.4.1.4.4.1.4.4.4.1.*.4.4.4.*.4.4.:.4.4.1.:.4.3.4.1.%.*.*.*.*.%.*.*.*.*.*.1.:.4.4.4.4.3.4.4.4.4.4.4.4.4.4.4.4.4.4.s.4.3.e.0.3.e.9.e.4.e.4.r.4.0.4.4.0.4.4.4.s.4.4.i.s.4.s.4.4.4.4.4.4.e.7.e.e.e.e.e.e.e.4.e.4.e.4.e.9.0.3.0.0.1.s.1.s.e.9.9.9.9.3.0.3.4.0.0.4.4.e.4.4.4.e.0.4.e.4.e.e.4.4.4.4.s.4.4.4.4.4.r.4.r.4.r.4.4.r.r.4.4.4.4.4.4.4.4.4.4.4.4.4.e.7.4.e.e.e.e.6.,.e.e.e.7.e.4.3.9.3.3.9.3.3.3.3.3.e.4.9.e.4.0.4.r.4.e.0.4.e.r.4.4.e.r.4.r.u.4.i.",
"4.4.4.2.0.2.4.0.3.0.3.3.3.3.3.2.3.3.3.>.3.3.0.0.0.e.r.e.e.3.3.9.3.:.*.&.&.@.&.&.&.2.:.-.-.2.3.e.0.4.4.4.4.4.0.4.e.e.0.4.4.e.0.r.4.s.4.3.s.4.s.4.e.e.e.0.3.e.3.4.3.-.e.3.:.3.0.e.e.e.r.0.4.e.4.4.e.e.0.e.e.9.e.0.3.3.3.9.0.e.e.e.e.e.0.e.0.3.4.3.4.0.4.4.4.4.4.4.e.4.e.4.4.0.e.e.4.e.9.e.4.0.9.e.e.9.4.3.0.e.e.3.4.e.9.e.e.4.e.e.e.e.3.3.3.4.3.3.3.3.3.3.9.3.3.3.4.3.e.e.4.9.e.3.9.4.e.3.e.4.3.3.3.4.4.:.3.4.4.3.4.4.4.4.4.,.4.3.3.3.4.3.3.4.9.4.e.3.4.e.4.3.e.3.4.2.2.4.0.2.2.4.3.3.3.3.3.3.3.3.4.1.4.4.4.1.4.4.4.4.4.4.4.4.4.4.4.1.4.1.4.4.*.4.*.*.:.1.*.4.1.4.3.:.*.&.%.2.3.3.3.2.3.3.3.3.3.2.4.4.4.1.4.1.4.4.4.1.4.1.[ ~ %.:.1.:.:.1.1.4.4.1.*.4.1.4.3.3.4.3.*.*.*.%.*.*.*.*.*.4.1.4.:.4.*.4.3.4.4.4.4.4.4.4.4.4.4.4.4.4.4.4.3.e.3.4.9.4.0.e.e.e.4.4.0.e.r.4.4.4.4.4.4.4.4.4.i.4.4.4.4.4.4.d.e.e.,.e.e.4.e.4.e.e.e.e.7.e.e.7.3.0.3.9.4.4.4.4.9.9.9.9.4.9.3.4.0.4.4.0.e.e.0.e.r.e.4.0.e.0.e.4.s.4.4.r.4.i.4.4.i.4.4.4.4.r.4.4.r.4.4.r.s.4.4.i.4.s.d.4.4.s.4.4.e.e.e.e.e.,.e.e.e.e.e.e.e.,.e.4.3.3.3.4.3.0.e.3.0.3.3.e.4.3.3.e.4.0.e.4.e.e.e.4.r.e.4.4.4.4.4.4.",
"w.w.4.w.4.2.4.2.3.3.3.3.3.4.4.4.3.3.0.3.3.0.e.4.r.e.9.3.2.3.3.3.e.3.*.*.-.=.-.-.&.3.3.0.3.3.3.3.4.0.0.4.0.4.4.0.e.0.0.e.e.e.0.e.s.4.4.s.4.4.4.4.e.4.e.4.4.3.3.3.3.3.e.3.2.3.3.r.e.e.e.0.e.0.e.0.e.0.4.0.0.9.3.0.3.9.0.9.9.0.0.3.9.0.e.3.3.3.4.3.0.e.4.r.4.4.r.4.e.e.e.4.r.4.0.4.r.4.0.9.9.e.3.3.4.e.e.3.e.3.3.e.e.4.3.e.4.0.4.0.9.9.4.e.3.3.9.3.3.3.3.4.3.3.3.3.9.4.9.4.3.3.3.3.e.3.3.e.3.3.3.3.3.4.4.4.4.4.4.4.4.4.4.4.4.4.4.4.4.0.e.3.e.3.e.0.3.3.e.3.4.e.3.3.4.4.2.4.4.4.2.2.3.2.3.2.3.9.3.3.4.4.4.4.4.4.4.4.1.4.1.1.*.4.4.1.4.4.4.*.*.*.4.*.4.*.:.:.1.*.*.4.:.*.*.%.%.2.3.3.3.[ 2.2.3.3.3.2.1.*.*.4.4.1.4.*.4.1.*.%.*.1.4.4.1.*.4.4.4.4.4.*.:.1.4.4.1.3.3.4.4.*.%.%.*.1.*.*.*.4.4.*.*.:.*.*.3.3.3.4.4.4.4.4.4.4.4.1.4.1.4.4.3.4.3.0.4.e.3.e.0.e.e.0.4.4.e.e.a.4.4.4.4.s.4.4.4.4.4.i.4.s.d.4.e.e.e.e.e.e.4.e.7.e.e.e.7.e.e.7.0.4.4.4.4.s.4.4.e.e.9.9.9.3.3.4.3.0.4.e.0.e.e.4.4.0.e.r.e.0.0.4.4.i.s.4.4.4.4.s.4.r.4.r.r.r.4.r.4.r.r.4.4.4.r.4.4.4.4.4.4.4.4.d.e.e.4.e.e.e.e.7.e.e.e.4.e.e.7.9.>.3.e.e.3.e.9.0.e.3.e.0.e.0.0.4.4.4.0.0.4.e.e.e.4.e.4.r.4.4.i.4.",
"4.4.4.4.0.4.4.4.0.3.3.0.3.4.4.3.3.0.3.3.3.9.e.3.0.e.0.3.3.4.3.3.r.3.2.-.3.3.3.3.4.r.e.3.2.2.4.e.0.4.r.0.4.y.y.4.e.r.e.e.0.e.e.e.4.4.4.s.4.2.s.4.4.0.e.0.e.4.3.3.e.3.e.3.:.3.e.r.0.r.e.4.r.4.4.4.0.e.3.3.9.3.3.3.e.e.9.3.3.3.3.3.9.3.3.0.e.0.e.9.e.r.r.4.0.r.4.r.4.0.4.0.4.0.e.4.4.0.3.e.4.9.0.4.3.4.3.0.4.3.0.9.3.3.3.3.3.e.3.4.0.4.3.e.3.e.3.3.3.3.9.3.3.9.3.3.4.9.4.3.e.e.3.e.4.3.3.3.3.e.e.4.4.3.3.4.4.3.3.4.4.4.4.4.4.4.4.3.4.4.3.3.e.3.3.4.3.e.3.4.3.3.3.3.2.4.4.2.2.4.4.4.3.9.9.3.3.3.3.2.4.4.1.4.1.4.4.4.4.4.4.4.4.1.:.4.4.4.1.4.4.:.1.1.4.*.4.:.*.*.*.*.3.2.3.2.2.3.%.2.3.3.2.2.2.3.2.2.*.4.1.*.4.4.1.4.%.%.*.*.4.4.1.1.4.:.1.4.4.4.1.[ 4.4.4.*.4.4.3.*.1.4.4.4.*.*.*.*.*.*.:.:.4.1.4.4.3.3.3.4.4.4.4.1.4.4.3.4.4.4.4.1.4.3.4.4.9.9.0.e.4.4.r.4.4.r.0.4.4.4.4.s.i.4.i.4.i.4.s.4.4.4.4.4.4.e.4.e.7.e.e.e.4.e.4.e.e.e.9.e.4.4.w.3.4.2.4.4.9.9.9.9.3.9.4.4.e.e.4.e.4.4.r.0.4.0.4.0.r.4.r.e.4.4.4.4.i.4.4.i.4.4.r.4.4.4.r.4.4.4.4.4.r.4.s.4.4.4.s.4.4.d.4.4.e.e.e.e.7.e.3.e.4.e.e.e.e.7.e.4.>.3.3.9.e.e.3.3.e.e.e.e.4.e.3.0.4.0.3.4.0.3.4.e.4.e.r.4.i.r.4.r.",
"e.9.3.0.3.0.0.9.3.3.0.3.3.3.0.4.9.e.9.4.0.3.4.0.e.4.0.3.3.3.3.0.0.9.3.3.2.3.2.3.3.e.e.0.3.3.3.0.4.4.s.s.4.4.y.4.y.0.4.y.4.0.4.0.s.4.4.0.4.y.4.r.4.4.3.3.3.4.4.3.e.3.r.3.%.4.d.3.r.e.e.0.4.0.0.0.3.4.3.4.0.3.0.3.9.3.3.3.9.9.0.e.4.0.0.3.9.9.9.e.4.0.4.e.e.e.e.0.e.0.3.3.e.e.e.0.e.4.e.e.e.e.e.3.0.3.0.3.3.3.e.3.e.3.4.9.4.3.e.3.4.e.9.9.3.e.3.4.e.e.3.4.e.3.3.e.3.e.3.e.e.3.e.3.4.3.e.3.3.3.3.3.3.4.0.2.4.4.4.4.3.4.4.4.4.3.4.3.3.e.3.3.e.3.e.0.r.e.9.3.4.3.3.3.3.3.>.3.3.3.3.3.2.2.:.3.4.4.3.:.4.4.4.4.*.4.4.1.:.1.4.4.1.*.4.4.1.4.4.*.4.1.4.*.*.4.*.1.*.*.*.1.4.*.1.*.*.1.4.1.2.2.3.1.3.3.3.3.*.4.*.4.*.1.*.*.[ *.4.*.*.4.4.*.4.*.4.4.*.%.%.1.4.3.3.3.3.3.4.3.4.4.4.*.4.4.1.4.4.1.%.%.%.*.*.1.*.:.4.*.1.4.4.4.4.4.3.3.3.3.3.3.3.3.0.e.4.0.0.4.0.4.4.4.4.4.4.0.4.i.4.4.i.4.r.4.4.4.4.4.4.4.4.4.4.s.4.d.4.4.s.4.e.4.4.4.e.4.4.e.4.s.1.1.4.4.s.4.4.1.4.4.4.4.4.4.9.e.0.e.r.4.e.4.4.r.r.4.0.4.0.4.4.r.4.4.4.4.4.4.4.4.4.r.4.4.4.0.r.4.4.4.4.4.i.s.4.4.i.4.4.d.4.4.e.,.e.e.e.7.e.e.e.e.,.e.4.e.,.e.e.e.9.e.9.e.9.e.4.r.4.0.4.e.r.4.4.2.:.3.4.y.r.3.r.4.4.4.r.4.r.4.",
"9.9.e.9.0.3.3.3.3.3.3.3.0.3.0.3.3.0.9.0.0.e.0.3.0.0.4.3.9.9.3.3.9.3.3.3.3.3.3.9.3.0.0.3.3.3.e.e.4.s.4.4.y.r.r.r.4.4.y.4.r.4.r.4.4.4.0.4.4.0.0.4.0.4.4.4.0.0.0.3.3.3.9.3.| 3.r.0.e.e.e.4.r.4.4.r.3.0.0.3.3.e.4.0.0.3.3.9.e.e.9.e.0.e.4.0.e.9.e.3.0.4.e.4.e.4.4.4.3.4.e.e.0.e.e.e.0.4.0.e.e.e.3.0.4.e.4.3.4.4.0.e.4.3.9.4.3.e.3.3.9.4.e.3.e.3.3.3.3.3.4.9.3.e.e.3.3.3.3.3.3.4.3.3.3.e.4.3.3.3.3.9.4.4.4.4.4.4.4.4.4.4.4.4.4.4.4.3.e.9.3.e.e.3.3.e.3.3.3.3.3.4.3.3.9.3.3.3.-.-.-.-.2.3.2.3.2.3.3.3.4.1.1.4.4.4.4.1.4.4.4.1.:.1.*.1.*.1.4.1.4.4.4.1.*.*.4.*.4.*.*.*.1.:.:.*.4.*.4.4.2.2.3.3.[ 4.[ 3.4.*.*.4.4.4.4.1.%.1.4.4.1.:.1.:.4.*.1.4.*.*.*.*.3.3.3.3.4.1.*.4.4.1.4.1.4.*.*.4.:.:.*.1.*.*.*.*.1.*.*.*.*.%.1.| 1.1.4.3.1.[ 3.4.3.3.3.3.3.4.e.e.4.4.y.y.4.s.0.4.4.4.i.4.4.r.r.4.4.d.d.4.4.s.4.s.4.4.4.4.d.4.4.4.e.e.e.e.4.4.4.3.4.4.4.4.4.4.4.4.4.4.4.4.4.4.2.4.e.3.4.4.4.4.0.0.e.4.4.e.4.r.r.4.r.4.s.4.4.i.i.4.r.s.4.4.4.4.s.4.4.y.4.s.i.4.4.4.4.4.4.i.4.4.4.d.e.e.e.e.e.4.e.4.7.e.7.e.7.e.e.6.9.9.3.e.e.9.e.9.e.e.0.4.r.4.4.e.4.3.:.2.3.r.4.3.4.r.r.4.4.r.4.4.",
"9.9.9.e.3.3.3.9.3.3.3.3.3.3.3.2.3.e.0.4.4.3.e.0.e.4.3.0.9.3.3.3.3.3.3.9.3.3.0.e.0.0.3.3.0.e.e.0.i.4.s.4.4.4.r.4.4.y.4.y.4.r.4.r.0.4.4.s.0.4.4.0.0.4.0.0.e.r.3.3.3.3.3.3.&.-.e.e.e.e.e.4.e.e.0.r.e.4.0.0.e.3.9.e.9.3.3.0.e.e.0.0.0.4.3.e.9.9.0.4.3.9.4.e.4.r.e.e.e.0.3.0.4.e.e.4.3.e.0.3.0.3.3.4.0.0.3.3.e.3.3.4.0.3.3.e.e.4.0.e.e.3.3.3.9.3.3.3.3.3.3.3.4.3.9.3.9.3.4.9.4.9.e.3.3.4.9.3.9.3.3.3.4.3.4.4.4.4.4.4.4.4.4.4.4.4.4.3.e.9.e.3.3.e.3.3.3.3.3.4.4.4.4.3.-.-.-.-.3.>.3.3.3.3.3.2.:.-.3.3.4.4.4.4.1.1.*.%.%.%.%.) %.%.[ [ %.%.*.*.*.4.*.*.1.1.*.*.%.:.*.4.*.*.:.4.:.4.:.*.[ 3.2.3.3.3.3.3.4.*.*.1.*.*.4.1.*.1.4.*.*.4.4.:.*.*.*.4.4.4.4.1.3.3.%.3.4.3.3.4.1.4.:.4.4.*.1.*.*.:.1.4.4.1.%.*.*.:.1.%.%.%.[ [ <.L 1.3.3.3.[ 3.*.3.3.3.e.r.e.3.4.0.4.0.s.4.4.0.s.4.s.4.4.4.4.r.4.4.4.4.4.d.4.4.4.4.4.4.4.4.4.4.e.e.e.4.e.3.4.3.s.1.4.4.4.s.1.1.s.4.4.4.4.1.3.4.3.e.4.0.0.4.r.4.0.4.r.4.4.4.4.0.4.r.r.4.s.r.4.4.r.4.r.4.4.r.r.4.4.4.4.4.4.i.s.4.4.4.4.i.d.4.4.s.4.e.4.e.e.e.e.e.e.e.e.e.e.,.e.4.e.3.e.9.e.9.e.3.0.4.e.4.0.4.0.4.4.4.2.2.3.4.4.r.r.r.4.r.r.4.r.4.",
"9.e.9.e.9.9.3.3.2.3.0.3.3.3.3.4.3.0.4.0.e.0.0.4.0.0.e.0.9.0.3.3.9.0.3.3.3.3.3.0.3.4.3.3.3.0.e.e.4.4.4.i.4.r.y.4.4.4.4.y.4.4.4.r.s.4.4.4.4.0.4.3.4.4.0.4.e.e.4.3.3.3.e.e.>.-.3.e.e.4.0.e.4.0.4.4.e.0.4.e.0.0.e.0.3.3.3.0.e.0.e.0.0.e.e.9.0.4.3.e.e.e.e.4.r.4.e.e.3.e.e.4.e.4.0.4.e.3.4.e.e.3.e.3.3.4.4.e.0.3.e.9.4.9.e.9.0.3.3.4.3.e.3.4.3.3.3.3.3.e.3.4.3.4.3.4.3.3.4.3.3.e.3.3.4.3.e.3.3.3.3.3.4.4.4.4.4.4.4.3.3.4.4.4.4.4.4.4.3.4.3.4.4.3.3.3.3.e.3.3.3.3.>.>.-.>.3.>.2.-.-.*.2.3.3.3.3.3.3.0.1.4.4.*.*.%.[ %.%.*.%.%.*.%.*.*.*.*.*.*.*.*.*.1.%.%.*.*.1.:.*.*.4.:.:.4.1.*.*.*.3.3.3.[ %.3.[ 3.*.1.4.4.1.4.*.[ *.*.1.*.:.*.1.*.4.*.1.4.1.:.4.:.3.1.4.3.3.*.*.1.4.1.:.*.*.4.*.1.1.*.4.*.*.%.*.1.:.:.*.%.*.*.*.*.1.L L L %.4.3.3.&.3.e.3.3.e.e.3.0.4.4.4.y.4.4.y.4.4.4.4.s.4.y.4.4.4.d.4.4.4.4.4.4.d.4.d.4.4.d.4.4.e.4.e.4.4.4.4.4.4.4.4.4.4.4.4.1.4.4.4.1.4.3.3.3.0.0.4.e.e.4.e.4.e.4.0.r.0.e.4.4.r.4.r.4.4.4.i.s.4.4.r.4.4.4.r.i.4.s.4.4.4.4.i.4.4.s.4.4.4.4.4.e.e.7.e.e.e.,.e.e.e.,.e.e.7.e.7.9.e.9.e.9.e.e.e.4.0.r.0.4.r.e.0.r.4.4.3.4.0.4.0.4.4.r.4.4.r.4.4.",
"9.9.9.e.3.3.3.3.3.2.2.3.9.3.3.0.0.4.0.e.4.0.0.4.4.0.4.e.4.0.3.3.9.9.0.3.3.9.9.9.9.0.0.9.3.3.0.e.4.i.s.4.4.d.4.4.r.4.4.4.r.4.r.4.4.4.4.r.4.4.4.4.r.4.4.4.4.0.4.0.e.e.e.e.3.-.3.9.0.3.e.e.0.e.4.0.e.0.4.0.4.4.0.e.0.3.3.3.0.e.3.0.4.0.4.9.e.4.4.3.4.0.4.0.4.r.4.0.e.e.4.0.e.9.e.9.4.e.3.e.4.0.3.4.0.3.0.3.3.0.3.4.e.3.0.3.0.4.4.4.3.e.3.4.3.3.3.3.3.e.3.e.3.3.4.3.3.3.3.3.3.4.9.4.3.e.3.3.3.3.3.e.3.4.4.3.4.4.4.4.4.4.4.4.4.4.4.4.3.e.3.9.9.3.9.3.3.3.>.>.:.:.3.2.3.3.*.*.*.-.2.>.:.-.2.3.3.3.3.3.*.*.*.) [ *.*.*.1.*.*.1.*.*.1.*.*.*.*.*.*.1.4.1.:.*.*.1.1.1.4.4.*.4.:.4.4.:.:.4.:.3.*.3.3.3.%.3.*.1.4.*.*.1.*.[ 4.*.1.:.1.*.4.4.4.:.*.:.4.4.1.:.1.%.4.3.3.%.3.%.*.4.*.4.1.*.1.4.1.:.4.1.1.%.1.4.4.*.*.*.%.%.%.*.*.%.%.[ [ 1.%.3.3.e.e.3.2.3.0.e.4.0.4.0.0.y.4.4.4.4.r.4.4.r.4.4.4.4.4.4.4.4.4.4.4.4.4.4.4.4.d.4.4.4.s.4.e.e.4.e.4.4.4.1.4.4.4.4.4.4.s.4.4.4.3.4.4.e.9.e.0.4.r.4.4.e.0.4.4.e.e.4.4.4.4.4.4.4.r.4.4.r.4.4.4.4.0.4.4.4.4.3.3.3.4.4.i.4.4.4.4.d.4.4.e.e.e.7.e.4.e.4.4.e.e.e.e.,.e.e.e.9.0.4.e.e.e.e.e.0.4.r.e.e.4.0.r.r.e.e.4.4.r.r.r.4.4.r.r.r.4.4.",
"e.9.9.9.e.3.0.3.3.3.3.3.9.0.0.3.4.4.0.3.0.r.4.0.0.e.e.0.0.e.4.0.9.9.0.3.4.9.0.4.9.e.e.0.3.3.3.e.i.4.4.4.4.4.4.s.4.y.4.s.e.4.4.r.s.4.0.4.4.y.0.4.e.0.4.3.3.3.0.e.e.e.e.e.4.2.3.e.0.4.3.e.0.e.r.0.r.4.0.0.e.0.4.0.e.3.2.3.3.3.0.e.0.3.e.3.3.3.0.3.e.e.4.4.e.4.e.4.4.0.r.4.3.e.9.e.0.3.4.0.3.0.4.3.3.e.4.e.e.4.3.e.9.e.4.e.4.4.0.0.4.3.4.3.3.3.9.3.3.3.3.3.3.3.9.3.3.3.3.3.4.3.4.3.3.3.e.4.3.3.3.3.4.3.4.4.4.4.4.4.4.4.4.4.4.4.4.4.4.3.e.9.3.3.3.>.3.3.3.>.>.3.3.3.%.| | | | &.3.9.3.3.3.3.3.2.-.*.1.*.*.%.1.*.*.1.%.*.%.*.%.*.*.*.*.1.*.*.*.*.*.*.*.%.[ L L L [ %.1.*.*.*.:.1.4.1.1.:.3.3.3.3.%.3.4.*.*.4.4.*.%.1.*.4.1.4.*.4.*.*.*.1.4.4.:.:.*.4.3.3.3.3.3.3.3.3.1.*.1.1.*.4.1.*.*.*.*.*.*.*.*.*.1.*.:.1.*.%.) [ [ %.4.*.%.[ [ [ &.3.e.e.4.e.4.e.r.4.r.4.4.4.4.0.y.y.4.4.4.4.4.r.j.4.4.d.4.4.j.4.4.d.d.4.4.s.4.4.4.4.4.4.e.4.4.r.s.4.4.4.4.1.s.4.4.4.4.4.4.4.4.4.0.4.e.9.4.4.4.0.0.e.4.r.0.4.4.r.4.r.s.4.r.r.4.4.r.4.4.r.4.r.r.4.4.4.3.4.3.3.4.4.4.s.4.s.4.4.d.4.e.4.e.e.e.e.e.e.e.e.e.e.e.e.4.e.9.e.4.e.e.3.e.9.0.e.e.e.r.0.e.r.4.e.e.r.r.0.4.4.4.4.r.4.4.4.4.4.",
"3.e.e.0.0.0.0.3.3.3.3.9.3.3.4.3.4.0.0.e.e.r.0.4.e.0.0.3.0.3.0.e.3.0.4.9.9.e.e.0.e.e.e.r.3.2.9.r.4.4.i.4.i.4.i.4.4.s.4.4.r.0.r.e.4.0.s.r.4.4.y.4.e.r.4.3.3.3.e.e.0.e.0.9.4.3.3.3.4.4.0.e.4.4.0.4.4.0.r.4.0.e.0.e.e.3.3.0.4.0.0.3.3.3.9.9.e.0.9.9.4.0.r.4.4.0.4.r.e.e.e.e.e.9.e.9.0.4.e.e.e.4.3.3.4.e.3.e.e.9.e.4.9.9.4.e.0.3.r.4.0.9.3.3.e.3.3.3.3.9.3.9.3.3.3.3.>.3.3.3.3.4.9.e.9.e.3.3.9.3.3.3.3.4.3.4.4.4.4.4.3.4.4.4.4.4.r.4.3.e.3.e.e.3.3.>.>.3.3.3.3.2.2.-.=.=.+.+.| | @.| 2.3.3.3.2.*.&.&.*.*.*.4.1.*.*.*.*.*.*.*.*.1.4.1.*.*.4.4.4.*.4.*.1.4.4.4.4.1.%.[ *.*.1.*.*.*.*.*.:.:.*.*.4.%.%.3.*.1.1.4.4.%.~ 1.4.*.:.4.:.:.*.4.4.*.1.4.4.1.4.1.3.3.3.3.3.3.4.4.4.*.4.*.*.4.4.*.1.%.1.*.*.*.*.*.*.*.:.4.4.*.*.%.1.4.%.*.%.3.4.4.%.&.2.e.r.4.3.4.4.0.4.0.4.y.0.4.4.4.y.4.r.4.r.4.4.4.4.i.a.4.4.a.d.4.4.4.4.4.4.s.4.4.4.4.y.4.r.4.4.1.4.4.s.4.4.4.4.z.4.1.2.2.4.3.9.9.9.e.4.r.4.e.4.r.e.4.r.4.0.4.s.4.4.r.4.r.4.i.s.4.4.r.4.4.r.4.r.4.4.4.3.4.4.4.4.i.4.4.4.4.4.4.e.e.e.4.e.e.e.e.7.e.e.7.e.e.e.e.e.4.4.e.4.e.e.e.0.e.r.e.0.e.e.e.4.0.0.4.0.4.4.4.4.4.4.r.4.4.4.4.",
"0.9.9.e.e.e.e.0.0.3.4.4.0.0.3.3.0.e.4.0.4.0.e.0.e.e.4.e.0.e.e.e.e.e.e.e.e.0.e.e.e.0.e.e.9.3.0.r.s.i.4.4.s.4.4.4.4.4.i.4.e.e.e.e.0.4.4.4.0.y.4.y.4.0.r.0.e.0.e.4.4.e.3.e.r.4.3.3.3.4.4.e.e.r.4.e.0.4.4.0.4.4.0.4.e.0.3.e.e.4.3.3.3.3.3.0.3.9.e.e.e.3.4.4.e.4.r.4.e.e.3.e.9.e.9.4.4.0.4.e.e.e.e.0.e.3.0.4.e.e.3.0.e.9.e.3.0.e.4.0.e.4.e.0.3.e.3.4.3.3.3.3.9.3.9.3.3.>.3.3.9.4.4.3.4.3.4.3.3.3.3.4.0.4.3.4.4.4.4.4.3.4.4.4.r.r.4.4.3.3.e.9.9.3.3.>.>.>.3.3.:.%.| | | &.*.>.3.3.&.&.| %.-.-.&.*.2.3.4.4.*.*.*.*.*.*.*.*.1.*.*.*.*.*.4.1.*.1.*.4.1.*.*.:.1.*.4.*.4.1.*.4.4.4.:.1.*.*.4.:.4.*.*.1.3.%.4.1.L L L L [ 4.4.*.4.*.*.1.4.1.4.4.4.:.4.4.4.4.4.4.4.3.3.3.4.4.4.1.*.4.1.*.1.*.4.*.*.*.*.1.*.1.4.*.*.*.1.*.*.3.*.3.1.3.4.1.3.3.4.*.| &.&.-.3.e.0.4.r.4.0.4.y.4.4.y.4.r.4.4.4.y.4.s.4.4.4.a.i.4.4.4.s.4.4.d.4.4.4.d.s.4.4.y.4.r.s.4.4.s.4.4.s.4.4.4.4.1.2.2.3.3.e.e.e.3.0.4.r.4.0.4.4.0.4.0.4.e.4.4.4.4.4.4.4.4.4.i.4.4.r.4.4.r.4.r.4.4.4.4.4.4.4.4.4.i.4.d.4.s.e.,.e.e.e.4.e.,.e.e.e.e.e.4.7.e.e.e.0.e.e.0.e.e.r.e.e.e.e.e.r.e.e.r.4.e.4.4.r.r.4.r.4.r.4.i.4.4.",
"4.e.0.4.0.3.e.0.e.e.0.4.3.3.9.4.e.0.0.e.r.0.0.e.0.e.e.0.e.r.e.e.e.0.3.0.4.e.0.3.e.e.r.0.3.3.0.e.0.e.r.4.0.0.4.r.0.e.e.e.y.0.e.e.4.e.e.e.e.0.0.e.e.t.e.0.e.e.e.0.4.4.4.i.4.4.4.4.y.4.4.4.4.r.r.4.4.4.r.r.4.4.r.0.e.e.4.0.4.0.4.0.3.e.9.9.3.3.e.9.e.3.0.e.e.e.4.4.e.4.e.4.r.4.4.0.4.4.r.4.4.4.4.4.4.4.4.4.s.4.4.4.4.4.4.4.4.4.4.4.e.3.e.9.3.e.3.4.3.3.3.3.3.3.:.3.3.3.3.3.3.4.3.4.4.4.4.r.4.4.4.4.3.3.3.4.4.4.4.4.3.3.4.e.e.e.e.e.e.9.3.-.3.3.3.-.-.3.2.L L | 3.3.*.1.%.%.1.4.:.4.3.*.%.%.*.1.*.*.*.1.*.*.4.*.:.*.1.*.4.1.*.4.4.*.*.*.1.4.*.1.*.*.4.*.*.1.*.1.4.*.1.4.*.4.*.*.*.*.%.*.*.*.*.%.1.) [ [ ) [ L [ 1.1.[ *.*.*.4.:.4.4.4.4.4.4.4.4.4.4.4.4.4.4.4.4.4.4.4.4.*.*.*.1.*.*.*.*.*.4.1.4.*.4.2.2.%.3.2.3.3.3.2.3.3.2.3.%.3.%.3.3.3.3.:.&.3.4.4.4.4.y.4.4.4.0.4.4.4.4.i.4.4.4.i.4.4.4.4.4.4.a.4.4.d.4.4.4.s.d.a.4.d.4.4.j.i.4.4.4.4.4.4.4.4.4.4.1.1.4.3.1.1.3.4.4.4.4.4.4.r.4.4.4.4.0.4.r.4.4.0.4.4.4.r.r.4.r.4.r.4.4.r.4.4.0.r.4.4.0.r.4.4.r.4.i.4.4.s.4.r.4.4.4.4.i.4.i.i.4.4.z.4.4.4.4.4.z.3.4.e.e.4.,.,.u.4.j.4.4.4.i.4.4.d.4.4.4.4.4.4.4.4.4.4.s.4.4.s.4.",
"4.0.e.e.3.e.e.4.3.0.3.3.3.3.3.3.e.r.e.e.e.e.e.e.e.e.e.e.e.e.0.r.e.0.e.e.4.e.4.0.e.e.e.3.3.3.4.e.e.0.4.0.r.4.4.0.r.e.e.e.e.e.e.e.e.4.0.0.e.e.e.e.e.e.e.e.e.0.e.y.i.4.s.i.4.4.4.4.4.4.4.r.r.4.r.4.4.r.4.r.r.4.r.e.0.4.0.4.0.e.e.0.0.4.e.3.3.e.3.e.4.0.e.e.0.4.0.e.4.e.4.e.4.0.e.e.r.4.4.r.4.s.s.4.4.i.4.i.4.4.4.i.y.4.4.y.y.4.4.4.9.e.9.e.e.3.e.3.4.3.3.3.3.3.3.3.3.3.2.3.3.3.4.4.r.r.4.4.4.4.4.4.4.3.3.4.4.4.4.4.4.e.r.4.0.e.e.e.3.9.>.>.@.*.| | | K K [ 2.3.2.&.*.3.4.3.4.%.1.3.3.*.4.1.4.*.4.*.*.*.*.*.*.1.*.*.*.*.*.*.*.*.*.*.*.1.*.*.4.1.4.1.1.4.1.*.4.*.1.4.*.4.4.1.4.1.4.*.1.*.%.) *.*.%.[ [ ) %.1.1.%.[ *.%.*.*.4.1.:.1.4.4.:.:.4.4.4.4.4.4.4.4.4.4.4.4.4.4.4.*.1.4.*.4.*.1.*.*.:.4.*.:.1.3.3.3.3.[ 3.3.3.3.2.3.2.3.3.3.2.3.%.%.3.3.:.4.4.a.4.4.y.s.4.4.4.4.4.4.4.4.4.i.4.4.4.4.s.4.4.4.4.4.s.4.4.4.4.4.4.4.a.4.4.4.4.4.4.4.4.4.s.4.4.s.4.1.4.4.4.4.4.4.4.r.r.4.4.4.4.4.r.r.r.i.4.4.r.r.r.r.4.4.0.4.4.r.4.r.4.4.4.4.4.4.r.4.4.r.4.4.4.0.4.s.4.i.i.4.r.4.i.i.i.4.4.4.4.i.4.4.4.4.4.4.4.4.4.u.e.e.e.e.e.u.u.4.d.4.j.j.4.4.d.4.4.4.j.s.4.d.4.4.4.4.4.4.4.4.4.",
"e.e.0.4.9.e.9.e.3.4.3.3.3.3.3.3.e.4.0.e.0.e.0.r.e.0.e.e.e.r.e.e.0.e.r.e.r.0.4.r.e.e.e.0.3.4.4.e.e.r.4.e.4.r.0.4.0.e.e.0.e.e.e.0.r.0.e.e.0.e.r.0.0.e.e.e.e.e.e.e.4.i.a.4.a.4.4.4.3.4.r.4.4.r.4.r.r.r.r.e.r.4.4.0.e.0.0.3.e.0.3.e.3.e.3.3.3.3.9.e.3.9.e.e.e.4.4.e.4.4.4.r.r.4.r.4.y.4.r.4.4.4.4.4.4.s.4.4.4.r.r.4.4.4.4.4.4.4.0.y.e.9.0.4.0.3.3.3.4.3.4.3.3.3.3.3.3.3.3.3.3.4.3.4.4.y.4.4.4.4.4.4.4.4.3.3.4.4.4.4.r.e.e.e.4.e.e.4.>.-.-.+.| [ [ ` ` L } 3.4.2.&.3.4.*.1.*.4.4.4.3.3.4.4.3.4.4.4.:.4.*.1.*.*.*.*.4.*.*.*.*.*.4.*.1.*.1.*.1.4.*.1.*.4.*.4.4.1.4.4.4.*.4.*.4.4.1.4.1.4.4.1.1.4.*.%.%.*.%.%.1.%.) %.*.*.%.*.*.4.:.4.4.4.4.4.4.4.4.4.4.4.3.4.4.%.:.4.3.4.1.4.*.4.1.4.*.4.:.1.:.4.1.*.:.[ 3.3.2.3.3.3.3.2.3.3.3.3.%.2.3.3.%.3.3.3.2.%.3.4.4.r.4.4.y.0.4.4.d.j.4.s.4.4.4.i.4.4.4.3.3.4.4.j.4.4.4.4.d.4.4.4.4.d.4.d.a.4.s.4.4.4.s.s.4.4.4.1.4.4.z.4.z.4.4.s.i.i.4.4.4.4.0.4.r.4.r.r.4.r.r.4.4.4.4.4.r.4.0.r.4.4.r.4.r.4.4.r.4.4.r.r.4.4.r.4.4.4.4.4.4.4.4.4.i.4.i.i.i.i.i.4.4.z.4.4.4.4.4.4.4.3.e.u.e.e.r.d.4.4.i.4.j.4.4.4.4.4.4.4.4.4.4.4.4.4.4.4.4.4.4.",
"4.e.4.e.e.3.e.9.e.3.e.3.3.3.e.e.e.0.e.e.e.e.e.e.e.r.e.0.e.e.e.e.r.e.e.e.0.e.e.e.r.e.e.3.4.4.0.e.0.4.0.e.0.4.0.r.e.e.e.r.0.e.e.y.0.4.0.e.e.e.e.e.r.e.e.0.y.e.e.e.4.r.4.4.d.4.4.4.3.3.4.4.4.r.i.4.4.r.4.r.4.0.4.4.e.e.3.0.4.0.4.3.3.3.3.3.3.3.3.9.e.9.e.3.0.e.4.0.0.4.4.4.4.e.4.r.4.4.y.4.i.4.i.4.i.4.4.4.r.4.4.r.4.y.4.4.4.4.4.4.9.e.e.9.e.4.3.0.4.3.3.3.3.3.3.:.3.3.3.4.3.4.4.4.4.4.r.4.4.4.4.4.3.4.4.4.4.4.4.4.e.3.>.*.-.3.-.&.&.[ +.` +.K ` _ _ &.3.3.2.%.2.3.*.*.4.3.3.1.*.4.:.:.1.3.:.*.1.*.4.*.4.*.1.4.*.1.1.*.*.*.1.*.*.4.4.*.*.4.1.*.4.4.1.4.1.*.4.*.1.*.4.1.4.1.4.4.4.4.*.4.4.*.*.1.%.*.1.1.%.[ [ *.1.*.*.1.4.1.4.1.4.4.4.4.:.4.:.4.4.4.4.4.4.3.4.3.4.4.4.4.4.4.*.4.4.1.4.4.4.4.4.*.4.*.2.3.2.3.3.3.3.3.3.3.3.3.3.3.3.3.3.3.3.3.3.3.&.%.4.4.i.4.2.4.y.y.4.4.4.4.3.4.4.d.d.4.3.3.:.:.3.4.4.4.4.j.4.4.4.d.s.4.4.a.4.4.4.i.4.4.4.4.4.4.4.4.3.4.4.4.4.4.4.4.4.r.4.r.4.0.4.4.4.4.4.r.4.r.4.4.4.r.r.4.4.4.4.4.4.r.4.r.4.0.r.4.4.r.r.4.4.r.r.4.i.4.s.4.4.i.i.4.4.i.4.i.4.i.i.i.4.4.4.4.4.4.4.4.4.e.e.u.u.u.e.e.4.4.i.i.4.4.4.4.4.z.4.4.4.d.4.4.s.4.4.d.4.s.4.4.",
"4.0.e.3.9.e.9.e.4.0.9.e.4.9.0.e.r.4.4.0.e.r.e.e.e.e.0.y.r.r.e.e.0.e.e.r.e.e.r.e.0.0.r.4.0.4.4.r.0.4.0.0.r.4.r.4.e.e.e.e.e.e.e.e.4.0.e.e.e.e.e.e.e.0.e.e.e.r.e.0.r.r.r.r.4.a.4.4.3.3.3.3.4.i.i.i.r.4.4.r.r.4.4.4.e.0.3.9.3.3.3.3.3.3.3.3.e.3.3.e.0.9.e.9.3.4.e.e.4.4.0.e.r.4.4.r.4.r.4.s.4.4.4.a.s.4.4.d.4.y.4.4.4.r.4.y.i.4.4.s.e.3.e.e.e.3.3.4.3.3.3.3.3.3.2.3.3.4.3.3.3.4.4.4.4.4.4.4.4.4.4.4.4.4.3.3.4.4.4.3.>.:.&.| | | +.[ { { +.=.| H D ` [ 3.3.[ 2.3.3.%.*.3.1.3.*.4.*.3.3.:.:.4.4.1.4.1.4.1.4.:.*.4.*.4.1.4.*.4.*.*.*.*.1.*.*.4.*.1.4.*.4.*.*.4.*.*.4.1.4.1.4.*.*.1.*.4.*.*.[ L 1.*.%.1.%.*.*.1.*.*.*.*.*.4.1.4.4.4.4.4.4.4.4.4.3.4.4.3.3.4.4.3.4.4.3.3.4.4.1.4.4.4.4.4.4.1.4.4.4.4.4.:.2.2.3.2.3.3.3.3.3.3.3.3.3.3.2.3.3.3.3.3.3.3.3.3.&.4.a.4.4.4.4.4.4.4.4.4.a.4.4.4.2.2.3.3.4.4.4.4.3.%.3.3.d.d.4.4.4.a.4.4.s.i.4.4.s.4.s.4.d.4.4.4.4.4.z.4.4.4.z.4.0.4.r.4.r.4.r.r.r.4.4.4.4.4.4.r.4.r.r.r.4.4.r.4.4.0.4.4.r.4.4.r.4.0.4.r.r.4.r.4.4.4.4.s.s.4.4.i.4.4.i.4.4.s.4.i.z.4.z.4.4.4.4.4.r.u.u.r.e.4.u.u.4.4.4.4.i.4.4.4.4.4.4.4.4.4.4.d.4.4.4.4.s.4.4.4.",
"e.e.e.e.e.9.e.9.e.e.e.3.9.9.e.e.0.0.r.e.e.0.e.e.e.0.e.e.e.e.e.r.r.e.e.e.e.e.0.e.e.4.4.e.4.0.0.e.r.r.4.4.4.0.0.0.0.e.e.e.0.0.r.e.r.e.0.r.0.e.y.e.e.r.e.e.e.r.e.r.r.4.r.4.a.4.4.a.3.4.4.3.4.4.i.i.r.r.r.4.r.r.r.0.e.4.4.4.3.3.2.2.3.3.3.e.e.3.3.3.3.e.3.4.4.0.e.3.r.4.4.4.4.r.4.4.r.4.r.4.4.i.4.4.4.4.4.4.r.4.s.4.4.r.r.4.4.4.4.4.e.e.e.e.e.9.e.4.3.3.3.3.3.2.3.3.3.3.3.4.4.4.4.4.3.3.4.4.4.4.4.4.4.4.4.3.4.3.:.%.| &.| | +.&.=.&.&.>.=.6.H K K =.4.3.3.3.3.3.3.3.3.*.:.4.4.1.3.3.4.3.1.:.:.4.*.4.*.*.*.*.:.:.4.1.*.4.*.1.1.4.4.1.*.4.1.*.4.4.1.*.1.4.1.4.4.1.4.*.4.1.4.4.4.4.4.1.4.4.) [ [ %.%.*.1.*.*.4.1.*.*.*.*.:.:.4.4.*.4.4.4.4.4.4.4.3.4.4.4.3.4.3.4.3.4.4.4.1.4.4.4.4.1.4.4.4.4.4.4.1.4.4.3.3.3.3.3.2.3.3.3.3.3.3.3.3.3.3.3.2.3.3.3.3.3.3.3.3.2.*.2.3.4.4.4.4.4.j.4.4.:.[ &.&.:.3.4.4.4.4.3.3.%.3.4.4.s.4.4.4.4.a.4.4.a.4.4.s.4.4.4.4.s.4.4.4.4.z.4.4.4.z.4.r.4.i.r.r.4.4.4.4.4.4.r.4.4.r.r.4.4.4.r.4.r.4.4.r.4.4.4.4.0.4.r.4.4.4.4.4.4.r.4.i.i.i.i.i.i.4.s.4.4.i.4.i.4.4.*.4.4.%.[ [ %.*.| %.{ [ ` | :.4.i.4.i.4.4.4.i.4.4.4.4.z.4.4.4.4.d.4.s.4.4.4.4.4.",
"4.e.e.e.3.e.9.e.e.3.e.4.e.9.e.e.4.0.e.r.e.r.0.e.e.e.e.e.r.e.e.e.r.e.e.e.e.r.e.4.e.e.e.4.r.e.e.e.4.0.4.r.0.4.4.r.r.0.e.0.e.e.e.e.0.r.e.e.e.r.e.e.e.e.r.e.e.e.e.r.r.r.4.i.4.a.4.4.4.4.4.2.3.4.i.i.r.r.r.r.y.r.r.e.e.0.9.3.3.3.3.3.3.3.3.4.3.3.3.e.4.9.4.9.3.0.0.4.4.4.0.4.r.4.4.r.4.4.4.r.i.4.r.4.4.4.4.4.i.4.4.4.r.4.4.i.s.4.4.4.e.4.0.4.e.9.9.3.3.3.3.3.3.3.2.3.3.4.4.4.4.3.4.4.4.4.4.4.4.3.3.3.4.4.3.3.:.%.[ %.| &.=.*.>.3.9.9.6.e.-.&.K | =.3.3.2.2.2.3.%.1.2.*.3.1.3.*.3.*.3.1.4.1.4.:.*.1.:.*.*.*.1.*.*.*.:.*.*.4.*.*.4.*.4.4.4.4.4.4.*.4.4.4.4.*.1.4.4.4.1.4.4.4.4.1.4.4.4.*.*.4.1.1.*.*.*.1.*.*.*.*.*.*.*.:.1.:.4.4.4.4.4.:.:.4.4.4.3.3.4.3.3.4.4.4.3.3.3.4.4.4.1.4.4.4.4.4.4.4.4.4.4.4.4.3.3.3.3.3.3.3.3.2.3.3.3.3.3.3.3.3.3.3.%.3.3.3.:.4.3.*.{ | &.3.4.4.:.[ L %.&.:.4.3.3.%.:.3.4.4.4.4.4.2.2.4.4.4.4.4.a.4.4.4.4.4.i.s.4.4.4.4.4.4.4.4.4.4.4.4.4.4.4.4.i.4.4.4.4.r.4.r.4.4.4.4.4.r.4.0.4.4.4.0.4.4.4.r.4.4.r.4.4.r.4.r.r.r.4.4.r.4.4.4.r.4.i.i.4.4.4.4.4.i.4.4.4.4.4.4.4.4.:.%.[ %.%.*.*.%.%.%.:.r.i.4.4.4.4.i.4.4.4.4.4.4.4.4.z.4.4.4.4.d.4.4.d.4.4.",
"0.e.9.e.e.9.e.9.9.e.e.0.4.3.e.9.r.4.0.4.e.e.e.0.t.e.e.e.0.e.e.y.e.e.e.e.0.0.0.0.0.4.e.0.e.0.e.0.r.4.0.r.4.r.0.4.e.e.e.r.e.e.0.r.e.e.e.e.e.r.e.r.e.y.e.e.e.r.e.e.4.r.4.r.a.4.i.4.4.4.4.2.*.3.4.4.r.r.r.4.r.r.r.r.4.0.4.e.3.0.0.4.3.9.3.3.3.3.e.e.9.e.4.3.4.4.9.e.r.4.4.4.4.r.r.4.4.s.i.4.4.r.4.s.d.4.s.4.4.i.4.4.4.i.4.4.4.4.4.s.4.0.e.e.e.e.4.e.4.3.3.3.3.3.3.3.3.4.3.4.4.4.4.4.4.4.4.4.4.4.:.:.:.3.3.*.| L [ { -.3.3.3.3.3.3.3.-.6.e.' >.9.a.=.2.3.2.2.3.3.3.3.3.4.:.*.3.*.3.3.:.4.4.4.4.*.4.:.*.4.4.*.4.4.1.*.*.4.1.1.*.4.1.4.1.*.*.1.1.4.4.1.1.*.4.4.1.1.4.4.4.1.*.1.4.4.1.*.1.*.%.%.*.4.4.1.*.4.*.*.*.4.1.*.*.4.4.4.:.4.4.1.%.4.3.3.4.4.4.4.3.4.3.4.3.3.4.3.4.4.4.4.4.1.4.4.4.4.1.4.4.4.4.1.3.3.3.3.3.3.3.3.3.3.3.3.3.3.3.3.3.3.3.3.3.3.3.3.2.3.3.3.2.@.2.4.4.3.%.%.3.3.%.:.:.:.:.3.4.4.4.4.4.4.4.3.3.3.4.d.4.4.j.4.3.2.3.4.4.d.d.4.s.4.s.4.4.4.4.z.4.4.z.4.r.r.i.i.4.s.4.r.s.4.4.4.r.4.4.s.i.4.r.4.4.4.4.4.4.r.4.4.4.0.4.r.4.4.4.r.4.4.i.s.4.4.i.4.4.i.4.4.4.i.4.4.4.4.4.z.4.:.*.%.%.4.1.[ %.%.| { [ %.| | 4.4.4.4.4.4.4.4.4.4.4.4.4.4.4.4.4.4.4.4.4.4.4.4.",
"4.e.e.4.e.9.e.3.3.e.e.9.3.3.9.e.e.e.e.0.e.e.0.y.0.e.0.e.e.e.r.0.0.e.e.r.0.e.e.r.0.r.r.e.e.0.e.r.4.4.r.4.0.0.4.0.r.r.r.4.e.e.e.e.0.4.4.4.e.e.r.0.e.e.e.e.e.r.e.e.r.r.4.i.r.4.r.4.r.4.4.3.*.*.3.4.4.4.r.r.a.4.i.4.4.4.4.0.4.3.3.4.e.e.e.e.0.3.e.e.e.4.3.3.4.4.e.e.4.4.r.4.r.r.r.4.r.4.r.4.r.4.r.e.4.4.4.4.4.i.4.4.4.4.4.s.4.4.i.4.e.0.e.0.4.3.4.3.4.0.2.4.4.2.3.3.4.3.4.3.4.4.3.4.3.4.4.4.4.3.:.3.:.:.%.{ [ [ | *.*.2.:.3.3.3.2.-.3.4.L 3.3.3.3.3.3.3.2.3.3.2.2.2.3.3.%.3.1.3.1.4.3.3.3.3.3.3.1.3.4.*.*.4.1.4.4.4.4.*.4.1.4.4.4.*.4.1.1.4.*.4.4.4.4.*.4.*.4.4.4.1.4.4.4.4.4.1.1.4.4.*.*.*.4.%.*.1.4.:.*.4.4.:.*.4.:.4.4.4.4.4.4.4.3.3.3.4.4.4.4.3.3.3.4.3.4.4.4.3.4.4.4.4.4.4.4.4.4.1.4.4.4.4.1.4.3.4.3.4.3.4.4.3.3.4.4.3.4.3.3.3.9.3.3.3.3.3.3.3.4.:.2.3.3.:.%.%.%.3.3.3.%.:.4.3.3.3.4.4.4.s.4.4.4.4.i.4.4.3.3.3.4.4.3.%.4.4.3.| 3.4.4.4.z.4.4.4.4.4.4.4.4.4.z.4.4.i.4.i.4.i.r.r.i.4.4.s.4.i.4.s.r.4.r.4.4.4.r.4.4.4.r.4.r.4.4.4.4.0.4.r.4.4.4.r.s.4.4.i.i.4.4.4.i.4.4.4.4.4.:.:.%.%.%.%.%.*.%.%.%.%.%.%.[ [ [ [ 3.3.3.3.4.3.3.4.4.4.s.4.4.4.4.4.s.4.4.4.4.4.4.4.",
"4.e.0.e.9.9.9.e.3.e.e.3.3.3.e.e.r.e.e.e.0.e.e.e.e.e.e.e.e.e.e.e.r.e.e.e.e.e.r.e.e.e.e.e.e.r.e.e.0.0.r.0.4.r.r.4.4.r.0.r.e.0.r.e.e.e.0.r.0.e.e.4.e.0.e.r.e.e.e.0.4.r.r.r.4.r.4.r.4.r.r.4.3.*.:.4.i.r.4.4.4.4.4.s.i.4.2.2.*.&.*.2.-.2.3.3.4.e.0.4.e.0.3.3.3.3.3.e.r.4.4.r.r.e.r.4.e.r.4.r.r.r.4.e.4.d.d.4.4.i.s.4.4.i.4.4.4.s.4.4.e.4.e.4.4.0.e.4.4.4.4.4.4.4.3.3.3.4.4.3.3.4.3.4.4.4.4.3.4.:.3.:.:.%.%.[ [ %.-.*.2.:.&.&.&.-.3.*.L 3.[ [ 3.3.1.3.3.3.3.3.2.3.3.3.1.3.4.3.3.3.3.3.3.3.3.3.2.1.3.3.1.4.*.1.4.1.1.4.4.1.*.4.1.4.1.4.*.4.4.1.4.4.1.1.4.4.1.4.4.1.4.4.1.4.1.4.4.4.4.4.*.*.*.*.*.*.*.4.*.:.1.*.*.1.4.:.:.:.*.4.4.*.4.4.4.4.3.4.3.4.4.3.4.4.3.4.3.3.4.4.4.4.4.:.4.4.4.4.4.4.1.4.4.4.4.4.3.3.3.3.3.3.4.4.4.3.3.3.3.3.3.3.3.3.9.3.3.3.3.3.4.3.:.3.>.*.&.%.%.3.3.%.3.4.4.4.3.4.4.s.4.4.4.4.4.4.4.4.4.4.3.2.3.2.3.3.4.4.4.3.:.&.&.3.4.4.4.4.4.4.z.4.4.4.4.4.i.4.i.4.4.r.4.r.s.4.4.4.:.i.4.4.4.r.4.r.r.4.4.r.0.4.4.r.4.4.r.4.4.4.4.4.4.r.4.4.4.4.4.4.4.4.4.*.*.4.*.*.*.*.*.%.%.%.%.*.*.*.*.*.&.*.*.*.3.[ [ [ L 2.L L 3.4.3.%.4.4.4.4.4.4.s.4.4.4.s.4.4.4.4.4.",
"0.4.4.e.9.e.9.e.9.e.e.3.3.3.e.r.0.e.0.e.e.e.e.e.r.e.e.0.e.0.e.e.e.e.r.e.e.e.0.e.e.e.e.e.e.r.e.e.r.4.4.0.0.4.4.r.r.e.e.e.e.r.e.4.e.e.0.e.e.e.r.r.e.r.e.r.r.r.e.r.r.r.r.r.r.r.4.4.4.r.r.4.3.:.*.&.2.3.4.i.d.4.4.4.4.3.2.%.%.&.| %.-.:.3.4.e.e.e.9.3.3.3.3.9.9.e.9.4.r.4.r.4.4.r.4.e.e.e.e.4.r.r.e.4.4.4.4.4.4.s.4.i.4.4.4.4.4.4.4.0.e.e.e.0.e.3.4.4.0.4.4.4.3.3.3.4.4.4.4.4.3.4.4.4.4.4.>.3.:.:.:.*.%.{ %.&.3.2.*.-.:.2.&.*.3.-.| 2.[ 4.1.2.3.3.3.3.3.2.2.[ 1.3.3.3.3.3.3.3.3.3.3.[ 3.[ 3.2.3.1.3.4.4.4.4.4.4.4.1.4.1.4.4.1.4.4.1.4.4.4.4.1.4.4.4.1.4.4.4.1.4.4.1.4.4.4.1.1.4.4.4.%.1.*.4.*.*.*.*.4.*.*.4.4.4.4.*.4.4.4.4.4.4.:.4.4.3.4.3.3.4.4.4.3.4.4.3.4.4.3.4.4.1.4.4.1.4.4.1.4.4.4.4.4.4.4.*.3.3.3.4.4.3.4.4.4.4.4.4.4.3.4.3.4.3.3.3.3.3.3.3.3.3.3.3.3.:.&.-.:.:.:.&.:.4.4.4.4.4.4.4.4.4.4.s.j.i.i.4.4.d.4.4.3.4.4.3.4.i.4.d.4.4.4.4.4.4.4.j.1.4.4.4.4.4.z.4.4.s.4.4.r.4.r.r.4.i.i.:.[ 4.4.s.r.4.r.4.4.r.r.4.4.4.4.r.4.r.4.4.r.4.4.r.4.4.r.4.4.4.4.s.4.4.4.*.4.*.*.4.:.4.:.:.*.*.1.*.%.%.1.%.*.*.2.&.[ [ 2.[ [ L 2.[ 1.3.3.4.4.4.4.4.4.d.4.4.4.4.4.4.4.4.4.4.",
"4.r.4.e.e.9.e.9.9.e.9.3.3.9.e.e.e.e.r.e.t.e.e.e.0.e.e.r.e.e.0.y.0.e.e.e.r.e.e.e.9.0.0.r.e.e.e.e.4.0.r.4.r.4.0.0.0.e.0.e.e.e.r.0.r.0.4.e.e.0.r.e.e.r.e.e.e.e.e.e.r.4.r.4.4.4.r.4.4.4.4.r.4.3.*.&.%.3.4.r.4.j.4.4.3.3.&.2.3.2.3.*.3.:.&.&.@.&.*.*.-.:.3.3.e.e.e.3.r.4.r.4.4.r.4.r.4.r.r.4.r.4.e.e.s.d.4.4.4.4.4.4.i.4.d.4.4.4.4.4.4.4.0.4.4.4.3.0.4.4.2.4.0.3.3.3.4.3.3.4.4.4.4.3.4.4.:.3.3.:.:.%.&.%.[ %.:.:.3.*.*.:.3.2.2.3.*.` %.2.[ 1.3.3.1.3.3.2.3.3.4.3.3.3.3.4.1.3.3.3.3.3.3.3.2.2.3.2.3.3.1.*.4.1.1.4.4.4.4.4.4.1.4.4.4.4.4.4.4.4.4.4.4.4.4.4.1.4.4.4.4.4.4.1.4.4.4.4.1.*.%.*.1.*.*.4.4.1.4.1.4.4.1.4.4.4.4.4.4.4.4.4.4.4.4.3.4.4.4.3.3.4.3.4.4.3.4.3.4.4.4.4.4.4.4.4.4.4.4.4.4.4.4.4.4.4.4.3.4.4.4.4.4.3.3.4.3.4.4.4.4.3.e.3.9.3.3.>.3.3.3.3.3.:.-.&.&.&.3.:.:.%.3.4.4.4.4.4.4.i.4.4.4.y.4.4.4.4.4.d.4.4.4.4.4.4.4.4.4.4.4.4.4.4.%.1.%.4.1.4.4.4.4.4.4.4.i.4.i.4.4.r.r.4.:.z.z.4.%.4.r.4.4.i.4.s.r.4.4.r.4.0.4.4.4.4.s.r.4.r.4.r.4.4.r.4.i.4.4.i.4.s.4.*.:.4.1.:.4.4.*.*.*.*.%.%.%.*.[ %.%.&.*.*.2.3.[ [ 3.[ L 3.[ [ 3.4.4.4.4.4.4.4.4.4.d.4.4.4.4.4.d.4.",
"0.4.e.0.4.4.9.e.e.e.3.>.3.3.e.e.e.e.y.0.e.e.r.0.e.e.e.0.e.e.e.y.0.0.e.e.e.e.e.e.9.e.9.e.e.0.e.e.0.0.4.0.4.0.r.4.e.e.r.e.0.e.e.r.e.e.e.e.e.e.r.r.0.e.e.e.e.0.r.0.r.i.r.r.r.r.4.r.r.4.r.r.r.r.4.4.3.3.%.%.%.&.2.&.3.*.4.0.s.4.3.3.3.-.&.&.| | | &.&.%.&.*.3.3.3.:.4.4.4.i.4.r.r.4.r.r.4.r.u.e.e.r.4.4.s.4.4.4.4.4.4.4.4.4.4.4.4.4.4.4.e.4.e.e.3.4.3.3.4.4.4.4.4.4.4.4.4.3.:.4.4.4.4.4.:.3.>.>.&.%.| %.| &.2.3.2.*.3.3.:.-.*.-.@.| [ [ L 4.3.3.1.3.3.3.3.3.3.3.3.3.1.4.4.3.4.3.3.3.3.1.3.3.1.4.4.4.4.4.4.1.4.4.1.4.4.1.1.4.4.4.4.4.1.4.4.4.4.4.4.1.4.4.1.4.4.4.1.4.4.*.4.1.4.1.*.*.%.1.4.*.:.*.4.1.:.4.1.4.4.4.4.4.:.4.4.4.4.4.4.4.4.3.4.4.4.3.4.4.4.4.4.3.4.4.3.3.4.4.4.4.4.4.4.4.4.4.4.4.4.4.4.4.4.4.3.3.3.4.4.4.4.3.4.3.4.3.4.3.>.3.3.3.4.>.3.3.3.3.3.>.&.&.&.-.2.2.3.3.4.4.4.4.4.4.i.4.4.4.y.4.4.4.4.4.4.d.d.4.4.4.a.4.i.4.4.4.j.a.i.4.4.4.4.3.4.4.4.z.4.4.4.4.4.i.4.s.r.r.r.i.i.4.i.:.4.4.4.r.i.4.4.i.4.4.i.4.4.4.4.r.4.s.r.4.4.s.4.4.0.4.4.0.4.4.4.4.4.4.4.:.4.*.4.1.*.*.*.%.*.*.*.*.%.%.%.%.%.*.%.2.%.%.3.2.3.L [ 3.L [ 3.3.4.4.4.4.4.s.4.d.4.4.s.4.4.4.4.4.",
"4.e.4.0.4.0.e.9.e.9.3.3.3.e.e.e.0.e.e.e.e.e.0.e.r.e.e.r.e.e.e.0.r.e.e.e.r.e.e.3.3.3.3.e.e.0.e.0.r.4.r.4.4.r.4.0.0.e.0.4.r.4.0.4.e.e.0.0.e.0.e.e.e.0.e.e.e.r.4.r.r.4.r.4.r.4.r.4.4.r.r.4.4.r.a.i.3.3.2.3.&.&.2.3.3.3.4.0.4.3.2.3.9.e.e.e.0.4.3.4.>.-.&.&.-.-.3.3.>.4.4.4.r.4.4.e.r.e.r.r.e.e.u.e.d.4.4.4.4.a.4.d.4.s.4.4.4.i.4.4.e.0.e.e.3.9.e.3.4.3.4.4.4.4.4.4.3.3.4.4.4.4.3.4.4.,.:.:.*.*.&.%.| | &.&.*.*.*.3.3.3.2.3.2.&.| [ L [ L 4.4.4.4.3.3.3.1.3.4.4.3.3.3.3.3.3.3.3.%.%.%.3.3.%.3.4.1.4.1.4.1.4.1.4.4.4.4.4.4.4.4.1.1.4.4.4.4.1.4.1.4.4.4.4.4.4.4.4.4.4.*.*.4.4.4.%.%.%.1.*.4.*.*.1.4.4.4.4.4.4.4.4.4.4.4.4.4.4.4.:.4.4.4.3.4.3.3.4.4.3.4.3.4.4.3.4.4.4.4.4.4.4.4.4.4.4.4.4.4.4.4.4.1.4.3.4.4.4.4.4.4.4.3.4.4.4.4.3.4.3.3.3.3.3.>.3.3.3.3.3.3.-.&.&.&.:.3.3.4.4.4.4.4.4.4.4.4.4.4.y.4.4.4.4.4.j.4.4.4.j.4.4.4.4.4.a.j.4.i.4.4.i.4.4.4.3.4.4.4.4.z.4.z.4.4.4.i.4.4.4.4.4.i.4.4.*.4.r.r.4.i.r.i.4.4.i.4.4.4.4.4.4.4.4.4.r.4.4.0.0.r.4.4.r.i.4.4.4.4.4.:.*.*.4.*.*.4.*.1.*.*.*.*.%.1.%.*.%.%.*.3.%.%.2.[ 3.3.3.[ 1.[ [ 3.4.4.s.4.4.4.4.4.4.d.4.4.4.4.4.4.4.",
"r.4.e.4.e.e.3.e.e.0.3.>.3.e.r.9.e.0.e.e.e.e.e.e.0.e.e.e.e.e.e.e.e.e.e.0.r.e.9.3.3.3.9.e.e.r.e.0.4.4.0.0.0.0.4.0.4.0.e.r.0.4.0.r.e.0.e.r.0.e.r.0.e.r.e.4.e.r.r.4.4.r.r.r.r.r.r.4.4.4.r.4.4.r.r.r.4.4.j.j.i.a.4.a.4.4.4.3.2.*.2.3.3.0.e.e.r.e.e.e.e.3.3.3.3.3.3.3.:.3.4.e.4.4.r.r.e.e.4.r.u.e.e.e.4.4.i.4.a.4.a.4.4.4.4.4.i.4.4.s.0.4.0.4.0.4.3.e.3.4.4.4.4.3.4.3.4.4.4.4.4.4.4.4.>.>.:.*.&.&.%.| | | &.&.&.*.3.3.2.-.2.3.*.` K W ` L [ 4.3.4.4.4.3.3.3.3.3.4.3.3.3.3.3.3.1.4.1.3.%.3.3.3.4.1.4.4.4.4.4.4.4.4.4.4.4.4.4.4.4.4.4.4.4.4.4.4.4.4.4.4.4.4.4.4.4.1.4.1.4.4.4.1.*.) %.) 1.*.*.4.4.*.1.4.4.1.4.4.4.4.4.4.4.4.4.4.4.4.4.4.4.4.4.4.4.3.4.4.3.4.3.4.3.4.4.4.4.4.4.4.:.4.4.4.4.1.4.4.4.:.4.4.3.4.4.4.4.3.4.4.3.4.3.4.4.4.3.3.3.3.3.>.3.>.>.3.3.3.3.*.&.&.3.3.3.4.4.4.4.4.4.4.4.4.4.r.4.4.4.4.4.4.4.4.4.4.4.4.i.4.4.4.d.4.4.4.i.4.i.h.4.4.4.4.4.4.4.4.4.z.4.4.4.s.i.4.4.s.r.4.4.4.4.*.4.4.4.z.r.r.4.s.r.4.4.i.r.4.4.r.4.4.r.4.4.4.4.4.4.4.r.4.s.4.4.4.4.*.:.4.*.*.*.4.*.*.*.*.*.*.*.*.%.*.*.*.2.2.%.2.%.3.[ [ L 3.[ 3.3.[ 3.4.s.4.4.4.4.4.4.4.4.4.4.4.4.4.4.4.",
"4.0.4.r.0.4.e.9.3.3.3.3.3.e.e.0.e.y.e.e.0.y.e.0.e.e.0.e.t.e.e.0.e.e.9.0.r.r.9.3.3.3.e.e.e.r.e.r.0.r.4.r.4.r.r.4.r.4.0.4.4.r.0.4.r.4.4.e.4.0.e.e.e.r.e.0.e.0.r.r.4.4.4.r.4.r.4.r.4.r.r.r.r.4.4.4.4.4.4.4.4.4.4.4.4.4.4.4.3.2.3.3.e.e.0.e.e.0.e.e.e.e.4.e.r.r.3.:.&.2.4.4.r.4.4.e.r.e.r.e.e.e.u.e.4.i.4.s.4.d.4.j.4.d.i.s.s.4.4.4.4.e.e.e.4.e.3.3.4.4.4.4.4.4.3.4.3.4.4.3.4.3.4.4.:.>.:.*.%.%.| | %.%.&.&.*.2.3.3.3.+.| | _ D b K [ L 3.4.1.3.3.3.3.3.3.3.4.3.3.3.3.3.3.3.*.3.3.4.4.3.4.3.4.4.4.4.4.4.4.4.4.4.4.4.1.4.4.1.1.4.1.4.4.4.4.4.4.4.4.4.4.4.4.4.4.4.*.4.4.4.*.*.%.1.*.*.4.4.*.1.4.:.4.4.4.4.4.4.4.4.:.4.4.4.4.4.:.4.:.4.3.4.3.3.4.4.3.4.4.4.3.4.4.4.3.3.4.1.4.4.4.4.4.4.4.4.4.4.4.4.4.4.3.3.3.3.4.4.3.4.4.4.3.4.3.4.4.3.3.3.>.3.3.>.3.3.>.3.3.:.:.3.3.3.4.4.s.4.4.4.4.4.s.r.4.4.4.4.4.4.4.4.4.4.4.s.4.4.4.4.i.i.4.4.4.j.i.4.4.4.z.4.4.4.z.4.4.4.4.4.4.4.i.4.4.4.i.4.4.i.4.4.4.%.4.4.4.4.4.i.r.4.4.s.i.4.4.r.r.4.r.4.4.4.4.r.4.4.r.4.r.4.4.i.4.4.:.*.*.4.*.4.4.:.*.*.*.*.%.1.%.%.%.*.*.*.%.2.3.%.2.%.3.2.3.3.3.L 3.[ [ 3.4.4.4.4.4.4.4.d.4.4.4.4.4.4.4.d.",
"e.e.4.e.e.9.9.4.3.3.9.3.9.9.0.9.0.e.e.e.e.e.e.e.e.e.0.e.e.r.0.e.r.0.0.0.e.e.e.3.3.e.e.0.e.r.e.e.r.i.r.i.s.4.4.4.4.4.4.4.s.4.4.4.4.0.4.4.4.s.4.4.i.4.4.i.4.r.4.r.r.r.4.r.4.r.4.4.r.r.4.4.4.e.r.r.4.d.4.d.d.4.4.4.4.4.j.4.3.3.4.3.r.r.4.3.4.4.r.r.r.r.4.r.r.r.4.4.%.3.2.3.4.4.3.4.4.4.4.4.e.u.u.t.i.4.4.i.r.i.r.r.e.0.r.e.r.e.e.e.e.e.4.4.4.4.4.4.4.4.4.4.4.3.4.3.4.3.3.9.3.3.>.3.>.3.&.| | { { | [ 3.3.3.[ 3.3.3.L [ 1.L L ` [ | 1.| 1.%.3.1.2.3.3.3.3.3.3.3.3.3.4.4.4.4.3.3.4.3.4.4.4.4.4.s.4.4.4.1.4.s.4.4.4.4.4.4.4.4.4.4.4.3.4.4.4.1.4.4.4.4.1.4.4.1.4.z.%.4.4.1.[ *.*.*.%.4.*.*.4.4.4.4.4.4.4.:.1.4.4.4.4.4.4.4.4.4.4.4.3.4.3.4.4.4.4.4.4.4.4.4.4.4.3.4.4.4.4.4.1.4.4.1.4.4.4.3.4.4.4.3.4.4.3.4.4.3.4.4.4.3.4.4.3.3.4.4.4.4.3.9.3.3.3.>.3.>.9.3.-.:.>.3.e.3.4.e.4.e.4.4.e.4.r.4.r.4.4.r.4.4.e.4.e.3.r.4.r.4.4.4.4.4.4.4.4.4.4.u.4.i.r.4.r.r.4.r.r.4.r.4.4.r.4.i.4.r.4.r.i.4.4.r.r.%.4.4.4.i.r.r.4.r.r.4.4.4.4.4.4.4.4.4.4.4.4.4.4.r.s.4.4.4.i.4.4.*.4.*.:.4.3.3.3.%.3.%.*.*.4.%.%.*.*.:.1.*.&.%.&.%.&.%.2.&.%.2.[ 3.2.| [ 3.4.4.4.4.4.4.4.4.4.4.4.4.4.4.s.4.",
"e.r.e.e.9.e.9.0.9.0.0.3.2.3.9.9.e.0.0.e.e.0.r.0.r.e.r.e.e.e.e.e.r.r.e.e.e.e.3.3.3.e.e.e.0.r.r.e.4.4.r.4.4.i.4.4.4.4.s.i.4.i.4.4.r.4.e.e.4.4.4.i.r.r.4.4.i.r.4.r.4.r.r.r.4.r.r.4.r.4.4.r.e.e.4.r.4.4.4.4.4.4.d.d.j.4.4.4.%.%.4.4.3.3.4.i.a.4.4.4.r.4.r.r.r.4.4.3.3.3.3.3.4.4.3.3.3.4.4.4.e.u.u.u.4.i.4.4.4.r.r.i.r.r.r.y.e.e.r.e.e.e.r.e.4.4.4.0.4.4.4.4.4.4.4.0.3.2.3.3.3.-.*.*.=.&.&.| { | &.-.3.[ 2.[ 1.3.[ 1.<.[ L L L L ` L [ | %.3.2.2.3.[ 2.3.3.[ 3.3.3.3.4.4.4.4.3.4.4.4.4.4.4.4.4.4.4.4.4.s.4.4.4.s.4.4.4.4.4.4.4.4.4.4.4.4.4.4.4.4.4.4.4.4.4.4.4.4.4.4.1.%.%.*.1.%.%.*.:.4.1.4.4.4.4.4.4.4.4.4.4.4.4.4.3.4.4.4.3.4.4.3.4.4.4.4.4.4.4.4.4.4.4.4.4.4.4.4.1.4.4.4.4.4.4.4.3.3.3.3.4.4.4.4.3.4.4.3.4.3.4.4.3.4.4.4.4.3.4.4.3.3.9.3.3.3.3.3.3.>.>.*.>.3.9.9.3.4.e.4.e.e.4.e.4.4.4.r.4.4.y.4.4.e.4.e.4.r.4.4.4.4.s.4.4.s.4.4.4.4.4.4.4.r.4.r.r.r.4.y.4.r.r.4.4.i.4.s.i.4.4.4.i.4.4.*.:.4.4.i.4.4.r.4.r.4.r.4.4.4.4.4.4.4.4.4.4.r.4.4.4.4.4.4.s.4.4.*.*.4.4.:.%.3.3.1.%.4.*.3.3.*.*.*.:.:.:.*.3.2.3.3.3.3.&.&.2.%.3.%.2.%.%.3.4.4.4.s.d.4.4.s.4.d.4.4.4.4.4.4.",
"r.4.e.e.e.9.e.9.9.e.9.9.-.3.9.0.0.e.e.e.e.e.e.e.e.e.e.e.e.e.e.r.e.e.r.e.r.r.0.0.4.r.e.e.0.r.r.e.r.r.4.i.4.i.4.4.i.4.i.4.4.4.4.s.4.r.4.r.4.s.r.4.4.r.4.s.r.4.r.r.4.r.r.r.i.r.r.r.r.r.r.4.r.4.r.r.s.4.d.4.4.s.4.4.4.4.4.4.3.%.3.3.4.4.4.r.i.r.r.i.4.4.r.4.r.r.4.4.3.2.1.4.4.4.3.3.4.4.i.4.p.u.e.e.a.i.4.i.i.r.4.r.r.r.e.e.e.y.r.r.r.4.e.4.r.4.4.0.4.4.4.4.4.4.4.4.3.3.3.3.3.>.*.@.+.| } | +.&.&.=.3.L 2.3.4.[ D D 2.[ [ L ` <.L L [ | 2.3.2.3.3.3.3.3.1.3.3.4.3.3.4.4.4.4.3.4.4.4.4.4.4.4.4.4.4.4.s.4.4.4.4.s.4.z.4.4.4.4.4.4.3.3.4.4.4.4.4.4.4.4.4.4.4.4.4.*.z.4.[ %.1.1.:.*.%.*.*.*.4.1.4.4.4.4.4.4.4.4.1.4.4.4.3.4.4.3.4.4.3.4.4.4.3.4.4.3.4.4.4.4.3.4.4.4.4.4.4.1.4.4.4.4.4.4.4.3.3.4.3.3.4.4.4.4.4.4.3.4.3.4.4.3.4.4.4.4.3.3.4.e.3.3.3.3.9.3.>.>.:.-.3.3.3.3.4.4.4.e.4.r.e.e.4.i.4.4.r.y.4.4.e.,.e.e.4.0.4.4.s.4.s.4.4.d.4.d.4.4.i.4.4.r.r.4.4.r.4.4.4.r.4.r.s.4.4.4.4.4.4.i.4.i.4.4.*.4.4.i.i.4.4.r.4.r.4.r.i.4.4.4.i.4.4.r.4.4.4.s.4.4.4.4.4.4.3.3.4.:.*.4.3.3.3.3.3.*.4.*.*.3.1.3.4.*.4.*.3.3.3.:.3.&.3.%.%.3.%.3.%.%.%.3.4.4.4.4.4.4.4.4.4.d.4.4.4.4.4.4.",
"r.4.3.e.e.9.9.9.3.0.0.9.3.3.0.e.e.e.0.e.e.0.r.e.e.r.r.e.e.0.e.0.e.e.0.e.r.r.e.e.0.e.e.e.r.r.r.e.i.4.4.s.i.4.s.4.4.s.4.4.i.4.r.4.r.4.r.4.4.r.4.4.r.4.r.4.4.r.4.r.r.4.4.r.r.4.r.4.i.r.r.r.4.r.4.4.4.4.4.4.4.4.s.4.j.4.4.4.4.3.%.2.4.4.4.4.4.4.r.4.r.r.r.r.4.r.4.r.3.2.3.3.4.3.3.4.4.4.4.i.e.u.u.e.i.4.i.i.4.r.r.r.e.e.e.e.e.0.e.e.r.r.r.4.4.4.4.4.4.4.4.3.3.4.4.4.-.3.3.-.-.-.-.&._ ` | | ` ` +.>.1.3.3.3.L h D 3.3.3.%.2.%.1.1.L [ [ %.3.3.3.3.3.3.3.3.3.3.4.3.4.4.4.4.4.4.4.4.4.4.4.4.4.4.4.d.4.4.4.s.4.4.4.4.4.4.4.4.4.4.4.2.3.1.4.4.4.4.4.4.4.4.4.1.4.4.1.*.[ %.*.%.%.*.*.1.1.4.4.4.4.4.4.:.4.4.4.4.4.4.4.4.4.4.4.3.4.4.3.4.3.4.3.4.4.4.4.4.3.3.4.4.4.3.4.4.4.4.4.4.:.4.1.4.4.3.3.3.3.4.4.:.4.4.3.3.4.4.4.3.4.3.4.4.3.3.4.4.4.3.3.3.3.3.e.3.4.3.>.:.>.3.3.3.3.4.4.e.4.r.4.4.r.4.4.s.i.4.4.4.4.9.e.3.e.e.4.s.4.4.4.4.4.4.4.4.4.4.r.4.r.r.4.0.r.4.r.4.y.r.4.r.4.4.4.i.i.4.i.s.4.4.4.s.4.:.i.4.4.r.i.r.r.4.r.r.r.4.s.s.4.i.4.4.s.r.4.4.4.4.4.4.4.4.4.*.:.*.*.4.*.4.3.%.%.3.1.*.*.*.*.3.*.1.*.*.4.3.&.3.&.3.&.&.&.3.%.%.2.%.3.%.3.4.d.4.4.4.s.4.4.4.4.4.4.4.4.4.4.",
"0.4.0.4.0.3.4.e.9.9.9.e.0.9.9.3.0.4.r.0.e.e.0.e.e.r.e.e.e.r.0.e.e.e.r.e.r.r.e.e.4.0.e.e.r.r.r.e.r.4.i.r.4.i.4.4.4.i.4.4.s.4.4.4.4.r.4.4.y.4.4.y.4.4.0.4.r.4.r.r.r.4.r.4.4.r.r.i.r.4.i.r.4.r.4.r.4.4.4.d.4.d.4.4.4.4.4.j.d.4.2.%.2.:.:.4.i.a.r.4.s.i.s.4.4.4.s.4.d.4.4.4.3.%.%.3.4.4.4.4.4.e.e.7.3.3.4.4.4.4.i.i.r.4.r.r.e.e.e.0.4.r.r.4.4.4.r.4.4.4.4.3.4.3.3.2.3.2.-.*.-.2.-.&.&.| ` ` | =.*.-.[ L L D D 3.4.3.3.[ 3.3.3.2.[ [ <.%.2.3.3.3.3.3.3.3.3.3.3.3.3.3.4.4.4.4.4.4.4.4.4.4.4.4.4.4.4.4.s.4.4.s.4.4.4.4.s.4.4.4.4.3.2.2.*.4.4.1.4.4.4.4.4.4.4.4.4.4.[ %.*.1.*.%.*.1.4.:.4.4.4.4.4.4.4.4.4.4.4.4.4.4.4.4.4.4.3.3.4.4.4.3.4.4.4.3.3.3.4.4.4.4.3.3.4.3.3.4.4.4.4.1.4.4.4.4.3.3.4.4.3.4.4.4.4.3.3.4.4.4.3.4.3.4.4.4.4.4.4.4.3.3.3.4.3.9.3.3.>.>.-.3.3.3.3.3.4.4.4.4.4.r.4.r.4.s.4.4.s.4.4.4.4.e.4.e.4.4.4.4.4.4.4.4.4.4.4.4.r.4.4.r.r.4.r.4.4.i.4.4.4.4.s.4.4.s.4.4.i.4.s.4.i.4.4.4.4.i.4.i.4.4.i.r.i.i.4.r.r.i.4.i.i.4.4.4.4.4.4.4.4.4.4.4.4.4.3.:.:.4.:.4.3.3.[ 1.3.[ 3.1.3.*.:.4.:.*.:.:.&.3.&.&.&.&.2.%.%.%.%.%.2.%.3.3.4.4.4.d.4.4.4.d.4.g.4.4.4.4.4.4.",
"4.r.4.0.4.e.0.3.e.0.3.0.3.3.2.3.e.e.4.e.r.e.r.e.e.e.e.y.e.e.e.e.0.e.0.e.0.e.e.e.e.3.3.e.r.r.e.e.r.r.r.r.a.4.i.i.i.4.4.s.4.4.4.r.4.4.r.4.r.4.4.y.4.s.4.4.4.r.r.4.i.4.4.r.r.r.4.4.r.i.4.r.4.r.r.4.d.4.4.4.4.4.4.d.j.4.4.4.j.4.3.3.*.%.%.*.4.4.r.i.4.i.i.4.r.r.i.i.4.4.d.s.4.3.3.3.3.4.4.,.>.,.,.;.3.3.3.3.3.3.4.4.3.3.4.4.e.r.e.r.0.4.4.4.4.r.4.e.4.4.4.4.3.3.3.2.3.-.&.*.&.*.&.| } _ K K ` ` K D D L [ 3.[ 3.4.3.2.2.3.[ %.%.3.3.1.3.3.3.3.3.3.3.2.3.3.3.3.3.4.4.4.4.4.4.4.4.4.4.4.d.s.4.4.d.s.4.4.4.4.4.4.4.z.1.4.4.4.4.4.3.3.3.4.4.1.4.4.4.s.4.1.s.4.1.4.s.L %.*.%.*.*.*.:.:.4.4.4.4.4.4.4.4.4.4.4.4.1.4.4.4.4.4.4.3.4.3.3.4.4.3.3.4.4.4.4.3.3.3.4.4.4.4.4.4.3.1.*.4.4.1.4.4.1.3.3.3.4.4.4.4.4.4.4.4.4.3.4.3.4.4.4.3.4.1.4.4.4.4.3.e.3.3.3.>.3.3.>.>.3.3.3.>.3.4.4.y.r.r.4.r.4.i.4.4.4.4.4.4.4.4.4.4.4.4.4.4.i.s.4.4.4.4.4.4.d.4.r.4.r.4.r.4.r.4.4.i.4.4.r.4.4.i.4.4.r.4.4.4.r.4.4.4.4.4.s.i.4.i.r.i.4.4.i.s.4.4.4.4.4.4.s.i.4.4.4.4.4.4.4.4.4.3.:.:.4.4.:.:.4.3.%.3.%.3.3.%.3.3.3.1.3.4.1.1.*.&.&.3.&.%.3.%.3.%.3.2.%.%.2.3.3.4.4.4.4.d.4.4.4.4.4.4.4.4.s.4.4.",
"0.4.4.0.4.3.0.e.0.9.9.e.3.3.-.3.r.0.4.0.0.e.e.e.r.e.e.e.e.0.0.e.r.e.e.r.e.0.9.4.3.3.3.e.r.r.0.0.4.4.4.i.4.a.4.4.4.r.i.4.4.r.y.4.r.0.r.r.y.4.y.4.s.4.y.4.4.y.y.4.4.r.r.4.4.r.r.r.4.i.r.r.r.4.r.r.4.4.4.d.4.d.4.4.4.4.4.4.4.d.4.4.3.:.%.%.*.:.4.4.4.4.i.r.4.r.4.4.4.4.4.4.4.4.4.3.:.3.4.4.,.,.;.,.4.4.4.4.4.3.:.3.:.:.3.3.4.4.r.r.3.4.4.0.r.r.0.e.4.4.3.3.3.3.3.:.3.*.*.*.-.&.| ` L | 3.>.| ` [ +.3.1.4.4.4.3.[ 2.3.3.3.2.%.3.:.3.2.3.3.3.1.4.4.3.3.3.3.3.3.3.4.4.4.4.4.4.i.4.4.4.4.s.4.4.4.s.4.4.4.4.4.4.4.4.4.4.4.4.4.4.4.4.4.4.1.4.4.4.4.4.4.4.4.4.4.4.4.1.[ *.%.%.*.*.4.1.:.4.*.4.4.4.:.4.1.4.4.3.4.4.4.4.:.4.4.4.4.4.4.4.4.3.4.4.3.4.4.4.3.4.4.4.4.4.%.4.3.4.4.4.:.4.4.4.4.4.3.4.3.4.4.3.4.4.3.4.4.3.4.3.4.4.4.3.4.3.4.4.3.4.4.e.3.9.3.3.>.9.>.>.>.3.e.3.3.e.4.4.r.4.4.r.4.4.4.4.4.i.4.4.4.4.e.4.e.4.4.s.4.4.4.4.s.4.4.s.4.4.4.4.r.4.r.r.4.r.i.4.s.4.4.r.4.4.i.4.4.4.4.s.4.4.4.4.4.:.4.s.4.i.r.r.r.4.r.4.i.4.4.4.i.s.i.4.r.4.r.4.4.s.4.4.4.1.*.:.:.:.:.4.4.:.%.1.[ 3.[ 3.[ 4.3.4.:.3.*.:.*.*.*.*.&.&.:.%.2.%.%.%.%.%.2.3.4.4.4.4.4.4.4.s.4.4.4.4.4.4.4.4.4.4.",
"0.4.0.4.0.3.3.3.3.9.e.0.3.-.3.0.4.0.r.e.e.e.e.0.y.e.e.e.e.y.e.e.e.e.e.e.e.3.3.3.3.3.3.e.r.r.e.r.i.s.i.i.a.4.a.s.i.i.i.4.r.4.4.0.4.4.4.0.4.y.4.0.r.4.4.0.4.4.4.y.r.r.r.r.4.4.4.r.r.4.4.r.r.r.4.r.a.s.4.4.4.4.d.d.4.d.4.4.j.4.4.4.4.4.3.*.%.%.%.:.4.i.i.i.r.r.r.4.4.4.4.3.3.4.3.:.4.4.4.4.e.u.e.e.4.4.4.4.4.4.4.r.4.3.2.-.*.-.3.3.3.3.4.0.0.4.4.4.4.4.3.3.3.:.3.3.3.-.*.-.3.| ` _ | | } | *.>.9.e.4.4.4.4.3.4.4.3.3.3.[ 2.3.%.3.3.3.%.[ [ [ 4.4.4.3.3.3.3.3.3.3.4.4.i.4.i.4.4.4.4.4.4.4.4.4.4.4.4.s.s.4.4.4.4.4.1.4.4.s.4.4.4.4.4.4.:.4.4.4.4.1.4.4.4.4.4.4.L 1.%.*.1.*.4.:.*.4.4.4.4.4.4.4.4.4.4.4.4.4.4.4.4.4.4.1.4.4.4.4.4.4.3.4.3.4.4.3.3.4.3.4.4.4.4.4.4.4.3.*.4.4.4.1.1.4.4.3.3.3.3.4.4.4.1.3.4.4.3.4.4.4.3.4.3.4.4.4.3.4.4.9.3.3.e.>.>.>.>.3.-.*.3.e.9.9.e.4.y.4.4.r.4.4.y.4.s.4.4.i.4.d.4.4.4.4.e.4.4.4.d.4.4.4.4.4.4.4.4.4.r.4.r.r.4.r.4.4.i.4.4.r.4.r.4.4.4.r.r.4.4.r.4.s.4.4.4.4.4.4.d.r.i.4.r.4.s.4.i.4.r.4.4.4.i.4.4.4.4.4.4.4.4.4.4.:.:.*.3.:.:.:.3.3.1.3.3.[ 3.3.3.1.:.*.*.4.*.:.*.2.:.:.&.%.2.%.2.%.%.%.2.3.4.4.4.4.s.4.s.4.4.4.d.g.4.4.g.4.4.4.4.",
"3.3.3.3.3.9.3.9.9.3.2.2.>.3.9.0.e.4.4.0.e.0.0.e.e.e.e.e.0.0.e.e.e.r.e.0.3.3.3.3.3.3.3.e.r.r.r.e.4.i.4.i.i.r.4.r.4.r.r.4.r.4.4.4.0.e.e.e.9.e.e.4.4.y.y.4.y.4.s.4.r.4.r.e.r.4.i.r.4.r.4.r.r.r.r.4.4.a.4.i.s.a.4.4.4.4.d.4.4.4.s.4.4.4.4.:.3.%.3.%.3.4.j.4.4.a.4.3.2.3.3.2.%.4.4.:.e.r.r.r.u.e.r.r.h.4.4.i.i.i.4.i.r.r.r.0.3.3.&.%.&.-.3.3.4.0.4.3.4.4.3.3.3.4.4.3.3.*.| | | [ | | 1.2.2.2.4.4.s.4.4.4.4.4.4.4.4.4.3.:.3.:.3.:.3.3.3.3.3.%.2.3.4.3.3.3.4.3.2.4.4.4.4.4.i.u.4.u.i.4.4.4.4.4.4.4.4.4.4.1.4.4.4.4.1.4.4.u.4.4.4.4.i.4.4.4.4.4.4.4.4.1.4.4.4.4.1.%.*.*.*.%.1.*.4.4.1.*.4.4.1.4.4.4.4.4.3.3.4.4.4.3.4.4.4.4.4.4.3.4.4.4.4.4.4.4.4.4.4.4.3.3.4.3.3.3.3.3.4.4.4.4.3.3.3.3.4.3.4.3.4.4.4.4.4.4.4.4.4.4.4.4.4.4.3.4.4.4.3.3.3.3.3.9.3.3.>.>.-.-.>.>.3.3.3.4.4.4.0.4.4.i.4.s.4.4.i.4.4.4.4.4.4.4.r.r.4.4.4.y.s.4.4.d.4.4.4.s.4.i.4.d.4.s.4.i.s.4.4.4.4.4.4.i.r.4.4.s.4.4.0.r.4.4.:.:.i.4.4.4.4.r.4.s.4.4.r.4.4.r.4.s.4.4.4.r.4.4.4.4.4.4.4.:.:.:.:.:.4.4.4.1.3.[ 4.3.[ 3.3.3.2.3.2.3.2.%.2.%.%.%.&.*.3.&.&.*.1.1.2.2.3.3.3.4.4.4.4.4.4.4.g.4.4.4.4.4.4.4.4.4.",
"3.0.0.3.3.3.3.3.3.3.3.3.3.3.0.r.r.0.r.e.e.e.e.0.e.y.e.0.e.e.e.0.4.e.0.4.3.3.3.3.2.3.4.e.0.r.e.e.r.r.r.i.4.i.r.r.r.r.4.r.r.4.r.4.4.e.9.9.e.9.3.0.4.4.0.4.4.0.4.r.r.r.4.r.e.r.4.r.r.r.i.i.r.4.r.4.a.4.i.4.4.4.4.a.4.s.4.4.4.d.4.4.4.4.4.3.3.3.%.:.3.4.4.a.4.4.3.3.4.&.[ [ %.3.3.3.r.r.r.r.u.r.u.u.i.4.i.4.4.i.r.i.4.r.r.4.e.3.3.&.| | *.3.9.e.e.e.3.3.3.2.2.:.:.&.&.+.+.| | | | | %.2.2.2.1.4.3.4.4.4.4.4.4.4.4.4.4.:.3.:.3.3.3.3.2.2.%.%.2.4.3.3.3.3.4.4.4.4.4.3.[ L [ [ [ [ 3.i.4.4.4.4.4.4.4.4.4.4.4.4.4.4.1.4.4.4.4.4.4.4.4.4.4.4.4.4.4.4.4.4.*.*.%.%.*.*.%.*.*.*.*.*.*.4.4.4.4.4.4.4.4.4.4.4.4.4.4.3.4.3.4.3.4.4.4.3.4.4.3.4.4.4.4.4.4.4.4.4.4.4.3.4.4.4.3.3.4.1.4.1.4.1.3.3.3.4.4.4.4.4.4.4.4.4.4.4.4.1.4.4.3.4.3.4.3.4.4.4.3.3.3.3.3.>.>.>.>.:.>.>.3.3.e.3.4.4.4.s.4.4.i.4.4.4.4.4.4.4.4.4.4.e.4.4.r.y.4.4.4.4.4.4.s.4.4.4.4.4.4.4.4.4.i.4.4.4.s.4.a.4.i.4.4.4.4.4.r.4.4.4.4.4.4.*.:.4.s.i.i.4.i.4.4.i.r.r.4.4.r.4.4.r.4.4.4.4.4.4.4.4.:.4.3.:.:.:.:.:.:.*.1.3.3.3.1.3.[ 3.3.%.3.3.%.2.%.2.*.3.*.*.%.&.&.&.1.4.2.3.3.3.4.4.4.4.4.4.z.4.4.4.4.4.4.4.4.4.4.4.",
"e.0.3.3.3.3.2.3.3.3.3.0.e.e.r.r.0.4.e.e.e.r.e.e.y.e.e.r.e.e.e.e.0.e.e.9.3.3.3.3.3.3.0.0.e.e.e.e.4.4.r.4.r.r.4.r.r.4.4.r.4.4.r.r.e.4.0.3.9.3.3.e.4.0.y.0.0.4.y.4.r.4.4.r.r.e.r.r.4.i.r.4.4.i.r.r.4.a.4.4.4.d.a.4.d.4.4.d.4.s.4.4.4.4.:.3.3.3.3.%.3.4.4.4.4.4.4.d.4.2.| | 3.3.4.4.u.p.a.r.u.p.i.i.i.4.i.i.i.4.r.4.e.e.0.e.r.e.3.2.&.*.3.-.*.+.| | | | | +.*.*.&.| | | +.%.&.@.&.*.2.3.4.3.s.3.4.4.4.4.4.4.4.4.4.4.4.4.4.4.3.4.:.3.%.3.3.%.3.3.4.4.4.3.:.3.4.:.&.&.[ %.[ [ %.L [ u.4.4.4.4.4.4.4.4.4.4.4.4.4.4.4.4.4.u.4.4.4.4.4.4.4.4.4.4.1.*.*.4.*.*.1.*.*.*.*.*.*.*.1.4.1.4.4.1.4.1.4.4.4.4.1.4.4.4.4.3.4.4.3.4.4.3.3.3.4.3.4.3.4.3.3.4.4.3.4.3.3.3.4.4.3.4.3.3.4.4.4.4.4.4.4.4.3.3.3.4.4.4.4.4.4.4.4.4.4.4.4.4.4.3.4.4.3.4.4.4.3.9.3.3.3.>.>.>.:.*.*.>.>.3.9.4.4.4.4.4.s.4.4.0.s.4.4.4.4.4.4.4.e.r.4.r.4.4.4.0.4.4.4.s.4.4.4.4.4.s.4.4.4.i.4.i.4.4.s.4.s.4.4.4.r.4.4.r.4.4.4.4.4.4.4.4.4.4.4.i.i.4.i.4.r.r.4.r.4.i.r.4.r.4.r.4.4.4.4.4.4.1.4.*.*.:.:.:.:.*.:.:.L 3.3.3.[ 3.3.3.2.2.3.%.3.2.*.*.*.:.*.%.%.:.2.:.1.4.1.4.4.4.4.4.s.4.4.z.4.4.4.4.4.4.4.g.4.4.4.4.",
"0.4.0.3.3.3.3.2.3.e.4.e.e.e.e.e.e.e.0.e.e.0.r.e.r.0.e.e.e.0.r.e.e.e.e.4.3.3.4.e.3.3.9.r.e.e.0.r.r.r.r.r.4.i.4.r.r.4.r.4.4.r.4.4.4.0.e.3.0.e.9.e.0.4.4.4.0.y.4.y.r.4.r.r.4.r.e.r.4.r.r.i.4.r.i.4.4.4.4.d.4.4.i.i.4.4.d.4.4.4.4.4.4.4.4.:.4.:.3.%.%.3.3.{ %.3.4.4.2.&.&.3.3.%.3.4.y.p.p.r.a.p.i.i.i.i.h.4.i.i.i.i.r.e.e.4.r.0.3.-.3.3.e.3.-.&.&.&.+.+.| | | [ ` _ | | &.*.*.*.*.2.2.3.4.s.4.4.s.4.4.4.4.4.4.4.4.z.4.4.4.4.3.:.:.%.3.%.%.3.%.%.3.3.3.:.%.%.%.%.%.&.4.4.4.3.3.[ [ 4.4.4.4.4.3.3.4.i.4.4.4.4.4.4.4.4.4.4.4.u.4.u.4.4.4.1.4.4.4.*.*.*.4.*.*.1.*.*.*.*.*.4.4.*.4.*.4.4.4.4.4.4.4.4.4.4.3.3.4.4.3.4.4.3.4.4.3.4.4.3.4.4.4.4.4.3.4.3.4.4.4.3.4.3.3.3.3.3.1.4.4.1.4.1.4.4.4.4.3.4.4.4.4.4.3.4.4.4.4.4.4.4.4.4.4.3.4.4.3.3.3.3.3.3.>.>.>.>.:.>.*.-.3.3.e.3.y.r.4.4.4.4.0.4.4.4.4.4.4.4.s.4.r.4.r.e.4.s.4.4.4.4.4.4.4.4.4.g.4.4.4.s.4.4.4.4.4.i.4.4.4.4.4.4.4.4.4.4.4.4.4.4.4.4.4.4.4.4.r.4.4.i.s.4.4.4.r.4.4.r.4.r.r.r.4.r.i.4.4.4.4.:.:.4.:.3.3.:.:.*.*.4.3.3.[ 3.3.3.3.3.3.%.2.%.2.%.*.*.%.*.*.| %.2.4.3.4.4.4.4.3.4.4.4.4.4.4.4.4.4.s.4.g.4.4.4.4.4.s.4.",
"9.8.9.3.9.8.3.3.3.e.0.e.e.4.r.4.r.r.e.e.r.0.e.e.r.e.r.e.e.e.r.0.r.e.0.3.4.3.3.e.3.3.e.e.r.0.e.e.4.r.4.r.i.i.r.4.r.4.r.4.4.e.4.4.e.4.e.e.0.e.0.3.0.4.0.4.4.y.0.4.r.r.4.4.4.r.r.r.r.r.4.r.r.r.4.r.4.i.4.s.a.4.i.4.4.4.d.4.4.4.j.4.4.4.4.4.4.3.3.%.%.%.%.%.2.3.3.[ ` | 3.3.3.3.4.d.p.a.r.y.i.i.a.i.d.4.4.j.i.4.i.4.r.r.4.0.e.e.3.-.e.9.3.3.2.-.2.3.3.2.&.&.@.&.&.&.2.*.*.*.2.%.2.&.%.3.4.4.4.4.s.3.s.4.4.4.4.4.4.4.4.4.4.4.4.4.3.[ %.3.[ [ | | %.&.*.*.%.;.*.%.:.4.[ 4.4.3.4.[ [ [ 4.4.4.3.[ [ 3.4.3.4.4.3.4.4.4.4.4.4.4.4.4.4.4.4.4.4.4.4.4.1.*.4.*.*.*.4.*.*.*.4.1.4.4.4.*.*.*.4.4.*.4.4.*.4.4.4.4.4.3.4.4.3.4.4.3.4.4.3.4.4.3.4.3.4.4.3.4.4.3.4.4.4.4.3.4.3.4.3.4.:.1.4.:.4.4.4.3.4.4.4.4.4.4.4.4.4.4.4.3.4.4.4.3.4.3.4.4.3.4.4.3.3.9.3.3.>.>.>.-.:.:.-.3.3.4.4.4.4.4.4.4.4.4.4.4.4.3.3.4.4.4.4.4.d.4.4.4.s.4.4.4.4.4.4.4.4.4.4.4.4.4.i.4.4.4.4.4.0.4.4.4.4.4.4.4.4.4.4.4.4.4.4.4.4.4.4.*.4.i.r.i.4.r.4.r.4.r.4.4.r.r.r.r.r.4.i.4.s.4.4.4.:.:.:.:.:.4.:.*.:.:.:.1.3.[ 3.3.[ 2.2.3.%.2.%.*.&.*.*.-.3.-.&.*.4.4.4.1.4.4.4.4.4.4.s.4.s.4.4.4.4.4.4.4.4.4.4.4.4.s.4.",
"9.9.9.3.9.9.9.0.0.3.3.e.e.r.r.s.e.e.0.r.e.e.e.e.r.e.0.e.0.e.4.0.r.e.4.0.e.0.e.3.3.e.0.e.e.e.e.e.r.r.i.i.r.4.r.r.4.r.4.r.e.4.r.e.0.0.e.0.e.4.3.0.3.0.4.0.0.4.0.r.4.4.r.e.r.r.4.r.r.4.r.r.4.r.i.i.i.4.4.4.4.d.i.i.d.4.4.4.d.4.4.i.i.4.i.4.4.4.3.3.4.3.%.:.4.2.%.%.2.3.4.4.4.r.d.i.r.p.r.u.i.i.i.i.4.d.j.4.i.s.i.i.r.e.e.r.e.3.3.3.e.9.3.2.-.-.*.:.=.*.&.&.2.3.r.r.4.3.3.2.3.3.:.&.3.3.4.3.1.4.3.3.4.4.d.d.z.4.z.4.4.4.u.4.4.%.3.3.[ [ [ 3.%.%.| %.%.%.*.:.;.*.&.,.4.4.3.%.3.3.3.[ [ 3.3.3.[ 3.[ [ 3.4.4.4.4.4.4.4.u.4.4.4.4.4.4.4.4.1.4.4.*.4.4.1.*.4.4.4.4.4.1.4.4.4.4.1.1.4.4.4.4.4.4.4.4.4.4.4.4.3.4.4.4.4.3.4.3.4.4.3.4.3.4.4.3.4.4.3.4.3.4.4.4.4.3.4.3.4.4.3.1.4.4.:.1.3.1.4.3.3.3.4.4.4.4.4.4.4.4.4.4.4.4.4.3.4.4.4.4.4.3.4.3.3.3.3.3.3.>.3.>.-.:.*.>.3.9.3.4.4.4.4.0.4.4.4.4.4.3.3.3.3.4.4.4.4.4.4.4.4.4.4.4.4.4.4.4.4.4.4.4.4.4.4.4.4.4.s.4.4.4.4.4.4.4.4.s.4.r.r.r.s.4.4.4.4.4.4.[ %.4.s.i.i.r.r.4.r.4.r.r.4.4.i.r.4.s.4.4.4.4.4.:.4.:.:.:.:.*.:.*.:.*.4.3.3.3.3.3.2.2.3.3.3.%.3.2.*.2.3.3.e.3.3.2.4.e.4.s.4.4.4.4.4.4.4.4.4.4.4.s.4.4.4.4.4.4.4.4.4.4.4.",
"9.0.3.0.3.0.0.3.4.0.4.0.r.r.r.r.r.e.e.e.e.r.r.e.e.e.e.e.0.e.e.4.e.e.e.3.e.e.e.3.e.e.e.e.r.e.r.e.r.4.r.4.r.i.r.4.4.r.r.4.e.e.4.e.0.e.0.4.e.0.0.3.0.3.0.4.4.0.4.0.e.r.r.4.r.r.r.4.r.r.4.r.4.i.i.4.i.4.i.i.4.4.4.i.j.4.4.4.4.4.i.4.i.4.i.4.4.4.4.4.4.4.%.3.3.%.%.3.0.r.r.4.0.r.r.r.y.r.p.r.4.a.a.4.d.4.4.j.d.4.s.4.r.e.e.r.e.9.3.3.e.3.3.9.0.e.r.r.3.3.3.2.3.3.3.2.4.4.4.4.3.3.3.&.2.2.3.2.4.4.4.4.4.4.d.4.z.4.4.4.4.4.4.4.%.%.3.%.2.[ [ 2.*.%.%.%.%.:.:.:.*.*.;.;.3.%.%.3.[ 4.3.%.4.[ [ [ [ 3.[ 2.3.3.3.4.4.4.4.4.,.4.4.4.4.4.4.3.4.4.1.*.*.*.4.4.4.4.*.*.1.4.*.*.1.4.1.4.4.4.*.1.4.1.4.4.4.4.*.4.4.4.3.3.3.3.4.4.4.4.4.4.4.4.3.3.4.4.4.4.4.4.3.3.4.3.4.3.4.4.3.4.4.4.1.4.4.:.4.4.4.3.4.4.4.4.4.4.4.4.4.4.4.4.1.4.4.4.4.3.3.3.4.4.3.3.4.3.3.3.3.>.>.-.>.>.>.3.3.3.4.4.y.4.4.4.4.4.4.4.4.3.3.4.4.4.4.4.4.4.4.4.4.4.4.4.4.4.4.4.s.4.4.4.4.4.4.s.4.4.s.4.4.4.4.4.4.4.4.r.r.4.r.4.s.4.4.4.4.z.4.[ [ 4.s.4.r.4.4.r.r.r.r.r.4.r.r.4.4.4.4.4.4.4.:.:.:.*.4.*.*.:.:.:.:.:.[ 3.3.2.3.3.3.2.3.[ 3.2.*.%.2.4.4.e.4.0.4.4.4.4.4.4.4.4.4.s.4.4.s.4.s.4.4.4.4.4.4.4.4.4.4.4.4.4.",
"9.0.0.0.e.e.3.0.0.r.r.r.r.e.e.e.e.0.r.r.0.r.e.r.e.0.4.e.3.e.4.0.e.e.9.0.e.e.9.0.r.e.e.e.r.r.e.e.r.r.i.4.r.4.r.r.r.r.4.r.r.4.r.4.3.3.3.0.e.3.3.3.9.e.4.0.4.0.4.r.4.r.4.r.r.4.4.4.r.r.r.4.r.4.r.i.4.s.4.4.a.s.i.4.4.4.j.4.4.4.i.4.4.i.4.4.4.4.4.3.3.4.4.3.3.4.4.4.4.4.4.e.r.r.r.d.p.p.r.a.a.d.4.d.j.4.s.i.i.a.i.4.e.e.r.r.e.3.3.3.e.e.0.e.r.0.r.e.4.0.4.4.0.4.3.2.2.3.4.4.3.&.&.:.3.3.3.2.1.4.4.4.4.4.4.4.4.4.4.4.4.4.4.4.%.%.L 3.[ [ [ L %.%.*.%.*.:.:.&.*.>.>.>.%.3.4.4.[ 3.3.3.4.3.3.4.3.3.[ 3.[ 2.3.4.4.4.4.4.,.4.4.4.4.4.4.3.4.4.*.*.4.4.4.*.4.*.4.1.4.*.4.4.4.4.4.4.*.4.4.4.4.4.4.4.4.4.4.4.3.4.4.4.4.4.4.3.4.3.3.4.3.4.4.4.4.3.3.4.3.4.4.4.4.4.3.4.3.4.4.3.:.4.4.:.4.3.4.4.3.4.4.3.4.4.4.4.4.4.4.4.4.4.4.4.4.3.3.4.4.4.4.3.3.3.3.9.3.3.3.9.3.>.-.>.3.3.3.3.4.4.4.4.4.4.4.4.4.4.3.3.3.4.4.4.4.4.4.4.4.4.4.4.4.4.4.4.4.4.4.4.4.4.4.4.4.i.4.4.4.4.4.4.3.4.4.4.r.4.4.r.4.4.4.4.4.4.4.4.i.:.*.4.i.i.r.i.4.4.r.4.4.4.r.r.4.r.s.4.i.4.4.4.4.*.4.*.4.4.*.*.4.*.4.:.3.3.3.3.3.3.3.3.3.2.3.3.2.&.:.4.2.3.3.4.0.0.4.r.4.4.s.4.4.4.4.4.4.4.4.4.4.4.4.4.4.g.s.4.4.4.s.4.",
"0.9.0.9.0.9.e.0.e.0.r.0.y.r.e.r.r.4.e.e.r.r.r.r.4.r.4.r.r.4.4.r.3.4.9.4.e.9.e.9.4.s.4.s.4.d.r.r.y.r.4.r.4.i.4.4.i.r.r.4.4.4.4.4.e.e.e.e.0.0.3.4.0.3.e.0.4.r.0.0.4.r.r.4.4.4.4.r.d.4.4.4.4.d.4.d.4.4.4.a.j.4.4.4.j.4.i.4.4.a.4.4.s.4.4.i.4.4.4.4.4.4.s.4.4.d.4.4.d.s.4.d.a.r.r.r.a.r.p.a.r.r.p.a.4.d.4.d.4.d.i.i.4.i.i.i.4.4.4.4.4.4.4.4.0.s.4.4.4.z.4.4.4.4.4.4.4.4.4.4.4.1.4.4.4.1.3.3.3.3.3.3.4.4.4.4.i.i.4.4.s.4.[ *.%.%.[ %.| %.| | %.%.*.%.3.2.[ 3.3.1.[ 3.3.3.3.3.3.[ 4.3.3.3.3.%.3.%.3.%.[ 3.3.3.[ 3.[ 3.3.4.4.4.3.4.3.3.%.3.%.3.3.3.%.3.3.3.3.3.3.2.3.3.4.3.3.3.4.4.4.4.3.3.3.3.3.4.4.4.3.4.4.4.4.3.4.3.4.3.3.4.3.4.4.4.4.4.4.3.4.3.3.4.4.4.4.3.4.3.4.4.3.3.3.3.4.3.3.3.e.>.e.,.4.7.>.e.4.4.4.3.4.4.4.3.3.4.4.4.4.4.4.3.3.3.3.3.3.>.>.2.3.3.3.2.2.2.9.9.9.e.e.3.4.4.3.3.4.3.3.3.3.4.4.4.4.4.4.4.4.4.4.4.4.3.e.3.e.e.3.e.e.4.4.e.4.4.4.4.0.4.4.4.4.4.4.4.4.4.4.s.4.4.4.4.4.4.4.z.4.*.4.4.4.s.i.4.4.4.i.4.4.4.4.s.4.s.4.4.s.4.4.*.4.*.:.*.*.4.:.:.*.*.*.:.*.4.4.:.4.4.4.:.1.4.:.*.1.4.4.4.4.4.4.4.4.s.4.4.4.y.4.4.4.4.4.4.4.4.4.4.4.0.4.0.4.3.0.4.3.0.4.9.",
"9.0.9.0.0.0.0.e.e.e.e.r.e.y.e.0.r.r.r.r.r.r.4.r.r.r.4.r.4.r.r.4.3.0.9.e.9.e.e.e.s.4.s.4.4.4.4.y.4.r.4.r.r.r.r.r.4.r.r.4.r.4.4.4.9.e.e.e.e.4.0.e.4.e.e.4.e.0.e.e.r.4.4.r.r.r.r.r.4.d.4.d.4.4.4.s.4.j.a.4.4.4.j.4.4.a.4.4.a.4.4.a.4.r.i.4.4.s.4.4.4.4.4.j.d.4.d.4.4.4.d.4.r.a.y.p.a.p.y.r.u.a.y.r.d.4.z.4.d.4.i.d.d.4.4.4.:.*.:.4.4.4.4.r.0.4.4.0.4.4.4.1.4.1.s.4.4.s.4.4.4.4.4.4.4.4.3.3.3.3.4.3.4.4.4.i.i.4.4.4.*.4.[ %.%.*.%.%.| | | | *.| 1.*.[ 3.3.[ 3.[ 3.3.[ 3.3.[ 3.3.3.3.%.3.3.%.[ 3.%.3.3.[ 3.3.3.3.3.3.[ 4.4.4.3.3.3.[ 3.%.3.3.%.3.3.3.3.3.[ 3.[ 3.3.3.3.3.3.4.4.4.4.4.3.3.3.3.3.4.3.3.3.4.3.4.4.4.4.3.4.4.4.4.4.4.3.3.3.3.4.4.4.4.4.4.3.3.4.4.4.4.4.>.4.3.4.4.3.4.4.3.>.e.,.e.7.e.7.4.4.4.4.4.4.>.4.4.4.4.4.4.3.3.4.4.3.9.3.3.3.3.>.3.2.3.3.-.-.2.9.9.9.4.0.3.0.0.4.3.4.3.3.3.3.2.4.0.4.4.4.4.4.4.4.4.4.3.3.e.9.3.e.3.e.4.4.4.4.4.4.4.4.4.4.r.4.4.4.4.4.4.4.4.4.4.4.4.4.s.4.4.4.4.4.4.4.4.4.4.4.4.4.4.4.4.4.4.4.4.4.4.4.1.:.:.*.*.4.*.*.*.:.:.:.4.1.4.*.4.*.1.1.*.:.4.4.*.4.4.4.4.4.4.4.4.4.4.4.4.4.4.4.y.4.4.4.4.4.4.2.0.4.w.0.4.4.4.4.0.3.0.0.9.9.9.",
"9.0.0.0.9.e.e.e.0.e.e.t.r.r.r.e.r.r.r.e.r.r.r.r.r.e.r.e.r.4.4.0.0.9.e.9.e.e.e.9.4.s.4.s.i.i.4.r.r.r.r.r.4.i.r.i.r.4.r.r.4.r.r.r.e.0.3.e.e.e.e.r.e.0.e.e.4.e.0.r.e.r.e.4.r.r.4.r.4.4.s.4.4.4.4.4.4.a.4.4.4.a.4.4.j.a.4.i.4.d.j.4.4.i.r.r.d.4.s.4.4.4.4.d.d.4.4.d.4.s.4.d.a.i.r.i.r.r.y.a.r.a.p.a.i.d.d.4.4.4.d.4.d.s.s.4.4.1.4.r.4.4.0.4.4.4.r.r.z.4.4.1.4.4.4.4.4.s.4.4.4.4.4.4.1.4.1.3.3.4.4.4.i.4.4.i.4.4.4.4.*.4.%.%.%.*.%.%.| [ %.%.%.%.%.*.3.[ 3.[ [ [ 3.3.3.[ 3.3.3.3.3.3.3.3.%.3.[ 3.3.3.3.3.3.3.[ 3.3.3.L 2.4.4.3.[ [ 3.3.3.%.3.3.3.3.3.%.3.3.%.3.3.3.3.3.4.4.3.4.4.4.4.3.4.3.4.4.4.4.4.4.3.4.4.4.4.4.4.3.4.4.3.4.3.4.4.4.4.3.4.3.4.3.3.4.4.3.4.3.4.4.4.4.4.3.4.4.4.4.4.e.e.e.>.3.e.7.7.4.4.4.4.4.3.3.4.4.3.4.:.4.4.3.4.3.9.3.3.3.3.3.3.:.3.3.2.-.3.3.9.9.e.4.0.3.4.4.0.3.4.3.3.2.3.4.4.4.s.4.4.4.4.4.1.3.9.9.3.3.3.4.4.0.4.4.4.4.4.4.4.s.4.4.4.4.4.4.4.4.s.4.4.4.4.4.4.s.4.4.4.4.4.4.4.4.s.4.4.4.4.4.4.4.4.4.4.4.4.4.4.*.*.*.*.:.4.4.*.4.*.*.:.4.*.:.:.*.1.1.4.4.4.*.*.*.%.:.4.4.4.4.4.4.4.4.s.4.s.4.s.4.4.4.4.3.4.4.4.4.4.4.4.4.0.4.4.0.4.0.3.4.0.0.0.",
"0.9.0.0.0.e.0.0.e.e.e.t.0.y.e.r.r.r.e.r.4.i.4.u.4.r.4.r.4.r.r.4.4.e.4.e.e.3.e.e.4.s.4.4.4.4.0.4.4.4.4.r.r.i.4.4.r.r.r.4.r.4.r.e.e.3.3.e.r.0.3.e.e.e.e.e.0.r.4.4.r.4.e.r.4.4.r.r.d.4.4.4.s.4.d.4.i.4.4.j.a.4.a.a.4.4.j.4.j.4.j.4.r.r.4.r.4.4.4.4.4.4.d.4.4.d.4.4.d.4.d.4.r.r.a.i.p.a.u.p.p.p.r.r.4.z.4.d.z.4.4.d.i.i.r.r.4.4.4.4.4.4.4.0.0.4.0.r.4.4.4.4.4.z.s.4.4.4.1.s.4.4.s.4.4.4.4.4.4.4.s.4.4.i.4.4.i.4.4.4.4.s.*.%.[ %.*.*.1.%.%.%.*.%.*.*.3.3.3.3.3.3.3.[ L 3.3.3.3.[ 3.3.%.3.3.[ 3.%.3.%.3.%.1.3.3.3.3.[ 3.3.3.3.%.3.3.3.3.3.3.3.3.3.4.%.3.3.3.3.3.3.3.3.4.4.4.4.4.4.4.4.:.%.3.4.4.3.3.4.4.4.3.4.3.4.3.4.3.4.4.3.4.4.3.e.4.3.4.4.3.4.e.4.4.3.4.4.3.4.3.4.4.3.4.4.4.4.4.4.e.,.4.9.,.7.e.>.4.4.4.4.4.4.4.4.4.4.4.3.4.3.4.4.4.9.3.9.3.3.3.3.3.3.3.:.-.2.2.3.9.e.e.4.3.0.4.4.4.3.3.3.3.3.4.2.4.4.4.4.1.4.4.s.3.4.3.4.3.4.9.4.4.4.r.4.4.4.4.4.4.4.4.4.4.4.4.4.4.4.4.4.4.z.4.4.4.4.4.4.4.4.4.4.4.4.4.4.4.4.4.4.s.4.4.4.s.s.4.4.*.*.1.4.*.1.*.*.1.*.:.:.1.*.4.:.4.:.4.4.:.4.1.*.4.%.4.4.4.4.4.4.4.4.4.4.4.4.4.4.r.4.4.3.4.4.4.4.4.4.w.4.0.4.4.4.4.0.0.4.0.0.4.0.",
"9.e.0.0.e.0.0.e.0.e.0.r.r.y.0.e.r.e.e.e.r.r.r.e.4.r.e.e.r.e.r.4.e.e.9.e.9.e.>.e.4.s.4.1.s.4.4.4.4.r.r.y.4.r.i.r.4.r.4.r.r.r.r.4.e.-.*.3.e.3.3.e.e.r.e.e.r.0.r.0.4.r.4.r.r.r.r.4.4.d.4.4.4.4.4.d.4.a.4.i.4.i.4.a.4.4.4.j.4.a.4.4.r.4.4.4.4.e.e.e.d.4.j.4.4.d.4.d.4.d.r.r.i.i.i.i.r.a.r.a.a.r.y.u.z.4.4.i.z.4.4.4.4.r.d.i.4.i.4.4.3.4.4.4.0.4.i.4.4.4.4.z.4.z.4.4.4.s.1.4.4.4.s.1.3.2.4.4.3.4.4.s.4.4.4.4.4.4.4.s.4.s.%.[ | 1.4.*.*.*.*.%.%.%.1.:.[ 3.3.[ 3.3.3.3.2.3.3.3.[ 3.3.[ %.2.%.2.[ 3.%.2.3.3.3.3.3.3.%.1.4.3.[ 3.3.3.3.3.%.3.3.3.3.%.4.3.3.3.3.3.3.3.3.3.3.3.4.4.4.4.4.4.:.4.4.4.4.4.4.4.3.4.4.3.3.4.4.4.4.4.4.3.3.4.4.>.4.4.3.4.4.4.3.3.4.4.3.4.4.3.4.4.4.4.3.4.4.4.4.4.>.e.>.e.4.7.e.e.4.4.4.3.4.,.3.3.3.3.4.4.4.:.4.4.3.e.3.3.3.4.3.9.2.3.2.-.-.3.3.3.9.9.3.e.4.4.4.3.4.4.3.3.4.4.2.4.4.4.3.3.4.4.4.4.3.9.3.3.3.3.9.4.4.4.r.4.4.4.4.y.4.4.4.4.0.4.4.4.4.4.4.4.4.4.4.4.4.4.4.4.4.4.4.4.4.4.4.4.4.4.4.s.4.4.4.s.4.4.4.*.*.:.*.4.*.1.:.4.:.*.*.*.*.*.*.:.4.:.1.:.*.3.4.:.1.%.4.s.4.4.4.4.4.4.4.4.i.4.s.4.4.4.4.4.3.4.e.4.4.w.4.w.4.4.0.s.0.e.e.9.0.e.e.0.",
"0.0.e.0.e.e.y.e.e.e.e.r.r.e.y.e.r.r.r.e.r.r.r.e.4.r.r.e.e.e.e.e.3.9.9.e.9.e.9.e.4.4.4.s.4.4.s.4.4.4.4.4.r.4.4.r.4.r.4.4.4.4.r.4.3.3.>.3.0.0.e.e.e.e.e.0.0.4.4.e.4.4.r.4.4.r.r.i.4.4.4.d.s.d.4.4.i.4.i.i.i.i.j.4.4.4.d.4.d.4.4.j.u.r.4.4.4.4.e.e.4.s.4.4.4.4.4.d.a.4.i.i.r.a.r.a.p.p.r.p.r.a.a.p.4.4.z.4.4.4.z.z.i.r.r.4.4.i.4.4.3.3.1.4.4.s.s.4.z.4.4.4.4.4.4.4.4.4.s.4.4.4.4.4.4.s.4.4.4.4.3.3.4.4.s.4.i.4.4.4.4.4.%.%.%.*.*.:.*.*.*.%.*.*.*.:.2.3.3.3.3.3.[ [ [ [ 3.3.3.[ 3.[ 3.%.3.%.3.3.3.%.3.[ 3.[ 3.3.3.3.3.3.3.3.3.3.3.3.3.3.3.3.3.3.3.3.%.3.3.%.3.3.3.3.4.4.4.3.4.4.4.4.4.4.4.4.4.4.4.4.4.4.4.3.4.4.3.4.4.3.4.4.4.3.3.e.3.4.3.4.3.4.4.4.3.4.3.4.4.3.4.3.3.4.3.4.4.4.4.4.e.,.e.4.,.e.6.,.4.4.4.4.4.4.4.4.4.4.4.3.4.3.4.4.4.3.4.3.3.3.3.3.3.3.3.-.-.-.3.3.9.e.e.9.0.3.3.0.0.3.3.3.2.4.4.4.4.4.3.s.4.4.s.4.e.3.4.3.4.e.3.0.4.4.4.4.4.4.4.4.4.4.s.i.4.0.4.s.4.4.4.4.4.4.4.z.z.4.4.s.z.4.4.4.4.4.4.4.4.4.4.4.4.4.4.4.4.*.*.*.:.4.*.4.4.*.:.*.1.:.:.:.*.4.4.4.:.:.*.*.*.4.*.*.:.%.4.4.4.4.s.4.4.i.4.s.4.4.4.i.r.4.r.4.4.4.4.e.4.4.4.4.4.0.4.4.e.e.0.0.0.3.e.0.",
"e.e.9.e.0.e.e.0.e.e.r.r.r.r.e.r.r.e.e.e.e.r.0.e.r.e.r.e.r.4.e.4.9.3.9.3.9.9.9.e.s.4.4.s.s.4.1.s.r.r.4.r.r.r.r.r.r.r.4.r.r.4.4.r.0.3.3.3.4.e.r.r.0.4.e.r.4.4.r.4.r.4.4.r.r.4.r.r.4.z.4.d.4.4.4.4.i.i.4.4.i.i.i.s.j.4.4.j.4.d.4.j.r.4.4.r.e.u.e.e.4.4.d.4.d.4.s.4.a.a.4.i.r.r.a.r.a.r.r.y.a.u.r.y.i.z.4.z.d.4.4.4.i.i.i.i.i.s.4.4.1.4.4.4.4.4.4.4.4.4.4.z.4.s.4.4.4.4.4.4.4.4.4.4.4.4.4.4.4.4.4.4.4.s.i.4.4.4.4.4.4.4.*.4.:.:.*.*.*.*.1.:.:.*.*.*.[ 3.%.3.1.%.3.L [ 3.3.3.3.[ 3.3.%.3.%.3.%.3.3.%.3.3.%.3.%.3.3.3.3.3.3.3.[ 3.3.3.3.:.3.3.3.3.3.%.3.3.3.3.3.3.4.4.4.4.4.4.4.4.4.4.4.4.4.4.4.4.4.4.4.3.3.3.4.4.4.4.3.4.4.4.4.4.4.4.4.4.4.4.4.4.4.4.4.3.4.4.4.4.3.4.4.4.4.4.4.4.3.4.>.e.>.e.7.6.e.,.4.4.4.4.4.4.4.4.4.4.4.3.4.4.4.4.4.3.3.4.3.3.3.3.3.3.:.-.*.3.3.9.9.e.3.0.0.4.3.4.0.4.4.4.2.4.4.4.4.4.4.4.4.4.4.4.e.3.3.3.3.3.4.e.4.4.4.4.4.0.4.4.r.4.4.4.4.i.4.4.4.4.4.4.4.s.4.4.4.4.4.4.4.4.*.4.4.4.4.4.4.4.4.4.4.4.4.4.1.:.*.4.4.*.4.*.*.*.*.*.4.*.4.1.:.*.*.4.1.:.*.*.*.3.*.*.*.*.4.4.4.4.4.4.s.4.4.4.4.4.i.4.4.r.r.4.e.e.e.e.w.4.4.w.4.2.0.0.0.e.e.0.9.0.0.e.",
"e.0.e.e.e.e.y.e.e.r.e.r.r.r.r.e.r.e.e.0.a.e.a.e.e.e.e.e.e.0.0.4.3.3.3.9.3.9.3.9.1.4.4.4.4.4.s.4.4.4.y.4.r.4.r.4.r.r.r.r.r.r.4.0.e.e.e.3.3.3.3.3.e.0.e.4.e.e.4.0.r.r.4.r.r.r.i.i.4.z.4.4.4.d.d.4.4.i.i.i.4.i.i.i.4.z.j.4.d.4.j.4.r.r.i.r.i.u.e.e.d.4.4.d.4.d.4.j.4.d.a.i.r.i.r.a.u.y.a.p.r.r.a.p.4.z.4.4.z.4.z.4.i.r.s.4.i.i.4.4.%.4.4.4.i.4.s.4.4.4.4.4.4.4.4.4.4.4.4.4.4.4.4.4.4.4.4.4.4.4.4.4.4.i.4.i.4.4.4.4.4.4.%.:.*.:.*.1.*.*.:.:.4.*.*.*.3.[ 3.[ 3.3.3.[ 2.L L 3.3.3.3.3.%.3.3.%.2.%.3.3.[ 3.3.3.3.3.3.3.3.3.2.2.3.3.3.[ 3.3.3.:.3.3.3.3.3.%.3.3.3.4.4.4.4.4.4.4.4.4.4.:.4.4.4.:.4.4.4.4.4.4.4.3.>.4.3.4.4.4.,.4.4.,.4.4.4.4.4.4.3.4.4.4.4.4.4.3.3.,.4.4.3.3.4.3.>.4.4.,.e.4.4.7.e.7.>.e.4.4.4.4.4.4.3.4.4.:.4.4.3.4.4.4.3.3.4.3.3.3.3.3.3.3.3.-.-.-.9.9.9.e.4.3.4.4.0.4.4.0.4.0.4.4.4.2.4.4.4.4.4.4.4.1.3.3.3.3.3.3.3.4.4.4.4.4.4.4.4.y.r.4.4.4.s.4.4.i.4.4.4.4.4.4.4.s.4.4.4.4.4.4.4.*.4.4.4.4.4.4.4.4.4.4.1.4.:.:.*.*.:.4.*.*.*.*.*.4.*.4.:.:.4.4.4.1.4.4.:.*.1.:.1.*.*.4.4.4.4.4.4.4.4.4.4.4.4.4.i.4.r.r.e.e.e.e.4.e.4.0.4.4.4.0.0.0.e.9.9.0.e.9.0.0.",
"0.e.e.e.e.0.e.e.r.0.r.r.r.r.r.r.e.r.0.e.y.r.e.e.r.4.0.r.e.0.r.e.e.9.3.3.3.3.3.3.4.4.4.4.4.s.4.4.4.r.r.r.4.r.4.r.4.4.4.4.4.4.r.4.0.3.e.3.3.3.3.0.4.4.e.4.0.4.3.3.4.4.s.i.4.s.4.d.4.d.4.d.4.4.d.d.4.j.4.4.4.4.j.4.4.d.4.d.4.d.4.d.r.r.r.r.r.r.r.t.r.r.r.r.r.i.r.a.p.r.a.p.p.u.a.r.y.u.r.a.y.r.p.a.d.4.d.4.4.d.4.d.4.z.4.4.4.4.4.4.4.4.4.4.4.4.4.4.4.4.4.4.4.4.4.4.4.4.4.4.4.4.4.4.4.4.4.4.4.4.4.4.4.4.i.4.i.4.4.4.4.*.*.*.*.*.*.1.*.*.:.4.4.*.*.%.3.*.3.%.%.3.[ 3.%.[ %.&.3.3.3.3.3.3.%.3.%.%.3.3.3.3.3.3.3.3.3.3.1.3.*.3.3.*.*.3.:.3.3.3.:.3.&.3.3.3.3.2.3.3.3.4.3.3.4.3.3.3.4.3.4.4.4.4.:.4.4.4.4.4.4.4.4.4.4.3.e.4.3.>.e.3.>.e.3.4.>.4.4.3.4.4.4.,.9.4.4.>.e.>.4.3.4.4.3.3.4.3.e.>.e.,.7.9.6.,.3.4.4.4.3.3.4.4.3.4.4.4.3.4.3.3.4.4.4.4.3.3.4.4.3.>.3.*.-.3.3.0.9.e.4.4.3.e.3.4.4.4.4.2.4.4.4.4.w.4.4.s.0.4.3.3.4.3.3.3.3.3.3.3.s.4.0.4.4.4.4.4.4.4.4.i.4.s.4.4.z.4.4.4.4.4.4.4.4.4.4.z.4.*.4.4.4.4.4.4.4.4.s.4.4.4.s.4.*.*.*.4.4.4.*.*.*.*.1.*.4.:.1.:.4.4.4.4.3.4.3.3.3.4.3.4.s.4.4.4.4.4.4.s.i.4.4.4.4.4.4.4.z.4.4.4.4.e.4.4.e.e.e.3.3.9.e.9.0.e.9.0.e.0.9.e.",
"e.e.0.0.e.r.e.e.r.e.4.r.r.r.i.4.y.r.e.e.r.0.e.0.e.0.e.e.e.0.4.4.9.e.3.3.2.3.3.3.4.4.4.4.4.4.4.4.r.4.4.4.r.r.r.r.4.r.s.4.i.4.4.4.r.e.0.4.e.3.e.0.0.0.4.0.4.e.e.0.4.r.i.4.d.4.d.4.d.4.j.4.z.4.4.4.4.4.4.4.4.4.4.4.d.4.j.4.z.4.d.4.r.p.r.u.r.r.r.r.u.r.r.r.i.r.r.i.a.a.r.r.a.y.r.a.a.u.p.r.u.a.y.r.4.d.4.d.d.4.4.z.4.4.4.z.4.z.4.4.4.4.4.4.4.4.4.z.4.4.4.4.4.4.4.4.4.4.4.4.4.4.4.4.4.4.4.4.4.s.4.4.s.4.4.4.4.4.4.4.4.4.*.*.*.%.%.%.*.*.*.*.*.*.3.%.*.*.1.*.3.%.1.%.%.%.%.2.%.3.:.&.3.%.3.3.3.3.%.3.%.1.%.3.3.3.3.3.4.3.4.*.*.*.3.*.3.3.3.:.3.:.3.3.3.3.3.3.3.3.4.[ 4.4.3.4.3.3.3.4.4.:.4.4.4.4.4.4.4.4.4.4.,.4.4.,.>.,.,.e.4.,.e.3.>.4.,.4.4.,.7.3.4.>.,.3.e.7.,.3.4.4.3.4.4.4.4.4.4.e.,.e.4.7.e.7.3.4.3.4.4.4.4.3.4.4.3.4.3.4.4.3.4.4.4.4.4.4.4.3.3.>.3.-.-.e.3.e.0.3.3.0.e.3.3.0.w.4.4.4.4.4.4.4.2.4.4.2.3.4.4.3.4.3.3.3.3.3.3.4.4.4.4.4.4.4.4.0.4.4.4.4.4.4.4.4.4.4.4.4.4.4.4.4.i.4.4.4.4.*.*.4.4.i.4.s.4.4.4.s.4.4.4.4.*.*.*.4.*.4.*.*.*.*.*.*.4.4.4.4.4.1.4.4.%.3.3.[ 3.4.4.3.4.4.4.4.4.4.4.4.4.4.4.4.4.4.4.4.4.4.4.4.r.4.e.4.9.e.e.3.9.9.e.e.0.e.e.0.0.e.e.0.",
"0.e.0.e.e.e.e.r.e.r.e.r.i.i.i.r.r.e.e.e.e.0.e.e.e.0.0.e.e.0.0.0.0.3.3.2.1.3.3.3.1.4.4.4.4.s.s.4.4.r.r.r.r.4.r.4.r.4.4.4.4.4.s.4.e.e.e.e.e.e.e.e.3.e.4.r.r.e.e.e.4.s.4.r.d.4.d.4.d.4.4.d.d.4.d.4.j.4.4.z.j.j.4.z.4.4.j.j.j.4.4.4.u.r.y.r.r.u.p.u.y.u.u.a.r.i.a.r.r.y.a.r.r.p.r.p.r.a.r.r.a.r.u.p.4.4.4.i.4.d.4.4.4.4.4.4.4.4.4.4.4.4.4.4.d.4.4.d.4.4.4.4.4.4.4.4.4.4.4.4.4.4.4.4.4.4.4.3.4.4.4.4.i.4.4.4.4.4.4.4.*.*.*.4.*.*.*.%.*.*.1.4.1.4.3.3.4.%.*.%.%.3.3.%.3.%.%.&.3.&.3.3.3.%.3.%.%.3.3.2.3.3.3.%.%.3.3.3.*.4.4.3.3.3.3.3.:.3.3.3.3.3.3.3.3.3.3.3.3.3.3.3.4.4.4.4.4.3.4.4.%.:.4.4.4.:.4.4.4.4.4.4.,.3.>.4.>.e.e.>.3.3.7.,.,.,.3.3.e.>.e.3.,.e.e.>.>.3.,.7.3.3.4.4.4.4.3.4.e.>.e.>.,.7.e.,.4.4.4.3.4.4.,.3.4.3.4.3.4.4.4.4.4.4.4.4.3.e.4.3.3.3.9.>.3.e.3.9.3.3.0.e.3.e.4.0.2.4.4.4.4.2.0.0.4.4.4.4.4.0.4.4.4.4.3.3.3.4.3.4.4.4.4.4.4.4.4.4.4.4.4.4.r.4.4.4.4.4.4.4.s.4.z.4.4.i.4.4.*.*.*.4.4.4.4.4.4.4.4.4.4.4.:.4.4.*.:.*.*.1.1.*.*.*.*.*.4.4.4.1.4.4.*.*.%.3.3.4.4.3.*.4.4.4.4.4.4.4.4.4.4.4.4.4.4.4.4.4.4.4.4.z.4.r.4.r.3.0.9.3.3.9.0.9.e.e.0.9.e.0.0.e.",
"0.e.e.e.r.e.e.e.e.r.r.r.4.4.i.r.0.y.e.0.y.r.r.0.e.e.e.0.4.4.4.0.0.3.3.3.3.3.3.2.4.4.4.1.1.4.4.4.4.r.4.r.r.i.r.4.4.r.i.r.i.r.4.4.e.4.0.0.e.r.e.r.e.e.4.0.e.0.0.e.4.4.i.4.4.4.4.d.4.d.d.4.4.z.4.d.j.z.4.j.z.4.z.4.z.j.d.4.4.z.4.j.r.u.r.p.u.t.u.y.y.u.r.r.a.i.i.i.p.u.p.y.r.a.r.a.y.p.p.a.r.a.p.r.d.j.4.i.d.4.4.4.4.4.4.4.4.4.4.4.z.4.4.4.4.4.4.4.z.4.4.4.4.4.4.4.4.4.4.3.4.4.4.4.4.4.4.s.s.4.4.s.4.4.4.i.s.4.4.4.*.*.*.4.4.4.4.4.:.:.:.4.3.3.4.1.3.4.*.4.3.%.3.3.3.3.3.&.&.3.%.3.%.3.%.3.3.%.3.%.%.3.3.3.3.3.3.3.4.4.4.:.4.1.3.*.3.3.3.3.3.3.3.3.3.3.3.3.3.2.3.3.4.4.4.3.4.4.4.3.4.3.3.3.4.4.4.4.4.4.4.4.4.4.,.4.,.e.>.e.,.4.3.4.4.4.4.,.>.,.e.4.9.,.e.,.e.,.4.3.4.4.4.3.4.4.4.4.4.7.4.e.e.6.>.e.4.3.3.e.3.3.4.4.4.3.4.4.4.3.3.4.4.4.4.,.4.3.4.4.3.3.4.>.>.9.3.9.4.e.4.3.e.3.e.4.4.w.4.4.0.4.4.4.4.4.w.4.4.0.3.3.4.0.4.0.3.0.e.9.4.4.4.4.4.4.4.4.4.s.4.4.4.4.4.r.s.4.4.4.4.4.4.4.4.4.4.4.*.*.4.4.i.4.i.4.4.4.4.4.s.4.4.*.*.:.:.1.*.*.*.*.4.*.*.*.*.*.4.4.4.:.*.*.3.1.3.4.1.%.%.4.4.4.4.4.4.4.4.4.4.s.4.4.4.4.4.4.4.4.4.4.r.4.i.4.3.3.e.9.9.e.e.e.e.0.e.0.0.e.9.0.",
"e.t.e.e.r.e.e.e.r.r.i.4.i.i.i.i.w.e.e.e.r.r.e.0.r.e.e.0.0.3.3.4.2.3.2.3.3.2.3.3.4.4.4.s.1.4.s.1.r.4.r.e.r.r.4.r.4.r.4.i.s.i.4.i.0.e.3.e.r.r.e.0.e.4.r.e.0.0.e.e.i.i.4.i.s.4.d.4.d.4.4.d.4.d.z.4.4.j.4.z.4.z.4.z.j.z.z.4.z.4.z.4.r.r.r.r.u.u.r.r.u.y.p.y.4.d.i.a.a.p.a.r.r.y.p.p.a.r.y.r.y.p.r.y.i.4.4.4.4.4.3.3.4.4.4.4.4.4.4.4.4.4.i.4.4.4.4.4.4.4.4.4.4.z.4.4.4.4.4.4.4.4.4.4.4.4.4.4.4.s.4.4.4.i.4.4.4.s.4.4.4.4.4.4.4.4.1.:.4.4.4.4.4.4.4.4.3.1.3.3.3.3.%.3.3.3.&.3.3.%.%.3.3.3.3.%.%.%.3.3.3.3.%.3.4.4.3.3.*.3.4.3.*.3.3.3.3.:.3.3.3.3.3.3.3.3.3.3.4.4.4.4.4.4.:.:.3.4.3.4.3.3.3.4.4.3.4.4.e.>.,.4.>.>.7.7.,.7.3.,.7.>.>.,.7.>.>.7.e.4.7.4.9.,.7.e.7.,.>.e.4.4.4.4.4.3.4.3.>.e.,.4.4.,.7.7.3.4.4.>.4.4.3.4.4.4.3.3.3.4.3.3.4.,.4.4.4.4.4.3.4.3.3.*.*.3.3.e.e.3.e.9.9.0.4.e.4.3.4.4.3.4.4.4.w.4.0.4.0.4.4.3.3.0.4.9.e.9.3.4.4.4.4.4.4.4.4.0.4.4.4.4.4.4.4.4.4.4.z.4.4.4.4.4.4.4.4.4.*.*.4.4.4.4.4.4.4.4.4.4.4.4.:.*.*.%.*.*.*.*.*.*.*.*.*.*.*.4.4.4.1.*.*.*.1.4.3.[ 1.4.4.4.4.4.4.4.4.4.4.s.4.4.4.4.4.i.4.4.4.4.4.d.4.4.4.i.3.3.e.3.9.e.9.e.e.e.e.9.e.e.9.e.",
"e.e.e.0.e.e.e.r.r.4.i.r.i.4.i.4.r.r.0.e.0.r.e.e.0.0.e.4.4.3.3.2.2.3.3.3.3.3.3.2.4.1.1.4.4.4.4.4.e.r.r.e.4.r.r.4.r.4.i.4.4.4.4.r.0.r.e.e.0.r.r.r.r.s.r.r.r.r.e.r.4.s.i.4.4.a.4.d.4.d.d.4.4.d.4.d.z.4.j.4.j.4.z.4.4.4.j.z.4.j.4.z.r.r.t.u.r.t.r.r.p.p.p.u.a.j.i.i.r.y.a.u.a.p.a.r.r.a.i.a.r.u.u.r.i.i.i.4.4.3.3.3.4.4.4.4.i.4.z.4.4.d.4.d.4.4.4.4.4.4.4.4.4.4.4.4.4.4.2.3.4.4.4.4.4.4.4.d.4.4.d.4.i.4.i.i.s.4.4.4.4.4.4.4.4.:.4.:.:.1.1.3.4.4.4.4.3.3.4.4.3.3.3.3.*.3.3.3.3.%.2.%.%.%.3.2.3.3.%.3.%.3.3.3.3.4.%.4.3.*.3.3.3.3.3.3.3.3.3.3.3.3.3.&.3.3.3.4.4.4.4.4.4.4.4.%.3.3.3.3.3.4.3.4.4.4.4.4.e.7.e.7.e.7.>.e.7.>.7.3.7.7.e.9.7.7.e.e.7.7.7.e.7.e.e.>.e.e.7.>.3.4.4.4.3.4.3.4.4.e.3.,.>.6.4.>.4.4.4.4.3.4.>.4.3.4.4.4.4.4.3.3.3.4.3.4.3.4.4.4.4.3.3.&.&.3.3.3.3.3.3.e.3.e.3.9.4.3.4.4.4.4.4.4.w.4.4.0.0.4.0.4.4.4.0.e.9.e.0.e.4.4.4.4.4.4.4.4.4.4.y.4.y.4.4.y.4.4.4.4.4.4.4.4.4.4.4.4.*.*.4.4.4.i.4.i.z.4.4.4.4.4.4.1.%.%.%.1.*.*.*.*.%.%.1.*.1.*.*.*.%.*.*.4.3.3.1.L 1.4.4.1.4.4.4.4.4.d.4.4.4.4.4.4.4.4.4.r.4.4.4.4.4.s.4.s.4.3.e.9.9.e.3.e.0.0.e.0.0.0.e.0.",
"e.e.e.r.e.e.4.r.4.r.4.i.i.i.i.4.t.e.e.0.r.0.r.0.e.0.0.3.3.0.3.3.3.3.2.3.2.2.3.3.4.4.4.4.1.1.4.4.r.4.e.e.4.r.4.r.4.r.4.i.i.4.i.r.r.e.r.e.e.e.r.r.r.r.e.e.e.r.y.r.a.d.4.i.a.4.d.4.d.4.d.d.d.z.4.z.z.4.j.4.z.j.j.z.j.j.j.4.z.4.j.j.p.p.t.y.p.t.y.u.y.p.p.a.s.4.4.z.a.p.r.p.y.u.r.a.a.r.i.p.r.a.r.r.4.4.4.4.4.4.3.1.1.4.4.4.i.4.4.j.4.4.4.4.i.4.4.4.4.4.z.4.4.4.4.4.3.3.3.3.4.4.4.4.4.d.4.4.4.4.4.4.i.i.4.i.4.4.4.4.4.4.1.4.4.4.4.4.3.:.4.3.4.4.4.4.3.3.3.4.3.3.3.3.*.3.3.3.3.%.%.3.%.3.3.%.%.3.3.2.%.3.%.3.3.%.3.%.%.3.1.*.3.3.4.4.3.3.3.3.3.3.3.&.3.3.3.4.4.4.4.4.:.4.3.4.4.3.3.3.4.3.3.4.3.4.4.4.,.7.e.6.>.9.7.7.6.e.6.7.e.>.7.,.e.6.e.7.,.e.e.7.e.7.e.>.>.7.7.4.4.4.e.3.4.3.3.4.e.>.e.>.e.7.e.,.4.3.3.4.4.4.4.4.3.4.4.4.4.3.4.4.4.4.3.4.4.4.3.4.e.3.3.*.*.3.:.4.3.3.3.3.3.e.e.3.4.4.4.4.4.3.3.4.4.4.4.4.4.4.4.3.3.4.0.3.e.e.3.3.3.4.4.4.4.4.4.4.4.4.4.4.4.4.4.4.4.4.4.4.4.4.4.*.:.4.4.:.*.4.4.4.i.4.4.4.4.4.4.4.4.4.4.*.[ [ %.[ %.*.*.%.%.1.*.*.*.4.*.*.%.*.*.1.4.3.1.1.4.4.4.4.4.4.4.s.4.4.4.4.s.4.4.4.4.4.4.4.4.4.z.4.d.s.4.4.e.9.3.e.9.>.3.9.e.e.0.9.0.0.0.0.",
"e.e.0.0.e.r.r.r.4.r.r.i.4.4.r.i.e.e.0.0.r.r.e.e.3.e.3.0.4.4.0.4.3.3.3.2.2.3.2.3.1.4.1.4.4.4.4.4.4.r.4.r.r.r.i.r.4.r.s.4.i.r.i.4.e.e.r.e.4.0.e.r.0.4.4.0.0.r.r.r.a.4.4.a.4.j.4.d.4.d.d.4.d.4.d.4.4.j.4.z.4.j.4.4.z.4.j.z.4.4.z.4.a.p.p.p.p.u.r.r.u.p.y.r.j.4.j.4.r.y.r.a.r.a.p.r.a.i.r.a.r.u.u.r.4.4.4.4.4.4.3.4.4.4.4.z.4.4.4.4.4.d.i.4.4.4.d.4.4.4.4.4.4.4.z.4.4.4.4.4.4.4.4.4.4.4.4.4.d.d.4.4.4.4.i.i.4.i.4.4.4.4.4.4.4.4.4.:.4.3.4.3.4.4.4.1.4.3.3.%.%.3.%.1.*.*.3.3.2.%.3.%.2.3.3.4.4.3.3.3.3.3.3.3.%.1.*.*.4.*.3.4.:.4.:.1.:.3.:.3.3.3.3.:.3.3.3.3.4.4.:.4.4.4.4.4.3.4.3.3.3.3.4.4.3.4.4.4.,.9.,.e.7.7.,.3.,.4.,.e.>.7.3.,.7.4.>.4.7.e.6.e.7.e.7.e.7.e.e.,.4.3.4.3.4.4.4.3.>.e.,.,.e.>.,.>.4.4.4.4.3.3.4.4.4.4.3.3.4.3.3.4.4.3.4.4.3.4.3.3.3.>.3.*.=.3.2.3.3.3.3.3.3.3.4.9.4.4.4.3.3.4.3.3.4.w.0.4.y.4.0.4.0.4.4.0.3.e.9.4.4.4.4.4.4.4.4.4.4.4.4.y.4.4.y.4.i.4.4.4.4.4.4.*.4.*.4.1.*.*.*.%.[ [ [ L L %.*.4.*.*.%.[ [ [ [ %.) %.%.1.%.%.*.*.*.*.*.*.*.%.*.*.1.1.1.4.4.4.1.4.4.4.4.4.4.4.d.4.4.4.i.4.s.4.4.4.4.4.4.4.4.4.4.4.e.e.3.3.9.>.>.0.e.0.e.0.e.e.e.e.",
"e.e.e.e.e.0.e.e.e.e.r.e.r.e.e.r.r.0.r.0.r.r.0.0.0.e.4.4.r.4.r.4.3.3.3.3.3.3.3.3.3.3.e.3.3.3.4.3.4.4.4.0.e.0.0.r.r.4.4.u.u.i.4.i.e.e.e.4.e.r.e.r.0.r.e.r.0.e.a.r.r.u.r.i.i.a.a.d.j.d.d.d.d.a.j.4.j.4.4.j.d.s.a.4.a.a.a.a.a.a.a.a.a.r.a.i.a.a.r.r.4.4.z.z.4.z.z.4.r.y.y.u.p.a.r.a.4.z.4.4.j.4.i.4.i.d.4.4.d.4.4.4.4.4.4.4.4.4.4.4.4.4.4.4.4.4.4.4.4.4.4.4.4.4.4.4.4.3.3.3.:.:.4.u.4.4.4.4.u.4.i.4.4.4.i.s.i.4.4.4.4.4.4.4.4.4.4.4.4.:.4.4.4.4.4.:.4.4.:.1.*.4.4.1.&.2.%.3.3.%.3.%.*.1.4.4.*.1.4.4.1.4.4.*.1.*.*.*.%.*.*.4.4.*.4.4.3.3.4.4.3.3.3.-.3.3.3.3.e.e.3.4.4.4.4.4.3.4.4.3.3.4.4.3.4.4.4.4.3.3.e.>.4.4.e.4.4.e.4.4.e.4.3.e.e.4.e.,.e.>.e.>.e.>.e.,.>.e.,.e.4.3.0.3.4.4.3.4.4.4.4.4.3.3.4.4.:.4.4.4.4.3.4.3.4.3.4.3.3.3.4.3.3.3.3.3.3.3.3.3.-.3.3.-.&.:.3.3.3.3.3.3.3.3.3.3.3.3.3.3.3.3.3.3.9.e.e.9.9.4.9.9.4.4.0.4.4.4.4.4.4.4.4.4.4.3.4.4.4.4.4.4.4.4.4.4.4.4.4.4.4.4.4.*.4.%.:.4.4.4.1.%.1.L L L L <.| [ | [ | *.2.%.[ | [ %.*.%.*.*.*.%.1.%.%.[ %.%.*.1.*.*.*.4.4.*.4.4.4.4.4.4.4.4.4.d.e.e.e.e.e.,.7.e.e.,.e.4.e.e.e.7.9.e.e.>.-.,.e.e.e.e.e.e.q.e.e.0.",
"e.0.0.e.e.t.r.e.r.e.e.e.r.e.r.r.r.e.0.r.0.e.e.e.e.0.0.4.4.r.4.r.4.3.0.3.3.3.3.3.3.0.e.4.4.4.3.3.0.3.4.e.r.e.4.r.r.r.r.r.4.i.4.i.e.0.0.e.4.0.e.r.r.e.e.0.r.r.r.r.i.r.r.r.i.i.a.d.a.d.a.d.a.a.d.a.4.z.s.j.4.j.j.j.d.a.d.a.a.a.a.r.r.a.r.i.r.r.r.i.z.4.4.4.4.4.4.4.y.y.y.p.p.p.y.r.j.4.j.4.4.d.i.i.4.4.4.4.4.4.4.4.i.4.4.i.i.i.4.4.4.4.4.4.4.4.4.4.4.4.4.4.4.4.4.4.3.3.3.2.%.4.4.u.4.u.4.u.i.4.4.i.4.4.4.4.4.4.4.4.4.4.4.4.4.*.*.*.:.4.:.:.4.4.4.4.4.4.4.4.1.:.:.*.&.2.3.3.2.3.%.2.*.4.4.4.:.4.1.4.:.:.:.:.4.:.*.*.%.*.*.*.*.4.:.4.3.4.3.3.>.3.>.>.3.3.3.3.3.3.3.3.4.3.3.4.4.:.4.4.4.3.4.4.4.4.4.4.4.4.4.e.4.4.3.4.4.3.4.4.4.4.4.4.>.e.>.e.e.e.e.>.,.e.e.>.e.>.e.>.3.4.4.4.4.4.4.3.4.4.3.4.4.4.4.3.4.4.4.4.4.4.4.3.4.4.3.3.3.4.3.4.3.3.3.3.9.3.9.3.>.2.3.-.+.*.3.3.3.3.2.%.3.3.3.3.2.3.3.2.3.3.3.3.9.9.9.e.e.9.e.e.3.0.4.4.4.4.4.3.4.4.4.4.4.3.4.4.4.4.4.4.i.4.4.4.4.4.4.4.4.1.*.*.*.:.4.*.*.4.:.[ 3.3.[ L L ` [ [ &.%.*.4.r.4.4.4.4.[ L *.1.[ [ 4.%.%.1.*.4.1.4.4.4.4.4.4.1.4.4.4.4.4.4.m.s.4.4.d.e.7.e.,.7.e.e.e.e.e.e.e.e.e.4.e.e.e.e.e.,.>.4.e.e.0.0.e.e.0.e.e.",
"0.0.e.e.e.e.e.e.r.e.r.e.e.e.r.e.0.e.r.0.r.e.e.e.r.4.0.4.r.r.4.4.e.e.3.e.3.0.3.4.3.e.0.3.4.3.3.3.0.4.4.0.r.0.e.r.r.4.u.u.r.i.i.i.e.r.e.0.e.e.r.e.r.r.r.e.e.r.r.r.r.r.r.i.i.a.a.a.a.a.d.i.a.a.d.a.j.z.4.4.i.d.a.i.a.a.d.a.a.a.y.y.a.d.r.s.4.a.i.r.z.4.4.4.z.4.z.z.r.y.p.p.a.p.p.y.j.4.j.i.d.4.i.4.4.4.4.4.3.3.4.3.4.%.3.%.4.4.4.4.4.4.4.4.4.4.d.4.4.4.4.4.4.4.4.4.4.4.3.%.3.:.:.4.4.4.4.4.4.4.i.4.4.s.4.4.s.4.i.4.4.4.*.4.4.*.%.*.:.4.4.4.4.1.1.4.*.4.:.:.4.:.:.4.&.%.3.%.3.2.3.2.*.:.4.:.4.1.4.4.4.4.*.1.1.*.*.*.*.*.*.*.*.:.4.4.3.4.2.:.>.>.:.3.>.>.3.3.3.3.3.3.4.4.4.4.4.4.%.4.4.4.3.4.4.4.4.4.>.4.>.e.4.4.4.4.4.4.4.4.4.4.4.4.4.,.4.,.,.3.e.e.e.>.,.3.,.e.3.7.4.3.4.4.4.4.4.3.4.4.3.4.4.4.4.3.4.3.4.3.3.3.4.4.4.4.3.3.4.4.3.4.3.3.3.3.3.3.3.3.3.3.3.=.| -.3.3.%.3.3.3.3.3.3.2.3.2.[ 3.2.%.%.3.3.4.e.3.9.3.e.9.0.4.4.r.4.4.3.3.3.4.3.3.4.4.4.3.4.4.4.4.4.4.4.4.4.4.4.4.4.:.:.4.*.:.4.4.4.4.1.[ D L L 1.[ 2.2.3.2.3.3.4.4.>.:.*.1.[ L L [ [ [ 1.*.*.1.4.4.4.4.4.1.1.4.1.1.4.4.4.4.4.4.4.4.4.4.4.e.e.e.e.e.e.7.u.e.e.e.e.4.e.e.e.e.e.e.7.7.>.>.e.e.0.e.e.0.4.0.r.",
"e.e.e.w.0.e.0.r.e.e.e.e.e.r.r.r.e.0.0.r.0.r.e.e.e.r.4.r.4.4.r.4.e.e.e.e.e.4.4.0.e.e.e.e.e.e.3.:.3.3.3.4.e.r.r.e.4.r.r.4.4.4.i.4.e.r.e.e.r.e.r.0.y.e.0.r.e.0.r.e.r.u.i.a.a.a.a.a.a.a.i.a.a.i.a.d.d.4.j.d.s.i.i.d.a.a.a.a.d.a.a.t.r.r.r.a.d.4.s.i.4.4.z.z.4.j.4.4.t.p.y.u.r.r.a.u.4.j.4.i.i.i.i.i.4.d.4.4.3.3.4.3.%.%.%.3.4.4.4.4.4.4.4.4.4.4.4.4.4.4.4.4.4.4.4.4.4.4.4.4.:.4.:.:.4.%.%.%.4.4.4.i.4.4.s.4.4.z.4.4.*.:.*.*.*.*.*.*.4.*.:.4.4.4.4.4.4.1.:.1.4.:.:.*.3.2.2.3.3.3.2.3.*.1.*.4.*.4.:.:.1.4.4.4.4.4.4.4.4.:.:.*.*.:.:.4.:.2.:.:.:.-.3.>.>.3.3.3.3.3.3.3.3.4.3.3.4.3.4.4.4.%.3.4.:.4.4.4.4.4.3.4.4.4.4.4.4.e.4.e.e.4.e.4.e.3.7.e.4.7.4.,.e.e.,.4.4.>.e.4.3.4.4.4.4.4.4.3.4.4.4.3.3.3.4.4.4.3.4.3.4.4.3.4.3.4.3.3.3.3.3.3.3.3.3.3.3.2.3.3.-.-.-.=.&.*.3.2.2.3.3.[ 3.[ 3.3.3.3.3.3.3.3.3.3.3.3.3.3.4.3.3.3.4.4.4.4.3.4.3.3.3.3.3.3.3.3.3.4.4.4.4.4.4.4.4.4.*.4.4.4.4.:.4.*.4.*.4.4.4.4.*.[ L 3.1.2.3.3.3.3.3.3.4.4.4.4.4.3.4.4.1.*.4.s.4.*.4.4.4.4.1.1.1.*.4.4.4.4.4.4.4.4.4.4.4.4.4.s.d.4.u.e.t.e.e.e.e.e.e.4.e.,.e.e.4.e.e.7.7.r.e.;.-.e.e.e.e.0.4.r.0.4.",
"0.e.e.e.e.e.0.e.e.r.e.r.r.r.r.i.y.e.r.y.y.e.e.e.e.r.0.4.0.r.4.r.e.r.4.0.r.4.0.4.e.e.e.e.r.0.3.2.3.3.3.e.e.r.r.e.4.r.r.4.r.u.4.r.e.r.r.e.r.e.e.e.e.e.r.e.e.r.0.r.u.i.i.d.d.i.d.a.a.a.a.a.d.4.j.j.a.a.i.s.i.a.a.a.y.a.s.d.a.a.y.r.z.4.d.4.4.d.4.d.4.z.4.4.4.d.4.s.t.r.y.p.p.y.u.a.i.i.4.i.i.i.i.4.4.4.i.4.4.4.4.3.3.3.3.4.4.4.4.4.4.4.4.4.4.4.4.4.4.4.4.4.j.4.4.4.4.4.4.4.4.4.4.:.%.4.4.%.%.%.4.4.4.4.4.4.4.4.4.4.4.*.*.4.*.*.:.4.:.4.4.4.4.4.1.4.*.*.*.4.4.*.*.*.[ 3.3.3.%.3.3.2.*.:.:.:.1.4.4.1.*.4.4.1.4.4.4.1.:.4.:.:.:.:.:.*.*.*.*.*.>.>.>.>.>.>.3.3.3.3.3.>.4.4.4.4.4.4.4.4.4.4.4.3.4.4.4.4.4.4.4.3.4.4.4.e.4.4.4.4.4.4.e.4.>.e.,.e.e.e.,.e.,.9.>.e.,.>.e.,.4.3.4.4.4.4.0.3.4.4.4.4.4.4.4.3.4.3.4.3.4.4.4.3.4.3.3.3.3.3.3.3.3.3.3.3.3.2.-.3.3.*.:.:.*.2.3.:.3.3.2.2.3.3.3.[ %.3.2.3.%.3.3.2.3.>.3.>.3.3.3.3.3.3.3.9.3.3.3.3.3.3.3.3.3.3.3.:.3.4.4.3.4.4.4.4.4.4.:.4.*.4.*.*.4.:.4.4.4.[ L %.4.3.3.[ %.3.3.3.*.3.4.3.4.u.p.r.4.4.4.4.4.4.1.4.4.4.1.1.4.1.4.4.4.1.4.4.4.4.4.4.4.4.4.j.4.i.i.4.u.e.u.e.e.e.u.e.e.e.e.e.7.e.e.e.7.7.7.u.e.-.-.e.y.r.s.4.y.4.y.4.",
"e.e.0.0.e.e.y.e.e.e.e.e.4.4.r.4.0.e.0.e.r.0.r.e.e.e.4.e.4.4.r.4.e.4.0.4.4.4.4.0.0.e.0.r.e.e.0.3.3.3.3.0.e.e.r.e.r.r.4.r.u.4.r.r.e.e.e.r.0.e.r.e.e.0.e.e.0.r.r.r.u.i.i.a.a.a.a.a.d.a.d.i.j.4.a.4.a.a.a.a.d.i.a.s.a.a.a.a.a.a.p.r.4.d.4.d.d.4.d.4.4.z.4.z.z.4.j.d.p.y.y.p.a.r.p.r.i.i.j.4.i.i.i.i.i.i.4.i.4.4.4.1.%.4.4.4.3.4.4.4.4.4.4.4.4.4.4.4.4.4.4.4.4.4.4.4.4.4.4.4.4.4.4.4.4.4.4.4.4.3.3.4.4.4.4.4.4.4.4.:.4.4.*.4.:.*.*.4.4.4.4.4.4.4.4.:.*.4.4.*.*.4.4.1.3.2.3.[ 3.2.3.[ 4.1.1.:.4.4.:.*.*.:.*.4.*.4.4.4.4.:.4.:.4.:.:.*.*.%.*.*.>.3.>.>.:.-.>.>.3.3.3.3.3.4.3.4.3.3.4.;.3.4.3.3.4.3.4.4.>.4.4.3.4.4.4.4.4.4.r.e.e.4.e.4.e.4.e.>.,.>.e.>.e.,.,.e.,.e.4.e.4.4.4.4.4.4.3.4.4.4.>.3.4.3.4.4.4.4.4.3.>.3.4.4.4.3.3.3.3.3.3.3.3.3.3.3.3.3.3.3.3.:.2.2.2.3.3.3.3.3.3.3.3.3.3.3.3.2.3.%.2.3.3.3.>.>.3.>.3.>.>.3.3.3.3.3.3.3.:.:.3.3.3.3.3.3.3.3.:.3.3.3.4.4.4.4.:.4.4.*.:.*.*.*.*.4.4.*.*.%.[ 4.3.[ [ 3.3.4.4.4.3.3.3.3.>.>.3.>.4.4.4.4.4.4.4.4.4.4.4.4.4.1.4.4.*.4.1.1.4.4.4.s.j.4.4.4.i.4.i.i.t.u.u.u.u.e.e.e.e.,.4.e.e.e.4.e.e.e.7.t.t.,.>.9.4.4.4.0.4.0.4.0.",
"e.0.e.e.0.0.e.e.4.r.r.4.r.r.r.r.e.e.0.y.r.0.e.e.e.0.4.r.r.r.e.e.r.4.4.e.4.0.0.e.0.e.e.4.e.e.3.-.-.2.3.3.4.0.e.r.r.e.i.r.4.r.4.i.0.e.r.e.e.e.e.e.e.e.e.e.e.r.r.r.r.u.r.a.a.a.a.a.a.a.i.d.d.d.z.4.a.a.a.a.a.a.a.a.a.a.a.a.a.a.r.a.4.z.d.4.j.4.4.d.4.4.d.4.4.4.j.4.y.t.r.p.p.r.a.r.i.i.i.4.4.i.4.i.4.4.4.i.4.4.i.[ 4.3.4.4.4.4.4.4.4.4.4.4.4.4.d.4.4.4.4.4.4.4.4.4.4.i.4.i.4.4.4.4.4.4.4.4.3.3.%.3.:.4.4.4.4.4.4.*.4.4.*.:.:.*.:.:.:.4.1.4.4.:.4.:.*.4.*.1.1.*.*.4.3.3.2.2.2.3.3.2.4.*.*.4.*.:.3.3.1.4.1.*.4.:.:.4.4.4.4.4.4.:.*.*.*.&.*.:.-.>.-.*.*.*.:.-.>.>.3.3.3.4.%.3.3.%.3.3.4.3.4.3.4.4.%.4.4.>.4.4.4.4.e.e.0.4.e.4.e.4.e.4.>.e.,.e.4.9.4.e.>.e.>.>.3.9.7.>.3.3.4.4.4.4.4.4.4.4.4.4.3.4.3.4.>.4.4.4.4.4.4.4.4.4.3.3.3.3.3.3.3.3.3.2.2.2.>.-.3.&.*.-.-.3.3.3.[ 3.3.3.3.3.3.3.3.2.%.3.3.%.3.%.>.>.>.>.>.>.3.2.3.3.3.0.3.3.3.&.3.4.3.3.3.3.3.:.:.4.3.3.3.3.3.3.4.:.:.4.4.*.:.4.*.4.4.*.*.*.*.4.%.[ 3.3.3.3.&.%.:.3.3.3.4.e.e.e.4.4.4.1.1.4.4.1.1.4.4.1.*.1.1.*.4.4.4.4.4.4.4.s.i.4.4.i.i.4.i.4.r.u.r.t.e.e.e.,.e.4.e.e.e.4.,.e.t.7.e.e.e.e.>.;.y.4.4.4.4.s.0.4.",
"e.e.0.e.e.r.e.e.r.e.r.r.4.r.r.i.r.r.y.e.r.r.e.r.r.e.0.4.0.e.e.4.4.0.4.r.r.e.e.e.e.e.e.0.e.3.3.*.*.3.e.3.3.0.e.r.e.r.4.r.i.i.4.r.r.e.e.e.e.0.e.9.e.0.0.e.e.r.r.a.r.r.u.r.a.i.i.i.a.a.a.i.j.4.j.z.a.s.a.a.a.a.a.d.a.a.a.a.a.r.a.r.4.4.4.d.4.4.d.4.z.4.4.d.4.z.4.j.p.u.y.r.a.a.u.y.i.i.i.i.i.i.4.j.d.4.4.i.4.i.4.[ %.3.3.3.4.4.4.3.4.4.4.4.4.4.4.4.4.4.4.4.4.4.z.4.4.4.4.4.4.4.4.4.4.%.%.%.4.4.4.4.:.*.4.:.:.:.:.4.*.4.:.4.:.*.:.4.4.4.4.4.4.4.:.1.4.:.:.4.4.*.4.*.3.3.3.%.2.3.3.[ *.4.:.*.1.4.*.3.4.4.4.4.*.*.1.4.:.4.:.:.4.4.:.*.:.*.*.:.:.:.*.&.*.*.&.*.*.>.>.3.4.4.4.4.3.4.4.%.3.4.4.3.3.4.:.4.3.4.4.4.4.4.4.e.r.4.4.e.4.e.4.e.e.,.e.>.e.,.,.e.e.4.,.e.4.,.4.e.4.4.4.4.4.4.4.4.4.4.3.4.4.4.3.4.4.4.3.3.4.4.4.>.4.:.3.3.:.3.3.3.9.2.3.3.3.3.>.3.3.=.@.*.&.2.3.3.3.3.3.3.3.[ 3.3.%.3.3.3.3.3.3.3.9.3.3.3.3.3.3.3.3.3.4.4.3.3.3.3.3.4.4.4.3.3.:.3.%.:.:.:.:.2.3.3.4.:.4.:.4.:.:.4.4.4.*.*.*.4.[ L %.1.[ 1.&.2.3.3.:.:.3.3.,.>.>.9.4.4.4.4.4.4.4.*.4.*.4.*.4.4.4.4.1.4.4.4.4.s.4.1.4.4.i.i.4.i.4.i.e.e.u.e.u.e.e.e.e.e.e.7.e.e.e.e.e.7.6.>.e.e.,.-.y.0.s.0.4.4.0.0.",
"t.e.y.r.e.r.0.e.e.e.e.r.4.i.i.4.0.y.e.r.e.e.e.4.r.r.r.e.e.e.e.0.0.4.0.0.4.0.r.0.r.r.4.4.r.2.%.&.3.-.2.3.9.e.e.3.r.r.e.e.e.r.e.r.e.e.e.r.e.e.e.9.e.9.e.3.e.e.r.a.u.a.a.a.a.a.a.a.d.4.j.j.4.z.j.4.a.a.a.d.a.a.a.a.a.a.r.a.r.a.a.a.z.z.4.z.d.4.d.4.d.d.4.d.4.d.4.4.r.r.p.y.a.r.a.r.r.r.r.u.4.i.4.4.4.4.d.4.4.4.j.1.%.[ 3.3.4.4.4.4.4.4.i.4.4.4.4.4.4.4.z.4.4.4.j.4.i.4.i.4.4.i.4.4.4.4.4.4.4.4.4.4.:.:.:.:.:.4.:.4.4.:.:.4.*.*.*.4.4.:.4.4.*.4.*.*.:.4.*.:.4.:.:.:.2.[ 3.3.3.1.%.3.3.3.3.3.*.1.:.3.*.:.:.4.1.4.4.4.*.4.*.4.:.4.:.:.:.:.:.:.*.>.:.*.>.*.&.=.>.>.>.-.:.3.3.3.3.:.:.4.4.3.4.:.3.3.3.4.4.3.3.4.4.4.0.4.4.4.4.4.4.4.4.4.e.>.e.7.e.,.e.7.e.,.e.e.e.>.,.e.4.3.3.4.4.4.4.4.4.4.3.4.4.4.3.4.4.,.4.4.4.,.4.4.e.3.3.3.3.3.2.3.-.>.3.3.3.3.-.3.-.*.-.-.2.:.3.>.3.3.3.3.[ 3.[ 4.3.3.4.4.3.3.3.3.3.3.3.>.>.>.>.>.:.3.3.3.3.3.3.3.3.4.4.4.4.4.:.3.4.:.:.:.3.3.3.%.4.*.*.*.:.:.4.:.4.%.%.*.4.%.%.%.[ 3.3.[ 3.3.3.3.9.9.>.e.e.7.e.,.4.4.4.1.:.4.:.4.*.1.*.4.1.4.4.1.*.4.4.4.i.4.4.i.4.i.i.4.4.i.4.4.e.u.e.e.e.e.e.e.e.e.e.e.e.u.e.e.e.7.e.>.3.e.e.3.4.4.4.4.3.3.0.0.",
"0.e.y.0.y.e.e.e.y.e.r.r.r.i.r.r.e.e.r.e.0.r.r.0.e.e.e.0.4.0.0.4.4.r.4.r.r.4.r.4.e.e.0.4.e.3.| &.=.3.3.3.3.9.0.9.0.r.r.e.r.4.4.r.0.r.e.e.e.0.4.e.e.e.4.0.e.0.e.e.r.r.a.a.p.a.i.a.j.4.4.j.z.4.z.4.a.d.a.a.s.a.a.a.r.a.a.r.r.a.a.r.4.4.4.4.4.d.4.d.4.4.4.4.d.4.j.s.y.y.y.p.p.y.r.r.r.r.r.r.d.4.i.i.d.4.d.4.4.i.4.[ 3.3.%.3.4.4.4.4.4.4.4.4.4.i.4.j.4.4.4.4.z.4.4.4.4.4.4.i.i.4.4.4.4.4.4.4.4.4.4.3.4.:.4.:.:.:.:.4.4.4.4.:.:.%.*.4.4.4.:.4.4.*.*.4.1.4.4.1.1.:.1.4.2.2.3.3.3.[ 3.%.%.3.1.3.*.3.4.:.1.4.*.1.*.4.:.:.4.*.*.4.4.:.:.*.=.*.=.:.-.>.-.>.>.*.*.*.>.3.3.3.3.3.;.4.4.4.3.3.4.4.4.4.4.3.4.4.4.4.4.4.4.4.4.4.4.4.y.4.4.4.y.4.4.e.7.e.7.e.>.e.>.e.>.>.4.e.4.,.4.4.4.3.4.4.3.4.4.3.4.4.3.4.3.4.4.4.4.4.4.3.3.4.3.4.3.3.3.3.3.3.3.3.2.3.3.:.2.3.-.-.*.-.2.3.3.3.3.3.3.3.3.4.3.3.[ 3.3.[ 3.3.3.3.3.3.3.3.3.3.3.>.3.3.:.3.3.3.3.3.4.4.4.4.3.:.3.:.:.:.%.:.%.4.3.4.4.:.4.4.*.4.4.:.4.4.*.%.%.%.%.[ [ [ 1.[ 3.%.[ 3.>.>.e.,.e.4.e.e.4.4.4.4.:.4.4.*.4.4.4.4.4.4.1.4.4.4.4.4.4.4.s.4.s.4.i.i.i.i.i.i.r.e.e.e.7.e.e.7.7.e.e.e.u.e.t.e.7.e.e.4.e.e.9.3.0.4.r.4.0.4.y.4.",
"e.e.e.y.y.0.e.e.e.r.r.r.r.4.r.r.r.e.r.0.e.e.0.4.0.e.e.0.0.4.0.4.0.e.r.4.0.4.4.0.0.e.4.3.r.3.&.%.&.2.0.3.3.3.3.0.e.e.r.e.e.e.r.0.e.e.r.e.e.e.e.0.e.4.0.e.0.4.e.e.e.u.u.r.a.r.r.a.4.d.4.j.4.j.j.j.i.s.a.a.a.a.a.i.a.a.a.r.r.a.a.r.4.d.z.4.d.4.4.d.s.4.d.4.4.d.j.4.y.r.p.p.a.r.r.u.r.i.r.4.j.4.4.4.d.4.4.4.4.i.[ 3.4.%.4.4.4.4.4.4.4.4.4.4.4.4.4.4.4.4.4.4.4.4.4.4.4.4.4.4.4.4.4.4.4.,.,.4.4.4.4.%.:.4.4.:.4.4.1.4.4.1.4.:.:.*.:.4.4.4.4.4.4.:.*.*.4.*.*.4.4.*.1.*.3.[ [ 3.%.3.%.1.%.3.3.3.3.*.4.1.*.4.:.:.:.:.4.*.*.4.4.*.:.:.:.*.=.&.*.*.>.>.>.>.>.-.>.*.:.3.>.>.4.4.3.3.3.4.4.4.3.3.3.3.:.4.4.3.3.4.4.3.4.3.4.4.4.4.4.4.4.4.4.4.e.,.7.e.4.4.e.7.e.e.,.e.7.e.e.4.4.4.4.4.4.4.4.4.4.4.3.3.4.4.4.4.4.4.4.4.3.3.4.4.4.3.3.3.9.3.3.3.3.3.3.-.-.>.-.:.*.*.*.*.-.3.3.3.3.3.4.4.3.3.3.4.4.4.3.3.3.[ 4.4.>.3.3.9.9.3.>.3.3.3.2.3.3.3.:.:.4.3.4.%.%.:.:.3.3.:.%.%.%.3.3.%.:.:.:.4.*.*.4.*.%.%.4.4.4.[ [ [ [ [ 4.3.1.3.3.4.4.e.,.e.,.e.,.9.4.4.4.4.4.1.1.4.4.4.4.4.4.1.4.4.4.4.4.z.4.i.4.i.4.i.4.i.i.4.i.i.e.e.t.e.e.4.e.e.e.e.e.e.u.e.e.e.e.7.7.,.,.e.4.3.4.4.0.0.0.4.4.4.",
"r.0.r.0.e.y.e.0.r.r.e.r.i.r.r.r.r.r.e.e.r.e.e.r.4.e.e.0.4.0.3.0.0.e.4.0.0.r.e.4.e.e.e.0.r.0.2.&.| *.2.3.2.3.3.3.4.0.0.e.r.e.r.4.r.e.e.e.r.0.0.e.4.0.e.e.e.e.0.e.e.u.u.a.r.p.u.r.z.4.j.4.j.4.4.j.a.a.a.a.a.a.a.r.a.a.a.a.a.a.r.a.d.4.d.4.4.d.4.4.4.4.d.4.4.d.4.s.y.y.a.p.p.u.r.r.u.i.i.u.4.4.j.4.4.4.4.d.4.i.L [ 4.3.3.3.4.4.4.4.4.4.4.4.j.j.4.4.j.4.4.4.4.4.z.4.4.i.i.4.4.i.i.4.4.,.4.4.,.4.4.4.4.4.:.:.:.4.4.4.:.4.4.4.:.*.:.:.:.4.4.4.*.*.*.1.*.*.4.1.:.4.4.4.3.1.3.3.3.3.3.3.3.3.%.3.3.3.3.3.4.1.*.4.4.1.*.4.4.*.4.*.:.:.:.*.*.*.*.*.>.3.3.3.3.3.>.3.>.-.>.:.:.4.:.3.:.4.3.4.3.3.4.3.4.4.4.3.3.4.4.3.4.4.4.4.4.r.4.4.4.4.4.4.e.,.e.7.e.7.,.e.e.7.e.,.e.7.,.e.4.4.4.e.3.4.4.4.3.4.4.4.3.4.4.>.4.4.>.4.4.4.4.3.4.4.3.9.3.3.3.3.3.3.3.:.3.2.3.:.*.*.*.*.*.-.>.2.4.4.4.4.3.3.3.3.4.4.3.3.3.3.4.4.-.3.3.>.3.3.>.3.3.3.:.3.&.3.2.3.3.%.:.3.%.:.:.:.:.:.3.:.4.3.4.4.4.*.4.*.:.4.4.*.*.*.%.4.*.[ [ 3.3.1.3.3.3.3.3.4.9.6.e.>.e.6.e.7.4.4.4.4.4.4.:.4.1.1.4.1.4.4.1.1.s.4.4.4.s.4.i.i.i.4.i.4.4.4.i.4.e.e.7.e.e.e.e.7.e.e.e.t.e.u.e.e.7.e.e.e.6.e.3.3.3.3.4.0.4.0.4.0.",
"0.e.0.e.y.e.e.r.0.e.r.r.r.r.r.i.r.r.r.4.r.4.e.e.r.0.e.0.4.0.0.4.0.r.0.r.4.0.4.r.e.e.e.r.e.e.3.&.| @.&.2.3.3.3.3.3.0.e.e.0.r.e.0.0.e.e.e.e.r.e.e.e.0.e.e.y.e.r.0.r.r.r.i.p.u.u.a.j.d.4.j.4.j.4.j.i.a.i.i.a.a.r.d.y.a.a.y.a.e.p.r.4.4.4.j.4.4.d.4.4.j.4.d.4.d.4.j.p.y.p.p.r.y.r.r.i.r.i.i.4.i.4.j.4.4.4.d.4.d.L 3.4.4.3.%.4.4.4.4.4.4.4.z.4.j.4.4.4.4.4.j.4.i.i.4.i.i.4.i.4.i.4.i.4.i.4.u.,.4.4.4.4.:.4.4.4.1.:.4.4.4.4.:.4.*.*.4.*.4.4.4.:.*.:.4.:.:.4.4.*.4.4.4.3.3.3.3.[ 3.3.3.%.3.3.3.3.3.3.3.4.1.:.*.4.*.*.*.*.*.:.:.:.*.*.*.>.>.-.>.3.3.9.3.3.3.3.>.-.:.>.-.4.3.%.3.:.3.:.3.4.3.3.4.3.4.4.4.4.3.4.3.4.4.4.4.4.y.4.4.s.4.4.4.,.e.,.e.7.4.e.,.,.7.4.7.,.7.e.,.4.3.4.4.4.4.3.3.>.4.4.e.4.4.4.3.4.4.4.4.3.4.4.4.3.3.3.3.3.3.3.3.-.3.-.2.3.3.-.-.*.&.-.&.*.*.-.>.:.:.4.4.3.3.3.4.4.3.3.[ :.:.:.4.-.>.>.3.>.>.>.3.3.3.3.3.%.3.4.%.%.%.:.3.:.3.:.:.3.4.3.%.3.4.4.:.4.4.:.4.4.4.:.*.*.4.4.%.[ 3.%.%.L 2.3.[ 3.%.3.4.e.3.e.e.4.e.e.9.s.4.4.4.4.1.4.:.*.4.4.4.1.4.1.s.4.4.4.s.4.4.4.4.i.4.4.i.4.4.4.i.e.e.e.e.e.e.e.7.t.e.e.u.u.e.t.e.e.e.e.7.4.4.4.2.2.2.4.4.4.0.4.4.",
"0.y.r.r.0.r.e.e.e.e.e.r.4.r.r.r.r.r.r.4.r.4.0.e.e.e.e.0.4.0.0.0.4.4.4.4.r.e.4.0.e.0.r.e.0.e.3.-.+.| | -.2.3.3.3.3.4.4.e.e.e.e.e.r.e.e.r.r.e.e.0.e.e.e.e.e.r.r.r.r.r.a.a.a.r.r.a.4.d.j.4.j.4.j.4.i.r.s.a.d.i.a.r.p.a.a.a.a.a.p.r.4.z.4.j.4.d.4.4.d.4.d.4.d.4.z.4.p.y.y.p.y.u.r.r.r.i.i.i.a.4.4.j.4.d.4.d.4.4.<.3.4.3.3.3.4.4.4.4.4.4.4.4.4.4.4.4.j.4.4.4.4.4.4.4.4.4.i.4.i.i.i.4.i.4.4.4.,.4.4.4.4.4.4.1.:.4.4.4.:.:.4.:.:.*.:.:.:.4.:.:.:.:.:.:.*.4.*.*.*.1.*.*.[ 3.4.[ [ 3.3.[ 1.%.%.3.3.3.3.3.4.*.:.4.4.*.4.*.4.*.*.*.*.:.*.*.3.>.>.3.3.3.3.3.3.>.3.>.3.:.3.3.%.3.3.:.%.:.4.4.4.4.3.4.4.4.3.4.3.3.3.3.3.4.4.4.4.4.4.4.4.4.4.4.e.e.e.>.e.e.6.e.e.e.e.e.e.e.e.e.e.4.4.4.3.4.4.4.e.4.3.>.4.3.>.e.4.,.,.4.4.4.3.3.4.4.3.9.3.3.3.3.3.>.>.>.:.3.-.-.*.*.-.-.-.*.*.-.4.:.4.4.:.4.4.3.3.3.3.4.4.:.:.4.:.:.-.>.-.>.>.-.%.3.%.%.3.%.3.3.3.3.:.4.:.4.3.3.%.%.3.3.3.:.4.3.4.:.4.4.4.4.*.L :.:.*.*.%.[ L L [ 3.3.2.1.3.3.4.e.6.e.7.7.7.e.3.4.1.4.4.4.4.1.4.1.4.1.4.4.4.s.4.4.s.4.z.i.4.4.i.4.i.i.4.i.4.4.4.e.e.,.e.e.4.e.e.e.e.e.u.t.e.e.7.7.e.e.e.0.4.4.3.3.4.4.4.0.4.4.0.",
"e.e.y.y.r.e.e.y.r.e.e.e.r.r.r.4.r.u.4.r.4.4.r.e.0.r.0.e.0.9.9.9.4.0.0.0.4.r.r.e.e.4.r.r.3.3.e.3.@.| | *.2.3.2.3.3.3.0.0.e.e.e.r.r.e.e.0.0.e.e.r.e.e.r.0.e.e.e.r.u.u.i.a.a.u.r.p.j.i.4.d.4.d.j.4.a.i.r.a.i.i.d.d.a.a.a.a.a.r.r.r.4.d.4.4.4.4.j.d.4.4.d.d.4.d.4.j.y.y.y.u.u.y.p.r.i.i.4.i.a.4.j.4.4.4.4.4.z.4.4.4.3.4.4.4.4.4.4.4.4.4.4.4.4.z.j.4.4.4.4.i.i.4.4.i.4.4.4.i.i.4.i.4.4.i.:.4.4.4.4.4.4.:.4.:.4.:.4.:.4.:.:.4.*.:.*.4.:.4.4.*.:.1.:.:.1.:.4.:.:.:.*.4.3.[ 3.1.3.[ 3.3.%.1.3.3.3.3.3.3.4.1.:.1.*.4.*.*.1.*.*.*.:.:.4.4.3.3.3.3.3.4.3.3.>.3.3.3.3.3.3.2.%.3.:.:.3.:.4.:.4.4.4.4.4.3.3.4.3.3.3.3.3.4.4.4.4.4.4.4.4.4.4.4.e.3.e.,.4.7.e.,.9.e.e.6.e.7.e.e.4.4.4.4.4.4.4.3.4.4.>.e.4.3.e.,.4.4.4.4.4.3.4.4.3.4.3.3.3.3.3.3.3.3.3.>.3.2.2.&.&.-.-.-.-.-.-.:.:.:.:.:.:.:.4.3.[ 3.3.3.:.:.:.:.-.:.:.:.-.>.-.>.%.3.%.3.%.3.%.4.:.:.3.:.4.:.3.3.3.3.3.:.3.4.:.4.1.:.4.4.4.4.:.[ 4.%.[ [ [ L L [ 3.3.3.2.3.3.3.4.9.e.7.e.e.7.e.e.4.4.4.s.4.4.4.4.4.4.1.4.4.4.4.4.4.4.4.4.4.4.4.i.i.i.4.4.i.4.i.i.,.e.,.e.e.e.4.e.r.r.r.u.e.e.e.t.7.t.e.7.4.r.4.3.3.4.0.s.s.4.0.4.",
"e.r.w.e.r.0.e.e.0.e.e.r.r.4.e.r.r.4.r.4.4.r.0.e.e.4.0.3.3.4.3.9.4.4.4.4.r.e.e.r.e.4.s.i.3.4.r.3.-.&.@.*.2.3.3.3.3.0.4.0.e.0.e.e.e.e.e.r.e.r.r.e.r.r.e.4.e.e.e.e.r.u.u.a.r.u.r.r.4.i.i.4.j.4.i.d.r.i.a.r.i.a.r.r.a.a.a.a.a.y.y.r.j.4.s.4.s.4.4.4.4.j.4.4.d.4.s.4.p.p.r.r.r.u.a.a.i.i.i.i.4.j.4.j.d.d.d.4.4.4.4.4.%.4.%.4.4.4.4.4.z.4.4.4.4.4.4.4.4.d.4.4.i.4.4.i.4.i.4.4.4.4.4.4.4.4.4.4.3.4.3.4.:.4.:.4.:.4.:.4.:.:.4.:.4.:.:.:.:.4.4.:.:.*.4.:.*.:.*.:.1.:.1.*.3.3.3.3.3.1.3.[ 4.4.4.4.1.4.3.4.4.4.4.*.*.1.*.4.*.*.*.*.:.:.:.4.>.3.3.>.3.3.3.3.4.3.3.3.3.4.3.:.3.4.%.:.%.3.:.:.3.3.4.3.3.4.4.4.:.&.2.3.3.4.4.4.4.4.4.y.4.r.4.4.,.e.7.e.,.e.7.,.e.7.e.e.e.,.e.4.e.e.4.4.4.>.4.,.e.>.e.3.4.4.4.3.4.3.4.,.4.4.3.4.4.4.4.3.3.3.3.3.3.3.2.3.3.3.&.| &.*.-.3.:.>.:.3.:.:.:.4.[ 4.[ 3.4.4.[ 3.4.4.:.[ :.:.-.>.>.:.>.*.3.%.3.%.3.3.3.4.3.4.:.4.3.:.:.4.:.%.:.4.%.:.3.:.4.4.4.4.4.4.4.*.%.%.%.%.%.[ [ 1.3.4.3.3.3.4.3.4.e.6.e.e.6.e.9.e.s.4.4.4.s.1.4.1.4.4.4.4.4.4.4.4.4.s.s.4.4.s.4.i.4.4.4.i.4.4.4.4.e.7.e.e.7.4.e.e.e.e.u.e.u.u.e.e.e.e.e.7.4.4.3.2.4.4.4.0.4.4.4.s.",
"r.r.0.r.y.r.r.r.d.4.4.4.4.4.s.4.4.s.4.r.4.r.4.4.s.0.0.0.0.4.4.4.3.4.r.4.r.i.r.4.4.i.i.4.r.4.4.4.2.*.*.*.:.3.3.3.3.3.4.r.3.4.y.0.y.r.0.r.r.4.e.e.e.e.r.r.e.4.0.r.r.r.r.r.a.4.i.i.4.4.j.4.j.4.j.4.i.i.i.i.j.i.i.i.j.j.i.i.i.i.i.i.4.j.4.j.4.4.4.j.4.j.4.4.4.j.4.d.p.r.a.p.u.a.a.u.i.i.i.i.i.u.i.i.i.i.4.i.i.4.4.%.4.:.3.:.3.4.4.4.4.4.4.4.4.4.4.4.4.d.4.4.s.4.4.4.4.4.4.4.3.3.3.3.3.3.4.4.4.4.4.3.4.4.:.4.4.:.:.4.:.4.4.*.*.*.:.4.4.1.1.:.:.*.*.1.*.4.*.1.:.:.*.*.3.:.*.3.&.2.2.3.3.3.3.3.3.3.3.3.3.3.4.:.&.:.:.&.3.%.%.3.[ [ 3.3.>.9.3.3.3.3.3.>.3.3.>.>.3.3.3.3.9.>.*.*.-.*.:.3.3.>.3.3.>.3.3.e.1.:.*.*.*.4.4.*.4.4.4.4.4.4.1.4.4.4.4.4.4.4.4.4.4.4.4.4.4.4.,.,.e.4.e.4.>.3.e.3.3.4.4.3.4.4.4.3.3.4.3.4.4.3.4.4.3.3.:.4.:.4.:.4.3.3.3.3.-.-.:.-.:.:.:.:.:.3.:.:.3.3.3.%.%.%.:.3.3.%.4.4.4.3.4.3.3.2.:.2.:.:.:.:.:.:.-.:.:.2.3.3.:.4.:.3.:.3.3.3.:.:.:.4.3.%.4.4.3.3.3.4.:.*.:.:.*.%.| | L L *.1.3.3.:.:.4.4.4.4.e.e.e.4.0.4.e.4.4.4.4.4.3.:.:.3.4.4.7.t.u.e.e.t.r.e.e.e.9.4.e.4.e.e.e.3.e.4.e.e.e.e.e.4.e.e.e.e.e.e.7.e.e.e.7.e.e.7.e.7.e.4.>.>.e.e.4.r.r.r.4.r.",
"0.r.4.r.4.4.y.r.4.4.s.s.d.s.4.4.i.4.r.r.0.0.0.4.4.4.4.1.0.0.4.4.4.4.4.4.r.4.i.i.i.i.4.i.i.4.r.4.4.3.&.&.:.:.:.3.3.*.3.3.2.4.r.e.4.y.4.y.0.r.0.r.r.e.e.0.e.4.e.r.e.e.r.r.r.s.i.i.j.4.4.j.4.j.4.j.i.i.a.a.4.i.i.i.i.i.i.i.i.i.i.i.z.4.j.4.4.j.4.4.4.4.j.j.j.4.d.4.a.a.u.u.a.u.r.a.h.4.i.i.u.u.u.i.i.i.i.i.u.4.4.4.3.4.4.3.:.4.4.4.4.4.4.4.4.4.4.4.4.4.4.4.4.4.4.4.4.4.3.3.3.3.3.3.3.3.4.4.4.4.3.3.:.4.4.:.4.:.4.:.4.:.4.:.:.*.:.4.:.:.*.*.:.4.:.*.:.:.*.*.*.:.4.*.*.*.2.*.3.*.3.2.3.:.2.2.3.3.3.3.3.4.4.>.3.&.:.3.%.3.%.%.3.2.3.3.>.3.9.3.9.3.3.3.3.>.>.3.>.>.3.3.3.3.>.>.*.&.&.>.:.>.3.>.>.3.e.>.4.4.4.*.*.4.4.4.4.:.1.4.4.4.4.4.4.4.4.4.4.4.4.4.u.4.4.4.4.i.,.h.7.e.7.e.e.,.3.,.4.4.3.4.4.3.3.4.3.4.3.4.4.3.4.3.%.4.4.4.4.4.4.4.:.3.3.3.-.-.-.:.3.-.:.2.3.:.:.3.3.%.%.%.%.3.%.3.3.%.3.%.4.%.4.%.-.-.>.:.2.:.2.:.:.:.3.:.2.:.:.3.3.4.4.:.:.:.:.:.:.3.:.3.:.:.3.3.4.3.3.3.*.%.*.*.*.[ L [ ` ) *.4.3.3.3.3.4.4.4.4.4.e.4.e.4.4.4.e.4.r.4.4.3.>.3.3.4.,.e.e.e.e.e.e.r.e.e.e.e.e.e.e.9.e.e.e.e.e.e.e.e.e.e.e.e.e.7.e.e.e.e.e.7.e.e.e.u.7.7.e.e.e.e.7.e.e.r.e.r.4.r.4.",
"r.r.4.y.y.r.s.4.4.s.4.4.4.4.4.s.4.i.r.4.4.r.0.r.4.4.4.0.1.4.1.4.4.4.e.r.r.u.4.i.i.4.r.r.i.r.4.4.4.4.3.&.&.&.*.:.*.*.*.*.3.r.4.0.y.4.r.4.r.r.0.e.r.4.4.0.e.0.e.r.r.r.r.y.i.r.r.r.4.j.j.4.j.j.4.j.i.i.i.i.j.4.i.i.i.i.j.i.i.i.i.i.4.4.4.4.j.4.j.4.j.4.j.4.4.j.i.d.u.a.p.a.u.p.a.r.4.h.i.i.u.4.u.4.i.i.i.4.u.4.3.4.:.4.3.3.:.:.,.4.4.4.4.4.4.4.4.4.4.4.4.4.4.4.4.3.3.3.1.3.3.3.3.3.2.3.3.4.4.4.3.4.4.:.4.:.*.4.*.*.:.4.1.:.:.*.:.:.*.*.*.*.*.4.*.*.*.1.*.*.1.*.1.*.*.2.*.3.3.3.3.3.2.:.3.2.3.2.3.3.>.4.4.4.3.&.:.:.%.3.3.%.3.4.3.3.>.3.3.3.3.3.3.>.>.3.3.3.>.>.>.>.>.>.3.3.*.| *.>.-.:.>.>.3.3.>.>.4.4.4.*.*.4.4.*.4.1.4.:.4.4.4.4.4.4.4.4.4.4.4.4.4.4.4.4.4.4.4.4.e.7.e.,.4.,.4.,.4.3.4.3.4.4.3.3.4.3.4.4.4.4.3.3.:.4.4.4.4.4.4.4.>.3.3.:.*.-.:.:.*.3.:.3.3.:.:.3.%.%.%.%.:.%.3.%.4.3.%.3.3.4.3.3.:.:.:.:.-.:.:.:.2.:.3.:.:.2.3.3.3.:.4.:.4.:.:.3.3.:.:.4.:.:.:.3.3.3.3.3.%.%.*.1.[ [ [ [ *.1.1.:.3.:.3.3.4.4.4.4.r.4.e.4.4.r.4.e.r.4.3.>.:.3.3.e.e.e.e.u.e.u.7.u.r.e.e.e.4.e.e.e.e.4.4.e.4.e.e.4.e.e.e.7.e.7.e.e.7.e.e.e.u.7.e.e.t.7.e.e.e.e.e.,.e.4.e.e.r.4.4.r.",
"4.0.0.r.y.4.4.4.4.4.d.4.4.s.4.s.s.4.4.r.r.4.4.4.4.s.0.4.4.4.4.4.r.e.r.4.4.i.4.i.i.4.r.i.i.4.4.4.4.4.3.3.*.3.:.3.*.*.%.&.9.4.3.0.4.y.4.y.r.4.e.e.e.3.3.3.0.e.4.e.r.r.r.r.s.i.i.4.4.j.4.j.4.j.d.4.j.i.i.d.4.j.d.4.i.i.i.i.i.i.i.i.4.z.z.4.j.4.4.4.j.4.4.4.j.4.i.i.p.r.u.y.r.a.p.i.h.4.i.i.i.i.i.4.i.i.i.4.i.4.4.3.3.4.4.3.:.:.4.u.4.4.4.4.4.4.4.d.4.4.3.3.4.4.4.3.3.3.3.4.2.3.2.3.3.3.4.4.4.4.3.4.:.4.:.4.4.*.:.4.4.:.:.4.:.4.:.:.*.*.*.*.:.1.*.*.*.*.4.*.4.:.4.*.*.:.2.*.3.3.3.3.3.3.3.3.%.3.3.%.>.3.4.4.3.*.%.2.:.%.%.%.3.4.3.3.>.e.>.9.3.3.3.3.3.3.>.:.>.>.>.>.3.3.e.4.>.&.*.>.e.*.*.3.3.:.*.3.*.:.*.*.*.*.*.4.:.4.:.4.4.1.4.4.4.4.r.4.4.4.4.4.4.4.4.4.4.4.4.4.9.4.4.e.e.3.e.3.4.3.4.4.3.4.4.4.4.4.4.3.3.4.3.3.:.4.:.4.4.4.4.4.2.3.-.-.-.&.-.:.:.:.:.:.:.3.:.:.3.%.%.:.3.3.4.4.%.3.4.4.3.%.%.4.:.>.2.:.:.:.2.:.:.:.-.:.:.:.:.3.3.3.3.4.:.3.3.:.3.4.:.3.3.:.:.3.3.3.4.3.*.%.*.*.[ %.) %.4.4.:.:.3.3.3.4.4.4.4.i.4.e.4.e.e.4.e.4.0.4.3.2.3.4.e.e.7.e.e.7.u.e.u.e.r.e.e.4.e.e.4.e.4.e.e.4.e.4.4.e.7.e.e.e.u.e.e.e.e.e.e.,.e.e.e.e.e.u.7.e.7.e.e.9.e.e.e.r.r.r.4.r.",
"r.r.0.e.i.s.4.s.s.s.4.4.s.4.4.4.4.4.i.4.4.r.r.r.4.s.4.4.4.0.0.4.4.r.i.4.i.i.i.4.4.i.i.i.i.i.i.4.4.4.4.4.4.3.2.2.:.-.| &.3.0.3.4.4.s.4.r.s.i.4.4.e.3.:.3.4.4.4.0.4.r.i.i.4.4.i.i.i.i.i.4.i.i.i.i.i.i.h.4.d.4.d.d.i.i.i.j.i.i.j.i.j.z.4.4.4.4.j.z.4.4.4.z.i.i.j.i.r.u.a.r.i.r.u.i.4.i.i.i.i.u.i.i.4.i.i.4.u.4.4.4.:.3.4.3.>.>.4.4.d.4.s.4.4.s.4.4.4.4.2.2.4.4.4.4.3.3.4.4.4.4.3.3.4.4.d.4.4.4.4.4.4.1.:.:.:.:.4.:.:.:.:.4.:.4.4.*.*.*.4.*.*.*.*.*.:.4.*.4.1.4.4.1.3.3.3.*.2.3.3.4.3.3.3.3.2.%.3.3.>.>.3.9.3.%.%.%.%.%.3.%.3.4.4.3.9.>.>.>.>.>.3.3.3.3.3.3.3.:.>.:.>.>.3.3.>.-.-.3.3.>.>.>.>.*.:.-.*.*.%.%.*.*.4.4.4.4.4.*.4.4.4.4.4.4.4.4.4.4.4.4.4.4.i.4.4.4.4.4.e.4.4.4.>.4.4.3.4.3.4.4.3.4.3.4.3.4.4.3.4.3.3.3.4.%.3.3.3.3.3.3.3.:.-.-.*.:.:.:.:.3.*.:.3.:.:.3.:.:.%.:.:.4.3.:.4.3.%.%.4.%.%.3.:.2.:.:.:.:.:.:.:.:.3.:.:.:.3.>.3.4.:.:.:.3.3.:.:.4.:.4.3.:.:.4.3.3.4.4.*.%.*.[ [ %.L [ :.4.*.4.3.3.4.4.4.4.r.4.4.4.4.0.4.4.4.e.0.4.3.3.e.e.e.e.e.e.r.e.7.p.e.u.e.r.e.e.7.e.e.e.e.e.e.e.7.e.e.e.e.e.e.e.e.e.e.7.e.e.4.e.4.e.4.e.e.t.t.e.7.e.,.e.s.4.i.4.y.s.4.4.",
"r.e.e.r.4.a.4.i.4.4.4.d.4.4.s.4.i.r.4.i.r.r.r.4.4.4.4.0.r.4.4.r.r.i.4.i.u.4.r.i.i.i.4.i.i.4.i.4.h.4.r.i.4.4.3.2.:.*.+.+.2.4.4.0.4.s.4.i.4.4.i.s.0.3.3.4.e.e.0.4.s.4.s.4.4.i.i.4.i.4.4.j.i.i.j.i.i.i.4.j.i.i.i.i.j.i.i.i.i.i.i.i.4.4.4.z.z.4.4.4.4.z.j.4.i.i.4.j.u.i.u.u.i.u.i.u.h.4.i.i.i.i.i.u.4.i.i.i.4.:.:.4.4.4.4.4.,.,.4.h.4.4.4.4.4.4.d.4.4.4.3.3.4.4.4.4.3.3.4.4.4.4.4.4.4.4.4.4.4.4.4.4.4.4.4.:.4.4.:.1.:.4.:.:.:.:.:.:.%.*.*.1.*.*.1.*.:.1.1.4.4.*.4.*.3.2.3.2.3.3.3.4.3.3.3.3.3.3.3.3.>.>.>.3.3.%.%.1.:.%.%.3.3.4.3.3.>.3.3.9.>.9.>.3.4.3.>.>.:.3.:.>.3.>.>.3.3.3.3.-.:.e.3.&.&.-.>.&.*.%.*.%.[ *.*.*.4.:.4.:.:.1.4.*.4.4.4.4.4.4.4.4.4.4.i.4.4.4.4.4.3.e.4.e.e.3.4.4.4.4.4.3.3.3.4.4.3.4.4.3.3.3.3.3.4.3.3.3.3.3.3.3.3.-.-.*.-.:.2.2.*.*.3.:.&.3.:.3.%.:.4.:.3.%.:.3.%.3.4.3.3.3.3.4.:.>.3.:.:.2.:.2.2.2.:.:.2.>.>.3.4.4.3.3.4.:.3.4.4.:.3.4.3.:.:.4.3.[ %.%.%.*.*.[ [ [ [ %.1.4.*.4.3.3.4.4.r.4.4.r.4.0.e.4.4.e.4.4.4.4.3.4.e.r.e.e.e.e.t.e.e.u.u.7.e.e.e.e.e.e.4.e.e.3.4.e.e.e.e.e.t.e.r.r.e.e.e.e.e.4.e.e.e.e.e.e.e.7.7.e.e.>.e.e.4.i.4.4.4.4.4.s.",
"r.r.r.0.s.4.4.s.d.4.4.s.4.4.4.4.s.4.i.i.r.4.4.r.4.0.4.s.4.r.4.4.r.4.i.r.i.u.4.u.i.4.4.i.4.i.4.i.4.i.i.i.i.4.4.3.3.| | &.*.3.0.0.i.4.4.s.4.4.4.4.3.3.3.4.r.e.e.r.4.r.i.r.4.a.i.i.i.i.i.i.i.i.i.i.a.i.j.i.i.i.4.j.i.i.i.i.i.i.i.i.4.4.4.z.z.4.4.4.4.j.4.4.4.i.i.4.r.u.r.u.u.i.u.r.r.u.u.4.i.u.u.u.4.4.4.4.;.3.:.4.;.4.4.4.4.4.4.4.4.4.d.4.4.d.4.4.4.4.4.4.4.4.4.4.4.4.4.4.4.4.4.4.4.4.4.4.4.4.4.4.4.:.4.:.:.:.4.4.:.*.*.*.:.4.:.*.*.*.*.*.*.1.:.:.:.:.*.4.4.*.*.4.2.3.3.3.3.3.3.3.3.3.2.3.3.3.3.2.3.>.3.4.3.| %.%.3.%.%.3.3.3.3.3.9.>.>.>.3.6.4.>.3.>.3.3.2.>.2.>.-.>.>.>.3.3.>.3.-.9.e.>.&.:.*.&.*.*.*.*.*.*.*.%.*.:.4.4.4.4.*.4.4.4.4.4.4.4.4.4.4.4.4.4.4.4.4.4.e.9.e.3.e.>.3.3.3.3.3.4.4.3.3.3.3.4.3.3.3.3.3.3.3.3.3.3.4.4.3.3.3.-.&.-.&.:.:.-.3.3.*.*.3.&.3.:.3.3.:.3.3.:.%.4.%.4.%.3.3.%.4.%.3.:.2.:.2.:.:.:.>.:.>.:.:.>.:.3.3.:.4.:.:.4.3.:.3.:.4.4.:.:.:.3.[ [ %.%.%.*.*.%.L L %.1.4.4.4.1.3.4.0.4.4.4.4.4.4.e.4.e.e.4.r.0.3.2.3.4.e.e.e.e.r.u.e.e.u.7.u.e.e.7.t.e.7.t.e.4.e.e.e.e.e.u.e.e.e.u.r.u.u.u.e.e.e.e.e.e.e.e.e.7.7.e.e.9.>.7.4.9.4.4.s.4.4.4.4.4.",
"0.e.r.e.4.4.s.4.4.s.4.4.4.z.4.4.i.i.i.4.4.r.r.4.r.4.0.4.4.i.i.i.i.i.i.4.i.4.r.r.4.4.i.i.4.i.h.4.4.4.4.4.4.r.4.4.3.&.%.@.@.3.e.3.4.4.4.4.i.i.4.s.3.2.,.4.e.e.4.e.r.4.4.i.4.4.4.s.i.i.i.i.i.i.i.i.a.a.i.i.j.4.j.i.i.i.i.i.i.i.4.i.d.d.4.4.4.4.j.j.4.4.4.j.i.4.i.i.i.r.i.r.r.u.r.u.u.u.u.u.4.4.4.4.4.3.2.3.4.4.4.4.4.4.4.4.4.4.4.4.4.s.4.4.4.4.4.4.4.4.4.4.4.4.4.4.4.4.4.4.4.4.4.z.4.4.4.4.4.4.4.4.4.4.:.:.:.4.:.4.4.*.*.*.:.:.:.*.%.1.*.4.:.*.4.*.:.1.4.1.4.4.4.4.3.3.3.3.3.3.&.3.2.2.3.&.%.2.3.3.e.>.3.3.3.%.%.3.%.%.%.3.3.3.3.3.3.4.3.>.>.>.>.9.>.2.:.:.:.>.:.-.>.>.>.>.>.3.>.>.e.3.e.r.3.+.{ &.*.4.*.*.4.1.%.%.*.*.1.4.4.4.4.*.4.4.4.4.4.4.4.4.4.4.4.4.4.4.4.4.e.4.9.4.4.9.3.4.4.3.4.4.3.4.4.3.4.3.3.3.3.3.3.3.3.3.3.3.4.[ 3.3.:.-.*.&.-.-.:.&.*.:.:.3.:.3.:.3.3.%.3.4.%.:.:.3.3.3.4.4.%.4.%.3.:.3.:.3.:.3.3.:.2.:.2.:.:.:.2.:.3.:.3.4.:.3.4.4.:.4.3.:.3.%.:.:.4.%.4.%.%.%.%.[ ^ [ %.*.*.*.4.4.3.4.4.r.4.4.4.4.e.4.e.4.4.e.4.4.3.3.4.4.4.e.4.e.r.e.u.e.e.e.7.u.e.e.e.t.e.e.e.e.e.7.e.e.e.e.u.u.e.u.u.u.u.e.u.7.e.6.e.7.e.,.e.9.e.7.6.7.>.6.3.e.4.s.4.4.s.s.4.i.",
"e.e.r.e.e.e.r.r.s.4.4.4.4.z.z.4.4.4.r.4.r.r.r.4.4.i.4.4.i.4.i.i.a.4.i.i.j.4.4.4.j.i.4.i.4.h.4.i.4.r.r.4.e.e.0.4.-.&.&.&.=.-.3.3.s.4.4.4.4.4.4.4.4.4.4.4.4.4.4.i.r.r.4.4.4.i.4.4.i.r.i.i.j.i.i.j.4.j.d.4.4.4.j.4.i.i.i.i.4.4.4.i.4.d.d.4.d.d.4.4.i.i.i.i.4.i.i.i.r.i.i.i.r.4.u.r.4.i.i.i.4.4.4.4.4.3.4.3.4.%.:.4.,.4.4.,.e.4.e.u.4.4.z.4.4.4.4.4.4.4.4.4.d.4.4.4.e.e.4.e.e.e.u.u.4.4.4.4.4.4.4.4.:.4.:.4.*.:.:.:.:.:.:.4.*.%.%.:.*.1.*.:.*.1.:.:.4.:.4.4.4.*.4.1.3.2.2.3.3.2.3.:.3.[ 3.2.3.2.%.3.3.3.2.3.3.&.&.3.[ 2.[ [ 4.4.3.3.3.>.*.>.>.>.>.3.>.-.>.>.:.3.3.3.:.3.>.3.3.:.>.3.3.9.e.e.9.:.{ _ ) *.*.*.*.4.4.*.%.%.*.*.4.4.4.4.1.4.3.4.4.4.4.4.3.4.4.4.4.4.4.4.3.3.4.4.3.3.3.3.3.4.4.3.3.3.4.4.4.3.4.3.3.3.3.3.3.3.3.3.3.3.%.3.&.-.-.-.&.*.&.-.*.*.*.:.:.:.:.:.:.3.%.4.%.4.%.4.%.4.%.4.%.4.%.%.:.>.:.>.>.2.:.:.>.>.3.:.:.*.:.3.:.3.3.:.4.3.4.:.>.4.4.3.:.:.3.4.*.*.*.%.[ 1.| [ [ [ *.*.*.4.4.4.0.4.e.4.r.4.4.0.4.r.r.4.4.4.4.4.2.3.4.4.4.0.4.4.u.e.e.e.p.e.e.7.e.e.e.7.p.e.7.e.u.7.u.e.u.e.u.e.r.e.u.u.u.e.t.e.e.4.e.e.e.e.4.e.6.e.e.6.>.3.9.e.4.r.r.4.y.y.4.0.",
"e.e.e.e.r.e.r.0.4.4.s.4.4.4.4.4.4.i.i.4.r.4.4.r.i.4.4.i.4.i.i.i.4.i.a.4.4.4.4.4.4.4.4.4.i.4.4.4.r.r.4.4.4.e.4.3.:.-.@.&.*.3.3.0.4.4.s.4.4.d.4.4.4.4.4.4.i.4.4.4.r.4.r.y.i.4.i.i.r.r.i.4.i.i.i.i.j.4.j.j.d.j.4.j.i.i.4.i.i.i.i.i.j.4.4.4.4.4.4.d.4.u.i.4.i.4.4.i.4.e.r.4.r.r.4.r.i.i.4.4.4.i.4.4.3.3.%.4.4.4.4.4.4.,.4.e.,.e.e.e.4.4.4.4.s.4.4.4.4.s.4.d.4.4.s.4.u.u.e.7.4.e.u.u.4.d.4.d.4.4.4.4.4.4.4.:.4.:.:.:.4.*.%.*.*.%.%.*.%.*.*.4.4.4.4.:.1.4.4.1.1.4.4.4.3.3.3.2.3.3.3.3.3.3.3.3.%.2.2.3.3.>.3.3.:.&.%.*.3.[ [ 3.3.4.4.3.>.*.&.&.>.-.>.>.>.3.>.>.-.3.-.:.3.-.3.-.3.3.>.>.3.3.9.e.e.3.>.>.*.4.*.*.%.*.*.*.*.*.*.*.*.*.*.1.4.2.1.2.[ 3.4.3.3.3.3.4.4.4.4.4.3.4.4.4.4.3.3.3.4.4.4.4.3.3.3.3.4.4.4.3.3.3.%.3.3.3.3.3.3.3.3.3.*.-.:.-.-.*.-.:.:.*.:.*.:.:.:.:.3.%.%.3.3.4.4.%.4.%.%.3.3.4.4.3.:.2.:.>.:.:.3.:.:.*.:.:.2.:.:.3.3.3.:.4.:.:.:.3.:.3.:.:.&.&.*.:.%.%.*.%.%.| [ [ [ [ :.4.4.4.4.4.e.4.4.r.e.e.r.4.4.4.4.r.r.r.4.r.3.4.4.4.s.4.4.s.e.u.t.e.e.p.u.7.7.e.e.p.e.u.e.p.e.e.e.u.7.u.e.u.t.e.u.u.u.e.e.4.e.e.e.7.7.9.e.7.7.6.9.6.e.4.9.e.y.4.r.4.4.0.4.0.",
"r.r.e.0.e.e.e.y.z.4.4.z.4.z.4.4.s.r.4.4.s.4.r.r.4.i.4.i.4.4.4.4.4.a.i.r.4.4.4.i.i.4.j.4.i.4.i.i.r.4.4.r.r.4.e.3.3.&.&.&.3.3.3.e.4.i.4.s.4.4.4.4.4.4.4.4.4.4.4.4.0.r.4.r.i.i.4.i.4.r.4.i.i.i.i.i.4.a.d.4.4.z.d.4.i.4.4.4.4.4.4.i.4.4.4.4.4.4.4.4.4.u.u.u.i.i.i.i.i.i.a.i.u.4.u.r.4.4.4.4.4.4.4.4.3.3.4.4.u.4.4.4.,.e.u.4.e.7.e.e.4.4.4.d.4.4.4.4.4.4.4.4.4.4.4.d.u.e.e.e.e.u.u.u.d.d.4.4.4.4.4.4.4.4.4.:.:.:.:.*.4.*.*.:.:.%.[ %.| %.*.*.4.1.1.*.*.4.:.:.4.*.4.4.:.2.3.*.2.3.3.2.%.3.3.3.3.3.3.3.3.3.3.3.2.&.| &.[ 3.L L L 4.4.3.>.*.*.:.>.>.>.3.-.3.>.-.-.:.:.:.:.>.>.3.:.3.>.3.3.3.4.3.3.3.e.e.4.4.*.*.%.*.*.*.1.4.4.*.4.*.*.4.3.[ 3.2.%.3.[ 3.4.4.[ 4.4.4.4.4.4.3.0.4.3.3.3.3.3.3.3.4.3.3.3.3.4.3.3.3.3.3.3.3.3.3.3.3.3.3.3.%.3.-.:.-.-.:.*.:.*.:.:.:.:.:.:.:.%.3.4.3.4.%.%.3.%.3.4.3.3.%.3.4.3.:.2.>.3.:.>.>.3.:.2.3.:.-.3.3.3.3.:.3.4.3.:.4.4.4.4.3.:.&.&.:.| L L [ %.1.%.[ 1.4.4.:.4.4.4.s.e.e.r.4.4.r.4.r.4.r.4.4.4.4.4.4.3.4.4.s.4.s.4.s.e.e.u.e.e.e.e.e.u.u.7.e.p.e.e.u.u.u.u.u.u.p.u.e.u.u.r.r.e.e.e.7.7.e.e.4.e.e.e.3.e.9.e.e.9.e.e.9.4.0.y.0.4.s.s.4.",
"e.e.e.e.e.e.0.r.4.4.4.4.4.4.4.4.4.4.s.4.4.r.4.4.i.4.i.4.4.i.i.i.d.4.4.4.j.4.j.4.4.a.4.4.4.i.4.i.r.r.r.4.e.r.e.3.3.-.:.3.3.3.0.3.i.4.4.4.4.d.4.4.4.j.4.4.4.j.i.4.4.4.r.4.4.i.i.4.i.i.4.i.i.i.i.j.j.4.4.4.4.4.j.4.i.i.i.4.i.4.i.4.j.j.4.z.4.3.2.2.u.u.4.4.4.i.i.i.r.4.4.3.3.*.:.:.4.%.3.4.4.4.4.4.[ 4.4.4.4.4.u.u.e.,.u.u.e.,.e.7.d.4.4.4.4.4.4.4.s.4.4.d.d.4.4.4.u.e.e.e.e.u.u.u.4.4.4.4.i.i.4.4.4.4.4.1.:.:.4.*.:.4.4.4.%.[ [ %.[ %.[ *.*.:.:.4.4.:.1.4.1.4.*.:.*.3.:.3.:.:.3.3.2.3.3.%.3.%.%.3.-.:.-.:.*.&.| %.2.2.3.2.2.4.4.3.>.-.:.>.>.3.3.3.>.>.>.:.3.:.:.2.:.-.>.:.>.:.>.2.>.3.3.e.9.3.3.3.4.4.4.4.1.4.1.*.*.*.4.1.4.*.*.*.3.3.3.[ %.[ 3.3.[ [ 3.4.4.4.4.4.3.3.3.3.3.2.3.3.3.3.3.3.3.3.3.3.3.2.%.3.2.3.3.3.[ 4.3.%.[ 3.3.3.3.3.-.*.:.2.:.-.*.*.:.&.:.:.:.>.4.3.4.%.%.3.4.%.4.4.%.3.3.4.%.%.3.:.:.3.:.3.2.:.3.:.>.>.3.3.3.:.3.3.3.3.:.3.3.:.:.:.>.3.:.:.:.:.4.1.1.*.*.[ %.*.[ 1.4.4.4.s.4.4.4.r.4.4.r.4.e.4.r.4.0.4.4.4.4.3.4.4.4.4.4.4.4.4.e.e.e.u.7.e.7.u.e.e.p.e.e.u.e.u.e.p.e.e.u.e.e.u.r.e.t.e.e.e.e.e.e.e.e.e.7.e.,.,.e.6.6.9.9.6.3.0.y.4.4.0.4.4.4.s.",
"e.e.e.r.e.e.y.r.4.d.4.4.4.r.0.4.4.4.4.s.4.r.4.i.i.4.i.i.i.i.4.i.4.4.4.j.4.4.3.4.4.4.4.4.4.4.4.4.4.4.r.4.4.e.4.0.3.>.3.:.2.3.3.3.4.4.i.4.d.4.4.4.4.d.4.4.i.4.u.u.4.3.3.3.4.4.h.4.4.i.a.a.4.j.i.i.i.4.i.i.4.4.4.4.4.4.4.i.i.4.:.3.[ L [ [ 2.3.4.4.3.4.4.4.4.4.4.4.:.%.:.%.*.&.:.:.3.%.4.4.4.:.4.4.4.4.u.u.u.u.u.u.4.4.h.4.4.,.4.4.4.4.4.4.3.4.4.4.4.4.4.4.4.d.s.4.e.u.,.u.,.h.,.u.h.,.,.,.i.i.4.4.4.4.4.4.:.:.:.:.4.i.4.%.L [ *.:.%.%.%.1.%.*.1.*.*.1.1.4.4.4.1.*.-.-.:.-.:.:.3.3.2.%.3.2.2.3.%.2.3.%.3.3.2.%.%.%.2.L 3.3.%.<.3.4.-.>.3.3.3.3.>.*.:.-.:.-.:.2.-.:.3.2.:.3.>.:.3.:.*.-.3.3.3.9.e.e.4.4.4.1.4.4.4.*.*.*.*.*.*.%.%.*.[ 3.3.4.3.3.[ 4.3.[ %.4.3.%.4.4.2.2.3.3.2.2.2.%.2.3.3.[ 3.3.3.1.3.2.2.2.2.3.%.%.%.3.2.2.3.2.3.%.2.:.:.2.3.>.-.*.*.*.*.:.:.:.3.>.3.%.:.:.:.3.4.3.3.%.%.4.4.%.4.3.:.2.:.3.3.:.3.2.>.:.-.:.3.:.3.>.4.3.4.3.:.3.:.:.3.4.4.4.4.e.e.r.4.4.4.4.%.L | *.*.4.i.4.4.4.4.s.4.r.4.0.y.4.y.4.4.4.4.4.4.4.4.4.4.4.s.4.4.s.4.4.e.e.e.e.e.7.,.u.e.u.7.u.p.u.u.7.e.u.u.u.u.p.e.t.t.e.e.e.e.7.7.e.e.e.e.e.,.4.>.e.6.6.6.6.3.3.0.e.0.4.w.4.s.s.4.4.",
"e.r.e.e.r.e.0.r.4.s.4.s.0.4.r.r.r.s.4.4.i.4.r.r.4.i.i.i.i.i.i.i.4.4.4.z.4.%.[ %.3.3.3.4.4.4.i.4.r.4.r.4.e.e.4.3.3.3.-.-.:.3.3.3.i.4.4.a.4.4.j.4.4.4.4.d.4.4.4.4.3.2.3.:.4.4.4.4.i.i.4.i.a.4.i.a.i.4.j.i.j.j.j.4.4.4.i.4.:.3.[ [ 4.4.4.4.[ 4.4.4.3.;.4.4.4.4.4.%.4.3.4.4.3.:.3.4.%.3.4.4.4.;.4.4.4.u.u.4.,.4.4.u.u.4.,.,.4.4.,.4.4.4.3.4.4.4.4.4.4.4.s.4.4.4.4.4.4.e.7.u.,.h.h.u.u.u.u.u.4.4.4.u.4.4.4.4.4.:.4.:.4.4.:.[ L *.4.:.%.1.%.%.| [ [ 1.*.%.*.*.1.4.4.*.-.3.:.-.-.*.:.2.3.3.3.3.2.3.3.2.3.3.3.%.2.:.2.3.3.[ 3.[ 2.<.3.4.>.3.9.9.3.3.>.*.-.:.:.-.:.:.3.:.-.:.-.:.:.>.:.3.3.3.3.>.3.3.4.3.1.4.4.4.4.1.4.4.4.4.*.*.*.*.1.*.3.3.4.4.4.[ 3.L [ 4.3.4.4.%.%.%.*.2.%.2.2.%.2.%.2.1.3.1.L 3.3.3.2.%.%.3.3.3.3.2.2.3.%.%.3.3.3.3.-.-.3.3.>.2.-.&.*.*.:.&.*.:.:.>.3.3.3.:.3.%.%.3.3.4.3.4.3.4.%.3.2.:.>.:.:.3.-.:.:.*.-.3.3.3.3.e.3.4.3.4.4.4.4.4.4.4.4.4.4.e.4.4.1.%.*.1.%.^ L ^ *.i.4.4.4.4.4.4.e.4.r.4.4.4.4.4.r.4.4.y.i.4.4.4.4.4.4.4.4.4.4.4.e.e.e.e.7.,.e.u.,.7.u.u.u.u.u.u.u.u.u.u.u.e.p.u.u.e.e.e.e.e.e.e.e.e.e.7.e.,.4.,.9.6.>.6.4.0.0.3.s.0.4.w.4.4.4.s.",
"y.e.e.e.e.e.e.y.4.4.4.4.r.4.r.r.r.r.4.r.4.r.4.i.4.i.i.i.i.4.i.i.i.a.d.4.3.%.L %.[ &.:.3.4.4.i.i.r.4.4.4.4.4.3.3.3.>.-.>.-.3.3.0.4.4.4.4.4.a.d.4.4.4.4.j.4.4.4.4.3.3.3.3.4.3.3.4.i.4.i.a.4.a.4.a.i.i.4.4.4.4.4.3.4.i.i.:.%.[ 3.:.4.[ [ :.4.%.3.3.4.4.4.4.4.;.:.%.3.3.4.:.:.4.3.3.3.4.4.4.4.:.4.u.4.u.4.u.u.u.u.,.4.u.u.,.4.,.4.4.4.4.4.4.3.4.4.4.4.d.4.4.4.4.4.4.7.,.u.,.,.u.h.u.4.u.4.u.u.u.4.u.4.4.4.4.*.4.:.4.:.:.:.*.*.:.:.*.1.*.*.*.%.%.[ [ [ %.%.%.:.4.1.*.-.2.:.2.-.-.:.3.2.3.3.3.%.3.3.3.3.3.3.3.%.2.3.3.3.2.3.2.%.3.4.4.e.e.e.e.3.3.>.>.:.-.:.:.3.:.:.3.:.3.3.:.>.>.>.>.3.3.>.>.>.3.3.3.4.4.4.1.1.4.4.4.4.4.4.*.*.*.*.*.3.3.3.4.4.3.3.3.3.[ 3.%.[ %.%.%.&.&.1.2.%.2.%.2.1.3.[ 3.3.[ 3.[ %.%.[ 2.3.%.%.2.%.3.3.3.2.3.2.3.3.3.3.3.>.:.:.:.:.:.*.*.*.:.:.:.%.3.%.:.%.%.4.:.%.%.4.4.3.3.%.4.:.>.:.2.:.:.:.:.3.-.:.3.3.3.3.r.3.4.4.3.4.3.4.3.:.&.*.%.&.&.%.| 1.1.%.[ | | L L L *.4.4.s.z.4.i.4.r.r.4.4.y.4.y.0.4.4.4.4.4.3.3.4.4.s.4.4.s.s.4.e.e.,.e.e.e.e.7.u.7.u.u.7.h.p.u.u.u.7.u.u.u.u.u.e.e.e.e.e.e.e.e.7.4.e.e.7.e.,.e.6.6.6.9.r.4.0.4.4.4.s.4.4.4.4.s.",
"e.e.e.0.r.e.r.e.s.4.s.s.4.0.4.r.4.r.r.r.i.i.4.i.i.i.i.i.i.i.4.4.i.i.4.&.%.&.&.%.L L %.&.4.4.4.4.4.4.4.4.4.3.3.3.>.3.3.3.>.3.0.r.4.4.a.4.j.4.4.4.d.j.4.4.4.4.4.:.3.3.3.:.&.%.:.:.i.s.i.4.a.4.i.4.4.4.4.2.%.1.[ [ %.%.[ 4.:.:.%.4.4.:.4.[ 3.3.3.3.4.:.4.3.%.:.:.4.3.:.3.4.4.:.3.3.4.3.3.4.4.4.4.4.4.u.4.4.u.u.4.,.4.u.,.4.4.,.4.4.4.4.3.4.4.4.4.4.4.4.4.4.4.4.4.4.4.u.,.u.h.,.,.u.h.,.,.u.,.4.u.4.4.4.:.:.4.:.4.4.4.4.4.:.*.*.*.1.*.*.*.*.1.%.%.| *.%.1.*.:.4.4.:.:.3.3.:.-.&.2.3.3.3.3.3.3.3.3.3.3.3.3.2.3.3.3.3.3.4.[ [ 3.4.4.4.4.e.e.9.3.3.>.-.>.>.3.-.:.2.3.:.3.:.:.2.2.-.>.>.>.>.>.>.3.9.3.>.4.4.4.4.4.*.4.1.*.1.4.4.4.*.*.*.[ 2.[ 4.4.4.4.4.[ 4.[ %.%.4.%.4.&.&.%.%.3.%.2.%.1.[ 3.L L 1.L 3.[ [ [ %.3.%.2.3.%.3.%.3.2.3.%.3.:.3.3.3.2.3.3.3.3.2.:.:.*.&.*.-.3.%.:.:.:.3.3.:.4.3.3.%.%.4.3.%.:.:.:.:.2.:.-.:.:.-.-.-.&.&.3.4.4.4.4.3.3.%.%.{ { [ [ { { %.%.| L | %.L L L ` [ %.4.4.4.4.4.4.i.r.4.4.r.4.4.4.y.4.4.4.4.4.3.*.%.3.4.4.4.4.4.4.4.e.e.e.,.,.u.e.,.,.u.7.7.u.7.p.7.p.p.p.p.p.e.u.u.4.e.7.4.7.e.e.e.7.e.7.4.e.,.e.,.>.>.6.9.4.s.0.4.0.0.4.4.s.s.4.4.",
"e.e.e.y.r.r.r.r.r.r.r.r.r.r.4.i.i.i.4.4.z.4.z.4.4.i.4.i.4.i.4.j.s.*.[ %.*.[ %.*.%.%.%.[ %.:.4.4.4.4.4.4.4.4.4.:.4.4.3.3.4.4.4.4.4.4.d.4.d.4.4.s.4.a.4.4.4.4.4.3.:.3.3.4.3.:.:.%.[ %.3.i.l.i.4.4.4.2.1.3.3.%.%.[ %.%.[ %.3.3.%.3.:.:.:.:.3.:.3.3.3.:.3.:.:.:.3.:.3.3.3.%.3.3.3.4.4.3.3.3.%.4.4.4.4.4.a.a.4.4.4.4.a.d.4.4.4.;.4.:.3.3.3.4.4.i.4.4.4.r.i.4.4.4.4.4.4.7.e.,.e.u.u.e.u.u.e.,.e.e.,.e.4.4.4.4.3.3.3.3.4.4.4.%.*.4.4.*.3.%.[ 3.3.[ 1.3.[ 3.[ 3.1.3.3.3.2.:.2.:.-.-.:.-.>.3.3.3.3.3.3.3.3.3.[ 3.3.3.3.3.[ [ 3.[ 2.4.4.4.4.4.4.4.4.4.4.:.*.4.*.4.4.:.4.*.-.:.3.2.3.3.[ 3.3.3.%.3.3.3.3.3.:.4.4.4.*.*.:.:.*.4.4.1.4.*.*.*.*.%.*.*.:.:.:.:.%.%.%.%.%.%.*.*.[ 2.[ 2.[ 3.[ 3.3.L L 2.2.[ [ [ | 1.[ 1.3.3.2.1.3.3.3.3.[ 3.3.3.3.>.-.>.3.3.3.>.3.>.%.| %.-.:.:.%.3.%.3.2.3.3.%.3.3.3.%.3.[ 3.[ :.:.:.:.:.3.:.3.*.*.>.:.:.*.*.%.4.4.2.%.| | | [ { { { | %.| | | *.%.L L [ %.%.%.%.4.4.4.4.4.4.s.4.4.s.4.4.4.4.4.9.e.9.e.0.3.3.:.3.3.3.4.4.4.d.4.4.s.4.4.4.r.4.r.,.e.e.e.e.e.e.u.u.u.u.e.e.t.e.e.7.e.e.7.4.7.e.e.e.,.,.,.e.e.,.:.9.9.9.e.0.e.0.e.e.9.e.e.0.0.e.0.",
"y.e.e.0.e.r.r.e.r.4.r.r.r.i.r.r.4.4.z.i.4.4.i.4.z.4.4.j.j.4.i.4.4.1.%.%.%.%.%.*.%.[ %.%.%.:.4.4.4.4.4.4.:.4.3.3.4.4.4.3.4.4.4.4.4.4.4.4.i.4.4.4.4.4.4.4.3.4.:.3.3.:.4.4.3.4.3.:.3.%.[ %.%.%.:.%.4.3.3.3.3.%.3.3.3.3.3.%.3.%.3.%.:.:.:.:.&.:.:.3.:.3.3.:.3.:.:.3.%.4.3.4.3.%.3.%.3.3.3.4.4.4.4.4.4.d.4.4.4.a.4.4.4.4.4.4.4.4.:.4.:.:.3.4.4.4.4.4.r.4.4.4.4.4.4.4.4.u.e.4.e.u.r.e.u.e.7.e.,.e.7.e.4.i.i.4.3.4.3.3.%.4.4.3.:.*.*.*.[ 1.3.3.1.3.[ [ 3.[ 2.[ 2.3.3.3.>.3.3.3.2.-.3.3.-.3.3.3.2.3.3.9.3.3.4.3.3.3.3.3.3.3.3.3.3.4.4.4.4.4.4.4.4.4.1.:.:.:.1.:.*.:.1.4.2.3.3.:.3.3.3.3.3.[ 1.3.3.3.3.3.4.1.*.4.1.4.1.*.*.*.*.*.4.*.1.*.*.*.*.*.*.*.:.*.%.%.%.%.%.%.*.*.3.L 3.[ [ L 1.3.2.1.3.3.[ 1.[ 1.| [ L [ [ 3.3.3.2.2.3.3.3.3.3.3.3.3.3.3.3.3.3.>.>.*.&.&.=.*.*.&.%.%.3.%.%.%.%.2.%.%.3.3.3.3.3.3.:.3.3.:.3.&.3.&.;.*.*.:.*.*.*.*.%.%.| [ [ [ | | | &.=.*.>.>.>.3.:.:.4.*.1.*.*.%.1.4.4.4.4.4.i.4.4.i.4.4.4.4.4.i.e.9.9.9.3.3.2.2.3.3.4.4.4.4.4.4.4.4.s.4.4.4.4.4.e.6.,.e.7.e.e.e.u.t.e.e.e.e.4.e.e.e.,.7.e.e.7.7.7.e.7.,.,.,.,.>.9.e.0.e.e.0.e.0.e.e.0.e.e.e.e.e.",
"r.e.e.r.r.0.r.e.4.r.e.r.i.i.i.i.4.4.4.z.4.z.:.i.i.4.i.4.4.j.m.4.%.%.*.%.%.[ [ [ [ [ [ %.%.%.:.4.4.4.4.4.4.4.3.4.3.4.4.4.4.4.4.4.4.4.4.4.4.4.s.4.4.4.4.4.3.:.3.3.:.4.:.4.4.:.4.:.3.3.:.&.3.&.:.3.3.3.3.2.[ 3.%.3.3.2.%.3.3.%.3.[ :.:.:.3.3.:.:.:.3.:.:.:.3.:.3.:.3.3.3.3.3.3.4.4.3.3.3.%.4.4.4.4.4.4.i.4.a.i.4.i.4.4.i.4.4.:.:.:.3.:.3.4.4.4.4.4.4.4.4.4.4.4.4.4.4.e.7.4.4.e.r.e.e.e.7.,.e.7.e.e.4.4.4.4.3.%.3.3.3.%.%.3.:.*.%.*.3.3.3.[ %.3.[ 3.1.L 3.1.[ 4.4.3.-.-.3.3.3.3.2.3.3.2.3.3.3.3.3.9.3.3.3.3.3.3.[ 3.%.3.[ 3.3.4.4.4.0.0.4.4.1.4.1.4.4.1.1.4.1.4.:.:.3.&.2.*.3.[ 3.3.3.3.[ 3.1.3.3.3.4.4.1.4.4.:.4.*.*.*.4.*.*.1.1.4.4.*.*.*.*.*.*.:.*.*.*.*.%.*.*.%.[ 1.3.[ 3.1.3.L L 3.3.L L [ L L %.[ [ [ 2.3.3.4.[ 3.[ 3.[ 3.3.3.3.>.>.3.3.>.>.:.:.-.*.=.&.*.*.&.3.3.[ 3.%.%.%.3.%.3.%.3.3.3.3.3.3.3.:.:.3.:.&.:.&.&.&.&.%.%.*.*.[ [ | | | | &.&.>.>.>.3.4.e.3.3.4.4.4.4.4.:.*.%.1.4.4.4.4.4.4.4.4.4.4.i.r.4.4.4.e.9.9.3.3.2.2.2.2.3.3.4.4.s.4.4.4.4.4.i.4.y.4.r.,.e.e.4.e.e.e.e.e.e.e.e.e.7.e.e.e.e.e.e.7.e.,.e.,.e.e.>.;.;.>.e.9.0.e.e.0.e.e.e.0.0.e.e.0.e.0.e.",
"e.e.e.e.e.r.e.r.r.e.e.r.r.i.4.r.4.z.4.4.z.4.*.i.i.4.i.4.4.4.:.[ [ %.%.%.[ [ [ L [ [ [ %.%.:.:.4.4.3.4.4.3.3.4.4.4.4.4.4.4.4.4.4.d.4.4.4.4.4.4.4.3.3.4.4.:.3.3.4.4.4.4.3.3.4.:.3.%.:.4.3.4.4.4.:.3.3.3.[ 3.%.3.3.%.3.3.%.%.3.%.3.:.%.:.%.:.:.%.3.%.:.:.3.:.3.:.:.%.4.4.%.3.3.4.4.3.3.3.4.4.4.4.4.i.4.4.i.4.a.i.4.d.d.4.4.:.3.3.3.:.3.4.4.4.4.4.4.4.u.i.4.u.4.4.4.e.,.u.e.e.u.r.e.e.,.4.e.e.e.e.e.4.4.4.4.3.3.3.%.%.3.%.%.*.*.*.4.[ 3.3.3.[ 3.2.3.3.[ L L 3.3.3.[ :.>.3.3.3.>.3.3.3.3.>.-.2.2.3.3.3.3.3.3.3.3.3.[ 3.[ 3.3.4.4.4.4.0.4.4.1.4.*.*.4.4.:.*.4.:.:.1.4.2.2.2.3.3.1.3.3.3.2.3.3.%.3.3.[ :.1.4.4.1.:.:.4.1.*.4.*.4.*.4.4.:.4.4.:.:.*.:.*.4.4.:.:.*.*.*.*.[ L [ L 3.L L 1.[ [ [ 2.L 2.1.[ [ 1.| | 3.[ 1.3.3.1.3.3.3.2.3.2.*.*.-.>.:.>.-.-.*.-.&.&.%.&.-.3.3.%.3.3.%.3.3.%.[ 3.3.3.3.[ %.3.*.:.3.:.:.:.3.&.;.&.%.%.%.[ %.[ | | | %.&.:.3.3.3.e.e.3.3.>.>.>.4.4.4.4.4.4.4.:.4.4.4.4.4.s.4.4.i.4.i.4.4.4.4.i.e.e.9.9.3.3.3.3.3.4.4.4.4.d.4.4.4.d.4.4.4.4.4.4.e.e.e.e.e.e.7.e.e.7.e.e.e.7.e.>.e.7.,.e.e.7.e.,.,.>.e.,.;.>.4.r.e.e.0.e.y.e.e.0.e.e.e.0.e.e.0.e.",
"e.r.e.e.e.y.e.r.i.4.r.4.r.i.4.i.s.i.4.4.z.4.z.4.4.i.:.4.4.4.L %.*.*.*.[ [ %.[ L %.[ [ %.:.%.:.4.3.4.4.3.3.3.3.4.4.4.4.4.4.4.a.4.4.4.4.4.4.3.3.3.2.2.3.3.4.4.4.4.4.4.4.:.4.:.3.3.3.4.3.:.:.4.4.3.3.[ [ 3.3.3.3.%.3.%.3.%.3.%.3.3.%.3.%.3.:.:.:.:.%.3.3.:.3.:.:.4.4.4.3.3.3.4.4.4.4.4.4.4.4.4.4.4.4.d.4.4.4.i.d.4.4.i.d.4.4.4.3.4.4.4.4.4.4.r.4.4.i.i.4.r.4.4.r.4.e.u.e.4.u.u.r.r.u.,.4.7.e.e.e.e.4.4.4.4.:.4.:.4.%.%.[ [ 1.3.*.:.3.3.3.[ 3.[ 3.[ [ L [ 3.2.[ 3.2.3.3.3.3.3.3.3.3.9.3.3.-.>.>.3.9.3.3.3.3.3.3.1.3.[ 3.3.3.%.4.4.4.4.4.4.1.4.*.4.4.:.:.4.4.:.4.*.:.3.2.2.3.3.%.[ 3.3.1.4.%.3.3.%.3.4.1.4.*.4.4.4.*.4.*.4.1.*.4.1.4.:.:.:.*.*.*.*.*.%.%.%.%.*.*.*.*.4.3.[ 1.L 2.[ [ 1.3.L [ [ 1.L L L [ ` [ 1.[ [ [ [ 3.1.3.3.3.[ 3.&.*.:.-.>.>.-.:.:.:.*.&.&.&.=.:.[ 3.2.%.3.%.%.3.3.%.3.3.3.3.[ 3.3.:.*.3.&.&.&.&.&.%.%.{ { { | | &.=.*.*.:.3.>.>.9.3.3.3.e.3.4.3.4.4.4.1.:.4.4.4.4.4.4.4.4.i.i.4.4.4.4.4.r.r.4.r.e.9.3.>.>.2.2.3.3.3.4.4.4.d.4.d.4.y.y.4.4.4.4.4.e.4.e.e.e.e.9.e.7.e.6.e.e.e.e.e.,.e.e.e.7.e.7.e.>.,.;.;.3.4.4.r.e.e.t.e.r.0.y.0.0.e.e.0.e.e.0.e.",
"e.e.r.e.e.e.e.r.r.i.r.r.4.i.4.r.4.4.i.4.4.4.m.[ %.z.4.4.4.j.%.4.*.%.*.[ [ %.%.[ [ [ [ %.%.%.:.:.3.3.4.4.4.3.4.4.4.4.4.4.4.4.4.4.4.4.4.4.3.3.3.4.3.3.4.4.4.4.4.4.3.:.3.3.:.3.:.:.4.4.4.3.:.4.4.:.[ 3.3.3.3.3.%.3.%.3.3.:.%.3.3.%.:.%.:.&.%.:.:.3.%.:.:.4.3.3.3.:.3.3.3.4.3.4.4.4.4.4.4.4.4.4.i.4.4.4.4.d.d.i.4.a.a.4.4.4.3.3.4.4.4.4.4.4.4.4.r.4.r.4.4.r.r.u.u.r.e.e.u.e.u.u.u.u.e.e.e.,.,.u.e.7.4.4.4.4.4.4.*.%.%.4.%.[ %.4.:.%.3.[ 3.1.[ 3.[ 2.3.1.3.L [ L 2.2.3.3.4.3.9.3.3.9.3.3.3.>.>.3.3.3.3.3.3.[ [ 3.[ 3.[ 3.3.%.3.4.4.4.1.4.4.4.*.4.1.4.4.1.4.*.4.1.1.4.%.3.2.3.3.3.3.2.*.3.4.3.3.3.3.3.*.4.*.4.*.1.*.4.1.4.*.4.1.*.*.4.:.:.:.:.:.:.4.*.%.%.[ [ [ %.[ [ 3.3.4.[ 3.L L <.L L [ L L <.L L L [ [ [ [ [ L 1.[ %.[ [ [ 3.[ 1.*.>.3.>.>.-.>.>.>.>.3.>.-.&.&.&.%.%.[ 3.%.2.3.%.[ 3.3.[ [ 2.4.3.:.3.:.*.%.%.%.%.%.| { %.&.:.-.>.>.3.>.>.3.3.3.>.>.3.3.9.3.3.4.3.4.4.4.4.4.4.4.4.4.4.4.4.4.4.4.s.4.4.4.4.4.4.4.4.3.>.>.-.3.3.3.3.4.4.s.4.4.4.4.4.4.4.4.4.4.y.4.y.9.e.e.7.6.7.e.7.,.e.e.e.e.4.e.e.e.,.e.7.e.e.3.,.,.-.;.>.4.4.r.r.e.e.e.e.e.e.e.e.e.e.e.0.t.0.e.e.",
"y.r.0.e.e.e.e.e.r.4.i.r.4.i.i.i.4.4.i.4.4.s.s.L L i.4.4.4.z.%.L %.%.%.%.%.%.%.%.[ %.%.%.%.:.4.%.2.3.3.4.4.4.3.4.4.4.4.4.4.4.a.4.4.4.4.4.3.3.4.4.3.4.4.4.4.4.3.3.4.:.:.4.4.:.:.3.:.:.:.3.4.3.3.%.3.3.3.3.%.3.3.3.3.3.%.2.%.2.%.3.&.:.&.:.:.:.:.:.:.:.4.:.:.3.3.4.%.4.3.4.4.4.4.4.4.4.4.d.4.4.4.4.4.a.4.i.4.i.i.4.4.i.4.4.3.4.3.4.i.4.4.4.4.i.i.4.4.i.u.r.r.4.4.r.4.u.e.e.u.u.u.r.e.7.e.e.4.e.,.,.3.4.4.4.4.:.*.%.3.3.%.%.3.4.1.*.%.3.%.3.3.[ 3.[ 1.3.L 3.L 2.[ 3.2.3.3.3.3.3.3.e.3.3.3.-.3.>.3.3.3.3.3.3.3.3.3.[ 3.%.3.3.3.3.4.4.4.:.1.4.4.1.1.4.:.4.1.4.4.*.*.4.3.2.2.2.2.%.3.2.4.3.1.3.3.3.3.%.1.*.4.*.4.*.4.*.*.*.4.*.*.*.*.*.:.:.4.4.4.:.4.1.4.*.*.*.%.*.*.[ L L [ 3.3.L L D [ L L [ L L L L 1.%.| %.3.1.[ [ [ 3.[ 3.3.[ %.3.&.:.-.3.>.>.>.>.-.>.3.3.>.*.&.%.%.%.%.%.[ 3.%.2.3.%.3.3.3.3.3.4.*.%.%.%.%.%.%.%.&.%.&.&.>.>.3.>.3.4.3.3.3.9.3.>.3.3.3.3.>.3.3.3.4.4.4.4.4.4.4.4.4.4.4.4.4.4.4.4.4.4.4.4.3.3.4.1.>.>.>.3.3.3.3.3.4.4.4.4.4.4.4.4.r.4.4.r.4.4.4.4.e.7.e.>.e.e.9.e.e.e.,.e.e.e.e.e.e.e.e.7.4.>.,.>.>.;.>.e.4.i.4.4.t.e.t.0.0.e.e.e.e.e.e.r.0.r.e.e.",
"e.e.e.e.r.0.e.e.4.r.4.4.i.4.i.i.4.z.4.4.z.z.L [ [ [ L %.[ [ [ %.%.%.%.1.%.%.%.%.%.%.%.%.%.:.%.%.2.3.3.4.3.3.4.3.4.4.4.4.4.4.4.4.4.4.4.3.4.3.s.4.3.4.4.4.4.4.4.3.:.3.:.3.:.3.3.:.4.3.:.3.4.:.3.3.3.3.3.[ 3.3.3.[ %.3.3.3.3.%.3.%.:.3.:.:.:.%.%.:.3.:.3.3.3.:.3.4.4.4.4.4.4.4.4.4.4.4.4.4.i.i.4.i.4.i.4.4.d.4.a.4.4.4.4.4.4.4.4.4.i.i.4.i.r.r.i.4.r.4.u.4.i.4.u.u.u.4.e.7.e.u.p.u.u.u.e.4.u.e.e.,.4.4.4.4.4.4.4.4.4.4.3.%.*.*.*.*.3.3.[ 3.2.3.[ 3.[ [ 2.L 3.[ 1.L &.-.:.3.3.9.3.3.3.3.>.3.-.>.3.>.3.3.3.3.3.3.2.3.%.3.3.3.3.4.3.4.:.4.1.4.4.:.4.*.4.1.4.:.:.4.1.:.3.3.%.3.3.2.3.2.4.%.3.%.3.3.3.3.*.4.*.4.*.1.*.*.*.4.*.1.4.4.1.4.4.4.1.4.:.4.*.*.*.*.*.*.*.4.1.*.3.3.3.[ L L <.2.L L L 1.[ L [ 3.| 2.%.2.4.3.2.[ [ [ [ [ [ [ 3.[ +.&.>.>.>.>.>.>.>.>.-.:.*.*.-.*.2.2.[ 2.3.%.3.[ [ 3.[ 3.3.3.[ [ | | | { %.*.&.&.-.*.:.>.>.4.>.-.3.3.3.>.>.3.>.>.3.3.3.3.3.3.3.e.4.4.4.4.4.4.4.4.4.4.4.4.4.4.4.4.4.4.4.4.1.4.:.4.>.>.>.3.3.3.e.e.4.4.4.4.s.4.4.d.4.r.r.4.0.4.r.4.e.7.e.e.e.7.e.7.e.e.e.7.7.4.,.7.e.4.e.e.e.9.;.;.-.>.>.e.4.i.4.s.e.e.e.e.e.e.y.0.e.t.e.e.e.e.e.r.",
"y.4.y.4.0.4.4.y.4.r.i.4.r.r.4.i.4.4.z.4.M L [ 4.*.[ [ [ %.%.%.[ %.%.*.%.*.%.1.%.3.L [ 3.[ 3.%.4.4.4.4.4.4.4.4.4.4.4.3.3.3.4.4.4.4.3.4.4.4.4.4.4.4.4.4.4.4.3.4.4.4.3.3.:.4.3.:.3.:.4.3.3.:.4.4.3.3.3.3.:.3.:.3.3.3.3.:.:.:.3.&.3.%.:.:.:.:.&.&.3.:.:.:.3.:.4.3.:.4.4.4.4.4.i.4.i.4.4.4.4.4.4.4.4.4.i.i.i.4.a.a.4.4.4.4.4.4.4.4.4.4.i.i.i.i.i.4.i.r.4.i.4.r.r.r.4.,.e.e.e.r.u.u.r.e.e.e.,.,.,.,.,.4.4.4.4.4.4.4.4.4.:.4.:.:.4.1.4.3.1.%.%.%.1.%.%.1.%.2.[ 2.[ [ 3.&.%.&.3.4.4.3.3.>.9.3.>.>.3.3.e.3.3.3.3.[ 3.3.[ 3.%.3.%.3.3.3.*.3.3.3.3.3.3.*.3.:.:.4.:.4.1.4.:.*.1.:.:.1.4.4.1.3.1.*.1.:.:.3.1.*.1.4.4.*.*.4.1.*.4.*.4.*.4.1.4.*.4.4.:.:.4.*.*.4.*.*.*.4.1.:.*.3.2.3.%.3.[ L L [ [ [ [ 2.[ L [ [ [ %.%.3.%.2.2.[ 1.L [ 3.3.[ [ &.&.*.:.>.>.3.3.3.:.>.2.3.2.:.:.%.:.2.&.%.%.%.%.3.[ 3.3.L [ [ [ %.| &.*.:.2.3.3.>.>.:.3.3.-.3.9.>.>.3.>.9.>.3.3.3.3.3.9.3.4.3.3.4.4.4.4.4.4.4.4.4.4.4.4.4.4.4.4.4.4.4.4.3.1.3.3.3.3.3.4.e.e.3.3.4.4.4.e.4.e.e.4.4.4.4.4.y.4.y.4.9.e.7.>.e.7.e.e.e.e.e.e.,.e.e.4.4.e.4.4.>.>.>.>.2.3.3.4.4.4.i.4.e.e.e.e.r.e.e.e.e.r.e.e.e.e.r.e.",
"4.y.4.y.4.y.4.4.r.4.r.4.4.4.4.i.s.4.4.%.L *.*.*.%.[ [ %.*.%.%.%.%.%.%.1.%.%.%.*.[ 3.3.[ 3.3.4.[ 3.4.4.4.4.4.4.4.4.4.4.3.4.3.3.4.3.4.4.4.4.4.4.4.4.4.4.4.4.4.3.4.:.4.4.:.:.4.:.3.4.:.:.4.3.3.:.4.3.:.3.3.3.3.:.&.3.3.2.3.3.&.&.3.3.&.:.:.:.:.:.:.3.3.4.4.4.:.3.4.4.4.4.i.4.4.4.4.4.4.j.4.4.j.j.4.4.a.4.i.i.4.4.4.4.4.4.4.4.4.j.4.4.i.4.i.4.i.i.i.i.i.u.r.u.4.r.u.e.e.e.r.r.p.u.r.u.u.e.e.e.,.,.4.4.4.4.4.4.4.4.4.4.4.*.:.*.:.:.*.3.%.3.%.3.%.%.%.[ | %.2.%.2.2.[ &.%.| *.:.>.>.4.9.9.4.3.3.3.3.3.3.3.3.3.3.[ 3.[ 1.3.%.3.3.3.3.3.4.1.*.3.1.4.*.3.4.:.1.4.4.*.1.*.4.*.4.4.:.:.*.*.4.*.3.*.4.:.:.:.4.*.:.1.:.:.*.*.1.*.4.1.4.*.4.4.*.*.:.:.1.:.*.4.:.:.*.*.:.:.:.*.[ 2.%.3.3.3.%.1.[ L [ 1.3.3.2.3.4.3.4.3.3.2.3.3.%.3.3.3.3.[ 3.3.&.&.-.>.>.>.>.>.:.>.*.-.:.*.*.&.3.%.%.[ [ %.{ | L 3.L [ L 2.[ 3.%.&.&.*.:.:.>.>.>.3.:.3.>.>.>.>.>.>.3.>.>.>.>.9.>.9.3.3.3.9.e.3.4.4.4.4.4.4.4.4.s.4.4.4.s.4.4.4.4.4.4.4.4.3.3.1.[ 4.3.4.e.4.e.e.e.4.0.4.e.e.4.e.4.4.4.4.4.4.4.4.e.7.e.e.e.e.,.e.7.e.4.7.e.4.e.4.4.,.3.3.>.>.>.:.2.3.3.3.4.4.4.4.r.e.r.r.e.e.r.r.e.0.0.e.r.e.e.e.",
"y.0.y.4.y.4.4.r.r.4.r.4.r.4.r.4.4.4.4.4.4.1.*.L [ L [ ) %.%.%.1.1.%.%.%.%.%.*.*.3.[ 3.[ [ 4.4.3.3.3.4.4.4.4.4.4.4.3.4.3.3.3.3.3.3.4.4.4.4.4.4.4.4.4.4.4.3.4.3.:.4.:.4.3.:.4.4.:.4.4.3.3.4.:.4.:.3.:.:.3.2.:.3.3.%.3.3.&.&.3.3.&.3.:.:.:.3.:.:.3.3.4.4.4.4.3.:.4.4.4.4.4.4.4.i.4.j.4.4.4.j.4.4.4.4.4.4.a.4.d.4.4.j.4.4.j.4.j.4.j.i.4.i.i.4.i.4.i.i.4.r.r.4.4.u.4.e.e.r.r.p.a.u.r.u.u.u.e.e.e.e.4.4.4.4.4.4.r.4.4.4.4.:.*.*.*.*.*.%.%.3.1.*.%.%.%.[ | %.%.2.%.2.3.*.&.%.%.&.:.>.>.>.>.>.>.>.>.>.3.3.3.3.%.3.[ 3.3.3.%.4.4.3.1.3.3.:.*.3.3.3.*.3.1.1.4.4.*.4.:.4.4.*.4.4.1.4.*.*.4.*.3.*.3.4.:.:.4.4.1.*.4.4.:.:.4.*.4.4.*.1.*.1.*.4.4.:.1.*.*.1.:.:.:.*.*.4.*.1.*.3.[ 3.3.3.3.3.3.%.2.%.%.2.3.2.[ 4.4.3.3.3.3.4.3.4.4.4.4.4.3.3.[ &.&.*.*.:.-.>.>.3.:.3.-.:.&.*.:.3.%.%.%.{ [ { | 1.L 3.[ [ [ 3.[ &.&.2.3.2.3.3.:.3.-.3.3.3.3.>.>.3.>.-.3.>.3.3.3.9.>.3.3.3.3.3.3.4.4.4.4.4.4.4.4.4.4.4.s.4.4.4.4.4.4.1.4.4.3.1.3.4.4.4.4.r.4.r.4.e.e.4.e.4.e.e.4.4.4.4.4.4.4.4.4.4.e.e.e.7.e.e.,.,.e.e.e.e.e.4.4.>.3.>.>.:.:.:.:.2.3.4.4.4.4.a.i.e.e.e.e.e.r.e.e.e.r.e.r.r.e.r.e.",
"r.4.4.y.4.y.4.y.4.r.4.r.i.i.4.i.z.4.4.s.4.[ [ %.L [ [ %.%.%.[ *.%.%.| %.%.*.*.*.[ 3.[ 3.3.[ %.4.2.4.4.4.4.4.4.4.3.4.3.3.4.3.3.3.3.3.4.4.4.4.4.4.4.4.4.4.4.:.4.3.3.3.:.4.4.:.3.4.:.3.4.4.4.3.4.3.3.3.3.3.:.3.3.%.3.&.&.3.3.&.3.3.:.3.:.3.&.:.:.3.4.:.4.:.4.3.3.4.4.4.4.i.4.4.4.4.4.4.j.4.4.4.j.4.a.4.i.4.4.4.4.4.4.4.4.4.4.4.i.i.i.u.u.4.i.i.4.i.i.u.4.u.i.r.u.r.u.u.r.r.a.r.u.r.u.u.e.e.e.e.e.u.4.4.i.4.r.4.4.4.4.4.4.1.*.*.4.:.4.3.3.%.*.%.%.1.%.2.%.2.[ 2.3.%.2.*.%.%.*.&.*.>.*.&.&.:.:.:.:.:.3.[ 3.1.[ 3.3.3.4.3.%.4.*.3.4.*.3.3.1.4.3.3.3.4.4.4.1.4.*.1.*.:.4.*.:.*.1.4.4.1.4.*.3.*.:.:.4.1.*.4.*.*.*.1.4.*.4.*.*.4.1.4.4.*.1.:.:.:.4.*.4.:.*.1.3.3.*.4.:.4.3.3.3.1.3.[ 3.[ 2.[ 1.1.[ 3.3.2.3.3.3.4.%.3.4.4.4.4.4.4.4.4.4.4.&.*.&.*.:.-.>.-.3.:.:.:.:.*.:.2.%.3.3.%.| | { { L 3.L [ 3.3.[ 2.*.*.*.*.:.3.2.>.>.3.3.-.-.-.9.3.>.>.3.>.3.3.>.3.3.3.3.3.3.9.3.3.4.4.4.4.4.4.4.4.4.4.4.4.4.4.4.4.s.4.1.4.3.3.3.3.4.4.4.4.r.4.4.i.e.4.e.4.e.4.4.4.4.y.4.4.4.4.4.4.,.,.>.,.>.,.>.e.3.7.4.e.e.7.4.4.>.>.>.:.3.3.3.:.3.3.3.4.4.4.4.4.e.r.r.e.e.e.e.r.e.e.e.e.e.e.r.e.",
"r.r.0.4.y.4.4.4.i.i.i.4.i.i.s.4.4.4.4.s.4.%.L 1.[ [ %.*.%.%.%.%.%.%.%.%.*.*.*.%.3.[ 3.[ 3.%.3.%.3.4.4.4.u.4.i.4.4.3.3.3.3.3.3.:.3.3.4.3.4.4.4.4.4.4.4.4.3.:.4.4.4.:.:.3.3.3.:.4.:.4.4.4.4.3.3.4.3.3.:.3.&.3.3.3.3.3.&.3.2.3.&.3.:.:.:.:.:.:.:.3.:.3.4.:.3.:.4.4.4.i.4.i.4.4.4.4.i.4.i.4.j.j.4.4.4.i.4.i.4.4.4.4.4.d.4.4.4.i.i.i.4.i.4.i.i.i.u.4.i.r.4.4.e.e.e.u.u.u.e.u.a.i.r.u.u.u.u.e.e.e.u.e.4.4.i.s.r.4.4.4.4.4.1.4.*.1.:.4.4.:.*.*.*.%.%.1.&.2.%.%.| &.*.2.*.:.%.%.%.%.*.%.:.>.:.*.:.:.&.&.[ 3.3.3.3.[ 3.4.3.3.%.3.3.3.3.4.3.%.3.3.3.3.%.4.4.4.1.4.4.:.:.*.1.*.4.*.1.4.:.*.:.1.:.:.1.:.1.:.*.4.*.1.*.*.4.*.*.1.4.*.4.*.4.4.:.1.1.*.*.*.1.*.:.3.1.:.*.4.*.1.%.3.3.1.[ %.3.%.%.%.| [ %.3.3.3.4.3.4.4.4.4.4.4.4.4.4.4.4.4.4.4.3.-.&.*.:.3.3.>.:.-.:.-.*.&.&.:.*.*.| | { [ [ [ [ [ 3.3.3.3.3.[ &.2.:.2.3.3.3.>.>.3.3.-.3.-.3.-.3.3.3.>.3.>.3.>.>.3.3.3.3.3.3.3.4.4.4.4.4.4.4.4.4.4.4.4.4.s.4.s.4.4.3.4.4.3.3.3.4.4.4.4.4.4.4.4.0.4.4.e.4.4.4.4.4.3.3.4.3.3.3.3.>.>.;.;.>.>.,.e.4.e.e.>.4.,.,.,.3.3.*.3.:.>.3.3.4.4.4.4.4.r.e.e.r.e.e.r.r.e.e.e.4.r.e.e.e.e.r.e.",
"4.r.e.r.4.y.r.r.4.4.i.4.i.4.4.4.4.4.4.4.4.4.%.L ) %.%.%.*.%.1.%.1.%.*.*.*.*.*.%.[ 3.[ 3.%.%.%.3.3.4.4.4.4.4.4.4.4.4.3.4.3.:.%.3.4.4.3.4.4.4.4.4.4.4.4.4.4.4.4.:.4.3.4.3.:.3.4.:.3.4.4.4.3.4.4.3.:.3.:.3.3.3.:.3.%.&.3.&.:.:.3.%.3.:.&.3.:.:.:.:.4.3.4.4.4.:.4.4.4.4.4.u.u.4.i.u.u.i.i.i.4.4.4.d.a.4.i.4.d.4.d.4.4.4.4.4.4.i.i.4.i.i.i.i.u.4.i.i.i.4.i.r.e.r.u.e.u.e.u.u.i.i.a.r.u.u.e.u.e.u.u.u.i.4.4.4.4.4.4.4.4.4.4.4.4.:.:.:.*.*.1.3.1.%.%.[ 2.%.2.%.2.*.&.*.%.%.%.| %.%.%.%.%.%.%.&.:.:.>.:.3.[ 3.[ 1.3.[ %.%.%.%.%.*.4.3.1.3.1.3.%.1.4.3.3.*.4.4.*.*.1.4.4.*.4.4.1.*.4.:.4.4.*.4.4.:.4.:.4.1.*.*.4.1.4.*.*.4.*.1.4.*.1.1.*.:.4.:.*.*.4.*.4.:.*.:.4.*.*.4.3.%.3.%.4.3.1.3.1.%.[ 2.%.2.&.3.3.4.3.4.4.4.4.4.4.4.4.4.4.4.4.3.4.3.>.*.&.*.:.:.&.:.-.:.>.:.*.&.&.2.&.| [ L [ { { [ 3.1.[ [ [ 3.[ &.*.:.3.2.*.2.:.3.-.-.3.2.3.>.3.3.>.3.>.3.3.3.>.3.>.>.9.3.3.3.3.1.4.4.4.4.4.4.4.4.4.4.4.4.4.4.4.4.1.1.3.[ 1.3.4.4.4.4.4.4.4.4.4.4.4.3.4.4.4.4.4.4.4.4.3.4.3.2.3.,.>.>.-.-.>.,.e.e.7.7.e.4.3.:.>.*.*.3.*.2.2.3.4.0.4.4.0.0.4.r.r.e.r.e.e.e.e.r.e.r.e.e.r.r.e.e.r.",
"e.e.r.e.r.r.4.r.r.r.i.s.i.4.4.4.4.s.4.1.4.z.*.%.[ [ [ 1.%.*.%.%.%.%.*.*.*.*.*.%.3.%.3.[ %.%.%.3.4.4.4.4.4.u.4.4.4.4.3.:.3.:.4.3.4.4.4.4.4.4.4.4.4.4.4.4.3.3.4.3.3.:.3.:.:.3.3.:.4.3.3.3.3.:.4.:.3.>.3.3.3.:.:.3.3.&.3.3.3.:.&.2.:.:.:.:.:.:.3.4.:.4.4.3.,.4.4.,.4.4.i.u.i.i.4.i.i.u.i.i.j.4.j.4.4.a.4.4.4.4.4.4.d.4.d.4.4.i.i.i.i.4.i.4.i.i.u.4.i.u.u.u.u.4.e.u.e.e.u.u.a.a.i.a.p.a.r.e.u.e.e.u.i.4.4.r.4.4.4.4.4.4.*.1.*.:.:.*.*.*.3.*.*.*.*.%.| 1.&.2.&.&.&.&.%.*.%.{ { %.%.%.%.[ %.%.*.>.3.>.3.3.%.3.%.3.[ 3.1.[ 3.3.3.*.*.4.3.%.1.3.%.3.1.3.4.1.4.*.4.1.1.:.4.*.*.:.4.*.:.*.1.:.*.1.1.*.1.4.*.4.1.*.*.4.1.4.4.*.*.4.4.*.*.*.4.1.*.4.1.*.*.4.*.3.*.3.3.*.4.*.3.%.%.%.%.3.%.3.3.2.3.2.2.3.:.3.4.4.4.4.4.4.4.4.4.4.4.4.3.4.4.3.>.3.>.-.*.&.| { &.&.2.3.2.*.*.*.*.| { [ [ | { | 3.[ 2.[ 3.2.3.3.*.:.2.2.:.:.3.3.>.3.-.3.>.-.3.-.3.3.>.3.>.>.3.3.>.>.3.>.3.9.3.3.4.4.4.4.4.4.4.4.4.4.i.4.4.4.4.4.4.1.1.1.[ [ 3.4.4.4.4.4.j.4.4.d.4.3.4.4.4.4.3.4.4.3.4.4.3.4.3.4.>.>.;.-.;.,.,.>.,.,.,.>.:.3.:.3.*.3.*.3.*.3.:.4.r.4.y.4.4.y.r.e.r.e.r.e.r.r.4.r.4.r.r.4.r.e.r.e.",
"r.e.r.e.4.r.i.r.4.r.4.4.4.4.4.i.4.4.4.4.4.z.L [ 1.%.%.%.*.*.*.*.*.*.*.*.*.%.*.*.[ 3.%.3.%.%.2.4.a.4.i.i.4.4.4.4.3.4.3.4.%.3.4.4.4.4.4.4.4.4.4.4.4.4.4.4.4.4.:.:.4.4.4.:.4.4.:.4.4.:.3.3.4.4.4.>.3.3.>.>.:.3.3.:.2.3.&.3.&.:.3.%.3.:.:.3.:.3.:.4.4.4.3.4.,.,.4.u.4.u.4.u.4.i.i.i.i.4.i.i.4.i.i.4.i.4.d.4.d.4.a.4.4.4.4.j.i.4.i.4.i.i.i.i.4.4.u.i.i.4.r.4.r.u.e.u.u.r.r.u.i.i.a.i.i.i.u.u.u.u.e.u.4.r.r.4.4.r.4.4.*.*.*.*.*.*.4.1.*.*.*.%.*.3.1.*.&.2.&.&.&.| *.&.:.:.%.%.| %.[ [ %.%.%.&.:.>.:.*.3.[ 3.%.3.%.3.1.[ [ 3.3.4.*.*.1.3.3.3.3.3.3.3.3.*.4.1.4.:.4.*.4.*.4.1.4.:.1.4.4.*.4.4.:.4.4.:.:.4.*.4.*.4.*.*.4.*.1.4.*.4.*.*.4.:.:.*.4.*.*.4.*.4.:.1.3.*.3.1.%.3.3.1.%.3.3.3.%.3.%.3.3.%.3.3.:.3.4.4.4.4.4.4.4.4.4.3.4.4.4.4.4.3.3.e.3.*.| | | [ | %.*.*.&.%.*.| [ [ L { | @.| [ 3.[ 3.3.[ 3.%.2.3.3.3.:.2.2.3.3.-.3.-.>.3.>.3.3.3.3.3.3.3.3.>.3.3.>.4.3.>.>.3.4.4.1.4.:.4.4.4.4.4.4.4.4.4.4.4.1.4.4.4.4.3.3.3.4.4.4.4.4.4.4.4.4.4.4.3.3.4.3.3.4.4.3.4.4.4.3.4.3.,.e.,.9.;.>.-.3.e.>.>.3.:.3.3.*.*.3.3.*.*.3.4.4.s.4.y.4.r.r.e.e.e.r.e.4.r.r.r.e.e.e.e.e.r.e.r.",
"4.r.r.4.r.4.r.r.4.4.4.4.s.4.4.4.4.j.3.4.4.4.&.3.%.%.*.*.&.%.*.%.*.*.*.%.*.%.%.*.*.1.*.*.3.%.[ 3.4.4.4.j.4.4.4.4.4.4.4.3.3.4.4.4.4.4.4.4.4.4.4.4.4.4.3.3.3.3.4.4.*.3.:.4.:.4.4.4.4.4.4.4.4.4.4.4.4.4.%.4.3.[ [ 4.3.%.4.3.4.3.3.4.3.%.3.%.4.3.3.3.4.4.4.,.4.,.,.4.i.i.i.i.u.u.u.u.u.i.i.u.i.i.u.u.4.u.4.u.4.i.i.i.i.4.4.i.i.i.u.u.4.4.a.4.4.j.4.4.j.j.4.i.j.4.i.i.i.4.4.i.i.i.i.i.i.i.i.u.u.u.u.4.4.i.i.4.4.4.i.4.4.4.*.1.%.*.*.%.*.) *.*.*.*.*.*.%.%.%.*.%.%.1.%.%.:.:.%.%.%.%.[ [ *.4.4.4.4.4.4.*.*.1.*.*.*.%.%.4.4.3.3.*.*.3.*.%.%.1.3.:.3.3.:.4.1.4.:.4.4.*.4.:.1.4.:.:.4.4.4.*.*.1.4.4.4.*.*.1.4.*.*.*.*.1.4.1.*.*.*.*.*.*.*.*.4.4.*.*.4.1.*.1.4.4.*.1.*.4.1.1.[ 3.[ 3.3.3.3.%.%.3.3.3.4.4.4.4.4.4.4.4.4.4.4.,.,.e.>.e.7.e.e.>.9.e.>.;.&.&.&.[ { { &.{ { ..+.[ [ [ | | <.[ 3.[ [ 3.2.3.[ 3.%.9.-.>.2.3.-.2.>.9.-.3.-.>.2.-.3.>.3.9.>.9.>.3.3.4.>.3.>.3.3.3.3.3.3.4.4.4.4.4.4.4.4.4.4.4.3.:.&.*.2.3.-.>.&.=.0.3.e.9.9.e.9.3.9.3.3.4.4.e.>.e.e.>.>.>.3.9.3.>.>.4.>.4.3.:.4.3.4.:.3.4.3.:.4.3.3.%.:.:.3.3.:.4.4.e.u.u.u.u.t.e.p.e.e.e.u.r.r.4.4.i.r.r.e.r.u.u.r.",
"4.0.r.r.r.r.4.r.d.j.d.4.4.d.4.4.4.4.4.4.%.3.&.L %.%.&.&.&.3.*.*.*.*.*.*.*.*.*.%.%.%.*.%.%.3.%.3.4.4.4.i.4.4.4.4.4.4.4.4.4.4.4.4.4.4.4.4.4.4.4.4.4.4.4.4.4.:.*.3.4.4.3.3.:.4.*.4.4.*.*.3.3.*.*.3.3.3.4.4.4.4.3.4.%.3.3.%.%.3.%.4.3.4.3.3.4.3.3.3.4.4.,.4.,.u.u.,.4.u.u.i.i.u.4.u.i.u.u.i.i.u.4.u.u.4.i.4.i.4.u.4.u.i.u.i.i.i.u.u.s.i.4.a.4.4.j.4.4.4.a.4.4.4.4.a.4.j.i.i.i.i.i.i.i.u.u.u.u.4.u.u.i.i.i.4.4.4.4.4.%.1.%.*.*.*.*.*.*.*.*.*.1.*.*.%.%.1.*.*.*.%.%.%.*.*.:.4.*.%.%.4.4.4.s.4.4.4.4.4.4.1.*.*.%.%.%.1.1.3.:.3.4.1.*.3.3.3.3.%.:.4.1.:.4.:.:.1.1.:.4.1.4.:.:.4.4.1.*.4.*.4.:.*.*.4.4.*.*.1.1.4.4.4.*.*.%.*.*.*.*.*.*.*.*.4.4.1.1.*.*.4.4.*.*.1.4.*.*.4.3.3.3.3.3.3.3.4.3.3.%.3.4.4.4.4.4.4.4.4.4.4.4.4.e.6.6.,.7.e.7.e.e.9.e.3.-.&.%.{ [ { | { [ [ ` [ ` [ [ | %.[ 2.[ 3.2.2.[ 3.[ 3.3.>.>.3.>.>.3.>.-.-.3.>.3.3.3.3.3.3.9.>.9.>.3.>.>.>.>.3.3.>.3.3.3.3.4.4.4.4.4.4.4.4.4.4.4.*.>.3.3.3.3.3.3.-.+.+.3.3.3.9.9.e.e.e.9.4.e.4.e.>.e.>.6.9.6.6.6.>.9.6.6.3.4.3.3.3.4.3.3.3.:.4.3.3.3.3.3.3.3.:.:.:.4.4.4.t.u.t.u.u.e.u.p.e.u.e.u.4.r.i.r.4.r.4.r.r.4.u.4.",
"r.e.r.4.4.r.u.r.4.d.4.4.4.4.3.[ a.z.j.*.L %.%.%.%.%.&.&.*.*.*.*.*.*.*.*.*.%.1.*.%.*.*.%.3.[ [ 3.4.4.i.i.4.4.4.4.4.4.4.4.4.4.4.4.4.4.4.4.4.4.4.3.4.3.4.4.4.4.3.4.*.4.:.4.4.*.*.3.4.3.:.3.4.4.4.4.3.3.4.%.4.4.4.%.4.%.3.%.%.4.%.3.%.3.3.4.4.%.%.4.4.4.,.4.,.4.u.u.4.u.i.i.i.u.i.i.u.i.i.u.u.u.u.u.4.u.4.u.i.u.4.u.4.i.i.u.i.i.u.i.i.i.i.i.j.4.i.4.4.i.4.4.a.4.4.i.h.4.i.i.i.u.i.i.h.u.u.u.4.u.4.u.i.i.i.u.4.4.4.:.3.%.1.%.*.*.1.1.%.*.*.*.*.*.*.*.1.*.%.%.%.*.%.%.%.[ [ *.*.%.*.i.4.4.4.4.4.4.4.1.*.*.*.*.%.%.*.4.:.3.4.:.3.1.:.*.%.4.3.%.1.*.3.*.:.*.1.:.:.*.:.:.:.4.4.:.:.:.:.:.4.*.:.4.4.*.1.4.4.*.*.%.*.*.*.1.*.*.*.4.1.:.*.*.*.*.*.*.*.*.*.*.4.1.*.*.*.1.*.4.2.3.3.3.[ 3.%.[ 3.3.3.3.4.4.4.4.4.4.4.4.4.4.4.4.7.e.e.4.7.,.e.6.e.9.9.3.-.&.{ { { { %.{ { [ [ ` [ [ [ %.2.%.2.3.[ 2.[ 3.3.3.[ 3.3.>.3.>.3.-.>.3.>.9.>.3.3.-.3.>.3.>.>.>.>.9.>.3.>.3.>.9.9.3.3.>.4.4.4.e.4.4.3.3.4.4.:.:.*.4.3.4.-.2.3.2.2.&.=.3.3.9.3.e.9.e.e.e.4.e.3.e.>.6.4.,.9.6.3.6.9.>.3.>.4.3.4.4.3.3.3.3.:.3.3.3.3.:.3.3.3.:.:.:.4.4.4.h.t.u.7.t.p.u.u.p.u.4.u.e.4.i.4.i.r.r.r.r.4.r.r.i.",
"4.r.e.r.i.r.4.r.4.4.s.j.z.4.3.%.L %.%.L [ %.[ 3.&.&.3.&.*.*.3.*.*.*.*.*.*.*.%.*.*.1.*.*.3.%.[ %.4.i.4.4.4.i.4.4.4.4.4.4.4.4.4.4.4.4.4.4.4.4.4.4.4.3.4.4.4.:.3.:.4.4.*.3.*.4.4.4.3.3.4.4.3.*.4.3.3.4.4.4.3.[ %.4.4.3.3.4.3.3.4.4.4.4.%.4.4.3.4.4.4.,.,.4.u.u.,.u.i.u.i.u.i.u.i.i.i.i.u.u.u.4.u.4.u.u.4.u.4.u.u.u.i.i.i.i.i.i.i.4.4.i.i.4.4.a.4.j.4.4.i.4.4.4.4.4.4.i.i.i.u.i.h.i.i.u.i.u.u.u.i.u.i.u.u.4.i.4.4.4.%.4.%.1.1.*.*.:.1.1.%.1.*.:.1.*.*.*.*.*.*.*.%.%.*.*.*.%.%.*.4.4.4.4.4.4.4.4.4.4.*.:.4.*.*.1.*.4.3.4.1.4.:.3.:.3.4.%.1.3.3.*.*.3.:.4.:.4.4.4.1.4.1.4.4.:.4.:.4.1.1.4.:.*.*.4.:.*.*.*.1.*.*.*.*.*.4.*.4.1.4.4.4.*.*.*.1.*.*.*.1.*.*.*.*.*.1.*.*.*.2.2.[ 3.3.3.3.3.%.%.3.3.4.4.4.4.4.4.4.4.4.4.4.4.3.7.,.,.3.e.7.e.9.3.e.4.-.&.{ { +.{ { { { { { %.%.%.3.2.%.2.[ 3.3.3.[ 3.[ 3.4.3.3.9.2.3.3.3.>.2.>.>.>.2.3.3.>.3.9.>.9.>.>.>.>.3.>.>.3.3.3.4.4.9.4.3.4.e.4.e.3.3.4.4.>.:.>.4.3.:.&.-.-.-.3.-.>.9.9.9.e.9.e.9.e.9.>.7.e.>.e.e.e.e.e.6.9.>.6.6.9.>.3.3.3.4.:.4.3.3.3.3.4.:.3.3.4.:.3.:.:.3.h.4.i.4.u.u.u.u.p.u.u.e.u.u.r.u.i.r.i.r.r.4.r.4.i.i.4.r.",
"r.r.r.r.r.u.r.4.d.4.4.4.4.d.d.d.L D [ %.[ &.3.[ *.:.*.:.*.*.:.*.*.*.*.*.*.*.*.*.*.*.*.%.%.[ [ [ 4.4.4.4.i.4.4.4.4.4.4.4.4.4.4.4.4.4.4.4.4.4.4.3.4.4.4.4.4.:.4.*.4.3.:.4.4.*.*.4.3.3.3.4.3.4.4.4.4.4.3.4.4.%.%.4.4.%.%.:.:.4.4.4.%.3.3.3.4.%.4.4.,.,.4.4.u.,.,.u.u.i.u.i.u.u.u.i.u.u.u.u.u.4.4.u.4.u.u.u.4.i.u.u.i.i.i.i.i.i.i.i.i.i.i.s.i.r.i.i.a.4.4.4.4.4.4.j.i.4.u.u.i.u.i.i.h.u.i.i.i.i.u.i.4.i.i.i.4.4.4.4.3.3.%.%.3.[ 3.[ :.1.1.*.*.:.*.*.3.3.*.*.%.1.%.%.%.%.%.%.1.4.z.4.4.s.4.4.4.4.4.4.4.1.:.4.4.4.4.1.4.1.*.:.:.1.:.:.%.3.*.1.*.4.*.*.1.4.:.4.1.:.4.:.3.:.4.3.%.3.3.3.:.:.:.:.*.:.:.:.:.*.1.1.%.%.[ 1.*.1.4.4.4.*.:.*.*.%.%.*.*.1.*.*.*.1.*.4.4.*.*.*.2.%.2.[ 2.3.&.3.4.3.4.4.4.4.4.4.4.4.4.4.4.4.4.4.4.4.e.4.4.4.4.4.e.e.e.3.*.+.{ { %.{ { [ { { &.&.&.2.*.2.&.| %.&.3.[ 3.1.[ 3.3.3.3.3.3.3.9.2.>.3.6.>.>.3.-.3.3.3.>.>.6.3.>.>.3.>.>.>.3.9.3.3.e.3.3.3.3.3.0.9.3.3.:.2.:.:.2.3.3.=.3.>.3.-.-.-.-.6.3.9.e.e.e.e.e.6.t.e.e.e.e.e.e.e.e.e.9.3.>.>.6.3.4.>.>.>.4.>.>.,.3.:.3.4.3.4.4.3.4.>.*.>.4.i.i.u.u.u.u.u.u.p.u.u.r.r.i.r.r.r.4.r.r.r.4.r.r.r.4.i.",
"4.4.r.4.r.4.r.i.j.4.4.4.4.4.4.j.a.%.%.%.[ %.:.%.:.:.*.2.:.*.*.*.*.*.*.*.*.*.*.*.*.*.1.%.%.%.1.%.3.4.4.4.4.i.4.4.4.4.4.4.4.4.4.4.3.4.3.4.4.3.4.4.4.:.4.:.4.4.4.4.4.*.4.:.4.4.4.4.3.3.3.4.3.*.%.3.%.3.%.4.4.3.4.%.3.4.3.4.:.4.4.4.4.3.3.4.3.3.4.4.4.,.4.u.u.u.u.u.u.i.i.u.u.u.u.i.u.u.u.u.u.u.u.4.u.4.4.u.u.i.u.u.i.i.i.i.i.i.i.i.4.r.i.i.4.i.4.4.a.4.4.4.4.4.4.i.u.u.u.u.i.h.h.i.i.i.i.i.i.i.i.i.i.i.i.i.4.4.%.4.%.3.3.3.3.3.1.3.*.*.*.*.1.4.1.*.*.*.%.[ [ [ %.%.[ %.%.*.4.i.4.4.4.4.4.4.4.4.4.:.4.4.:.1.4.1.4.4.4.4.4.*.:.4.:.1.*.%.*.*.:.*.3.*.:.*.4.*.4.:.1.4.4.4.:.3.4.3.%.3.:.4.1.*.4.:.:.*.4.*.%.[ ~ [ %.4.4.4.4.*.*.*.*.*.*.1.1.*.*.*.*.4.*.*.*.*.4.4.1.*.%.2.3.2.%.*.3.3.3.3.4.4.4.4.4.4.e.0.e.e.4.4.4.s.4.4.4.4.4.4.4.4.e.3.9.9.*.%.%.{ &.+.{ { %.+.&.&.&.&.%.%.+.| &.&.3.3.[ 3.3.[ [ 3.3.2.9.-.>.9.3.>.-.9.>.2.3.3.2.>.>.3.3.>.3.>.>.6.3.3.9.>.3.4.3.3.3.3.3.3.9.9.9.3.3.3.3.:.*.3.3.-.2.3.9.-.6.>.>.6.>.6.>.9.e.e.e.e.u.t.r.e.r.r.t.e.e.e.9.6.9.6.9.>.>.>.4.>.>.>.3.>.3.4.:.4.3.4.4.:.3.>.*.>.4.i.u.4.e.t.t.u.e.u.u.u.u.r.r.r.r.r.r.r.4.4.r.r.4.r.4.r.",
"r.r.4.r.r.4.r.i.4.4.4.d.d.4.4.4.4.%.[ L 3.%.%.:.:.*.*.*.*.*.*.&.*.*.%.*.%.*.*.*.*.%.*.*.%.*.1.%.[ 4.4.4.d.4.4.4.4.4.*.4.4.4.4.3.*.4.3.4.4.4.3.4.4.4.:.3.4.:.4.4.4.4.*.4.*.4.3.:.%.4.%.4.3.3.4.4.3.3.%.4.3.%.4.3.%.3.3.%.4.4.4.4.4.4.4.4.4.%.3.4.,.4.u.u.,.u.u.4.i.i.u.i.i.u.u.i.u.4.u.,.4.u.4.u.i.i.u.u.4.i.i.4.i.i.i.i.i.i.4.i.i.i.4.r.i.4.r.4.4.4.4.4.4.4.4.i.u.4.u.u.i.i.i.i.h.u.i.u.i.i.i.u.i.i.i.j.4.4.4.4.3.3.3.[ 1.[ [ 3.*.*.*.*.:.4.*.*.%.%.%.[ [ %.*.*.4.4.4.4.4.4.4.4.4.4.4.4.4.:.4.4.4.*.*.4.4.1.*.4.4.1.*.4.4.:.*.%.%.*.*.3.4.*.4.3.4.:.4.1.1.4.4.4.3.*.*.4.3.%.3.%.4.*.*.4.*.*.:.*.%.*.*.4.4.:.*.1.4.4.4.*.*.*.*.*.*.*.%.*.*.*.4.1.*.1.1.*.*.*.*.*.1.3.3.2.3.2.3.:.3.4.4.4.4.4.4.4.e.e.r.4.4.4.4.4.4.4.4.4.4.4.4.4.3.3.3.>.*.| { { &.{ &.| =.&.&.&.2.&.&.&.&.&.&.&.L L 3.3.3.[ 3.3.3.3.3.-.9.-.9.-.-.9.>.9.2.>.3.3.3.>.3.>.>.3.3.>.3.9.3.>.3.9.3.9.3.2.2.3.3.9.3.3.3.3.3.*.3.3.9.3.-.6.-.>.>.9.6.9.6.9.e.e.e.e.u.u.u.u.u.u.e.e.e.e.e.9.9.>.>.6.9.>.>.4.4.>.,.3.>.4.4.:.4.4.4.4.4.3.:.:.*.3.4.r.u.r.u.u.7.h.p.u.u.u.r.r.u.i.r.r.4.r.4.r.r.4.4.r.r.4.",
"4.r.r.r.4.r.i.4.s.4.4.4.4.s.d.j.i.[ %.%.L %.3.%.*.*.&.&.&.*.&.*.*.*.*.*.%.*.*.*.*.*.*.*.[ %.%.[ %.4.j.4.4.4.4.4.4.4.:.*.4.*.4.%.%.*.4.4.4.4.3.3.4.4.4.4.4.4.4.*.4.*.4.*.4.4.*.4.4.4.3.3.3.3.4.4.4.4.4.4.3.4.%.3.4.4.3.4.:.4.4.:.3.4.4.4.4.3.4.4.4.4.,.,.u.u.u.4.i.i.u.u.u.4.u.i.u.u.u.u.,.u.u.u.u.4.4.i.i.i.i.i.i.i.i.i.i.4.i.i.4.i.i.r.i.i.4.4.4.4.4.4.4.4.4.4.u.u.u.i.u.i.h.i.u.i.u.u.h.i.u.i.i.i.4.i.i.4.4.4.3.3.3.3.3.3.2.3.4.*.*.1.:.*.*.%.%.*.1.*.*.4.4.4.:.4.4.4.4.4.s.4.4.4.4.4.:.4.:.4.*.4.:.4.4.4.*.4.*.4.:.1.4.:.*.%.%.*.%.1.*.3.3.3.4.4.4.4.4.*.4.4.4.4.4.4.4.4.3.3.4.4.4.*.4.1.:.*.*.%.*.*.4.1.%.*.*.*.*.*.*.*.*.*.*.*.1.%.*.1.4.*.*.4.4.*.*.*.*.) L [ [ 3.&.2.2.4.4.4.4.4.4.4.4.4.e.3.4.4.y.4.4.s.4.4.4.4.4.4.4.4.3.3.>.>.*.%.+.%.{ { { &.&.:.*.&.&.&.&.&.&.&.&.%.3.3.3.[ [ 3.3.3.>.2.3.3.>.>.>.9.>.>.3.-.3.3.-.>.3.3.3.9.3.3.>.>.e.3.9.>.>.3.3.e.3.3.2.-.3.3.2.3.2.3.2.-.2.3.2.2.6.9.>.>.6.9.6.e.e.e.e.e.t.u.e.e.e.e.e.u.r.t.e.u.e.e.9.6.9.6.9.9.4.4.4.3.,.4.,.4.:.4.3.:.:.4.4.:.:.&.:.3.4.r.r.i.u.u.p.7.u.u.p.7.e.r.4.i.4.i.4.4.4.4.4.4.r.4.r.4.",
"4.r.4.r.4.4.i.4.s.2.4.4.4.4.j.4.L [ [ L [ &.*.*.*.%.&.&.*.*.*.:.*.*.*.%.*.*.*.*.%.*.%.%.%.%.%.%.&.4.4.3.4.4.4.4.4.4.3.3.3.%.%.%.3.4.4.4.4.4.4.3.3.4.4.4.*.4.4.3.3.4.%.3.4.4.3.4.3.3.3.3.3.4.4.3.%.4.4.4.4.3.4.4.4.:.:.4.4.4.4.4.3.3.4.4.4.4.4.4.4.4.4.4.4.u.4.4.i.u.i.u.i.i.u.u.i.u.u.u.u.u.4.4.u.e.r.i.u.r.u.u.4.i.i.i.i.i.i.u.i.i.i.i.4.4.4.i.4.r.4.4.4.4.4.4.u.u.u.u.i.i.i.i.i.i.i.h.i.j.u.u.i.i.i.i.j.i.4.:.,.4.:.:.1.[ 3.[ %.3.%.3.4.4.3.[ %.*.%.%.*.4.4.4.4.4.4.4.4.4.4.4.4.4.4.4.:.4.:.*.4.4.4.*.1.4.*.*.4.4.4.*.*.*.*.%.3.*.*.*.*.3.3.3.1.:.:.4.4.4.*.4.4.4.3.4.3.3.4.3.3.3.4.4.4.4.4.4.*.1.:.4.*.1.*.*.*.4.4.1.*.*.*.*.*.*.*.*.:.1.1.L [ %.*.*.*.1.%.%.[ { @.2.3.3.3.2.3.e.e.>.e.>.,.e.e.e.4.e.4.4.4.4.4.4.4.4.4.4.4.4.3.e.4.>.=.%.| { &.{ %.=.*.-.*.&.*.&.&.&.&.%.&.&.&.=.*.&.&.&.:.>.>.3.9.>.>.3.3.-.3.3.-.3.-.3.9.2.9.3.9.3.>.3.>.>.3.3.>.3.>.9.9.9.4.3.-.3.3.3.2.3.3.3.2.2.3.2.3.9.5.6.6.9.e.q.e.t.e.t.e.t.e.u.u.t.u.u.u.e.e.p.e.u.e.e.4.>.>.>.e.e.e.e.7.4.,.4.,.>.e.,.>.7.e.7.,.7.3.>.>.4.r.p.r.e.u.u.r.u.u.u.p.h.a.a.4.4.i.4.r.4.4.4.4.4.4.4.4.4.",
"i.i.4.i.d.i.i.4.4.i.4.4.j.4.j.{ [ [ [ [ %.*.:.*.*.*.&.&.*.*.*.*.%.1.*.*.%.*.*.1.*.*.*.%.*.%.*.%.[ 4.d.4.4.%.%.%.2.&.%.%.%.%.%.3.%.4.4.4.4.4.4.4.4.*.4.:.3.4.4.3.4.4.4.4.3.4.%.4.%.3.4.:.3.:.4.:.4.4.4.4.3.3.%.3.4.4.4.4.4.4.:.4.4.3.4.4.4.4.4.4.4.4.4.4.u.u.u.u.i.i.i.u.u.u.i.i.h.u.u.u.u.u.u.u.u.r.r.r.r.u.r.u.i.i.4.u.i.i.i.4.r.i.r.4.4.r.4.r.r.4.4.4.4.4.4.u.u.4.u.4.u.i.i.i.i.i.u.u.i.i.u.u.i.i.i.i.i.4.4.:.,.4.4.:.3.3.3.3.3.3.%.1.1.[ [ [ *.1.*.*.4.4.4.4.4.4.4.4.4.4.4.4.4.4.:.*.*.*.4.4.*.*.1.4.4.4.4.4.1.:.:.*.*.*.*.4.*.*.3.%.*.*.3.3.4.4.1.4.4.4.4.4.4.3.3.3.3.3.3.3.3.3.4.1.3.4.4.4.1.4.:.4.4.*.:.*.*.:.4.4.1.*.4.1.:.4.1.*.*.*.%.[ ) %.*.%.%.%.%.1.2.*.*.&.&.*.3.4.e.3.7.e.e.e.e.e.3.3.4.4.4.4.4.4.4.4.4.4.4.4.4.4.3.e.>.-.&.| %.| &.&.=.:.:.>.:.:.*.&.&.&.&.&.&.&.%.&.&.*.&.&.-.>.9.-.-.3.6.-.>.9.3.>.3.>.-.3.3.3.e.3.3.3.9.>.>.4.3.3.3.>.>.>.>.>.4.2.2.3.3.2.3.3.3.3.3.3.3.3.3.3.6.9.6.e.t.e.t.t.t.e.t.u.e.t.e.t.e.e.u.u.p.e.u.e.t.e.e.7.e.e.e.e.e.e.e.e.e.e.e.,.>.>.>.>.,.>.>.>.3.>.:.4.e.u.r.r.r.r.t.u.u.u.u.7.4.4.a.s.i.s.4.4.4.r.4.4.4.4.4.4.",
"r.r.4.r.i.4.4.4.4.4.3.3.4.z.4.L %.[ [ %.&.&.*.*.*.*.&.*.&.&.%.*.*.%.*.*.*.*.%.%.[ *.%.1.%.%.%.%.` L | 4.2.D D 2.%.[ [ 2.3.%.3.[ 1.3.4.4.*.4.4.4.4.4.4.4.:.4.4.*.4.3.4.4.4.3.%.4.4.3.3.3.3.4.4.4.4.3.4.4.3.4.4.3.4.:.4.4.:.4.:.4.3.3.4.4.4.4.4.4.4.4.4.d.4.u.i.i.u.i.u.u.u.i.u.u.i.i.i.i.u.i.i.u.u.r.r.u.u.r.i.i.i.i.i.i.i.i.i.u.4.i.i.4.r.4.4.4.4.4.u.r.4.u.u.u.u.4.,.4.4.u.i.u.i.u.i.i.i.i.u.i.i.j.i.i.i.u.u.,.4.4.4.:.3.3.3.3.%.1.3.3.%.[ 3.3.*.*.*.:.4.4.4.4.4.4.4.4.s.i.4.4.4.4.:.4.4.4.4.:.:.4.4.4.4.4.4.4.4.*.*.*.%.%.:.4.*.4.*.4.3.*.4.4.4.4.4.4.4.4.4.4.3.3.3.3.3.3.3.4.4.4.4.4.3.3.4.4.4.4.4.4.4.*.*.4.*.4.*.:.4.4.4.1.1.:.*.*.%.%.%.%.*.1.*.*.*.*.4.1.3.-.@.| | *.3.3.9.>.e.e.e.t.4.,.4.3.3.4.4.4.4.4.4.4.4.4.3.3.4.4.>.>.-.&.| %.&.*.:.-.>.>.>.3.3.3.>.-.-.-.-.:.&.&.| &.&.&.&.&.-.,.>.-.3.3.3.>.>.9.3.2.>.2.9.3.3.3.3.4.3.3.9.>.3.3.9.3.9.>.3.>.>.>.3.3.-.3.3.2.2.3.3.3.3.3.3.3.3.0.e.e.e.e.t.e.r.r.u.t.u.t.u.u.u.u.u.u.e.u.e.u.e.p.r.u.e.e.9.e.7.e.e.e.e.e.e.e.e.e.e.>.,.e.6.>.>.7.3.>.3.4.e.e.r.r.p.e.u.e.u.u.p.7.a.4.i.i.4.i.4.r.r.r.4.4.4.4.0.4.",
"4.r.e.e.4.4.j.4.4.3.a.j.j.z.L L %.[ { %.*.%.%.*.%.*.*.*.&.*.&.&.*.*.*.*.*.*.%.%.| %.%.%.*.*.%.[ %.K h K [ %.%.` 2.2.%.%.[ 3.[ 3.*.4.4.4.4.4.4.*.4.4.4.:.3.4.4.4.4.3.4.4.%.4.3.3.4.3.3.3.:.4.:.3.4.4.4.4.%.4.4.4.4.4.4.:.4.4.4.4.3.3.4.4.4.4.4.4.j.4.4.4.4.u.4.i.i.i.i.i.u.h.i.h.i.j.i.i.i.i.i.u.u.u.u.r.u.u.4.i.i.i.u.u.4.u.u.4.i.4.4.4.4.i.r.4.4.4.4.u.4.4.4.4.u.u.,.u.u.4.u.i.u.i.i.u.i.u.i.u.i.i.4.i.4.,.,.4.4.4.4.:.3.3.[ 2.%.3.%.3.4.4.3.1.%.%.%.*.4.4.4.4.4.4.4.4.4.4.4.4.4.4.4.:.:.:.:.4.4.4.4.4.4.4.*.*.4.4.:.:.*.%.*.4.4.*.4.*.4.4.4.4.4.4.4.4.4.4.4.4.4.4.3.4.3.4.4.4.4.4.4.4.4.4.4.4.4.4.4.4.4.1.4.4.4.*.4.:.*.4.*.4.*.*.*.%.1.%.*.1.1.4.4.4.4.4.4.4.3.3.3.3.2.3.3.4.e.6.>.,.,.e.4.,.4.4.4.3.3.3.3.4.4.4.4.4.3.3.3.4.-.-.&.&.&.&.*.-.-.>.4.4.3.>.3.3.4.>.,.>.>.-.&.&.| &.&.&.&.&.-.3.>.9.3.-.3.2.3.-.3.3.3.3.3.2.3.9.3.3.3.9.9.3.3.3.3.3.4.9.e.3.9.>.3.-.:.3.3.3.3.3.3.3.3.3.3.0.e.e.e.t.t.t.e.t.t.t.e.t.t.u.u.e.u.e.u.e.u.u.e.u.u.u.t.e.t.e.t.e.e.e.t.u.u.e.e.e.e.7.e.7.>.4.e.,.>.>.:.>.>.>.,.e.e.u.e.e.t.u.e.u.p.u.i.a.4.r.i.i.r.4.4.4.r.4.0.4.4.r.",
"r.r.i.y.4.i.4.3.4.2.%.{ L &.H 3.%.[ %.%.*.%.%.%.&.&.&.*.:.&.-.&.%.*.*.*.*.*.%.*.1.*.*.*.*.*.*.*.[ | *.| K L %.| [ 2.2.[ 2.[ 3.[ 4.4.4.4.*.4.3.4.*.4.4.4.*.4.4.4.:.4.:.4.:.4.4.3.3.3.4.4.4.4.4.4.4.3.4.4.4.4.3.3.4.4.4.4.4.4.4.4.3.3.4.4.4.4.4.4.4.4.4.i.4.4.i.i.u.i.i.i.i.i.i.i.i.j.i.i.h.i.u.u.u.i.i.i.4.h.4.i.i.i.i.i.i.i.4.4.4.r.4.r.i.4.u.4.4.4.4.4.,.4.4.,.4.4.,.u.u.4.u.u.u.i.u.u.u.u.i.u.i.i.u.4.4.4.4.4.:.4.4.:.4.4.3.[ %.*.%.4.3.[ 3.%.%.1.4.4.4.4.4.4.i.4.4.i.4.4.4.4.*.*.*.*.4.*.4.*.*.:.*.4.4.4.4.4.*.*.*.4.*.%.*.:.3.4.%.4.4.4.4.3.4.4.4.4.4.4.4.4.4.4.4.4.4.4.4.z.4.4.4.4.4.z.4.4.4.4.4.4.4.4.4.*.1.:.:.:.:.:.*.*.:.1.*.:.1.1.4.4.1.4.4.4.1.4.4.4.9.3.0.0.e.e.e.e.4.6.>.>.,.,.,.,.4.4.4.3.4.4.4.4.4.4.4.4.3.3.3.%.&.*.&.-.*.:.-.>.>.3.e.3.3.3.3.9.e.>.9.3.6.>.-.&.&.&.&.&.&.&.-.3.>.3.3.3.3.3.3.>.3.3.2.9.9.3.3.3.9.3.3.3.3.3.9.3.3.3.9.4.9.e.9.3.>.3.3.3.e.4.3.3.3.3.3.4.e.e.e.e.t.t.e.t.t.e.e.t.u.t.e.u.t.u.e.t.u.u.u.e.u.e.u.e.e.u.r.e.e.e.e.e.7.u.u.t.t.u.7.t.t.,.,.7.7.>.>.>.:.:.>.:.,.4.e.u.p.e.e.u.u.e.p.e.4.a.4.a.r.r.4.r.y.4.r.4.4.r.4.r.",
"a.4.4.r.i.s.*.L L L L L [ [ [ %.%.[ %.;.%.*.%.*.&.&.&.*.*.*.*.&.%.%.%.%.%.*.*.*.*.*.*.*.*.%.%.*.3.{ | 3.*.{ | | [ [ 3.[ [ 2.[ 3.%.4.3.4.4.4.4.4.4.4.3.4.4.4.4.*.4.4.3.3.3.3.:.4.:.:.3.:.4.4.4.3.4.3.4.3.3.%.3.3.4.:.4.:.4.:.4.4.3.3.4.4.4.4.4.4.4.4.4.4.4.i.4.i.i.u.u.i.i.i.u.u.i.i.i.i.i.u.u.u.i.i.i.u.h.4.i.i.4.i.i.i.i.i.i.4.4.i.i.i.i.r.u.r.i.u.r.4.4.4.4.4.4.u.u.4.u.u.4.u.u.u.u.u.u.u.u.4.i.i.i.i.i.i.i.i.:.:.:.:.4.4.3.3.4.%.%.4.3.L [ 4.4.4.4.4.4.4.4.i.4.s.i.4.4.4.4.4.4.*.4.*.*.4.4.4.4.4.4.*.*.4.4.4.*.%.*.4.4.4.4.4.:.*.3.%.4.4.4.3.4.4.:.4.1.4.4.4.4.4.4.4.4.4.4.4.4.4.4.4.4.4.4.4.4.4.4.4.4.4.4.*.4.:.:.1.*.4.*.*.4.*.*.4.4.4.4.4.4.s.1.4.4.4.1.4.9.9.3.3.9.9.>.9.4.>.>.;.>.:.:.,.>.>.3.4.4.4.4.4.4.r.4.3.3.%.%.%.:.&.:.-.>.>.3.>.3.3.3.e.3.3.4.3.6.>.>.7.4.4.7.>.&.&.&.&.&.=.-.,.3.3.2.3.3.2.2.9.-.3.3.3.3.3.9.3.3.4.3.3.3.4.3.3.9.>.3.9.3.3.3.4.3.4.4.r.4.4.4.4.3.4.4.4.e.r.r.u.e.7.t.t.e.t.t.7.t.t.7.p.7.u.u.u.u.e.u.u.u.e.e.p.e.e.e.r.r.e.t.e.u.e.t.e.e.e.e.e.e.,.7.>.,.,.;.>.>.2.>.>.>.,.e.u.u.u.u.u.e.p.p.e.a.4.i.4.r.i.i.4.4.y.4.r.r.4.4.4.",
"r.4.a.4.4.4.%.L [ &.L [ &.[ 3.[ %.%.%.%.*.%.%.*.*.%.&.&.&.&.&.&.%.%.*.*.*.*.:.1.*.*.*.*.*.%.%.*.| *.3.&.| %.2.%.2.3.[ 3.3.[ 3.3.%.4.4.4.4.4.4.4.4.4.4.4.4.*.4.4.4.4.4.:.:.4.3.3.4.3.3.4.3.4.4.4.4.4.3.4.3.%.%.4.3.4.4.4.4.4.4.4.3.3.3.4.4.4.4.4.4.4.4.4.4.4.i.i.i.i.u.u.i.i.i.h.i.i.i.i.i.u.h.i.i.d.a.r.4.h.i.i.i.i.i.i.i.i.i.4.4.i.i.r.i.4.i.u.r.r.r.4.4.4.4.4.u.,.4.u.u.u.u.u.u.u.u.u.u.u.u.i.i.4.i.u.u.,.u.u.4.:.:.4.4.3.3.3.*.3.*.1.3.L 4.4.4.4.4.4.j.4.4.j.4.4.4.4.4.4.4.4.4.4.4.4.4.4.4.4.4.4.4.4.4.*.:.:.*.4.4.*.4.4.4.4.3.3.%.4.4.4.4.4.4.4.4.4.4.4.4.4.4.4.4.4.4.4.4.4.4.4.4.4.4.4.4.4.4.z.4.z.4.4.1.*.*.1.4.4.1.*.*.1.4.1.4.4.1.4.4.4.4.4.4.4.4.4.4.4.e.e.e.0.9.9.e.e.6.7.e.>.:.*.:.:.%.:.:.3.3.3.3.3.4.3.&.2.%.%.%.%.*.:.;.>.3.3.3.3.9.3.4.3.4.9.3.4.>.>.3.>.>.e.9.6.;.=.&.&.=.=.:.6.9.>.8.3.9.3.3.3.3.3.3.9.3.3.3.9.3.3.>.e.4.3.e.>.3.3.3.>.3.3.4.,.4.4.4.4.e.4.4.4.4.4.4.r.r.r.u.u.u.t.t.e.t.7.t.e.p.u.t.p.u.u.u.u.h.4.4.h.u.u.u.u.e.u.e.e.u.e.t.e.t.e.t.t.u.7.e.e.e.7.e.7.7.>.>.>.>.>.>.:.>.4.e.e.u.u.t.e.p.p.u.u.i.i.4.a.i.i.r.r.4.r.4.4.4.4.r.4.",
"4.4.d.4.4.s.*.{ %.[ %.[ *.[ %.%.%.%.;.%.%.&.&.&.%.%.&.%.&.&.&.%.*.*.*.:.:.*.*.*.*.*.4.:.:.%.%.:.*.*.&.*.3.%.{ %.%.[ 2.L L 3.[ [ %.4.4.3.*.4.4.4.4.4.4.3.4.4.4.4.4.4.4.4.4.4.4.4.4.:.4.:.4.3.4.4.3.4.4.4.3.4.3.4.%.%.3.3.:.:.4.4.3.3.4.4.4.4.4.4.4.4.4.4.4.i.i.i.u.u.i.i.i.i.i.i.i.i.h.i.i.u.i.i.a.i.i.u.i.i.i.i.i.i.i.i.i.i.i.4.4.r.4.r.i.i.4.r.4.4.u.u.4.4.,.4.4.u.4.4.4.u.u.u.u.u.u.u.u.u.i.i.i.i.u.u.u.u.4.4.[ :.:.4.3.3.3.4.*.4.4.%.[ 3.4.4.4.4.4.4.4.j.4.4.4.4.4.1.4.4.4.4.4.4.4.4.4.4.*.:.4.4.4.4.*.4.4.*.4.4.4.4.:.4.4.4.3.3.3.4.4.4.4.4.4.1.4.4.4.4.4.4.4.4.4.z.4.4.4.4.4.4.z.4.4.4.4.z.4.i.4.4.4.4.*.4.*.*.*.:.*.*.*.4.1.4.4.4.4.4.4.4.s.4.4.4.s.4.4.s.e.9.9.e.9.9.9.e.e.e.e.7.:.%.%.%.%.%.*.*.*.3.&.*.2.2.%.%.%.%.3.3.>.>.>.3.3.3.e.3.e.e.3.3.9.9.e.3.e.e.9.6.>.>.>.6.>.;.&.=.;.=.:.-.3.9.3.3.3.3.3.9.2.3.3.3.3.8.3.7.>.9.e.3.3.3.3.e.e.e.e.e.4.4.4.4.4.4.e.4.4.4.4.4.r.r.r.u.u.u.u.e.t.e.t.u.t.u.u.u.7.t.u.7.u.u.7.t.,.u.u.4.e.e.t.u.e.e.e.u.e.e.e.t.e.t.u.u.u.u.t.t.t.e.e.e.e.e.,.,.>.>.:.4.4.4.e.e.u.u.u.u.u.u.u.u.4.4.a.4.4.s.4.4.r.4.r.4.r.0.4.r.",
"4.r.e.4.4.4.%.L ` [ %.%.3.[ [ [ %.%.%.%.[ 2.[ 3.[ 3.[ %.3.%.%.3.*.:.4.4.*.*.*.:.:.4.*.*.:.*.*.%.:.*.:.:.%.*.*.%.*.*.%.%.%.%.%.*.[ %.3.3.4.4.4.4.4.4.4.3.4.4.4.4.3.4.:.4.3.3.3.%.3.3.3.4.4.4.4.3.4.4.4.4.:.:.:.4.:.:.:.:.:.:.4.4.3.3.4.4.4.4.4.:.4.4.4.i.4.i.4.u.u.u.r.u.r.u.u.u.i.i.i.i.u.i.i.i.i.i.a.i.i.i.i.i.i.i.i.i.i.u.u.i.r.r.e.r.u.u.e.u.e.u.u.u.e.,.,.>.u.4.4.4.4.i.i.i.i.4.i.i.i.i.i.i.i.4.4.i.4.j.i.4.:.[ :.4.4.4.4.4.4.4.4.:.:.:.4.:.4.4.4.4.i.4.i.4.i.4.4.4.4.4.4.4.4.4.4.4.4.4.4.4.4.*.:.*.:.4.4.4.4.4.4.4.4.4.4.4.3.3.4.4.4.4.4.4.4.4.4.4.4.4.4.4.i.i.i.i.4.i.i.4.4.4.4.4.4.4.4.4.4.3.3.3.4.*.4.*.1.*.*.*.*.*.:.*.4.4.4.4.4.4.4.z.4.4.4.4.4.s.4.4.4.4.4.4.i.4.4.i.4.4.i.4.&.%.%.%.| &.&.&.| | | %.| | | &.-.3.3.3.3.3.3.3.3.3.e.e.3.e.3.3.3.e.3.e.9.e.0.3.4.3.3.3.>.*.&.*.:.:.:.-.>.2.3.9.9.2.3.2.3.9.3.9.2.2.3.3.e.3.>.e.>.9.>.e.4.>.e.e.4.e.,.,.4.4.4.,.,.e.e.u.t.e.u.t.e.u.t.u.u.u.u.t.e.u.u.u.7.t.t.u.t.e.u.u.u.u.u.u.7.t.7.p.p.p.t.u.t.e.p.u.t.u.t.u.u.t.7.u.u.e.p.p.e.4.4.,.,.;.;.,.,.e.e.r.e.r.r.u.u.r.u.r.a.a.4.d.j.4.4.4.4.4.4.4.s.4.s.4.",
"e.0.r.0.4.4.%.L [ %.%.%.%.3.%.2.%.[ | %.3.[ %.[ %.[ [ [ %.3.%.4.*.:.*.:.4.:.:.:.:.:.:.:.:.:.:.*.*.*.%.%.:.%.*.*.*.%.*.%.*.%.*.*.3.1.3.3.4.4.4.4.4.4.4.4.3.3.4.4.4.3.4.4.3.3.3.3.:.3.4.4.4.4.4.4.4.4.4.:.:.4.:.4.4.:.:.:.:.:.4.4.4.3.3.3.:.4.4.4.4.4.4.4.i.u.u.u.u.u.r.u.r.r.r.u.i.i.i.4.i.i.i.j.i.a.a.a.h.j.i.i.i.u.i.i.u.i.i.u.u.r.r.u.i.u.u.e.u.u.r.r.e.e.,.,.u.u.u.4.4.4.4.4.4.j.4.i.i.i.i.i.i.i.4.i.i.4.i.i.%.%.4.4.4.4.j.4.4.4.4.4.4.:.4.4.4.4.4.4.4.i.i.4.4.i.4.4.i.4.4.4.4.4.4.s.4.4.4.4.4.4.4.4.4.4.4.4.4.4.i.i.4.4.4.4.4.3.4.3.:.4.4.4.4.4.4.4.4.4.4.4.4.4.4.i.i.4.i.i.z.4.4.j.4.4.4.4.3.3.%.%.%.1.3.4.*.*.*.*.*.*.1.*.4.4.4.4.4.4.4.4.4.4.4.i.4.4.i.4.s.4.4.4.4.s.4.4.4.i.4.4.3.3.:.%.| | %.%.&.&.&.&.&.*.>.3.3.3.3.3.3.3.3.3.4.e.e.e.e.9.3.3.3.3.3.e.0.3.4.e.3.3.3.3.3.>.*.*.:.:.:.-.>.9.3.3.3.3.3.3.3.3.3.3.3.3.3.3.3.3.9.>.>.7.e.>.7.e.,.e.e.e.e.e.4.4.e.4.7.,.u.u.p.e.u.u.u.u.e.t.e.u.t.u.u.u.u.u.p.p.u.t.u.t.u.u.p.7.p.7.p.p.7.u.7.u.u.t.7.u.7.u.u.t.t.p.t.u.u.u.e.u.p.e.e.e.,.,.4.>.>.>.e.,.e.e.u.r.r.r.u.u.r.r.i.4.4.4.4.4.4.j.4.4.4.s.4.4.4.4.",
"r.4.e.4.4.4.&.K [ 2.[ [ %.3.%.%.| | | | 2.[ %.%.3.[ %.[ %.;.4.4.:.:.*.*.:.:.:.*.:.:.*.*.:.:.:.:.:.:.%.:.*.%.*.:.:.:.*.*.*.%.%.*.2.%.1.3.3.3.4.4.4.4.3.4.4.4.4.4.4.4.4.3.3.3.3.4.4.3.4.4.4.4.4.4.4.4.4.,.,.:.4.4.:.:.4.:.:.4.4.4.4.3.4.3.:.4.4.4.4.4.4.4.4.i.i.4.u.u.r.e.e.u.u.r.i.i.u.u.u.i.i.i.i.h.i.a.i.i.i.h.u.i.i.i.i.u.u.u.i.p.u.r.u.r.r.e.e.e.e.r.u.e.,.,.4.u.i.4.4.4.4.j.i.i.4.j.i.4.i.4.i.4.i.4.4.i.4.4.4.4.:.4.:.4.4.4.4.4.4.4.4.4.4.4.4.4.4.i.4.i.4.4.4.4.i.4.4.4.4.4.4.4.4.4.4.4.4.4.*.4.4.4.4.4.4.4.i.4.4.4.4.4.4.4.4.4.4.4.4.:.4.4.4.4.4.4.4.4.4.4.i.4.4.4.4.i.4.4.4.4.4.4.4.4.4.4.1.3.1.3.4.3.1.%.*.%.4.1.*.*.:.:.4.4.4.4.4.4.4.4.4.4.4.4.4.4.4.i.4.i.s.4.4.i.4.4.s.4.4.4.4.3.2.&.&.| %.| &.&.-.2.-.3.3.3.3.3.4.3.e.3.e.3.9.9.9.e.9.9.e.3.3.9.3.3.3.3.e.3.e.3.3.3.3.>.>.-.-.*.:.:.>.-.9.3.3.3.3.3.3.3.3.9.9.3.3.3.3.,.e.6.e.>.e.e.e.t.e.e.u.e.e.e.u.7.7.e.7.t.u.u.e.u.u.u.u.u.u.u.t.e.t.u.t.u.e.e.t.u.u.t.u.u.7.u.p.p.7.u.7.p.p.p.p.t.t.p.p.u.7.t.t.u.u.p.u.u.t.u.p.e.u.u.e.7.,.,.,.>.,.e.,.e.e.r.u.r.r.u.p.y.u.u.4.i.i.4.4.4.4.4.a.4.4.4.4.0.y.4.",
"0.3.r.0.4.4.:.L [ %.2.%.%.%.3.[ %.| | %.[ 2.%.[ [ [ 3.3.;.4.4.4.*.4.:.4.:.4.4.*.:.:.:.*.%.:.%.:.:.%.:.*.:.:.:.:.:.:.:.*.*.*.*.*.3.%.3.2.4.4.4.4.4.4.4.4.4.4.4.4.4.4.4.4.4.3.3.4.4.4.4.4.4.4.4.4.4.4.4.4.4.4.4.4.4.4.4.:.4.:.,.:.4.3.4.4.4.4.4.:.4.4.4.4.u.4.u.u.r.r.u.r.r.u.r.u.4.i.u.i.i.i.i.j.i.i.i.h.i.i.i.i.u.u.i.u.i.i.i.u.a.r.a.a.i.r.r.e.u.e.e.e.e.4.>.:.4.u.i.4.4.i.4.4.4.i.4.j.4.j.i.i.4.i.4.i.4.4.4.i.j.4.*.%.4.4.4.4.4.4.:.%.%.*.:.4.4.4.4.4.4.4.4.4.s.4.4.4.i.4.i.4.4.4.4.4.4.4.4.4.4.*.4.4.4.4.4.:.4.i.i.4.i.4.4.i.4.4.4.4.4.4.4.4.4.4.4.4.4.i.4.i.4.i.i.i.i.4.i.i.4.4.j.4.4.4.4.4.3.3.3.4.4.%.*.*.*.*.1.4.*.*.:.1.4.4.4.4.4.z.4.4.4.4.i.4.z.i.4.4.4.4.4.4.4.4.4.s.4.4.4.4.3.3.3.2.-.&.| | %.&.&.*.*.>.3.4.3.4.3.0.e.9.9.9.e.9.e.e.e.e.3.4.3.3.3.3.4.e.0.3.3.9.3.3.>.>.>.:.-.*.:.-.:.-.3.9.9.3.9.3.3.2.3.3.3.3.3.9.3.e.>.>.>.e.e.7.e.e.e.r.e.u.u.e.e.e.e.e.u.e.u.e.p.e.e.u.u.e.t.u.u.u.u.u.e.u.u.u.u.u.u.e.t.u.u.t.u.e.p.p.p.p.7.p.p.7.u.7.u.u.p.p.7.u.u.7.u.e.t.u.e.e.t.e.7.e.,.,.,.>.;.7.e.e.u.u.r.u.r.a.p.p.u.u.i.4.i.a.4.4.4.4.4.4.4.4.4.4.4.4.",
"4.3.3.3.3.3.3.L [ | 3.%.%.2.%.[ %.1.%.2.[ 2.1.[ [ [ ;.4.4.4.4.;.:.4.*.:.*.4.:.:.:.*.*.*.*.*.*.%.*.:.:.%.:.:.:.:.:.:.:.:.*.*.*.%.%.3.%.3.4.4.4.4.2.4.4.4.4.4.r.4.4.4.4.4.4.4.4.4.3.3.4.4.4.4.4.3.4.4.4.4.4.4.,.4.4.,.4.4.:.4.4.4.4.3.3.3.4.4.4.4.:.4.,.4.4.u.4.u.r.e.u.u.r.r.u.r.i.i.i.i.i.i.i.i.h.4.j.h.i.i.i.i.i.i.i.i.i.h.u.u.p.a.r.u.p.u.u.e.u.e.e.u.e.7.;.:.4.4.4.u.4.4.4.h.i.4.i.i.i.i.r.4.4.4.i.4.4.i.4.4.4.i.4.%.:.4.4.:.4.:.:.%.:.:.4.4.i.4.4.4.4.4.i.4.4.i.i.4.4.i.4.4.4.i.4.4.4.4.4.4.4.4.4.4.4.4.4.4.i.i.4.i.i.4.4.4.4.4.4.4.4.4.4.4.i.4.4.i.i.4.4.i.4.i.4.i.4.i.i.i.4.j.4.j.4.4.4.4.3.4.3.4.3.%.%.*.:.1.4.4.*.*.1.:.4.z.4.4.s.4.s.4.4.4.4.4.4.4.4.4.4.r.4.r.r.4.r.4.4.4.4.4.4.3.3.2.>.*.%.| | &.&.&.:.3.e.e.e.e.e.e.4.0.4.e.e.e.4.e.9.e.3.3.4.3.3.3.e.3.4.9.e.3.3.3.3.3.>.-.*.*.*.*.-.-.3.9.9.3.3.3.-.3.3.3.2.9.3.3.7.3.3.e.>.e.e.e.e.e.r.e.e.u.e.u.e.u.u.e.p.u.u.u.u.e.e.u.t.e.u.u.u.u.t.e.u.u.t.u.t.e.u.t.u.u.u.u.u.t.7.u.t.u.7.p.u.p.u.p.u.u.t.p.p.p.t.p.u.u.7.p.u.u.e.u.e.e.,.,.e.,.,.e.u.u.u.p.r.r.u.u.u.u.u.u.i.i.4.4.4.4.4.3.4.4.3.4.4.3.4.3.",
"3.2.3.3.3.3.3.[ [ | %.2.[ 3.%.3.%.[ [ 1.%.[ | [ L [ :.4.4.;.4.4.4.:.*.*.:.4.:.:.:.:.:.:.*.*.*.*.:.*.:.:.*.:.:.:.:.:.:.:.4.*.*.*.%.%.%.4.4.4.4.4.4.4.4.4.4.r.4.r.4.4.4.4.4.4.4.4.:.3.4.:.4.4.3.3.:.4.4.4.4.4.4.4.:.4.:.,.4.:.4.:.3.3.4.4.4.4.4.4.4.4.,.4.4.4.u.4.e.u.e.r.u.u.r.r.i.4.4.i.i.i.i.i.h.h.4.h.h.i.i.h.i.i.i.i.i.u.i.u.u.r.u.u.p.u.r.u.e.e.e.e.u.e.4.>.4.4.4.4.i.4.i.4.4.i.4.4.i.i.4.i.4.4.4.4.4.4.i.4.4.i.4.:.%.*.*.:.:.*.%.*.:.4.i.d.i.i.i.4.4.4.4.4.4.i.4.i.i.4.4.4.4.4.4.4.4.4.4.4.4.4.1.4.4.4.4.4.4.4.i.4.4.4.i.4.4.4.4.4.4.4.4.4.4.4.i.4.4.i.4.4.i.4.i.i.i.4.i.4.4.4.4.4.4.4.4.[ 3.1.3.3.1.*.*.1.4.4.4.4.*.%.:.4.4.4.4.4.4.4.4.4.4.4.i.4.4.4.4.s.r.4.r.4.4.r.4.r.4.4.4.4.4.4.4.4.3.:.-.&.&.&.&.=.>.3.e.e.9.e.9.3.e.4.r.e.e.9.0.e.e.9.0.4.9.3.3.3.9.e.9.9.3.e.9.4.e.3.3.>.:.-.=.&.=.:.-.3.3.9.3.3.3.2.3.3.9.3.3.9.e.>.e.>.e.7.e.e.7.e.e.e.e.u.u.e.e.u.e.p.u.u.e.t.t.u.u.u.u.t.t.u.u.u.u.t.u.e.e.u.u.u.u.u.u.t.u.e.u.u.p.t.u.t.t.p.t.u.t.u.p.t.p.p.p.p.7.u.t.u.u.p.e.u.u.e.e.e.e.e.e.e.7.e.u.e.e.u.u.u.r.u.u.u.r.e.s.4.3.3.:.3.:.3.3.:.3.3.3.3.4.3.",
"3.3.3.3.:.3.3.2.%.{ | 2.2.[ %.2.2.%.[ | %.[ [ [ [ %.%.;.4.;.:.4.4.*.:.*.:.:.:.:.:.:.:.*.*.*.*.%.*.%.*.:.*.*.:.:.:.:.:.:.*.*.*.*.%.3.4.4.4.4.4.4.4.4.4.4.4.4.r.4.4.4.4.4.4.4.4.4.4.4.4.4.4.4.4.3.4.4.4.4.:.4.4.,.4.:.4.4.:.:.4.,.3.3.3.4.4.4.4.4.4.4.4.4.4.u.4.u.u.e.u.r.i.u.i.h.h.4.h.4.i.i.i.i.4.h.h.i.4.i.i.i.u.i.u.i.i.i.u.4.u.r.r.u.p.r.u.e.e.e.e.e.e.,.,.4.4.4.4.4.4.4.4.4.4.i.i.4.4.i.r.r.4.4.i.4.i.4.4.4.i.4.4.4.4.%.[ %.%.[ [ %.:.4.4.4.4.4.4.4.4.4.4.i.i.4.4.i.4.4.4.4.4.4.4.4.4.4.4.4.4.4.4.4.4.4.4.4.4.4.4.4.4.i.4.4.4.4.4.4.4.4.4.4.4.i.4.i.4.i.4.4.4.4.4.4.4.4.4.4.4.4.4.4.4.4.3.3.3.3.%.3.*.%.%.3.3.3.4.1.%.1.4.1.4.4.4.4.4.4.4.4.4.s.4.s.4.i.4.4.y.4.4.y.4.y.e.4.4.4.4.4.4.4.4.4.3.3.3.*.&.&.&.&.&.-.3.3.9.e.3.3.4.0.0.4.4.0.4.e.3.e.9.4.4.3.9.3.3.e.9.e.e.3.e.3.e.3.3.3.3.3.:.=.=.&.&.*.2.>.3.-.3.-.3.9.9.9.3.3.3.e.3.7.e.e.7.e.e.t.e.u.u.e.u.e.u.p.e.u.e.t.e.u.e.e.e.u.u.t.u.7.e.u.u.e.u.u.u.u.u.u.u.7.t.u.u.t.t.u.t.u.p.7.u.u.t.p.p.7.t.u.7.p.t.u.t.u.u.p.u.r.u.u.e.e.u.e.e.u.u.e.4.e.u.e.e.e.u.u.r.r.e.e.e.e.4.4.3.:.3.3.:.3.*.:.:.2.:.2.3.3.",
":.:.&.-.3.2.2.4.4.[ [ %.%.[ 3.[ %.%.| %.%.%.[ L %.%.[ %.:.4.:.:.*.*.4.4.*.*.*.*.:.*.:.:.*.*.*.*.:.:.:.%.*.*.*.:.:.:.:.:.:.:.*.*.3.3.4.4.3.4.4.s.4.4.4.0.r.4.4.i.4.4.4.4.4.4.4.4.4.3.4.:.4.:.3.4.,.4.4.4.:.4.4.:.4.4.:.:.4.4.4.4.3.3.3.3.4.4.i.4.i.u.4.4.4.4.4.4.e.e.e.u.i.i.4.4.4.h.4.h.u.i.i.i.h.4.4.h.j.i.i.i.u.u.u.u.u.4.u.u.u.r.r.r.u.r.u.e.e.e.4.,.,.,.;.,.u.4.4.4.4.4.h.4.h.4.4.i.r.i.r.4.4.4.i.4.4.4.4.4.4.i.4.4.4.4.%.[ *.*.:.:.4.i.i.4.4.4.4.4.4.4.4.4.4.4.i.s.4.4.4.4.4.4.4.4.4.4.4.4.4.4.4.4.4.4.4.4.4.4.4.i.i.4.4.4.4.4.i.4.i.4.4.4.4.i.4.4.4.4.4.4.4.4.i.4.4.i.4.4.4.4.4.4.3.3.3.1.3.3.3.1.*.%.1.4.3.4.4.1.%.%.4.4.4.4.4.4.s.4.4.4.4.4.4.4.4.4.4.4.4.4.4.4.4.4.4.r.4.4.4.4.4.4.4.4.e.e.3.:.*.&.| %.%.&.-.3.9.e.e.e.4.4.e.4.e.e.e.4.3.3.4.9.9.e.3.3.3.0.9.e.9.e.9.4.3.3.3.3.4.3.>.*.&.+.| | =.2.3.>.3.3.3.9.2.3.3.3.e.>.e.9.9.7.e.e.r.e.e.u.u.r.u.r.u.e.p.e.u.u.u.u.e.p.t.u.t.u.u.u.u.u.e.t.u.t.u.u.t.e.u.t.e.u.t.u.p.u.p.p.p.u.t.p.p.p.p.u.t.u.p.u.p.u.p.u.t.t.u.u.e.u.u.t.u.u.u.u.e.,.,.e.e.e.e.u.e.t.r.r.e.e.4.4.4.3.3.3.4.4.:.%.*.&.*.*.:.3.2.2.",
"&.-.:.>.-.:.:.3.3.%.[ [ [ 3.2.[ %.2.%.2.| [ [ %.:.%.%.%.%.:.:.:.*.:.:.:.4.*.4.*.:.:.*.%.%.*.*.*.:.%.:.:.%.%.:.:.:.4.:.:.:.4.4.4.3.3.:.4.4.4.4.4.4.4.j.4.4.4.4.4.4.4.4.4.*.4.4.4.4.3.4.3.4.:.4.4.4.4.4.4.4.:.4.4.4.4.:.4.:.4.:.4.3.3.4.4.4.3.4.4.4.4.i.4.4.i.4.4.4.e.e.e.u.u.u.a.i.i.i.i.i.i.i.i.i.i.i.i.i.u.u.u.u.u.u.,.u.4.u.u.i.a.r.a.r.r.e.e.7.e.e.4.,.>.,.4.4.4.4.4.:.4.4.4.4.r.4.r.i.r.4.4.4.4.4.4.4.4.i.4.4.4.4.4.4.4.4.4.4.:.:.4.4.4.4.4.i.i.4.4.4.4.4.4.i.4.i.4.4.4.4.4.4.4.4.4.4.4.4.4.4.4.1.4.4.4.4.4.i.4.4.4.4.i.4.i.4.i.4.4.i.4.i.4.i.4.i.4.4.4.4.i.4.4.4.i.4.4.4.4.4.4.1.4.3.3.3.3.3.%.3.3.[ 1.3.3.4.:.:.1.*.:.4.4.4.s.4.4.s.4.4.s.4.4.s.4.4.s.4.i.4.r.4.4.4.r.4.4.4.4.4.4.:.3.4.3.3.3.3.3.3.*.&.&.&.| %.=.3.4.e.3.0.0.3.4.3.3.3.e.3.3.e.3.e.3.9.4.4.3.e.e.e.0.4.3.3.3.3.9.3.3.3.3.3.&.| %.&.-.2.3.2.3.3.3.3.>.3.3.>.e.6.>.e.e.e.t.e.u.e.t.u.e.u.t.e.t.u.e.r.u.u.r.p.u.u.r.r.t.e.u.e.u.u.e.p.e.u.e.e.t.u.e.t.u.u.7.7.u.t.u.t.u.7.t.u.t.u.p.t.u.u.u.t.p.t.u.u.t.u.t.u.u.t.e.u.u.e.e.e.e.7.e.e.u.e.u.e.u.7.4.,.,.>.,.4.4.4.4.3.3.3.2.:.:.*.*.%.| %.&.",
"&.-.3.-.-.*.-.3.3.3.4.%.[ [ %.[ %.%.%.[ | [ %.%.:.:.%.%.%.:.:.:.:.:.4.:.:.:.:.:.*.%.%.%.%.%.%.%.*.:.:.:.:.:.:.:.:.:.:.4.4.*.*.4.4.%.4.:.4.4.4.4.i.4.4.4.4.4.4.4.4.4.4.4.4.3.4.4.:.4.4.4.4.3.4.4.4.:.4.4.4.4.:.4.4.:.4.:.:.4.:.4.3.3.4.4.4.4.4.4.4.4.4.i.i.4.u.4.u.e.u.e.e.u.u.u.i.i.i.i.i.i.i.i.i.u.i.i.i.u.u.u.u.u.u.u.u.u.i.4.u.u.u.u.r.r.r.e.e.t.e.4.,.>.,.4.4.4.4.4.3.3.4.4.r.4.r.4.4.r.r.4.4.4.4.4.4.4.4.4.4.4.4.:.4.4.4.4.:.4.:.:.4.4.4.4.4.4.4.4.4.4.4.4.4.4.4.4.4.4.4.4.4.*.:.:.:.4.4.4.4.4.4.4.4.4.4.4.4.4.4.4.4.4.i.4.4.4.i.4.4.4.4.i.i.4.4.4.4.4.4.4.4.4.4.4.4.4.4.4.4.4.4.4.3.3.3.3.3.1.[ 3.3.3.3.3.1.4.4.4.*.4.4.4.4.4.4.s.4.4.4.4.4.4.4.4.4.4.4.4.r.r.4.r.4.4.4.0.4.4.3.:.4.4.4.3.3.4.e.3.3.-.-.*.&.%.&.&.3.3.4.3.3.e.e.e.e.9.e.3.0.4.4.e.3.e.3.3.3.3.3.e.e.9.4.9.e.e.e.e.9.e.e.3.3.*.+.@.&.&.&.&.=.:.-.3.2.3.3.3.e.9.e.e.9.e.e.e.e.e.u.e.e.t.u.r.u.u.u.t.u.u.r.u.u.u.r.u.t.u.u.u.u.u.t.e.e.u.e.p.u.u.u.t.u.t.u.u.p.t.p.7.u.p.p.u.p.u.7.u.p.t.p.t.u.u.p.7.u.u.u.u.u.t.u.u.u.u.t.4.4.7.e.e.e.p.u.u.u.e.7.,.,.,.,.,.4.4.4.4.4.4.4.3.3.:.*.3.3.*.&.%.",
"-.-.:.>.-.:.:.3.%.3.4.3.3.[ [ 2.2.[ 2.[ | %.%.%.%.&.:.:.%.%.;.4.:.:.4.:.:.:.:.:.*.%.%.%.%.%.%.%.:.:.:.:.:.*.*.:.:.:.:.4.*.4.4.4.4.4.4.4.4.4.4.u.4.4.4.4.4.4.4.i.4.4.4.4.4.4.4.4.4.4.4.4.4.4.4.:.4.4.:.4.4.4.4.:.:.4.:.4.4.:.:.:.3.4.4.4.3.4.4.4.4.4.4.4.4.i.4.u.4.e.u.u.r.r.a.r.i.i.u.4.i.u.4.i.i.i.u.i.u.u.i.u.u.4.4.u.u.4.u.u.u.u.a.r.r.r.r.r.e.u.u.e.,.>.>.,.4.3.4.4.:.3.4.4.e.r.r.4.4.4.r.r.4.i.4.4.:.:.4.:.4.4.:.4.4.4.:.4.4.:.:.4.4.4.4.4.4.4.4.4.4.4.4.4.4.4.4.4.4.4.4.4.4.:.:.4.4.:.4.4.4.4.4.4.4.4.4.4.4.4.4.4.4.i.4.4.4.i.4.4.i.4.4.4.i.4.4.4.4.4.4.4.4.4.4.4.4.4.4.4.4.4.4.3.1.3.3.3.3.%.%.%.[ 3.3.3.4.:.1.4.*.4.4.s.4.0.4.4.4.4.4.4.4.4.4.4.4.s.4.4.r.4.4.4.r.4.4.4.4.4.3.3.4.4.4.3.e.4.9.e.3.3.>.:.=.&.%.&.&.3.3.3.e.e.e.0.e.e.e.e.e.9.0.3.9.3.3.3.3.3.0.4.e.e.e.9.e.e.0.4.e.3.9.3.&.+.| | @.| | &.=.-.-.3.-.3.3.3.9.7.9.e.e.9.e.t.e.u.u.r.u.u.r.r.u.u.t.u.t.u.u.r.u.u.u.u.u.u.t.u.t.e.e.u.p.u.e.e.u.t.u.u.t.e.t.u.p.u.u.u.t.7.7.u.t.p.p.p.p.p.u.t.u.t.p.p.t.u.t.u.u.u.u.t.u.e.7.e.7.e.7.4.e.u.u.u.u.e.4.,.>.,.4.e.4.4.i.4.4.4.4.4.:.:.:.3.3.3.*.&.",
":.:.:.:.*.*.-.3.3.3.3.3.3.%.%.%.2.2.%.%.[ 1.2.%.%.%.:.&.;.;.;.4.4.:.*.:.4.:.4.*.:.:.*.:.%.*.%.%.%.*.:.:.:.*.:.*.:.:.:.:.4.:.:.4.4.4.4.4.4.4.4.4.4.d.4.4.d.4.4.4.4.4.4.4.:.4.4.4.4.4.:.4.4.4.4.4.4.4.4.4.4.:.:.4.:.:.4.4.:.:.:.:.[ 4.4.4.4.4.4.4.4.4.4.4.4.i.i.i.u.e.u.e.r.r.a.p.u.i.u.i.u.i.i.i.i.u.i.i.u.u.i.4.4.u.u.4.u.u.u.i.r.r.r.p.u.u.u.u.u.u.e.e.,.,.>.,.4.4.4.4.4.3.4.4.4.4.e.4.4.4.3.4.4.4.i.4.4.4.4.4.4.:.4.:.4.4.4.4.:.4.:.:.4.:.4.4.4.4.4.4.4.4.4.4.4.4.4.4.4.i.4.4.4.4.4.4.4.4.4.4.4.4.4.4.4.4.4.1.4.4.4.i.i.4.i.i.4.4.i.4.4.4.4.4.4.4.4.4.4.4.4.4.4.4.4.4.4.4.4.4.3.4.4.1.3.3.3.3.[ 3.1.3.3.3.1.3.4.1.:.4.*.*.1.4.4.4.4.4.s.4.4.4.4.s.4.4.4.4.4.s.4.r.r.r.4.r.r.4.4.4.3.3.3.4.4.3.9.3.3.3.4.3.3.>.>.*.&.&.| &.-.3.4.4.3.3.4.3.0.e.0.e.e.e.e.4.9.3.e.4.3.0.e.3.3.3.3.3.3.3.3.3.3.>.=.&.&.| +.&.@.&.@.| %.&.=.*.-.3.4.6.e.9.e.e.e.t.e.e.e.u.u.e.u.u.u.t.u.t.u.u.u.u.u.u.u.r.t.e.t.u.u.u.u.u.p.e.p.u.u.u.t.u.u.u.u.u.t.p.7.t.p.u.p.t.u.p.t.p.p.p.7.p.u.p.t.p.u.u.u.u.u.p.u.e.e.e.e.e.e.e.e.e.e.e.u.e.e.e.4.,.,.,.4.4.4.4.4.4.4.4.4.4.4.3.*.:.:.2.*.3.",
":.-.:.:.:.-.:.3.3.3.%.3.3.3.[ 2.L [ [ 3.%.2.%.%.%.%.%.*.:.:.,.4.:.:.:.:.:.4.4.:.:.:.:.*.*.%.%.%.*.:.:.:.:.:.:.:.:.:.4.:.4.4.4.4.e.7.e.7.u.u.e.e.4.4.4.4.4.4.4.4.4.4.4.4.4.4.4.*.4.4.4.4.4.3.4.3.,.:.4.4.4.4.4.:.4.4.4.:.3.[ :.:.4.4.3.3.3.4.4.3.4.4.4.4.u.i.4.i.u.e.r.r.u.r.p.u.i.i.i.i.u.i.i.u.i.u.u.i.u.i.i.u.u.u.u.u.u.u.u.i.u.r.i.i.i.p.r.r.u.u.e.e.4.4.>.>.4.4.4.4.4.:.3.4.3.r.4.3.3.3.4.4.4.4.i.4.4.4.4.4.4.4.:.4.4.4.4.4.4.4.:.:.4.4.4.4.4.4.4.4.4.4.4.4.4.4.i.i.4.i.i.4.4.4.4.4.4.4.4.4.4.4.4.4.4.4.4.4.i.4.i.4.i.i.4.i.i.4.i.4.4.4.4.4.4.4.4.4.4.4.4.4.4.4.4.4.4.3.4.4.4.4.3.3.1.3.3.1.1.1.1.3.3.3.3.3.4.4.4.4.*.4.4.4.s.4.0.4.4.4.4.s.4.4.4.4.4.4.s.4.e.r.4.4.r.4.r.4.4.4.4.4.>.4.4.>.4.3.3.9.4.3.3.3.>.>.*.&.%.*.-.:.3.3.3.e.3.e.e.3.4.4.e.0.3.3.4.3.3.3.3.3.e.3.3.3.0.e.e.3.3.3.>.>.3.-.&.| | | &.=.+.| { | +.+.*.>.9.>.e.e.e.t.e.e.u.r.r.e.u.e.u.u.t.u.u.t.r.u.r.u.u.u.u.u.u.e.u.u.u.u.t.e.u.e.u.t.7.t.u.t.u.t.u.u.t.u.u.t.7.p.p.u.u.t.u.u.p.t.u.u.p.t.p.t.u.u.t.u.u.u.u.r.e.e.e.e.e.e.e.e.e.e.7.e.e.e.,.,.4.4.4.4.4.4.4.4.4.4.4.4.3.3.:.*.:.:.3.3.",
"-.:.:.:.:.3.3.:.3.3.3.3.3.3.2.[ [ 3.L 2.*.3.%.%.;.&.*.;.:.:.:.:.4.:.:.4.:.4.:.4.:.*.:.%.:.%.%.%.*.:.:.:.:.:.:.4.*.4.:.4.:.4.4.4.7.e.7.e.4.4.e.,.4.4.4.4.4.4.4.3.4.4.3.4.4.4.4.4.4.:.4.4.4.4.3.4.4.4.4.4.4.4.4.4.4.4.4.:.4.[ :.4.4.[ 3.4.3.4.4.3.4.4.4.4.4.4.i.i.e.r.r.r.p.a.r.a.i.u.i.i.4.i.u.u.i.i.i.u.u.u.i.4.u.,.u.u.4.i.u.i.u.r.i.u.u.u.u.a.u.u.u.r.r.4.4.,.4.4.4.4.4.4.3.4.e.4.4.3.:.4.e.e.i.4.r.i.i.4.4.4.4.:.4.4.4.4.:.4.:.:.:.4.:.4.:.4.4.4.4.4.4.4.4.i.4.4.4.i.i.4.i.4.4.4.4.4.4.4.4.4.4.4.4.4.4.4.4.4.4.i.4.i.4.4.i.i.i.4.4.i.4.4.4.4.4.4.4.4.4.4.4.4.4.4.4.4.3.3.3.3.4.1.3.3.3.3.3.[ 1.3.4.4.3.3.3.3.4.1.4.1.4.1.1.0.4.4.4.4.s.4.4.4.s.4.4.s.s.4.4.4.4.r.r.r.r.r.4.r.4.4.4.4.4.4.4.3.3.3.3.3.3.e.3.3.4.3.3.*.&.&.&.*.@.&.3.e.e.e.3.3.e.e.e.4.e.4.3.4.e.e.3.9.e.3.4.3.3.3.3.>.>.>.:.*.*.&.+.| | | =.3.3.-.&.@.&.&.@.&.6.>.6.e.e.e.e.t.e.e.r.u.e.p.u.u.e.u.t.u.u.u.u.t.u.u.u.u.u.t.t.u.u.e.u.t.u.t.u.u.u.u.u.u.u.u.t.e.u.7.t.p.u.u.7.u.p.u.t.p.u.u.t.p.u.u.u.t.t.p.u.u.r.u.p.r.e.7.e.e.e.e.4.e.4.e.,.e.e.4.e.e.e.e.4.4.4.u.4.u.r.4.r.4.:.3.3.3.3.2.>.3.",
"*.:.&.2.3.:.-.:.[ 3.3.3.3.[ 3.L 2.3.3.2.&.&.%.%.*.&.&.*.;.:.:.,.:.:.:.:.4.:.:.:.:.%.%.*.*.*.%.%.*.%.*.:.:.:.*.:.:.:.:.:.4.4.4.4.e.e.e.,.e.e.7.e.4.4.4.4.4.4.3.3.3.4.4.4.4.4.4.:.4.4.4.4.4.4.4.3.:.4.4.4.4.,.:.4.4.4.4.:.3.4.4.4.3.3.4.4.3.3.3.3.4.4.4.4.4.4.i.4.u.u.p.a.r.a.y.u.i.i.u.u.i.i.u.u.u.h.i.u.u.u.u.u.u.,.u.u.i.i.i.i.u.i.u.u.a.r.u.i.u.r.r.r.4.r.4.4.4.4.3.3.4.3.:.3.4.e.3.3.3.4.4.3.4.4.i.i.i.4.4.4.4.4.4.:.4.4.4.:.:.:.:.4.4.:.:.4.:.4.4.4.4.i.4.4.4.i.4.4.i.4.4.i.4.4.4.4.4.1.4.4.4.4.4.4.4.4.i.4.i.4.4.i.i.4.4.4.4.4.4.4.4.4.4.4.4.4.4.4.4.4.4.4.4.4.4.4.3.3.3.3.4.3.3.1.3.1.[ <.3.3.4.4.3.3.3.3.4.4.4.4.4.*.4.0.4.4.s.4.4.4.4.4.4.4.4.4.4.4.s.4.4.r.4.r.4.r.4.4.u.4.4.4.4.3.4.3.3.3.3.3.3.3.3.e.3.3.>.>.2.*.-.&.| %.*.:.3.3.e.0.0.e.e.e.0.9.9.3.9.3.3.3.3.>.>.>.>.-.*.&.| | &.+.| | | | { | -.0.e.9.3.3.3.&.&.&.-.>.>.e.4.e.e.e.e.u.t.e.p.e.u.t.u.e.e.u.u.r.u.u.r.u.t.e.t.u.7.u.u.t.r.u.u.u.u.u.u.u.t.u.t.e.t.u.u.t.u.7.u.7.p.t.t.p.p.p.7.p.p.u.p.p.p.u.7.p.u.u.r.u.u.u.e.e.,.7.e.7.e.4.e.e.u.u.e.e.e.e.e.e.4.4.4.4.u.4.4.r.4.4.4.4.3.3.3.3.3.>.",
":.*.-.:.-.-.3.:.3.3.3.3.4.4.4.[ [ [ 3.[ &.:.&.:.&.;.*.;.&.:.:.:.4.4.4.:.4.4.:.:.:.*.*.*.%.*.%.%.*.:.:.*.:.:.:.:.:.:.4.4.:.4.4.4.e.7.7.e.7.7.e.,.4.4.4.4.4.4.4.3.3.3.4.4.4.4.4.4.4.4.4.:.4.4.4.:.4.4.4.4.4.4.4.4.4.4.4.4.4.4.4.4.3.4.4.[ 3.3.3.3.4.4.4.4.4.4.4.i.e.r.u.i.a.i.a.u.i.i.i.i.i.4.u.u.i.i.i.i.i.u.u.i.u.u.i.i.i.i.i.i.u.r.a.a.u.r.u.u.u.u.u.u.i.i.i.4.4.i.3.3.4.3.:.3.3.3.e.3.3.3.:.| 4.4.4.4.4.4.4.i.4.4.4.4.4.4.4.:.4.:.*.4.4.:.:.4.:.4.4.4.4.4.4.4.4.4.s.i.i.i.i.4.4.4.4.4.4.4.4.4.4.4.i.4.4.4.s.4.4.4.i.i.4.i.4.4.i.4.4.4.4.4.4.4.4.4.4.4.4.4.4.4.4.4.3.%.1.3.3.3.4.1.3.3.3.[ [ [ 2.[ 1.3.3.4.4.3.4.1.4.4.1.*.4.0.4.4.0.4.4.s.4.s.4.4.4.4.s.s.4.4.r.4.r.r.r.4.u.4.4.4.4.4.4.3.4.3.3.3.9.e.3.3.3.e.4.3.3.3.3.>.-.&.| | | | &.-.3.r.3.4.9.e.4.e.4.0.3.3.3.&.@.| | { | | | | | | | +.+.| | | | | -.9.3.3.3.9.3.3.-.-.;.>.>.>.e.e.r.e.e.e.e.u.e.e.t.u.u.t.u.u.r.u.r.r.u.r.u.u.u.t.u.u.r.u.u.u.u.t.u.e.t.u.e.t.u.t.u.u.u.u.u.u.t.u.p.u.u.7.p.p.p.p.p.t.7.p.t.p.p.p.u.t.t.u.u.u.t.,.4.e.u.e.e.e.u.e.u.u.e.u.u.u.4.4.4.u.4.r.4.r.u.4.4.4.4.3.>.:.3.3.3.>.",
":.>.:.:.:.3.:.3.*.:.:.4.4.4.4.3.%.%.%.*.*.%.*.4.%.*.*.%.*.*.:.4.4.4.*.:.3.4.4.3.*.*.*.*.*.:.:.*.*.:.:.:.4.:.4.:.:.:.:.4.:.4.4.4.4.4.4.4.4.4.u.e.4.4.4.4.4.4.4.4.4.4.4.4.4.4.4.3.3.3.4.4.4.4.4.4.4.4.4.4.4.4.4.4.4.4.3.3.3.4.4.4.4.3.3.3.:.3.3.4.4.4.4.4.i.4.4.4.u.r.u.a.a.i.u.u.a.u.i.4.h.4.u.u.i.i.h.u.i.i.u.i.u.u.u.u.u.u.j.u.u.j.u.u.i.i.i.h.u.u.u.u.u.u.4.4.4.4.0.4.2.3.2.:.3.4.4.4.&.3.3.| *.i.4.4.3.4.4.3.3.3.3.4.4.4.4.1.%.3.%.3.3.%.4.4.4.4.4.4.4.i.4.4.4.i.4.i.4.i.4.4.4.i.4.i.4.d.4.4.4.4.4.4.i.4.4.i.4.4.4.i.4.4.4.4.4.4.4.3.3.4.4.4.3.4.4.e.e.4.3.3.3.-.3.-.-.-.-.3.2.-.2.9.2.+.} +.L [ 3.3.3.3.3.3.9.2.9.9.-.-.3.3.0.0.3.4.0.4.0.0.0.3.0.9.t.e.q.t.t.e.e.u.e.e.e.4.e.,.e.,.>.4.4.6.4.3.3.3.3.3.3.3.4.0.4.0.3.3.2.&.&.&.| &.&.*.:.3.9.3.e.3.9.3.3.3.3.=.| ` { | | | { [ | | &.-.-.-.>.2.3.2.3.3.2.3.2.3.9.3.3.2.*.+.2.*.*.:.4.4.4.4.s.4.r.e.e.e.t.u.u.u.u.u.r.u.u.u.r.r.u.r.r.u.r.r.r.u.u.t.e.u.t.e.u.u.t.e.u.u.7.u.u.u.,.h.u.u.u.u.7.h.u.u.p.7.u.u.u.y.u.r.u.r.u.u.u.u.u.e.e.4.4.,.4.4.u.4.u.i.i.i.4.z.4.4.j.4.4.4.4.4.4.4.4.4.4.4.4.4.3.3.4.4.4.4.",
"*.*.-.:.:.*.:.:.3.:.3.:.3.3.3.3.4.%.4.*.4.*.%.*.*.:.%.4.:.*.:.:.:.4.:.4.4.4.:.4.*.4.4.*.:.:.:.:.:.*.4.:.4.:.:.:.:.:.4.:.:.4.4.4.4.4.e.4.4.e.4.4.4.4.4.4.4.4.4.4.4.4.4.4.4.3.3.4.3.4.,.4.4.4.4.4.4.4.4.4.4.4.4.4.4.4.4.4.4.4.4.4.3.4.3.3.:.3.4.;.4.4.4.4.4.4.4.4.e.u.r.p.r.a.i.r.a.i.i.i.4.h.i.u.i.i.u.u.i.u.u.i.u.u.u.u.u.i.u.u.i.i.u.j.j.i.i.i.u.u.u.u.u.u.u.u.4.4.4.4.3.2.2.3.%.&.4.4.:.:.3.&.%.4.4.4.4.4.4.4.4.4.4.4.4.4.4.4.3.3.3.%.:.4.%.4.;.4.4.4.4.4.4.i.i.4.4.i.4.4.i.i.d.4.4.4.4.4.4.4.i.4.i.i.i.i.i.i.4.i.i.4.4.1.4.4.4.4.3.3.4.4.3.3.4.3.e.e.e.4.3.3.-.3.>.3.3.3.>.3.3.2.3.9.9.-.*.2.2.L D 1.4.3.3.3.9.8.8.9.-.=.2.3.3.e.4.e.9.4.0.4.9.9.e.9.9.q.t.9.e.u.e.e.e.e.e.7.e.e.e.e.e.7.e.>.e.e.e.9.e.e.9.e.4.0.e.e.4.3.3.3.-.*.&.&.| %.*.3.e.3.3.3.3.3.3.3.| | | | | @.&.&.-.-.-.3.3.3.4.0.9.3.2.9.9.9.9.9.2.3.3.3.2.3.2.&.:.2.*.*.*.3.4.r.r.r.r.e.r.r.u.r.u.u.r.u.u.r.r.u.r.r.u.u.u.r.r.r.u.t.t.u.u.u.u.u.u.u.u.t.t.u.u.u.u.u.u.7.u.e.u.u.h.7.u.u.p.u.p.u.u.u.r.u.r.u.r.r.r.u.u.u.e.4.7.u.4.u.i.4.i.i.i.i.4.j.j.4.4.j.z.4.4.4.4.4.4.4.i.i.i.4.4.4.4.4.4.4.",
":.:.:.>.4.3.:.4.4.:.3.:.:.4.3.3.4.4.4.*.*.%.4.%.%.4.4.4.4.*.*.*.*.:.4.4.4.3.4.4.4.4.4.4.4.4.4.4.:.4.:.4.:.4.:.:.:.:.:.4.4.4.4.4.4.4.4.4.e.4.4.4.4.4.u.4.u.4.4.4.4.4.4.4.4.4.4.3.4.4.4.4.4.4.4.4.4.4.4.4.4.4.4.4.4.4.4.4.4.h.4.4.4.4.3.3.4.4.:.3.3.3.4.4.4.4.4.4.r.r.r.r.u.p.u.u.a.i.a.i.i.i.i.i.j.i.i.i.u.u.u.u.u.u.i.u.i.u.u.i.j.i.u.j.i.i.i.i.u.u.u.u.u.u.u.u.4.4.4.4.3.2.%.*.%.| 3.3.-.| &.3.%.%.4.4.4.4.4.4.4.4.4.4.4.4.4.4.3.%.3.2.:.:.3.4.4.4.4.4.4.4.i.4.4.4.i.i.4.d.4.i.4.4.4.4.4.4.4.i.i.i.4.i.i.i.i.i.i.i.4.4.4.4.4.4.4.3.4.3.4.3.4.4.3.4.e.3.3.3.3.:.>.>.-.3.3.-.3.2.3.2.2.3.8.3.2.9.3.1.1.<.3.4.4.2.9.-.3.0.3.@.-.e.0.4.0.4.4.0.0.4.e.9.0.9.q.t.0.t.u.e.e.p.e.e.e.e.e.e.e.e.e.4.7.e.e.e.e.e.e.e.e.e.4.4.4.0.e.e.4.4.3.>.-.&.| | &.-.3.-.-.:.3.-.&.%.| | | =.-.>.3.3.3.e.e.0.e.r.0.e.e.9.2.3.9.9.9.2.3.3.2.3.3.3.2.=.| 3.3.&.%.3.4.4.4.r.e.r.e.e.t.e.e.u.u.r.r.r.r.r.r.r.r.u.u.u.u.t.t.u.t.u.t.u.u.7.t.7.u.u.u.u.u.t.u.e.u.u.,.u.u.u.7.u.u.u.u.u.u.u.u.i.r.u.u.u.r.u.u.u.u.u.e.,.e.e.e.4.u.u.i.i.i.i.z.4.j.4.z.z.4.4.4.4.4.4.4.4.4.4.4.4.4.3.4.4.4.3.",
":.:.3.4.4.4.4.4.4.4.4.3.4.4.4.:.4.*.4.*.4.*.*.4.4.:.:.*.:.4.:.*.*.*.4.4.4.4.4.4.4.4.*.:.:.4.4.*.4.:.4.:.4.:.:.4.4.4.:.4.:.4.4.4.,.4.4.4.4.4.4.4.4.4.4.4.4.4.4.4.4.4.4.4.4.4.4.4.4.4.4.4.4.4.4.4.4.4.4.4.4.4.4.4.4.4.4.4.4.4.4.i.4.4.4.3.:.3.:.3.:.3.3.4.4.4.4.i.r.r.r.r.r.u.a.a.a.a.i.i.i.u.u.h.i.i.i.i.i.i.i.u.i.i.i.u.i.u.i.i.u.i.u.u.i.h.i.i.u.u.u.u.u.u.u.4.4.3.4.4.3.&.%.2.3.%.| *.*.%.%.:.*.%.i.4.4.4.:.4.4.3.4.4.4.4.4.4.3.3.3.3.3.:.3.%.4.4.4.4.4.4.4.4.d.i.4.i.i.4.d.i.4.4.4.4.4.4.4.d.i.i.i.i.i.4.4.i.4.4.4.i.4.4.4.4.4.4.4.3.4.4.3.4.4.4.3.3.3.3.3.:.>.-.3.3.3.3.2.3.9.3.-.2.9.2.2.9.3.4.3.L L 2.3.2.9.3.8.0.9.@.@.3.4.0.4.0.0.4.0.0.0.0.0.e.e.9.q.e.e.e.e.e.e.7.e.e.u.e.e.e.e.e.e.4.e.9.9.e.0.e.9.e.0.4.r.4.e.4.0.e.e.e.3.>.&.| | | :.-.:.>.:.&.%.| &.=.3.9.9.9.4.0.3.0.9.3.9.0.9.9.9.9.3.3.9.3.3.3.3.2.3.3.3.9.2.&.| &.3.2.3.3.4.3.0.4.e.r.t.t.u.u.t.r.r.u.r.r.u.r.r.r.u.y.r.u.r.u.u.t.e.u.u.t.u.p.u.t.u.e.t.e.u.u.u.u.7.u.e.,.7.u.u.u.u.p.u.u.u.p.u.r.u.r.u.r.u.u.r.r.u.u.u.7.4.u.e.u.u.i.i.i.i.i.4.j.4.4.4.4.j.4.z.4.4.z.4.4.4.%.3.3.3.3.4.3.4.3.",
":.3.:.4.4.4.4.4.4.4.4.4.4.4.:.3.4.4.4.4.:.4.4.:.*.*.4.*.:.4.:.4.:.:.:.:.4.4.4.4.4.4.3.*.4.4.:.:.4.:.4.4.:.4.:.4.:.4.4.:.4.:.4.4.4.4.4.4.4.4.4.4.4.4.4.4.4.4.4.4.4.4.4.4.4.4.4.4.4.4.4.4.4.4.4.4.4.4.4.4.4.4.4.4.4.4.4.4.4.i.4.4.4.4.4.4.4.:.3.%.:.3.3.4.4.3.4.4.t.e.e.e.u.u.u.u.i.i.h.i.h.h.u.u.u.u.i.u.i.i.i.u.i.i.i.i.i.i.i.u.u.u.i.i.i.i.i.i.i.i.i.u.4.4.4.4.4.4.3.4.3.%.%.%.3.3.*.+.*.*.*.*.4.[ i.4.4.4.1.4.4.4.4.4.4.4.4.3.4.4.4.3.4.4.4.4.4.4.4.i.4.i.i.i.4.i.d.4.i.4.i.4.4.4.4.4.4.4.4.d.i.i.i.i.i.i.i.4.i.4.4.4.4.4.4.s.3.:.4.4.3.4.4.4.4.4.3.3.3.3.*.*.-.-.3.3.3.3.2.3.3.-.-.3.8.8.2.3.3.2.3.1.<.L 1.3.2.3.2.0.9.+.| 3.0.4.4.0.0.0.0.0.t.9.9.t.q.9.t.9.e.e.7.e.e.e.e.e.7.e.e.e.7.e.e.e.4.0.4.4.9.3.e.e.0.4.r.0.0.4.4.0.e.e.e.9.>.&.| { &.>.3.3.2.&.&.&.2.3.e.e.0.3.3.0.3.3.3.3.3.9.3.3.3.3.0.9.2.3.2.3.3.2.2.:.3.3.3.:.&.&.%.3.3.3.3.4.3.e.e.u.e.t.e.u.u.r.u.u.r.u.u.t.u.r.u.u.r.u.r.r.u.t.u.u.u.u.u.t.u.u.u.t.e.t.u.u.7.e.u.e.7.u.u.u.u.p.u.u.p.e.p.p.u.r.r.u.u.u.u.r.r.r.r.r.,.e.e.4.4.4.4.d.s.j.4.a.j.4.4.j.i.i.i.i.4.4.3.3.%.%.%.%.%.%.%.%.%.4.4.4.",
":.3.3.4.4.4.4.>.:.3.3.4.4.4.3.:.4.4.4.4.4.4.:.:.4.:.:.:.*.*.4.:.4.:.:.:.:.4.4.4.4.4.*.4.4.4.3.4.:.4.*.:.:.:.:.:.:.4.:.4.:.4.4.4.4.4.4.4.4.4.4.4.4.4.i.4.4.4.4.4.4.4.4.4.4.4.4.4.4.4.h.4.4.h.i.4.4.4.4.4.4.4.i.4.4.i.4.i.4.4.4.i.4.4.4.4.3.3.:.3.3.:.:.3.4.4.4.u.u.u.t.u.e.u.u.u.u.u.u.u.u.i.u.u.u.j.i.i.u.u.i.i.i.i.i.i.i.i.i.i.u.u.i.i.i.i.i.u.i.i.i.i.i.u.4.u.4.4.4.4.3.3.3.3.[ &.*.&.*.*.&.:.3.*.4.4.4.4.4.4.4.4.4.3.4.4.4.:.4.4.4.4.4.4.4.4.,.,.4.i.i.i.i.i.j.4.4.4.4.d.4.d.4.4.4.4.d.j.i.i.i.i.4.i.4.4.4.4.4.4.4.4.4.4.4.4.4.4.4.4.4.3.3.4.0.3.3.3.3.:.:.-.>.3.3.3.3.3.3.3.2.3.3.3.9.9.0.3.4.3.3.4.3.1.[ [ -.9.9.9.9.@.| 0.3.0.0.4.0.4.0.4.0.q.9.9.9.t.6.t.e.e.e.e.e.e.7.u.7.e.e.,.,.e.e.e.0.4.0.r.e.e.4.0.r.4.4.4.4.0.4.4.9.e.e.e.3.3.&.[ | *.>.>.-.&.&.-.3.3.0.e.0.3.e.e.e.0.3.0.9.e.3.3.2.3.9.0.3.2.3.9.3.3.2.3.3.3.2.2.2.2.1.2.2.3.3.3.>.,.e.e.e.u.t.u.u.u.t.e.e.u.e.r.r.r.r.u.u.r.r.r.u.u.t.7.t.e.u.u.e.t.t.u.u.u.t.u.u.u.u.u.e.e.e.u.u.7.e.e.e.t.e.e.r.r.r.r.e.t.r.r.r.u.e.e.e.e.7.e.4.a.4.4.4.4.4.a.4.j.z.4.i.i.i.4.4.4.3.3.%.3.%.3.%.3.%.%.%.%.%.3.",
":.3.3.4.4.3.4.3.4.3.3.3.4.4.3.:.4.i.4.4.4.:.:.:.*.:.:.:.:.:.:.4.:.:.:.:.:.:.4.4.:.:.:.4.3.4.:.4.4.:.:.4.4.*.:.4.4.4.4.4.4.4.4.4.4.4.4.4.4.4.4.e.i.4.4.4.4.u.4.4.4.4.4.4.4.4.4.i.4.4.i.4.4.4.i.i.4.4.4.4.i.i.4.4.4.4.i.4.4.4.4.u.4.4.4.4.4.:.3.%.3.%.4.3.3.3.4.4.u.r.t.e.u.e.u.u.i.u.u.h.h.u.u.u.i.i.u.i.i.u.i.u.u.i.i.u.i.i.i.i.u.i.i.i.i.u.u.u.i.i.u.u.u.u.u.4.4.4.4.3.3.3.2.%.L | | | *.&.&.:.*.4.4.4.4.4.4.4.3.4.4.4.4.3.4.4.4.4.4.4.4.4.4.d.4.4.i.i.4.i.i.i.i.j.4.d.d.4.4.4.d.4.4.4.j.4.4.j.i.i.i.4.i.4.4.i.4.4.4.4.4.4.i.4.3.4.4.4.4.4.e.e.e.3.0.3.2.:.:.2.3.2.3.3.2.3.9.3.3.3.9.9.9.9.9.3.2.4.4.3.[ 2.2.L @.3.9.3.9.-.@.0.0.4.0.0.0.0.0.0.9.9.t.9.q.e.e.9.,.e.4.e.e.7.7.e.e.,.e.e.e.e.e.,.4.e.r.4.e.e.e.4.0.4.4.r.4.0.4.4.e.9.9.e.e.3.>.%.| +.&.&.%.&.&.3.3.0.0.4.0.e.e.e.3.3.3.3.0.3.3.3.2.3.2.3.3.2.2.3.3.2.-.3.3.2.2.-.3.2.%.%.%.3.3.3.9.,.7.t.t.u.u.t.e.u.e.t.u.u.e.u.r.u.u.r.r.r.r.u.t.u.u.u.u.t.t.e.t.u.u.u.u.u.e.u.e.u.e.u.e.,.e.7.7.u.u.7.7.u.7.e.r.r.r.r.u.r.r.u.p.e.e.e.u.4.e.4.a.4.a.4.4.j.d.4.j.4.i.i.i.4.4.4.4.3.2.%.3.%.3.4.3.%.%.%.%.%.[ %.",
"%.&.*.>.4.4.4.3.4.4.4.4.4.4.4.4.4.4.4.4.:.4.4.:.4.*.4.:.4.*.:.:.:.:.4.4.:.:.:.4.:.4.*.4.:.*.*.4.4.:.4.:.:.4.:.:.:.4.:.4.4.4.4.4.u.4.4.4.4.4.4.u.i.i.i.4.i.4.4.u.4.3.4.4.4.r.r.i.i.4.4.4.4.4.4.4.4.4.4.4.4.i.i.4.i.i.4.i.4.4.4.4.4.4.4.4.4.4.4.3.:.3.4.4.4.4.4.4.r.r.e.u.e.u.e.e.i.i.u.h.u.h.u.h.i.u.u.u.i.i.i.u.u.4.u.u.u.u.i.u.i.u.i.i.i.j.u.u.u.u.u.u.4.4.u.4.4.4.4.3.3.%.3.[ { | [ | :.2.:.2.*.4.4.4.4.4.4.4.*.3.4.4.:.4.4.4.4.4.4.4.4.4.4.4.u.u.i.i.i.i.i.j.j.4.d.4.4.d.i.4.d.4.d.4.4.4.j.4.4.i.i.i.i.i.i.4.z.4.4.4.4.4.4.4.4.4.3.4.4.3.0.e.3.3.3.3.3.:.2.:.3.9.3.3.3.3.2.3.3.0.e.9.9.3.9.0.4.4.4.4.4.3.3.2.[ -.2.2.2.@.+.9.4.0.0.0.0.4.0.4.9.e.9.e.6.6.t.6.e.e.e.e.e.e.e.e.e.e.e.e.e.e.e.e.4.4.e.4.4.e.4.e.4.4.r.4.r.4.r.4.e.e.3.3.9.e.3.&.&.&.&.&.%.=.3.9.e.e.4.0.0.9.3.3.e.0.3.0.9.3.0.3.>.2.9.3.3.3.2.3.3.-.-.-.2.&.*.2.3.3.2.%.%.2.3.3.>.3.e.e.e.7.u.e.u.u.e.u.u.e.u.u.u.t.r.u.u.u.r.r.e.t.u.e.t.u.u.u.u.u.t.7.u.t.t.u.7.e.p.u.7.,.,.,.e.e.e.e.e.e.u.e.r.r.u.r.r.u.t.u.u.e.e.e.4.u.7.e.4.4.4.4.4.4.4.j.i.i.i.j.4.4.:.%.4.3.2.2.%.3.%.%.%.3.3.%.%.%.%.%.",
":.:.:.4.:.4.4.4.4.4.3.:.3.4.4.4.4.4.4.4.:.4.4.4.:.:.:.4.:.:.:.:.:.4.:.*.:.4.:.4.*.:.4.*.*.:.4.4.:.:.4.:.:.:.:.4.4.4.4.4.4.4.4.4.4.4.3.4.4.4.4.r.4.i.4.i.4.i.4.r.r.4.4.4.4.i.4.4.4.u.u.4.,.4.4.4.4.4.4.4.4.r.4.i.4.4.4.4.4.4.4.4.4.4.4.4.4.4.4.4.3.3.3.3.4.4.4.i.i.4.4.u.u.u.u.i.i.h.i.h.i.i.h.i.i.i.i.u.u.u.u.u.i.4.4.i.4.i.i.i.u.u.i.u.u.u.4.4.u.u.i.u.u.u.4.4.4.4.3.3.3.%.3.[ L 3.3.[ L L 3.3.:.4.4.:.4.4.*.4.4.4.3.4.3.4.4.4.4.4.4.4.4.d.4.4.4.d.j.4.d.4.4.d.z.4.4.j.j.4.4.4.4.4.4.j.4.4.z.4.i.i.4.i.4.i.4.i.4.4.4.4.4.4.4.4.4.4.4.4.4.4.0.4.3.3.3.3.2.-.-.-.-.3.3.3.3.3.2.3.9.9.e.e.e.0.4.3.4.4.4.3.4.2.3.2.3.2.2.2.2.&.@.3.0.8.9.0.t.e.0.9.9.q.9.e.6.e.6.e.4.e.e.e.e.4.e.e.e.e.e.e.4.e.e.4.e.e.4.e.e.4.e.4.r.4.r.4.4.r.4.r.e.9.0.3.3.e.0.*.| e.2.| 3.3.e.9.e.0.0.e.e.0.0.3.e.e.e.0.4.3.3.e.3.2.3.3.2.9.0.0.9.2.3.2.3.2.-.*.%.2.2.&.&.%.&.e.e.e.e.6.e.e.e.t.e.u.u.u.u.u.u.u.u.e.u.u.r.u.u.r.u.t.e.u.t.e.u.t.u.u.t.e.u.u.u.u.u.u.7.e.7.7.e.7.e.u.e.e.e.u.e.u.p.u.u.u.r.e.p.e.e.u.e.e.7.e.e.4.4.4.4.4.4.i.i.a.4.i.4.4.%.%.4.4.:.4.4.%.%.4.%.4.%.3.%.3.%.3.%.%.",
"3.3.:.:.:.3.:.:.3.3.3.:.:.4.4.4.4.4.4.4.:.4.:.4.4.4.:.:.4.4.:.:.:.:.:.4.:.:.:.:.3.:.:.:.*.:.:.:.4.4.:.4.:.4.:.:.4.4.4.4.4.4.4.r.4.4.3.3.4.i.4.4.r.4.i.4.r.4.r.4.4.4.4.4.4.i.r.i.i.i.4.4.4.4.4.4.4.4.4.4.4.4.i.4.4.i.r.4.4.r.4.4.4.4.4.4.4.4.3.3.3.%.3.3.4.4.4.4.4.i.4.4.u.u.i.i.i.i.h.i.h.i.i.i.i.i.h.u.i.u.u.u.i.i.i.4.i.i.i.i.i.i.i.i.u.u.u.u.u.u.u.i.u.u.u.4.4.4.4.3.3.3.3.[ 3.[ 3.3.L 2.L 3.4.i.4.:.4.4.*.4.4.4.4.4.4.4.4.4.4.d.d.4.4.4.d.4.4.4.4.j.4.d.d.4.4.4.j.4.j.4.z.4.4.j.4.4.j.4.4.j.i.i.i.4.4.4.i.4.4.4.s.4.s.4.4.4.4.3.4.4.r.4.4.4.3.3.9.2.:.-.*.:.>.2.2.3.3.3.3.-.3.9.9.e.e.3.0.4.4.4.4.4.0.4.3.2.3.2.*.1.2.=.&.3.0.9.9.9.0.0.0.0.9.9.9.q.e.6.t.6.e.7.e.7.e.e.e.u.e.4.e.4.e.e.e.e.e.e.e.e.4.r.e.e.4.r.4.r.4.r.r.4.e.9.e.e.e.e.3.| :.3.:.3.r.4.e.r.4.3.3.0.0.e.e.e.0.0.0.3.0.e.0.e.3.9.3.3.3.3.3.3.2.3.2.3.2.3.3.3.3.3.3.*.=.+.&.3.>.6.e.e.7.e.e.7.u.e.e.e.u.u.u.u.u.u.e.e.r.u.u.u.u.u.u.u.u.u.u.u.u.u.u.u.p.e.u.e.u.u.e.t.7.e.e.t.e.7.7.t.t.7.7.t.u.r.u.e.t.e.e.u.u.u.e.,.,.e.,.u.4.a.4.d.4.i.4.i.4.a.4.:.%.4.4.%.3.%.3.%.4.%.3.%.3.%.3.%.3.%.%.4.",
"3.:.3.:.%.3.%.:.%.:.:.3.:.3.3.:.4.4.4.4.4.4.4.:.:.:.:.:.:.4.:.4.4.:.:.:.:.:.4.:.*.:.3.*.*.:.4.:.4.4.4.4.4.4.4.4.:.4.4.4.4.4.r.4.4.4.4.4.4.r.r.4.4.4.r.r.r.i.4.i.4.r.4.4.4.4.i.4.4.i.u.4.3.:.4.4.4.4.r.4.r.r.i.r.4.4.4.4.4.4.4.4.4.4.4.4.4.3.3.4.3.3.4.4.4.4.4.4.4.i.4.i.i.i.i.i.h.h.i.h.h.u.h.i.i.i.i.i.i.i.u.u.i.i.i.i.i.i.i.i.u.u.u.i.u.u.u.u.u.i.i.i.u.u.4.4.4.4.3.3.[ [ 3.3.3.2.3.3.2.3.[ i.4.4.4.4.4.:.*.4.4.4.4.4.r.4.r.4.4.4.4.4.4.4.4.4.4.j.4.4.d.4.a.d.z.4.z.4.4.z.4.j.j.j.4.j.j.4.4.z.i.4.i.4.i.i.4.4.s.4.i.4.4.s.4.s.4.4.4.4.4.0.9.3.3.3.3.-.2.:.-.:.3.-.3.9.3.3.3.3.3.9.9.9.e.e.4.4.4.4.4.4.4.4.4.4.3.*.2.%.=.+.+.3.2.9.9.0.0.9.9.9.9.9.e.e.6.e.7.9.e.e.e.e.e.e.e.e.,.e.e.e.e.e.e.e.e.4.e.4.r.4.4.r.r.4.4.r.r.4.4.4.e.3.e.e.4.r.3.&.:.-.*.e.r.3.4.9.4.3.3.9.3.0.0.e.3.e.4.0.3.3.e.4.0.0.9.9.9.2.3.2.2.2.2.2.3.3.3.9.3.2.3.*.=.| &.3.9.7.e.7.,.e.e.e.u.u.e.e.e.e.u.e.e.e.e.u.r.r.r.u.e.t.t.u.u.u.e.u.t.u.u.u.p.p.p.e.r.t.e.7.e.e.e.t.e.t.7.e.e.e.e.u.r.r.t.u.e.u.u.u.e.e.u.4.e.e.e.e.4.4.4.4.i.4.4.4.4.4.:.%.;.4.4.%.%.4.4.3.%.4.4.%.3.3.3.3.3.3.4.3.",
"3.3.:.3.:.3.3.:.%.:.:.:.:.:.3.4.4.4.4.4.4.4.:.:.4.4.4.:.4.:.:.4.4.:.:.*.4.:.:.:.:.:.*.*.:.*.*.4.4.:.*.:.4.4.4.4.:.4.4.4.4.4.4.4.4.4.4.4.4.i.i.4.i.r.4.i.4.i.4.4.i.4.r.i.i.i.r.4.4.r.4.4.4.4.4.4.i.4.4.4.i.4.4.i.i.4.4.4.4.4.4.4.4.4.4.4.4.3.3.3.3.3.4.4.4.4.4.4.4.u.i.4.i.i.i.j.u.i.i.i.u.h.u.h.i.h.i.i.i.i.i.u.i.i.i.i.i.i.i.i.u.u.u.u.u.4.u.i.i.i.u.u.u.4.4.4.3.3.3.[ 3.3.3.[ 3.[ 3.3.1.L [ i.s.4.4.4.:.4.4.4.4.3.3.4.4.r.4.r.4.4.d.4.4.z.d.4.j.4.d.4.s.j.i.d.4.z.4.j.z.4.z.4.4.4.j.4.4.j.4.4.j.4.i.4.4.4.4.i.4.i.4.4.i.4.4.s.4.4.4.4.0.4.0.3.3.3.3.3.-.-.2.2.3.3.3.3.8.3.9.3.e.3.e.e.e.4.4.4.4.4.4.4.0.4.0.4.3.3.3.2.@.| } 2.2.2.9.0.0.9.9.-.e.9.6.9.e.6.e.7.e.4.e.7.4.e.7.e.e.e.7.e.e.4.4.e.4.r.4.r.4.4.r.4.4.r.4.4.4.4.r.r.e.9.0.3.3.r.4.2.&.@.*.e.r.3.e.3.0.3.3.3.e.4.0.e.3.0.e.0.e.0.0.0.0.9.9.9.9.3.3.3.3.3.3.2.2.2.2.3.3.4.3.2.-.&.+.>.9.e.e.e.7.e.t.7.7.e.e.u.e.e.e.e.e.u.e.t.e.r.r.u.u.u.u.e.u.e.p.p.u.r.u.u.e.p.e.u.u.t.e.u.t.u.u.e.e.7.t.e.7.t.e.7.t.u.e.u.u.u.e.u.u.e.,.e.7.e.4.e.4.4.4.d.4.i.4.4.4.:.[ :.:.:.:.4.%.3.%.3.4.%.%.4.%.4.%.4.%.4.%.3.",
"3.3.:.3.3.3.:.3.:.%.%.:.:.:.3.3.4.:.4.4.4.4.4.4.:.4.:.4.:.4.:.:.*.:.4.*.*.*.:.*.:.*.:.:.:.:.:.:.:.:.*.:.4.4.4.4.4.4.:.4.4.i.4.4.4.4.4.4.4.i.i.i.i.i.i.i.i.4.r.4.4.i.4.4.4.r.i.4.4.r.4.i.4.4.u.4.4.4.r.4.i.4.i.4.i.u.4.4.4.r.4.4.4.4.4.4.3.3.4.:.:.4.3.4.4.4.4.4.4.u.u.i.i.i.j.i.i.u.u.u.u.i.i.i.i.i.i.h.i.i.i.u.i.i.i.i.i.i.i.i.u.i.i.u.u.4.i.i.i.u.u.i.u.,.,.,.3.3.3.3.3.3.3.3.[ 3.3.3.3.[ L 3.i.4.4.s.4.*.4.*.:.4.4.4.4.r.4.4.4.4.4.4.4.j.z.4.4.j.4.d.i.a.a.d.z.4.z.d.z.4.j.z.z.4.j.4.j.z.4.j.i.4.i.i.4.4.4.i.i.i.4.i.s.4.i.4.e.3.3.0.3.3.3.3.3.3.3.-.-.-.-.2.3.3.3.3.3.3.9.3.9.e.4.e.4.e.e.4.4.4.s.4.4.4.4.4.3.3.r.2.2.+.| -.@.2.2.3.0.-.2.>.9.e.6.e.e.7.e.7.e.e.e.e.7.e.e.e.e.e.e.,.e.e.e.e.e.r.4.r.4.r.4.r.4.r.4.r.4.4.r.4.e.0.0.3.3.e.e.-.| *.3.e.e.3.r.0.e.e.9.0.0.0.e.e.0.e.0.e.0.3.3.3.3.9.9.3.8.3.2.3.4.3.3.2.3.2.2.9.3.3.3.2.-.*.&.>.>.e.e.e.7.7.e.e.e.e.u.4.7.u.e.e.e.e.e.e.e.e.e.u.e.u.u.t.e.e.u.e.t.e.t.e.u.u.e.u.u.e.t.t.e.u.t.u.e.e.e.t.e.t.t.r.e.t.u.u.u.u.e.e.4.e.u.e.4.u.4.4.4.d.4.d.4.4.4.4.3.%.%.3.:.%.%.4.3.4.3.%.%.4.3.%.4.4.4.4.4.%.4.4.",
"4.4.4.:.:.3.3.:.4.3.3.:.:.:.:.:.4.4.:.:.:.4.:.:.4.:.4.:.4.:.4.:.4.*.4.:.4.:.:.4.4.4.:.:.:.:.:.:.*.:.:.:.4.4.4.4.4.4.4.4.4.i.4.i.4.4.3.4.4.i.4.i.r.i.4.i.r.4.i.4.r.i.r.4.r.i.4.r.r.4.4.4.u.4.e.u.i.i.r.i.i.4.4.r.4.4.4.4.4.4.4.4.4.4.4.4.4.4.:.4.4.3.4.4.4.4.4.i.i.4.4.i.i.i.i.i.i.u.h.h.h.u.h.i.i.i.i.i.i.u.i.i.i.i.i.i.i.i.i.i.i.i.i.i.i.u.u.i.i.u.4.4.4.,.,.,.3.3.3.3.[ 3.3.[ 3.3.3.[ 3.4.3.L 4.4.4.4.4.4.4.4.4.4.4.4.r.4.4.r.d.4.4.j.4.4.4.4.j.4.j.4.i.i.i.i.4.z.4.d.z.4.j.4.4.j.4.j.4.4.4.4.i.i.i.4.s.i.4.4.4.4.s.4.4.4.4.4.e.e.e.3.e.0.0.3.3.2.2.-.-.-.3.3.8.2.3.3.3.9.9.e.e.4.e.4.e.4.e.4.4.4.4.4.4.4.4.s.3.3.0.3.2.&.} 1.2.2.2.2.9.-.3.0.6.>.e.9.7.e.7.e.4.e.,.e.e.e.e.e.4.e.e.e.4.e.4.e.r.4.r.4.r.4.u.4.r.4.4.4.4.r.4.r.4.3.e.e.4.e.>.| | 3.0.e.4.0.r.e.e.0.e.e.e.e.e.0.e.e.e.e.e.0.3.3.2.3.9.3.8.3.3.3.3.3.3.3.2.3.3.4.3.3.2.2.-.=.&.*.9.6.e.,.4.e.7.,.4.u.,.e.e.e.e.e.e.u.e.e.7.e.e.u.u.u.u.u.u.u.e.u.u.u.u.t.u.e.u.e.7.e.e.7.t.7.t.e.7.t.7.u.e.e.t.r.u.r.r.u.u.r.e.e.u.7.,.e.e.4.u.u.4.4.a.4.4.j.3.3.%.3.4.:.%.4.:.3.%.4.3.4.4.%.3.3.3.%.3.%.3.3.3.3.",
"4.4.3.:.:.:.:.:.3.:.:.:.:.%.%.:.:.:.:.:.:.:.:.:.4.:.:.:.:.4.4.:.:.4.*.:.*.:.:.*.:.:.:.:.:.:.*.:.:.:.:.:.:.4.4.4.4.4.4.4.4.4.4.4.4.:.3.4.i.i.4.r.4.i.i.4.i.4.r.4.i.4.r.4.4.4.4.i.4.4.i.4.u.u.e.u.4.i.4.i.4.i.4.i.4.4.:.3.4.4.4.4.4.4.4.4.4.3.3.:.:.4.4.4.4.4.4.4.i.4.i.i.i.i.i.i.h.i.u.i.h.u.u.u.u.i.i.i.i.i.i.i.i.i.i.i.i.i.i.i.i.j.j.i.u.u.u.u.u.4.4.i.4.,.;.4.3.[ 3.3.4.3.3.3.3.3.L 3.3.[ 4.3.*.4.4.4.4.4.3.4.4.4.4.4.4.4.4.r.4.4.4.4.j.4.4.d.4.j.4.z.i.s.i.i.4.d.j.d.z.j.z.4.4.z.z.4.4.j.z.4.i.i.i.i.i.4.i.4.i.4.4.4.4.i.4.4.0.3.3.e.0.e.3.3.3.3.3.-.-.-.-.3.3.3.9.3.3.9.9.e.4.e.e.4.4.4.4.e.s.4.4.4.4.4.4.4.3.3.4.2.2.*.} *.2.1.2.2.9.5.3.0.9.9.e.6.e.7.e.e.e.e.e.7.e.e.e.e.7.e.e.e.e.e.4.r.4.4.r.4.4.4.u.4.4.e.4.r.4.4.r.4.4.3.e.e.4.3.-.[ | e.r.3.e.3.e.e.e.0.e.e.0.r.e.e.0.e.r.e.0.3.3.0.3.3.3.2.3.2.3.2.3.2.2.:.3.3.3.2.3.3.2.3.3.-.=.;.4.e.e.9.,.7.e.>.e.4.e.e.e.e.e.7.e.e.e.e.4.,.e.r.7.e.u.7.e.e.e.u.u.t.e.u.u.e.e.p.t.e.e.e.e.t.e.7.e.e.t.e.u.t.r.t.e.u.u.u.u.u.e.e.e.e.e.e.e.e.u.4.a.4.4.j.d.4.4.&.%.4.4.:.:.4.4.;.4.%.%.4.4.4.4.4.3.3.4.3.3.4.3.%.",
"4.4.3.:.:.:.3.3.:.:.3.:.4.3.:.:.%.%.%.%.:.4.4.:.:.4.:.4.4.:.:.:.:.*.4.:.*.4.:.*.4.:.:.:.:.:.*.*.:.:.:.:.4.:.:.4.4.4.4.4.4.4.4.4.4.4.:.4.4.4.i.4.i.4.i.4.i.i.i.i.4.i.4.i.4.r.r.4.i.r.4.r.4.u.4.4.i.4.r.4.i.4.i.4.4.4.3.3.4.4.4.4.4.4.4.4.4.4.4.4.:.3.4.4.4.4.i.i.4.i.i.i.h.i.i.u.i.i.h.i.u.u.h.u.i.i.i.i.i.i.i.i.4.i.i.i.i.4.j.i.i.i.i.i.i.u.4.4.u.4.4.u.i.,.;.4.3.3.3.4.4.4.3.3.3.4.[ 3.4.%.4.[ %.r.4.4.4.4.1.4.4.3.1.4.4.4.4.4.4.4.j.4.4.z.z.4.d.4.d.4.a.i.r.r.d.4.d.4.4.j.4.z.4.4.4.4.j.4.4.j.4.i.i.i.i.i.4.4.s.i.4.i.i.i.s.s.4.e.e.9.3.3.3.3.>.3.2.3.-.-.2.>.8.3.3.3.3.9.9.e.e.e.4.4.e.4.e.4.4.4.4.4.4.s.4.4.4.4.4.2.3.3.*.2.+.@.*.2.0.9.-.>.3.6.6.e.6.e.6.e.4.e.e.e.4.e.e.e.e.e.e.4.4.e.e.4.4.r.4.r.4.u.4.r.4.4.4.4.4.4.4.4.e.e.e.3.3.3.3.| *.r.0.3.r.e.9.r.3.0.0.0.r.0.r.e.9.0.0.e.e.3.3.3.9.9.9.9.3.3.2.3.3.3.2.3.3.3.9.3.3.3.:.2.3.*.&.&.>.e.e.7.e.e.e.7.4.u.7.e.u.7.p.e.e.e.u.7.,.,.4.u.u.e.e.u.e.p.u.e.e.u.u.u.u.t.e.e.e.t.t.e.t.e.t.e.7.t.e.t.t.u.p.u.u.u.u.u.e.e.e.,.4.u.,.e.e.e.4.4.4.a.j.4.4.4.2.%.3.:.%.:.4.4.:.:.4.3.3.%.%.3.4.%.4.4.4.4.%.4.4.4.",
"%.4.3.3.%.3.3.3.4.:.4.:.:.:.:.:.:.%.%.:.4.4.4.:.:.:.4.4.:.4.:.4.:.4.4.*.:.:.4.*.:.:.:.:.4.:.4.*.*.*.:.:.4.4.4.4.4.:.4.4.4.4.*.4.4.4.4.4.4.i.i.4.u.4.u.u.u.4.i.4.i.i.u.4.u.4.i.4.4.e.e.u.e.4.,.4.r.4.4.e.u.u.4.4.,.,.3.,.4.4.e.4.e.e.e.e.e.,.,.,.4.4.4.4.4.4.4.i.i.i.i.i.j.i.j.i.h.i.i.u.i.i.u.u.i.i.u.u.u.h.u.u.i.i.i.j.i.j.j.i.i.i.i.i.4.4.4.4.4.4.4.4.4.4.4.4.4.4.4.4.4.4.4.4.4.4.3.%.3.%.3.4.*.[ 4.4.4.1.4.4.4.3.3.3.3.3.3.3.4.4.i.i.i.i.i.i.i.i.a.a.i.i.a.i.d.4.4.d.4.4.d.4.z.4.4.4.z.4.i.i.z.4.i.4.i.4.i.4.4.4.z.4.i.i.4.4.e.4.r.4.4.0.4.3.3.3.2.:.2.:.2.>.>.9.3.e.>.e.9.e.e.e.e.e.e.e.4.e.e.4.e.e.e.9.e.9.9.9.9.9.9.9.5.-.3.2.+.@.2.9.9.3.9.3.3.e.e.3.4.r.r.4.4.r.4.r.4.r.4.u.4.u.r.4.r.u.4.4.4.0.4.4.4.4.3.4.e.3.3.3.3.0.3.e.e.3.3.3.+.%.3.9.e.e.0.e.9.0.0.3.e.e.e.0.e.0.0.9.9.3.9.e.0.e.0.3.3.2.3.2.3.3.3.4.4.3.3.3.3.3.3.3.3.2.3.3.[ 3.3.4.4.4.4.4.4.4.e.e.7.e.e.e.e.e.e.e.u.u.u.7.e.e.4.4.j.4.4.4.4.4.d.j.4.j.4.4.4.4.u.t.e.e.t.e.t.t.t.e.t.u.p.p.p.t.u.u.i.u.i.u.4.4.h.h.4.4.4.u.u.u.i.i.u.i.4.:.[ 3.:.:.:.:.:.:.:.4.4.3.%.4.:.4.4.4.4.4.3.3.3.3.[ 4.",
"%.3.4.%.3.%.%.3.4.4.:.4.,.:.,.:.:.%.%.:.4.4.4.:.:.4.:.:.:.:.4.:.*.*.:.:.:.:.:.:.:.4.:.:.:.:.:.:.*.*.*.:.:.4.4.4.:.4.4.4.4.4.4.4.:.:.:.4.4.4.4.i.i.i.u.u.u.u.4.4.4.4.4.4.4.4.4.i.e.e.e.e.e.e.e.e.r.r.e.e.u.e.u.e.4.,.4.e.e.e.u.e.4.e.e.e.e.e.e.4.4.u.4.4.4.u.4.4.i.i.i.i.i.i.i.i.i.i.i.h.h.i.i.i.u.h.u.u.u.u.u.u.4.i.i.i.i.i.i.i.4.i.i.4.4.4.:.4.4.4.4.4.4.4.4.i.4.4.4.4.4.4.4.4.4.4.3.3.4.4.3.3.4.[ *.*.4.4.4.3.3.3.1.3.3.3.3.3.4.4.4.i.i.i.i.j.a.i.i.i.i.a.i.r.4.d.d.i.d.d.4.j.4.s.z.4.i.4.i.4.i.4.i.i.4.s.i.i.4.4.4.4.i.4.4.i.e.r.4.r.r.4.3.4.3.2.:.3.3.3.:.>.6.>.e.>.6.e.9.7.e.6.e.3.9.e.e.9.e.4.e.,.7.e.e.6.e.9.e.q.8.9.5.5.3.2.2.@.2.2.9.9.9.9.3.e.e.e.e.e.4.r.r.4.4.4.u.4.e.4.r.4.4.r.4.4.e.e.4.r.r.0.r.0.4.0.e.e.4.3.4.4.0.3.e.3.3.3.&.+.3.e.0.e.9.3.9.e.4.0.e.0.e.e.e.0.e.e.e.e.4.0.e.0.0.3.3.3.3.3.3.3.3.3.3.3.3.2.3.3.3.3.3.2.3.[ 3.[ 3.4.4.4.4.4.4.4.6.e.e.7.e.e.t.7.e.7.7.t.e.e.7.t.4.4.4.4.4.j.i.4.4.4.4.4.4.4.4.4.e.r.e.t.e.7.6.7.7.t.u.p.t.u.p.7.u.u.u.i.i.u.i.4.4.4.4.4.4.u.4.u.i.i.4.i.4.%.%.4.4.:.3.:.:.:.:.:.%.4.%.3.4.:.4.4.3.3.3.3.3.3.%.3.",
"3.%.3.3.:.%.4.4.:.4.4.4.,.:.:.:.:.:.:.:.4.i.4.:.:.:.4.:.4.4.:.:.4.*.*.:.*.*.4.*.:.:.:.:.:.:.:.:.:.:.4.4.:.4.1.:.4.4.4.4.:.4.*.4.:.3.4.4.4.4.i.4.i.4.i.4.u.i.u.u.i.4.u.4.u.4.i.u.r.r.e.e.e.e.e.4.4.4.r.u.u.e.e.e.4.,.,.4.r.u.e.e.e.u.u.t.e.e.e.e.4.i.u.u.u.u.i.i.i.i.i.j.i.i.i.i.i.i.i.h.i.i.i.i.u.u.h.u.u.u.u.,.4.4.i.i.4.i.i.4.i.i.4.4.:.:.:.:.[ 4.4.4.4.i.4.4.i.4.i.4.4.4.4.4.4.4.3.4.4.3.%.4.4.%.[ *.*.4.4.4.4.3.1.3.3.3.3.3.i.i.4.i.4.i.i.i.a.a.a.a.d.a.a.a.d.i.i.i.j.4.j.4.i.i.i.i.i.4.z.z.i.i.4.i.4.i.4.s.i.s.s.4.4.4.4.4.4.4.e.4.4.0.0.3.3.2.:.:.3.:.3.2.>.4.e.>.e.9.e.9.e.e.e.e.e.7.e.3.7.4.e.e.e.9.9.e.9.9.9.9.9.6.5.9.9.3.2.2.$.-.3.9.9.9.e.3.e.e.e.4.r.4.r.4.u.4.r.4.r.4.4.4.4.4.4.r.0.e.e.e.r.0.0.e.3.e.e.3.4.4.e.e.e.3.0.0.e.-.| &.3.9.e.e.0.3.9.e.0.3.e.9.0.0.0.e.r.r.r.0.0.3.9.9.4.3.2.3.3.3.3.3.3.3.3.2.2.:.3.2.2.3.%.2.3.3.3.[ 3.3.4.4.4.4.4.4.e.7.7.e.7.7.e.e.7.u.e.7.7.e.t.r.r.s.4.4.4.3.4.d.s.4.4.4.d.4.4.4.r.e.,.7.t.a.p.h.e.u.t.7.u.7.u.p.u.i.u.i.i.u.u.u.u.u.u.4.e.4.e.u.i.i.4.4.4.:.%.4.:.:.:.4.4.:.4.:.%.3.4.3.4.4.:.4.4.3.3.3.4.%.4.[ ",
"%.3.%.%.%.:.:.3.4.4.:.4.,.4.4.4.,.4.:.4.4.4.4.4.4.4.:.4.:.:.:.:.:.4.:.:.:.4.*.*.:.:.1.*.:.:.:.:.*.:.:.:.4.:.:.:.*.4.*.:.4.*.:.:.4.:.4.4.4.4.4.i.i.4.i.i.u.4.u.u.u.u.4.u.u.u.i.4.p.p.u.e.,.e.e.e.u.r.e.e.e.u.e.4.,.,.,.,.e.u.u.e.e.e.u.r.e.t.e.e.i.u.u.4.u.4.u.i.i.h.h.i.i.i.i.i.i.i.i.i.i.j.i.h.h.u.h.u.u.u.u.,.4.4.i.i.i.4.i.4.4.4.4.:.:.%.%.%.3.4.i.4.4.i.i.i.i.4.4.4.4.4.4.4.4.4.%.3.4.4.4.%.*.4.%.1.3.4.1.4.4.4.4.3.3.3.3.3.4.i.i.i.i.i.i.i.a.u.a.a.r.i.r.i.4.d.d.i.d.z.4.d.s.i.i.i.i.i.4.4.4.i.i.4.i.4.4.4.i.i.4.s.i.4.4.4.r.r.4.r.r.4.4.3.3.2.3.2.3.3.3.>.e.6.9.e.e.e.e.e.9.e.3.e.9.e.e.e.e.e.7.e.e.7.e.6.6.t.9.q.9.9.9.9.9.3.2.2.-.*.-.2.9.e.e.9.4.r.e.4.4.e.4.r.4.r.4.r.4.u.4.e.r.4.4.4.e.e.e.e.r.4.r.e.0.e.4.0.e.3.3.0.e.3.0.4.3.-.| 2.9.9.0.9.e.e.3.0.e.0.4.0.4.4.3.e.0.e.3.0.9.9.3.3.3.3.3.3.3.3.3.3.3.3.3.3.%.3.%.3.3.3.%.2.3.3.3.3.[ 3.3.4.4.4.4.4.7.e.7.e.t.t.t.e.t.e.e.e.e.t.7.;.2.{ D D D D D L | | [ 1.3.4.3.3...{ { { ..;.7.7.u.u.p.t.u.t.p.7.u.u.i.i.a.u.i.i.u.4.u.u.4.u.u.r.i.4.4.4.4.;.;.4.:.3.:.4.:.:.:.:.3.3.%.3.:.4.4.:.4.3.3.3.4.3.4.4.",
"3.3.%.3.4.%.4.4.4.4.4.4.4.4.4.4.4.4.,.,.4.4.4.4.4.4.:.:.4.:.:.:.:.4.4.:.:.:.:.:.:.:.:.*.:.:.:.:.:.:.:.4.:.:.*.:.*.:.:.4.:.:.:.:.:.3.3.3.4.4.4.i.i.i.i.i.i.i.i.4.4.4.4.4.4.4.4.4.e.p.p.e.4.e.e.r.e.e.u.e.e.e.e.e.e.7.4.e.p.a.u.r.e.u.e.r.u.u.e.u.u.4.i.i.u.u.i.i.i.h.h.i.h.i.h.i.i.i.j.i.h.i.i.h.u.h.i.u.u.4.,.,.4.i.i.i.4.4.4.3.4.4.%.:.%.%.%.%.[ 4.4.4.4.4.4.4.4.4.4.4.4.4.4.4.4.3.%.3.4.4.4.%.%.4.%.4.3.1.4.4.4.3.3.3.4.4.4.4.4.4.i.4.i.4.i.d.r.r.r.u.i.i.r.r.4.d.4.z.4.d.4.d.i.i.i.i.i.i.i.i.4.4.4.4.4.i.4.i.s.4.4.4.4.4.4.4.4.4.r.4.r.4.4.3.:.3.3.3.3.3.3.-.9.e.e.e.e.e.6.e.e.e.e.e.e.9.e.e.7.,.u.4.6.e.e.e.e.9.9.9.9.9.e.q.9.8.9.2.2.2.*.*.3.0.e.4.e.e.e.4.4.r.4.4.r.4.r.4.r.4.4.4.e.4.4.e.e.e.r.r.r.e.0.e.e.e.e.0.0.3.4.4.r.3.3.3.3.*.| 2.e.9.3.0.9.e.0.3.0.4.0.3.3.3.3.3.9.3.3.0.3.3.3.3.3.3.3.0.3.3.3.3.3.3.2.2.%.3.3.3.3.[ 2.2.2.3.3.3.%.3.3.4.4.4.4.4.e.e.e.4.e.r.4.y.e.,.e.7.e.>.&.{ D D D L [ <.[ [ K D K [ 3.L [ %.I [ { ' I H [ ..e.t.u.t.p.p.p.t.r.u.i.u.i.i.p.u.,.4.u.e.u.u.u.i.4.4.i.4.4.%.:.4.:.:.4.:.,.:.:.:.%.4.3.4.3.3.:.:.3.3.4.4.4.3.[ 4.",
"%.%.3.%.3.3.4.4.4.u.4.4.u.4.u.u.4.4.4.i.4.4.4.4.4.4.4.:.:.:.4.4.:.:.*.:.:.:.:.*.*.4.:.4.:.:.:.:.:.:.4.:.:.:.*.:.:.*.:.:.:.*.4.4.3.:.:.:.4.4.4.4.i.i.i.i.i.i.i.i.u.u.4.4.4.4.4.4.,.u.u.r.e.u.u.r.u.u.e.u.e.e.e.4.e.e.e.e.p.u.u.e.e.e.u.r.u.e.r.u.u.u.i.4.u.i.i.i.h.i.i.j.i.i.h.i.i.i.i.j.i.j.i.i.h.i.i.u.4.u.4.4.4.4.4.4.4.4.4.3.:.%.%.%.:.%.%.%.L 3.4.4.4.4.4.4.4.4.4.4.4.4.4.4.4.3.4.3.3.4.4.3.1.*.%.*.3.4.4.4.3.3.3.3.4.4.4.4.i.d.4.d.4.j.i.4.i.i.a.a.i.i.u.r.i.4.d.4.d.4.d.4.i.s.i.i.i.4.i.4.i.4.s.s.4.4.4.4.4.4.4.4.4.4.4.4.0.4.4.4.0.4.4.3.3.>.-.:.>.3.3.3.9.e.6.e.9.e.e.e.e.>.3.e.e.e.9.e.e.e.7.e.e.e.7.e.e.e.t.9.9.9.9.9.9.9.2.9.3.2.-.@.2.3.4.0.0.3.0.e.r.4.e.e.4.e.4.r.4.r.r.4.4.r.4.4.r.e.e.0.r.e.e.e.r.e.e.4.r.e.0.3.0.3.3.3.2.=.| 4.0.9.e.e.9.9.0.e.e.0.3.e.3.3.2.3.3.3.3.3.e.0.0.9.0.3.0.3.4.4.4.3.3.3.3.2.3.2.2.2.3.3.3.2.3.[ [ 3.3.%.3.4.4.4.4.4.3.e.9.e.e.4.r.4.t.e.e.e.e.;.[ _ D [ 3.&.L L L L | L K ` [ L L [ &.{ ..&.%.{ ' L >.e.t.t.p.p.p.t.p.u.a.r.p.p.u.u.4.4.4.e.e.u.u.u.i.i.i.4.;.:.:.:.:.:.:.4.:.:.:.3.3.4.4.4.4.%.%.3.[ 3.3.4.4.3.4.4.",
"4.3.%.4.3.4.4.4.4.4.4.u.4.4.u.4.4.4.4.4.i.4.4.4.4.4.4.:.:.4.4.4.4.:.*.:.4.*.:.:.:.:.4.*.:.:.:.:.:.4.:.:.:.*.:.:.*.:.:.:.:.4.4.*.:.:.:.3.4.4.i.u.i.i.i.i.i.i.4.a.u.i.u.4.u.u.i.u.,.e.r.e.u.p.u.4.e.u.p.e.u.e.e.e.e.e.e.r.r.r.r.e.u.u.u.u.u.e.e.u.i.u.i.i.u.i.i.i.i.j.i.i.i.h.i.i.i.h.i.h.h.i.i.j.u.u.u.u.u.4.u.,.4.i.4.4.4.4.3.3.:.%.%.%.%.%.%.%.[ 4.4.4.4.4.3.3.4.4.4.4.4.4.4.4.4.4.4.4.3.3.3.3.4.[ *.3.3.4.4.4.4.4.3.3.4.1.4.4.i.i.d.4.i.i.d.4.a.a.d.d.d.a.a.i.d.4.i.i.d.i.4.z.i.i.i.i.i.4.4.s.4.4.4.4.4.4.4.4.4.4.4.4.4.4.4.4.4.4.4.4.4.4.4.3.3.>.:.2.2.3.3.9.9.7.e.e.e.e.e.9.e.e.9.7.3.e.9.,.u.,.e.e.e.7.e.e.e.e.6.e.e.6.9.9.8.9.8.8.3.3.2.-.2.&.*.3.e.3.3.4.0.4.r.4.0.4.e.4.4.4.r.4.r.4.r.r.e.e.e.e.e.e.e.e.e.e.e.0.e.e.e.e.0.3.3.2.&.&.+.4.3.e.3.3.0.3.e.0.9.e.0.e.9.3.3.2.2.3.3.3.3.9.9.9.3.3.3.3.4.4.3.3.3.3.3.2.2.3.3.2.3.2.3.3.3.2.2.3.3.%.3.4.4.4.4.4.9.e.0.4.0.4.4.y.u.e.e.r.>.' _ L D L L [ [ [ L [ [ [ L L L L [ 3.&.&.{ &.>.>.%._ %.7.p.p.p.p.p.p.r.p.u.u.r.r.u.u.h.4.u.u.u.u.u.u.4.4.i.4.%.%.4.:.:.:.4.:.:.3.:.4.3.4.4.4.4.3.%.3.:.:.3.%.4.4.4.4.",
"4.%.3.%.:.4.4.4.u.4.4.4.4.4.4.4.4.4.4.4.4.:.4.:.:.:.:.:.4.:.:.4.4.4.4.4.4.4.:.4.:.:.*.*.*.4.*.*.4.:.:.:.*.*.:.4.*.*.*.*.*.*.:.*.3.3.3.4.i.i.i.i.4.i.i.i.i.i.j.4.i.i.u.4.4.4.u.4.e.e.e.e.u.a.u.-.e.e.e.u.e.7.e.4.e.e.u.y.a.u.r.r.r.u.u.u.e.r.u.u.i.i.4.i.i.i.i.i.j.i.h.j.i.i.i.h.h.i.h.h.i.h.i.u.u.h.u.u.u.u.4.4.4.4.i.i.4.4.3.3.%.%.%.:.:.%.%.%.3.3.4.4.i.4.3.3.1.4.3.4.4.4.4.4.4.4.4.4.4.%.3.4.4.%.4.4.3.4.4.4.4.4.4.4.4.4.4.z.i.i.4.4.j.i.i.d.u.i.i.i.d.i.i.i.4.z.d.i.i.4.z.4.i.i.i.i.i.i.i.i.4.4.s.4.4.4.4.4.4.4.4.4.4.s.4.4.4.4.4.r.r.4.4.4.3.3.-.-.3.3.3.e.9.e.9.9.e.7.e.3.e.e.e.e.e.e.e.e.,.e.e.7.9.e.7.6.e.e.e.6.6.9.7.9.9.9.0.9.9.2.3.3.2.| | 2.r.0.3.e.4.r.4.e.4.r.e.e.4.r.4.r.r.r.r.r.e.r.e.e.e.0.e.e.3.3.3.3.3.4.0.3.3.3.3.-.&.&.+.4.e.9.0.4.3.0.e.4.9.3.e.0.e.0.9.3.2.:.2.3.3.3.3.3.3.3.3.2.&.3.2.3.2.&.3.3.3.2.3.3.3.3.3.2.3.3.3.3.3.3.4.4.4.4.4.i.e.e.3.e.e.e.4.4.e.3.4.>...H S _ L [ %.%.[ L 1.| 2.3.3.2.1.[ 3.[ &.&.>.>.;.&.&.;.[ >.p.a.t.p.p.p.a.r.a.u.r.r.r.r.4.u.u.u.u.u.u.e.4.4.4.4.%.%.4.:.:.:.4.4.4.4.4.:.%.4.4.4.4.3.4.4.:.4.3.3.4.4.4.3.",
"3.3.3.%.:.4.4.3.4.4.4.4.4.4.4.4.4.4.4.:.:.:.4.:.:.:.:.4.:.4.:.:.*.4.4.:.4.4.4.:.:.:.:.:.:.:.4.4.*.*.*.:.:.:.:.:.*.:.:.4.*.*.4.*.:.:.3.:.4.4.i.a.i.i.i.r.4.j.4.4.4.4.4.4.4.,.;.r.u.r.r.r.r.i.u.r.e.7.u.e.e.e.7.e.7.e.p.u.r.u.r.u.u.u.u.e.u.u.u.u.u.u.u.i.i.h.h.h.i.i.j.i.i.h.h.j.j.i.j.j.j.u.i.i.u.u.u.u.u.4.4.4.u.4.4.4.4.3.2.[ :.%.%.%.%.%.| 1.%.1.4.4.4.3.3.3.4.4.3.3.4.4.4.4.3.3.3.4.4.4.4.%.*.*.4.4.4.4.4.d.4.4.4.4.4.4.4.4.4.i.i.4.4.a.i.i.a.i.d.i.a.a.a.i.d.4.z.4.i.s.i.i.i.i.i.i.i.4.4.4.i.4.i.4.i.4.4.4.4.4.4.4.4.4.4.4.4.4.r.4.3.4.3.3.3.-.-.3.3.2.3.e.9.e.7.e.e.4.e.e.e.9.e.3.e.e.4.e.e.e.7.e.4.7.e.e.e.7.e.e.e.e.e.9.9.9.0.0.0.8.3.3.3.&.&.2.3.3.3.3.e.3.e.4.e.e.e.4.4.u.4.4.r.r.4.r.0.e.e.e.r.r.0.3.e.9.e.4.e.9.e.9.3.4.2.&.-.&.=.9.0.3.9.9.e.3.e.e.3.0.3.e.e.0.0.3.>.2.>.3.>.-.3.3.0.3.3.3.3.3.2.>.1.3.3.3.3.2.2.3.4.2.3.3.4.4.4.4.3.3.3.3.4.4.4.4.4.4.4.4.4.4.4.4.4.4.4.%.D L [ [ | 1.[ 2.[ [ 2.2.&.&.&.| | 1.%.2.*.>.>.>.-.*.*.:.%.;.t.p.a.p.t.u.e.r.p.u.r.e.e.e.e.e.u.4.4.h.i.4.4.4.%.[ %.:.3.:.4.:.4.:.4.4.4.4.e.>.3.4.>.e.>.>.4.4.4.4.4.4.4.4.",
"3.%.3.3.3.4.3.4.:.4.4.4.,.:.:.:.4.4.4.:.4.:.:.4.:.4.:.:.4.:.4.:.:.4.4.:.:.:.:.1.:.:.:.4.:.4.*.*.*.*.*.:.:.:.*.:.*.:.:.:.4.:.:.4.:.3.:.3.3.4.4.4.i.i.i.i.d.4.j.4.i.u.4.u.e.,.4.u.p.u.u.e.r.a.d.a.e.u.u.e.e.e.e.e.e.e.u.u.r.r.u.u.u.u.u.u.u.u.u.u.u.u.u.i.i.u.h.i.h.h.j.j.h.i.i.j.i.j.j.i.j.i.u.i.u.u.u.4.i.i.u.4.4.4.4.4.4.[ [ 3.:.%.%.%.1.| | %.4.4.4.4.4.3.3.3.4.4.1.3.4.%.4.4.4.4.4.4.4.4.4.3.4.*.4.4.4.4.4.4.4.4.4.4.4.4.z.4.i.4.4.j.j.4.a.a.i.d.a.a.a.a.a.a.i.d.4.z.i.i.i.i.i.i.i.i.i.s.i.4.4.4.4.4.4.4.4.4.4.4.4.4.4.4.4.4.4.r.4.4.4.e.4.3.3.-.*.3.3.3.3.9.e.9.e.9.9.e.9.e.,.e.e.e.7.9.e.e.e.7.e.e.e.e.e.7.e.4.e.4.e.4.e.4.9.0.3.0.0.9.3.2.:.2.-.&.3.e.e.0.e.4.4.e.e.e.e.e.4.4.4.2.4.e.0.e.r.e.0.r.e.e.0.e.3.e.3.0.e.e.4.0.3.3.-.&.-.&.-.9.e.9.9.e.9.0.4.0.3.3.3.3.3.3.3.2.3.3.3.-.3.3.2.3.*.2.*.-.2.2.3.3.3.3.3.3.3.3.3.3.2.4.4.4.2.2.3.4.%.%.3.3.4.4.3.4.4.4.4.4.4.4.3.3.4.4.4.[ D L %.[ [ %.2.%.3.[ 3.[ &.&.&.| %.%.%.2.:.>.3.>.-.&.:.>.>.;.;.;.e.p.p.u.a.p.r.e.>.>.,.e.,.>.,.4.4.4.4.4.%.%.%.%.4.:.:.:.:.3.4.3.4.4.4.,.>.e.,.7.7.>.7.,.:.:.:.4.4.4.,.,.",
"3.3.%.4.:.4.4.4.4.4.4.;.:.;.%.%.:.4.:.4.4.:.:.4.:.4.4.:.:.4.:.4.:.:.1.:.:.4.:.4.*.*.:.:.:.:.*.*.*.:.:.:.:.:.*.*.*.*.4.*.4.*.:.4.3.:.3.3.:.3.3.3.4.4.i.i.4.j.j.4.4.4.4.4.e.,.,.u.p.u.r.e.u.a.a.a.u.u.u.e.e.e.e.r.r.u.u.p.a.r.u.i.i.u.u.u.u.u.i.i.i.i.i.u.u.h.h.h.i.j.h.i.i.j.i.h.j.i.i.j.i.j.j.i.u.u.u.,.i.i.u.4.4.4.4.4.3.2.3.[ %.%.%.%.*.%.%.*.%.3.3.3.4.3.%.3.3.3.3.3.3.3.4.4.%.3.3.3.3.%.%.3.4.*.4.4.4.4.4.4.4.3.3.4.d.4.4.4.4.d.j.d.a.a.a.j.a.a.d.a.a.a.a.i.i.d.z.i.d.i.s.i.i.i.s.i.i.i.i.4.4.4.s.4.4.i.4.s.4.4.4.4.4.4.4.4.r.4.e.4.e.e.4.3.>.-.&.:.3.3.0.3.e.e.e.e.e.e.9.7.e.e.e.e.e.9.e.9.e.e.,.7.e.7.4.e.e.e.e.e.e.e.e.e.9.9.0.3.3.3.3.3.3.3.*.@.=.3.r.e.e.9.9.e.3.e.0.e.r.3.&.*.4.r.e.e.0.e.e.e.e.e.4.3.3.4.3.e.3.e.e.e.3.3.&.&.-.-.-.9.9.9.9.9.9.4.0.0.0.3.9.3.3.3.9.3.3.3.3.3.-.3.2.3.2.2.2.3.2.3.3.:.3.3.3.3.2.2.3.3.3.3.0.4.3.2.3.3.4.4.3.3.4.4.4.4.4.4.3.3.4.3.3.4.4.2.2.L D [ 2.L %.2.%.2.2.[ 2.[ &.&.&.&.2.%.3.3.:.-.>.*.;.&.:.>.7.=.{ %.,.u.a.p.p.u.,.>.>.>.>.>.4.;.,.4.4.4.;.:.%.%.:.4.:.4.4.:.:.4.4.4.4.4.4.4.e.e.e.>.4.,.>.>.:.:.4.4.4.4.,.4.",
"%.3.%.3.4.:.3.4.4.4.4.4.:.;.;.4.:.:.:.:.:.4.:.4.:.:.4.:.4.:.4.:.4.4.4.:.:.4.4.4.:.4.:.:.%.*.*.*.:.:.:.:.:.:.:.:.4.4.:.4.*.4.:.*.:.3.3.3.3.3.:.3.4.s.i.i.d.4.4.j.4.h.4.4.4.,.,.e.a.a.u.u.u.p.a.p.u.u.u.e.e.r.e.r.r.u.a.p.a.u.i.u.i.a.p.u.i.i.i.i.h.i.i.i.h.u.h.i.j.j.i.j.h.i.h.j.i.j.i.j.j.j.i.i.u.u.u.u.i.i.4.4.4.:.4.4.3.3.3.3.%.%.%.%.) %.| | %.1.4.4.4.3.4.3.3.3.3.3.3.3.3.3.4.3.3.%.4.4.4.4.%.*.4.4.4.4.4.4.3.3.4.4.4.4.d.4.d.4.4.j.a.j.a.j.a.a.a.a.d.a.a.a.d.i.d.i.i.d.i.i.i.i.i.i.4.z.i.i.s.i.i.4.4.4.4.4.4.4.4.4.4.4.4.4.4.r.e.4.4.r.4.3.:.-.-.3.0.e.9.e.9.e.e.>.e.4.e.e.e.9.e.3.e.e.e.9.7.e.e.e.e.e.e.7.e.4.e.,.e.4.7.e.3.0.0.3.0.0.0.3.2.3.*.@.+.2.3.0.9.9.e.9.e.e.4.4.r.4.-.2.4.r.e.e.4.0.e.r.e.4.0.e.4.3.0.3.9.e.9.9.3.-.&.%.*.2.3.9.9.e.9.9.9.0.4.3.9.0.9.9.9.3.3.3.2.3.3.>.2.-.3.3.4.4.3.4.4.3.3.2.3.3.3.3.3.3.3.3.3.3.4.4.4.4.4.3.4.4.3.3.4.4.4.4.4.3.3.2.4.4.3.1.| L L D L %.2.[ [ [ | %.[ 3.[ 3.*.&.&.&.%.2.%.%.*.*.&.&.%.&.&.>.;.;.&.&.;.-.>.e.>.>.>.>.7.e.7.,.r.4.4.4.4.;.%.%.%.3.4.3.3.3.;.4.,.:.4.4.4.4.4.4.4.7.,.e.e.3.7.>.4.4.4.4.4.4.4.4.",
"3.3.%.4.4.3.%.4.4.4.4.,.4.%.4.%.:.4.:.:.4.:.:.:.:.:.:.:.4.:.:.4.:.4.4.1.:.4.:.:.4.4.:.:.*.:.:.4.4.:.:.1.:.4.4.4.4.4.:.:.4.:.*.4.3.2.3.3.3.2.3.2.4.a.s.4.4.j.4.4.u.h.e.,.,.,.,.,.p.p.u.p.r.r.r.r.u.u.u.r.r.r.r.u.u.u.a.i.a.r.a.i.a.i.u.u.u.i.u.i.h.i.h.h.u.u.i.h.i.j.i.h.i.h.h.i.j.j.h.i.j.j.i.j.j.u.i.i.i.i.4.,.4.:.3.3.3.3.3.2.*.*.%.%.%.%.| | 3.3.3.3.3.3.3.3.3.3.3.3.3.3.4.3.3.%.%.4.4.:.4.4.3.%.4.4.4.4.4.4.4.4.4.4.4.4.4.d.4.a.a.a.j.a.a.4.a.a.a.a.d.a.a.i.4.z.z.4.z.4.i.i.i.i.s.s.i.i.i.i.i.4.i.4.4.4.4.4.4.4.4.4.4.4.4.s.4.r.4.4.e.4.3.:.:.*.-.3.3.0.0.3.e.e.9.e.e.e.4.e.e.e.>.e.e.9.e.e.e.,.7.e.,.7.e.e.e.e.4.u.e.e.e.e.e.0.3.0.3.0.3.9.3.2.2.*.*.+.-.3.9.e.9.e.4.e.e.e.e.e.4.4.e.r.0.e.0.e.e.e.e.4.e.4.e.0.3.e.e.3.3.e.e.*.@.&.-.3.3.3.4.0.0.3.9.0.e.3.3.9.9.3.3.3.3.3.3.2.3.>.3.3.3.9.3.3.3.3.3.3.3.3.3.2.3.3.3.3.3.3.3.4.4.4.3.3.3.3.>.:.,.4.4.4.4.4.2.3.2.3.4.3.<.L ` K L ` L 2.[ [ [ %.3.%.3.3.3.[ &.=.&.&.&.&.&.&.-.*.&.%.| %.&.:.;.-.-.;.%.%.%.%.;.-.,.e.,.e.e.7.e.e.e.e.4.%.%.4.:.4.:.4.%.4.:.4.>.4.4.4.4.4.4.,.e.e.7.e.7.,.,.7.:.,.4.:.;.4.:.;.",
"3.3.3.3.3.3.3.3.4.4.4.,.4.4.;.:.:.:.4.:.4.:.4.:.:.4.4.:.:.4.4.:.:.:.:.4.:.:.:.:.:.4.:.4.4.4.:.4.4.4.:.:.:.:.4.4.4.4.4.1.:.4.4.4.3.:.4.4.3.3.3.3.4.s.j.4.j.4.d.4.4.4.e.,.e.4.,.4.e.r.r.u.u.r.u.u.u.u.i.u.u.u.r.a.u.i.u.a.p.u.i.a.i.h.h.i.i.h.u.h.h.h.h.i.u.h.h.i.i.i.u.i.h.i.i.h.j.i.j.j.j.j.j.j.j.j.i.i.i.4.4.:.4.4.3.4.3.3.[ 2.*.4.*.*.%.1.*.*.%.[ %.3.3.4.3.3.3.3.3.3.4.[ [ 3.%.4.4.%.:.4.4.4.4.4.4.4.4.i.4.4.4.4.4.4.4.4.4.4.4.a.i.a.a.a.a.a.a.a.a.d.d.a.d.a.j.4.4.j.4.j.i.d.i.s.i.i.i.i.i.s.i.i.4.4.i.i.i.4.4.s.4.4.4.4.4.4.r.4.r.4.4.4.3.2.-.=.3.9.e.e.9.e.9.4.e.e.e.9.e.e.9.e.e.e.e.4.e.,.e.e.e.e.e.e.e.7.4.u.u.4.u.4.e.4.e.e.e.3.0.3.9.9.3.:.2.3.2.| *.3.9.e.e.9.e.4.0.4.e.r.r.0.e.e.3.3.4.e.0.e.0.3.3.0.e.e.e.3.3.4.3.9.3.&.+.&.*.3.3.3.9.3.3.3.9.4.3.0.3.3.9.0.9.3.3.2.3.3.3.3.3.3.9.e.9.3.3.3.4.4.3.0.3.2.3.3.3.3.3.3.4.1.2.<.L L ` | [ { { [ %.&.4.4.2.2.%.2.| [ L L ` L ` | 2.[ [ %.3.%.%.4.3.[ [ 3.&.&.&.&.&.&.-.&.:.*.&.&.&.&.*.:.-.:.&.&.&.;.;.;.>.>.e.7.>.>.>.e.e.e.e.7.:.%.%.4.%.:.%.%.4.;.3.:.>.,.:.4.4.4.,.>.,.>.7.7.,.e.e.>.,.,.,.,.4.4.4.4.",
"3.3.4.3.%.3.3.3.4.4.4.4.4.%.4.:.4.4.:.4.:.:.4.:.4.:.4.:.4.4.,.4.4.:.:.:.:.*.:.:.*.:.4.4.4.4.4.4.:.4.:.4.4.4.4.4.4.4.4.4.4.4.4.4.3.3.4.4.4.4.4.r.a.a.4.d.4.j.4.4.4.u.4.4.e.e.7.7.e.r.r.r.r.r.r.u.r.r.u.u.r.r.i.r.i.r.p.r.r.i.a.i.h.i.h.i.i.u.h.u.i.i.i.i.u.h.u.i.i.u.u.u.i.h.i.j.j.i.j.j.j.j.j.j.i.i.j.i.i.4.,.,.4.4.4.3.3.2.[ 3.:.1.3.:.1.*.*.%.1.%.1.3.3.3.4.1.3.3.3.[ 3.[ 4.4.%.4.3.4.:.4.4.[ 4.4.4.j.i.4.i.4.4.4.4.4.4.4.4.4.a.a.a.a.j.a.j.a.a.a.d.a.a.d.i.a.i.j.i.j.j.i.d.i.i.i.i.i.i.i.i.i.s.z.4.4.i.s.4.4.s.i.4.4.4.4.4.4.4.4.4.4.3.4.3.:.-.:.3.e.e.0.9.e.e.e.9.e.>.e.e.9.e.7.e.e.9.e.3.e.7.e.e.7.e.e.e.,.e.4.e.e.4.4.e.e.e.0.0.3.e.0.3.0.9.3.3.3.3.*.2.2.9.e.e.4.e.0.e.e.0.r.e.0.e.4.4.e.e.e.e.3.4.3.4.0.e.3.0.e.e.3.3.3.-.| | *.*.2.0.3.9.9.3.0.3.9.e.9.9.9.9.9.9.9.3.3.3.3.9.9.3.0.0.e.0.0.0.9.3.0.3.3.3.3.3.4.4.3.3.2.2.1.[ L D D D K L L H H H L [ [ <.[ [ ` K K L | ` ` | <.1.%.%.%.%.3.%.%.[ 3.3.[ =.=.&.&.&.:.-.&.:.*.-.*.*.*.:.>.;.;.;.;.;.,.7.,.e.e.e.6.e.>.>.e.6.e.e.>.:.%.%.4.:.:.:.3.3.4.:.:.4.>.3.>.4.4.,.>.>.,.,.6.4.7.,.4.,.,.,.,.,.4.:.4.",
"3.4.3.4.4.4.3.4.4.4.4.,.4.%.%.:.:.:.:.:.:.4.4.,.4.4.4.,.4.4.:.4.4.4.4.:.4.:.*.:.*.*.:.4.4.4.4.:.:.:.4.:.4.4.4.4.4.4.4.4.4.4.4.4.4.4.4.4.4.4.r.i.4.a.4.4.4.4.4.4.,.u.e.,.e.e.e.e.u.u.u.r.e.e.e.u.e.e.r.u.u.u.u.a.u.a.a.r.p.i.r.a.4.h.i.h.h.h.u.h.u.u.i.i.h.u.h.u.i.u.u.u.i.h.h.i.i.j.j.i.i.j.i.j.j.j.j.h.u.,.,.,.4.4.4.4.3.3.3.3.:.4.1.:.*.1.*.%.%.3.3.L D D L 3.[ 3.[ 3.[ 3.3.[ 4.:.:.:.4.4.4.4.4.4.4.4.j.j.z.4.4.4.4.z.d.4.4.z.a.a.a.a.a.a.a.j.a.a.a.a.h.i.j.i.d.4.d.4.i.i.r.i.i.i.i.i.i.i.i.i.4.4.4.z.i.i.i.i.4.i.s.4.i.4.4.4.4.4.y.4.3.3.:.:.&.2.3.e.0.e.9.e.6.e.e.e.e.e.e.e.3.e.e.9.e.e.e.e.7.e.e.,.e.7.e.e.e.e.4.e.4.u.e.4.e.e.9.e.9.9.e.9.3.0.3.2.2.-.2.*.9.9.9.0.4.4.9.4.0.e.4.3.0.0.4.e.0.4.0.3.e.4.0.3.3.4.3.3.e.3.4.3.&.} | &.&.3.e.3.0.4.9.9.3.9.9.e.3.3.3.3.2.3.3.9.3.3.0.e.0.e.3.9.9.3.3.3.3.3.9.9.3.3.3.4.4.4.3.3.1.` K K L [ L K K L { | L L H H L L L K L ` [ | ` ` | [ %.3.2.%.3.%.3.%.3.%.3.3.:.:.:.*.&.*.&.*.*.-.:.*.*.:.:.:.>.;.>.>.>.;.-.>.6.>.e.e.e.r.e.e.e.e.e.-.:.;.;.:.%.4.:.3.:.%.3.4.>.,.>.>.,.>.,.>.>.,.>.4.,.4.4.4.,.4.,.,.,.4.;.4.",
"3.3.4.3.3.4.:.3.4.4.4.4.4.:.>.:.>.>.,.>.:.>.,.e.4.e.u.e.u.4.e.4.4.4.4.:.3.4.3.4.:.:.4.:.4.:.4.4.:.4.,.:.4.4.4.4.4.3.3.4.3.4.u.4.4.u.i.i.i.i.u.4.h.i.i.i.i.u.4.4.e.,.e.e.e.,.e.r.r.r.r.u.a.u.i.a.r.r.r.r.i.u.r.u.i.i.i.a.i.i.i.i.i.h.i.h.i.j.h.i.u.u.u.i.i.u.u.4.u.4.4.u.i.j.i.i.j.i.h.h.h.j.j.u.j.j.j.i.i.u.u.u.e.3.,.,.>.4.3.>.:.2.:.-.-.-.3.-.:.:.*.[ [ +.:.2.3.%.%.2.&.3.3.&.3.3.3.3.4.4.4.4.4.4.4.z.4.z.4.4.4.j.j.4.j.4.j.4.a.a.a.d.j.d.d.h.j.a.a.a.a.a.a.a.d.d.d.d.z.4.d.4.j.4.z.4.4.4.j.4.4.4.j.4.j.4.d.4.r.r.r.4.e.e.e.4.4.4.0.0.3.-.*.:.:.3.0.0.e.0.3.e.e.e.9.e.e.7.t.7.e.6.t.7.e.e.7.7.e.e.e.4.e.4.u.4.e.e.e.e.9.e.e.e.t.e.e.6.6.e.9.9.9.6.2.9.>.3.2.-.4.4.4.4.4.4.3.0.0.0.e.e.e.9.9.9.9.9.9.e.9.e.9.9.2.3.3.3.3.3.3.3.[ { { +.3.3.9.0.e.9.3.3.9.9.3.3.3.3.2.3.9.9.9.3.0.0.0.3.0.3.3.3.3.e.4.3.4.4.3.2.4.1.4.4.3.4.3.L D D L L L ` ` ` L ` [ [ ^ [ ` L L L L L | %.| [ { | %.2.%.3.3.%.3.%.3.%.4.%.4.%.%.:.%.%.:.%.3.:.%.:.:.%.:.*.:.:.:.>.:.*.:.>.,.>.4.4.4.4.4.4.4.i.4.i.2.4.4.%.:.:.4.:.4.3.:.:.:.3.:.3.3.4.3.3.3.:.4.:.4.:.,.,.>.>.,.e.e.>.7.>.7.>.",
"4.3.4.4.:.:.4.4.3.4.4.4.4.4.4.:.:.;.,.>.,.,.,.,.u.e.e.u.e.e.e.u.4.4.4.:.3.[ 3.4.4.4.:.4.:.4.:.:.;.4.:.;.4.4.4.4.4.3.3.4.h.b.z.i.j.h.i.4.4.4.u.u.h.i.h.i.u.i.i.4.e.e.e.t.e.e.e.u.r.u.r.u.r.r.a.p.u.i.p.p.u.u.r.u.i.i.i.4.i.i.j.j.i.i.h.h.j.i.i.i.i.u.u.u.u.4.4.4.u.u.i.u.i.i.i.i.i.h.i.j.u.j.j.h.j.j.j.i.a.h.i.i.p.u.e.7.e.e.e.4.3.3.3.3.3.3.>.3.3.2.2.| | *.*.*.&.2.%.%.%.%.%.%.%.&.2.4.4.4.4.4.4.4.z.z.z.4.j.z.4.4.4.z.4.j.4.4.a.a.a.d.d.d.a.a.a.a.h.j.d.a.d.a.4.z.4.4.4.d.4.z.4.j.4.4.z.j.4.4.j.j.4.j.4.d.4.s.r.r.r.4.e.e.3.0.4.0.4.3.3.:.-.&.2.3.4.9.e.3.3.0.7.e.e.7.e.e.7.e.e.e.e.e.7.e.e.e.e.e.e.7.e.e.e.e.6.e.6.e.e.6.9.9.6.t.e.t.t.9.t.9.0.9.9.9.-.-.=.+.3.2.4.4.2.0.4.y.3.4.3.0.e.9.9.e.9.e.9.9.9.9.9.9.3.3.3.-.3.9.-.+.` ] { +.3.0.3.3.3.0.e.3.9.9.9.3.3.3.3.3.9.3.9.9.3.9.3.0.3.9.3.0.3.r.3.4.3.y.4.4.4.3.4.4.<.L L D K K K L L ` ` ` ` ^ [ [ %.[ [ ^ { [ [ { | %.| { %.%.%.%.%.3.%.3.%.3.%.3.%.4.:.4.3.:.3.%.%.3.%.3.:.:.%.3.:.:.:.:.*.>.4.:.:.4.4.4.4.4.4.4.4.4.4.4.4.i.3.3.4.;.3.%.3.4.:.3.:.:.:.3.3.:.3.:.3.4.4.:.4.4.4.4.>.e.7.e.7.>.7.>.,.4.,.7.",
":.4.4.3.4.:.4.3.3.4.4.4.4.4.4.4.>.,.,.4.4.e.4.e.e.e.e.e.4.e.e.u.4.4.4.4.4.3.4.4.4.:.4.:.4.:.:.4.,.,.4.4.4.4.4.4.:.:.4.4.4.v.a.h.j.j.i.u.u.u.u.i.i.h.i.u.i.v.j.4.p.e.r.u.r.e.e.u.r.t.r.r.u.u.u.r.p.a.a.r.u.r.r.e.i.4.i.a.i.i.i.i.i.h.j.i.i.i.j.u.i.u.4.u.4.u.u.u.u.u.u.u.u.u.u.u.h.i.h.i.j.j.h.h.j.j.h.h.j.h.a.j.j.u.e.e.e.e.e.9.3.-.3.-.2.:.3.2.*.*.*.&.&.*.2.&.&.2.%.%.%.%.&.3.&.3.4.4.4.4.4.4.z.4.4.4.4.4.j.4.4.j.j.4.z.4.z.j.j.a.a.d.j.a.d.a.a.h.a.a.i.d.d.i.j.d.j.d.d.4.d.4.j.4.4.j.4.j.4.j.4.j.j.4.j.4.i.i.4.r.4.r.4.r.3.4.0.4.3.3.>.:.*.*.:.3.3.3.e.e.3.e.7.e.e.e.7.7.e.e.7.e.7.e.7.e.e.e.e.e.e.e.e.e.7.e.>.e.6.e.e.e.9.e.t.e.e.e.e.e.e.e.9.3.9.9.2.2.=.| 3.3.4.3.0.0.3.0.9.9.9.9.e.9.e.9.9.9.9.e.9.9.9.>.3.9.3.-.3.r.3.] _ | | =.9.e.3.3.3.3.3.>.3.0.0.3.3.0.9.0.3.3.9.9.3.3.3.e.3.9.3.e.3.r.2.3.3.4.2.2.L D L L h h D L L L L L L ` [ [ | ) %.[ [ [ [ [ [ [ { %.%.%.%.%.%.3.%.%.%.4.:.3.3.3.%.%.%.3.3.%.:.:.%.3.:.3.%.%.:.:.3.%.:.:.:.:.:.>.>.:.:.4.4.4.4.4.4.4.r.i.4.r.4.4.:.3.4.:.:.:.4.4.:.:.:.:.3.:.3.3.:.4.4.4.4.4.4.;.,.,.,.>.e.>.4.4.>.7.e.>.>.e.",
"3.4.4.:.3.4.:.4.>.3.4.3.4.4.4.4.e.4.,.,.,.e.e.u.e.,.e.4.e.e.e.u.4.i.4.:.4.4.4.4.4.4.4.:.4.:.4.:.;.4.:.:.,.4.:.4.4.i.j.v.j.4.j.j.i.j.j.i.i.j.j.j.i.i.u.4.i.j.i.u.u.u.r.u.u.u.r.y.u.u.r.r.a.p.u.r.y.r.u.i.u.r.r.r.4.h.i.i.i.i.j.i.i.i.i.i.i.i.i.i.i.4.u.4.u.u.i.h.i.i.i.4.i.4.u.u.i.j.h.u.h.h.h.i.j.i.h.h.h.h.j.j.j.a.u.e.t.e.e.e.3.3.3.:.-.3.-.3.3.3.2.*.+.&.&.&.3.%.&.%.%.2.&.3.4.4.i.4.a.4.4.4.4.j.j.4.4.4.4.4.4.4.4.z.4.z.4.j.j.a.j.a.d.d.a.a.h.a.a.d.a.a.a.a.j.4.4.z.4.d.4.d.z.4.z.4.z.4.4.j.j.4.4.j.4.d.i.i.r.r.r.4.r.4.0.4.r.0.3.2.2.:.2.-.3.3.0.3.0.0.9.e.9.e.e.e.e.e.e.7.e.t.7.e.e.e.7.,.e.7.e.e.4.e.4.e.e.e.e.9.9.9.e.9.7.e.t.6.9.t.9.9.9.9.9.9.3.3.*.` 3.3.4.4.4.4.4.2.9.9.e.e.9.e.0.9.9.e.9.9.3.9.>.9.3.3.>.2.3.9.*.[ ` | &.&.3.0.3.3.e.9.3.2.3.3.9.3.3.3.9.3.3.3.3.9.9.9.3.0.3.3.0.3.0.0.2.*.4.2.L D L D L D D L L [ L ~ L L ` [ [ %.%.%.| %.| ^ [ ` ` [ %.%.%.%.*.*.%.%.%.2.%.3.3.:.%.3.3.3.4.4.%.3.:.:.3.%.:.%.:.:.%.%.:.3.>.:.:.:.:.:.;.:.>.4.4.4.4.4.4.4.4.4.4.i.i.4.&.3.4.:.4.4.4.:.3.:.4.:.3.4.:.4.:.3.:.4.3.4.4.4.4.;.e.>.,.4.3.,.e.,.,.7.,.>.",
":.3.4.:.3.3.:.3.4.3.4.3.4.:.4.4.e.7.e.e.u.e.e.e.,.,.,.e.e.e.u.e.i.i.4.i.i.4.i.i.4.4.4.4.,.4.4.:.,.,.,.i.j.j.j.b.j.j.j.v.j.j.a.h.j.j.j.i.j.j.j.i.h.u.4.4.u.u.u.h.h.u.e.u.r.r.r.a.u.i.i.a.u.i.a.a.u.r.u.i.r.u.u.u.h.i.i.i.i.i.j.i.j.i.h.i.i.i.i.i.h.i.u.u.i.i.j.j.i.i.i.i.u.u.u.u.h.h.i.j.h.i.j.h.j.j.j.h.a.j.h.a.j.a.i.i.a.r.e.9.e.e.3.3.-.3.3.3.3.3.3.*.| | | %.%.&.&.&.&.3.2.4.4.4.4.4.4.4.4.4.4.4.j.4.4.j.4.4.z.4.z.j.4.z.4.z.a.j.a.d.d.a.a.d.a.a.a.d.a.d.a.d.d.i.d.4.z.4.d.4.4.4.z.j.z.4.j.4.4.j.4.j.r.i.r.i.r.4.r.4.r.4.0.0.4.3.2.2.:.3.3.2.3.e.e.3.e.e.3.0.9.e.4.e.r.4.4.4.e.e.e.e.e.e.e.e.4.e.e.7.e.,.u.4.e.6.e.e.e.e.e.7.e.6.e.7.9.9.e.9.4.0.3.0.3.3.1.` 1.1.4.3.4.4.4.4.9.e.9.e.9.9.3.3.9.9.9.3.>.-.9.>.2.3.3.3.>.=.+.{ ` @.&.&.*.2.2.3.3.0.r.r.9.-.2.4.3.3.2.9.3.3.3.3.e.0.4.0.3.0.9.0.4.4.4.2.4.L D h L h D D D D D D <.[ [ [ %.%.[ %.[ [ ) [ | %.[ %.%.%.&.&.%.%.&.&.%.3.%.%.4.4.4.:.4.4.%.3.3.3.%.4.3.%.3.:.3.%.:.:.:.:.:.:.:.,.:.:.>.&.&.;.3.4.4.4.4.4.4.4.4.4.4.4.4.4.4.:.:.:.4.:.4.:.:.4.3.4.3.:.:.3.:.3.3.:.3.4.4.:.,.,.,.,.4.,.,.4.7.>.>.>.,.,.",
"4.4.:.4.:.3.4.3.>.4.3.4.4.:.:.4.>.4.e.u.u.e.4.,.;.,.,.e.u.e.e.e.4.i.4.i.4.i.i.4.i.4.i.4.4.4.4.4.4.4.u.u.i.j.j.j.j.h.i.i.h.j.a.a.j.j.j.j.i.h.h.j.i.u.4.u.i.u.i.v.h.u.u.u.u.r.u.p.p.a.a.a.a.a.r.r.r.u.r.r.u.r.i.i.4.h.a.i.i.i.i.i.i.i.h.i.u.h.h.u.i.u.i.u.i.i.i.i.i.j.i.i.i.i.i.j.h.i.i.j.j.j.h.h.j.j.h.h.j.j.d.h.a.a.i.a.r.a.r.e.9.9.3.3.3.>.3.3.| &.-.2.2.%.&.%.%.&.%.2.2.2.3.4.4.4.4.4.4.4.4.a.j.4.d.4.4.4.4.j.4.z.z.4.d.j.z.4.d.a.a.a.a.a.a.a.a.a.i.a.a.a.a.i.4.d.4.d.4.4.4.z.z.4.4.4.4.j.4.j.j.4.j.4.i.r.4.i.4.r.4.r.4.r.4.4.4.3.*.3.:.3.3.3.*.0.r.0.0.e.9.3.e.e.e.e.4.4.y.4.6.e.e.e.e.7.e.e.u.4.u.e.e.e.e.e.e.7.e.6.e.4.e.e.6.e.e.6.e.7.6.9.0.4.0.3.3.3.2.L 1.3.4.4.4.4.4.4.9.9.9.3.3.3.3.2.9.9.3.>.>.3.>.>.3.3.3.3.-.| { | [ &.-.&.@.&.*.3.-.@.*.3.e.0.3.-.9.9.3.3.9.0.9.3.e.e.e.0.e.3.9.9.4.4.4.2.1.D D K D L L 1.[ [ [ 3.[ 1.[ 3.%.%.%.[ %.[ %.%.%.) %.*.&.&.*.&.&.%.&.&.[ %.%.3.3.3.:.3.%.%.4.3.%.4.%.3.%.:.%.3.:.:.:.:.%.:.:.:.:.:.:.:.,.;.&.:.4.4.e.4.4.4.4.4.4.4.i.r.4.:.:.4.%.:.:.4.4.3.3.:.3.:.3.:.3.:.:.:.:.4.:.:.4.:.,.4.4.,.>.,.9.3.,.e.7.e.7.>.",
":.4.4.3.3.:.:.4.3.4.4.4.:.4.4.:.>.,.e.e.t.,.,.>.,.,.e.e.u.e.e.u.i.4.i.4.4.i.i.4.4.4.4.4.4.4.4.4.4.i.j.j.j.j.j.j.h.j.j.j.a.h.h.k.i.j.i.j.i.h.h.h.h.4.u.u.u.u.i.h.d.u.u.u.r.u.u.i.a.a.a.i.a.r.u.u.a.p.r.r.r.u.i.i.i.i.i.a.i.i.i.i.i.i.i.i.i.i.u.i.i.u.u.u.i.h.j.h.j.j.j.i.j.h.j.j.j.i.j.j.j.j.j.j.j.j.j.j.j.j.j.j.a.a.i.a.a.r.r.e.9.9.9.3.3.3.>.2.%.%.&.2.3.3.2.&.&.&.&.3.4.4.4.4.a.4.4.4.4.4.4.j.4.4.4.4.4.j.4.4.4.j.j.4.j.4.4.z.d.a.a.a.a.i.i.a.i.a.a.i.a.a.a.a.i.4.z.4.4.z.4.j.4.z.z.4.d.4.z.4.4.j.4.j.i.i.r.r.4.r.4.4.4.e.4.3.3.3.2.3.3.2.:.*.@.9.e.e.e.0.3.e.0.4.4.0.0.4.4.y.e.e.9.6.3.e.9.3.4.e.4.e.e.,.e.4.e.e.e.e.4.e.e.e.e.7.e.e.9.9.7.9.4.0.0.3.3.4.*.K 1.4.4.4.4.4.4.4.9.9.9.9.3.9.3.3.9.9.3.2.>.>.9.8.3.3.3.3.=.| | | | =.-.&.&.&.| | | { [ | 3.e.3.| 9.3.3.3.9.9.0.3.0.e.0.e.3.4.0.e.4.3.4.4.L h L L D [ [ 1.[ [ [ [ [ [ 1.%.1.[ %.[ 1.%.*.%.*.%.%.%.%.%.%.&.&.%.&.&.%.%.3.3.%.3.%.:.3.%.%.4.4.%.4.3.%.:.:.:.:.:.:.:.:.:.:.:.:.:.,.>.>.-.-.,.e.7.4.e.4.r.r.4.i.4.r.4.4.:.3.:.:.4.4.3.:.4.3.3.3.:.:.4.4.:.3.:.:.4.3.4.4.,.4.4.4.4.,.,.,.3.,.,.>.,.>.7.",
"3.3.4.:.3.:.3.4.:.4.4.4.4.3.3.:.4.e.,.,.;.;.>.,.,.e.e.e.e.u.e.u.i.i.i.i.i.4.4.u.4.4.4.4.:.:.:.4.,.j.v.j.j.j.i.i.j.h.h.j.h.h.a.a.i.i.j.j.h.h.h.h.4.u.u.u.u.i.i.u.d.a.r.a.a.r.a.a.i.a.i.a.a.p.u.r.a.p.u.r.u.r.r.i.i.a.i.i.i.i.i.i.i.i.i.i.u.u.i.i.u.i.i.u.i.i.h.i.i.i.i.j.i.j.i.u.h.h.j.j.j.j.j.j.j.j.j.j.j.j.j.j.j.d.d.a.a.a.a.a.4.9.e.e.4.4.3.-.r.3.:.3.3.3.*.1.2.&.&.&.4.4.4.4.4.4.4.a.4.4.d.4.j.d.4.d.4.j.4.j.4.4.j.z.z.4.z.4.a.h.a.a.a.a.i.a.i.i.i.a.a.i.a.a.i.z.i.i.d.4.d.4.z.4.4.j.4.d.4.j.j.4.j.4.i.i.4.r.4.4.4.4.4.4.3.3.3.2.2.2.*.*.*.*.| 3.r.0.3.9.3.0.4.e.e.4.r.4.0.4.e.e.e.e.e.e.e.e.,.e.e.e.e.e.e.e.3.e.7.7.9.e.4.e.t.e.t.7.e.e.e.e.4.3.4.3.4.r.2.] 4.4.4.4.1.4.4.4.9.9.e.9.9.9.9.9.9.9.9.3.9.9.3.3.:.2.=.&.| | | ` ` +.&.| *.@.` _ ` -.2.| ` +.3.-.3.3.9.9.3.3.3.9.3.3.0.3.0.3.4.9.4.3.1.4.K K K D L [ [ L L 1.[ L [ 1.[ %.[ 3.1.3.%.*.%.*.*.*.*.1.;.&.;.&.&.&.&.&.3.3.3.%.3.%.3.:.%.4.4.%.3.3.4.%.3.:.:.:.4.%.:.:.:.;.;.:.:.,.:.,.;.;.>.,.e.,.e.e.i.4.i.4.r.i.4.i.4.&.:.3.%.4.4.:.3.4.3.:.:.:.:.4.:.3.:.:.3.:.:.4.4.4.4.4.4.4.4.,.,.4.6.,.e.e.>.,.",
"4.3.4.:.3.3.:.4.4.3.:.3.3.:.:.3.,.,.;.;.e.e.e.,.e.e.e.e.7.e.u.u.i.i.i.u.i.i.4.4.4.4.;.:.i.:.:.j.j.j.j.j.j.h.h.h.h.h.a.a.h.h.h.h.j.j.j.i.j.j.i.u.4.h.h.i.4.i.i.i.i.a.p.a.r.i.a.r.r.a.a.u.r.u.u.u.r.u.a.r.r.u.r.r.i.h.i.i.i.i.i.i.i.h.i.i.i.i.u.i.u.i.u.i.u.i.i.i.i.i.i.i.j.i.i.j.h.j.j.j.j.j.j.j.j.j.j.j.j.j.v.v.j.j.d.d.a.d.a.y.r.9.3.e.e.0.3.3.4.4.4.y.4.4.4.3.3.%.%.3.3.3.4.4.4.y.4.4.r.i.4.j.4.j.4.j.4.4.j.4.4.z.j.d.4.d.j.d.a.a.a.a.i.r.y.a.r.a.a.a.a.a.a.i.i.z.d.4.d.4.z.4.4.j.4.4.j.j.z.4.4.j.i.i.i.i.4.4.4.4.4.4.4.4.4.0.3.2.3.:.2.-.=.&.+.e.9.2.3.e.0.e.4.4.4.4.4.4.4.0.e.e.4.4.e.0.0.4.e.e.4.e.9.e.7.7.e.e.e.4.e.e.,.e.e.e.e.7.9.e.4.e.3.3.3.4.r.0.*.W 4.2.3.4.3.4.4.4.3.3.[ 1.1.2.<.| =.+.+.%.&.*.2.3.3.-.| [ ` | | _ &.| ` [ &.>.3.-.3.3.-.=.| ` | -.&.3.3.3.3.3.3.9.e.9.9.0.0.e.e.r.3.4.4.1.L L L L 4.2.2.L L [ 2.2.%.[ %.[ %.3.%.%.*.*.*.*.*.*.*.*.;.;.=.;.=.;.;.;.>.>.-.>.>.>.;.>.4.%.4.%.4.%.4.%.4.3.%.3.:.:.%.%.;.;.;.-.;.>.>.>.e.,.4.e.7.7.t.e.4.4.4.i.i.i.r.4.4.L ;.4.*.4.4.:.:.:.4.:.3.:.3.4.3.3.%.4.:.4.3.:.e.e.7.e.e.>.7.>.6.4.,.7.3.4.,.>.",
"4.:.4.4.:.4.4.4.4.4.4.4.4.4.3.3.>.;.,.,.4.e.4.,.4.e.,.e.e.e.e.e.4.4.4.4.:.:.:.4.4.4.,.:.4.4.4.v.j.i.h.h.h.h.h.h.h.h.h.h.h.h.h.a.j.j.i.j.j.j.i.u.4.4.h.4.u.i.u.i.i.i.r.a.i.a.a.a.r.a.a.r.r.r.u.r.u.u.u.i.r.r.r.r.i.i.i.i.i.i.i.u.i.i.i.i.i.i.u.i.u.u.i.u.u.u.i.u.i.i.i.i.i.j.i.j.j.i.i.j.j.j.j.j.h.h.j.j.j.j.j.j.d.d.l.d.d.d.g.a.r.e.3.4.e.e.e.e.4.4.0.4.0.4.4.4.3.3.3.3.4.4.4.4.r.4.4.r.4.r.a.s.j.4.j.4.4.j.4.d.j.4.4.j.j.4.4.j.i.a.a.i.u.a.i.u.u.u.a.a.a.a.a.i.4.4.i.i.4.d.4.d.d.d.4.j.4.4.4.j.j.4.i.i.4.i.4.4.4.r.4.r.4.4.0.4.3.3.3.-.*.*.&.| | 3.3.3.3.3.3.0.4.3.4.4.4.4.0.4.9.3.e.3.0.4.4.4.e.e.e.e.e.e.e.e.e.e.e.e.e.e.e.e.7.7.e.e.e.e.e.e.0.y.0.4.3.3.@.[ L D L 3.4.4.3.3.[ L L L L L L [ K ` [ | | | | | [ [ } +.+.&.&.} @.| +.=.3.0.3.3.3.3.3.3.2.&.-.3.-.3.3.9.3.3.9.e.9.e.9.e.9.9.0.9.4.3.2.<.<.L 1.L 2.[ [ 3.2.L [ [ %.3.%.3.%.%.3.3.*.1.%.*.*.*.*.*.;.-.:.:.:.:.>.;.;.>.;.>.>.;.>.;.%.3.%.4.4.%.%.4.%.4.4.%.:.:.3.:.>.>.>.>.,.>.7.>.>.e.7.7.e.e.e.e.i.i.i.4.i.4.4.i.4.%.:.3.;.4.:.4.:.3.:.3.:.:.:.:.:.:.:.:.3.3.4.4.6.4.4.4.,.4.,.7.>.,.4.7.>.7.>.,.",
":.:.4.:.4.4.:.4.3.:.:.3.:.3.:.3.:.,.e.e.e.4.7.e.u.e.4.4.,.,.>.>.4.:.:.:.4.4.4.4.;.4.i.4.i.4.4.j.i.h.i.h.i.h.i.h.h.a.h.a.a.h.h.h.j.j.j.i.j.j.i.i.h.h.h.i.4.u.i.i.a.i.d.i.a.a.a.a.u.i.p.e.e.e.u.r.r.u.r.u.r.r.r.r.i.i.i.i.i.i.i.i.i.i.h.u.u.i.i.i.u.u.4.u.u.i.i.u.i.4.i.i.i.d.i.j.h.h.h.i.j.j.j.i.h.h.j.j.j.j.j.j.d.d.g.d.g.j.d.d.a.r.e.e.r.e.e.e.i.4.4.4.4.y.4.4.4.4.4.4.4.4.4.r.4.r.r.4.i.i.r.i.4.j.4.4.4.4.j.4.4.j.d.4.4.j.4.4.i.a.a.a.a.u.a.r.a.r.a.a.a.a.a.a.i.i.4.i.i.i.d.4.j.4.d.4.z.4.z.4.d.4.d.i.4.i.i.4.r.4.4.4.r.4.4.3.3.3.2.:.:.&.@.| =.*.0.r.0.3.e.0.3.3.4.3.s.4.4.0.9.e.3.0.3.4.4.r.9.e.,.7.e.e.e.t.e.e.e.7.u.4.4.u.e.e.e.e.4.e.4.e.4.r.r.4.4.4.2.3.3.L [ [ 1.2.L L L ` [ [ [ L ` [ [ | [ ` _ _ _ ` ` | &.*.3.-.&.+.| &.&.3.3.0.0.3.3.9.9.0.3.3.3.3.-.3.3.3.2.3.3.3.3.0.9.9.3.3.9.9.4.2.| [ [ [ L 1.L 1.2.[ [ 2.L 3.%.%.%.%.3.%.3.%.*.*.*.*.*.:.:.:.;.>.-.6.-.>.>.>.>.>.;.6.;.>.;.>.3.%.4.%.4.3.4.%.4.%.%.4.3.:.4.4.7.7.6.>.7.7.7.7.7.7.t.t.t.7.e.u.i.4.4.i.4.i.4.4.4.&.;.:.*.:.:.>.%.3.:.:.:.:.:.:.3.%.3.:.4.4.4.4.4.>.>.7.6.,.,.>.e.4.>.>.>.,.6.>.",
"4.3.3.3.4.4.4.4.3.:.:.:.:.:.:.:.:.,.e.e.7.,.e.e.u.e.;.;.,.,.,.>.4.3.:.:.;.:.,.:.4.j.j.j.j.j.i.j.h.i.h.i.j.h.i.h.a.h.p.h.h.a.a.h.i.j.j.j.h.j.j.i.4.4.4.i.i.u.u.u.u.i.a.i.r.u.u.r.a.a.u.r.e.r.u.r.i.r.i.r.u.u.r.u.i.i.i.i.j.i.i.u.i.i.u.u.i.u.u.u.4.u.u.u.h.i.u.i.4.4.i.i.i.j.4.j.h.i.h.h.j.j.j.j.h.j.j.j.v.v.j.j.l.j.l.d.g.d.d.r.r.r.e.r.e.r.e.e.4.4.4.4.0.4.4.4.4.4.4.4.y.y.4.4.4.r.4.r.r.4.4.4.4.4.4.j.d.d.4.j.s.d.4.d.z.4.z.j.a.a.a.u.r.u.r.a.i.a.a.a.a.a.y.u.z.4.d.4.4.4.d.4.4.i.4.i.4.j.4.j.4.d.4.i.d.4.d.4.4.4.4.4.4.4.3.3.2.3.3.-.-.*.&.| | | -.e.3.3.3.3.3.3.3.3.4.4.4.4.3.0.0.0.4.3.0.0.9.7.9.4.>.e.7.e.e.4.e.e.,.e.e.4.7.e.e.4.e.e.e.4.4.0.0.4.4.4.4.3.4.3.2.L <.L h L [ 1.%.%.1.[ ` L ] ` K E E ` +.&.-.3.3.-.3.3.&.&.&.&.-.-.3.3.3.0.3.0.e.3.3.e.3.*.&.-.2.-.3.2.3.>.3.3.0.3.3.3.3.3.4.3.<.[ [ [ [ [ 3.[ 2.3.3.[ 3.[ [ 3.%.3.%.3.%.3.*.*.*.*.:.:.:.:.>.;.;.;.-.;.;.>.>.>.>.>.>.;.-.;.%.4.%.4.%.3.3.3.3.3.%.3.:.4.4.4.e.7.7.e.7.e.e.t.t.e.e.e.e.e.t.7.4.4.h.4.4.4.i.4.3.&.:.3.:.:.,.:.3.:.:.3.:.3.%.:.:.3.:.4.4.4.;.4.>.e.,.e.>.e.4.3.,.6.7.,.7.>.>.,.",
":.3.3.3.4.4.4.4.>.>.,.:.>.>.,.>.,.,.,.e.e.,.e.e.4.;.-.,.4.4.4.e.%.:.4.,.%.:.4.v.h.h.i.4.u.u.u.i.i.h.i.h.h.h.h.i.h.a.h.a.p.h.h.a.i.j.j.i.h.v.j.i.4.4.h.i.i.u.u.u.e.r.u.p.a.r.u.a.a.i.r.r.r.r.r.u.u.r.u.r.r.u.u.p.h.i.i.i.u.i.i.i.4.u.i.i.u.i.u.u.i.4.h.i.i.h.i.i.j.4.4.d.d.j.i.j.h.i.h.h.h.j.j.v.j.j.j.j.j.j.j.j.j.j.l.l.d.d.i.i.r.i.r.r.r.e.4.4.4.4.4.4.4.s.y.4.0.4.4.4.3.3.4.4.4.r.r.4.u.4.r.4.4.4.4.4.4.4.d.4.i.4.i.4.i.d.d.a.a.a.a.a.u.r.a.p.a.a.a.a.a.a.u.u.4.j.4.d.d.i.4.d.i.4.j.4.i.i.i.i.j.i.i.i.i.i.4.4.4.4.4.3.:.3.3.3.3.3.2.-.=.&.+.| @.| 2.r.9.0.0.3.3.3.3.2.2.3.3.3.3.4.0.3.3.3.3.3.e.9.9.9.e.6.9.6.4.e.e.4.e.e.4.e.e.e.4.u.i.4.4.r.4.s.4.4.4.4.4.3.L [ 2.3.3.L D L L L D L D K L L | | @.&.*.-.3.3.3.9.-.-.3.2.&.2.-.-.3.3.3.3.3.e.0.r.0.3.3.0.3.*.-.3.3.3.3.3.3.2.3.9.e.3.3.3.9.9.3.2.L [ [ [ [ 3.2.[ 3.3.[ 3.[ 3.3.3.[ 3.%.4.3.%.:.:.:.:.:.:.:.:.;.-.;.;.;.;.6.;.;.;.>.;.6.=.;.-.%.4.%.4.4.3.%.4.%.4.%.4.4.4.4.4.7.7.e.7.e.e.7.e.e.t.e.t.e.u.t.e.h.4.i.4.4.4.4.4.%.%.%.4.>.*.>.*.:.:.:.3.%.:.3.:.:.3.3.:.3.3.:.:.,.,.e.>.e.e.,.e.4.,.3.7.>.,.>.>.",
"4.3.3.4.4.4.4.4.>.>.>.4.4.4.>.4.e.4.,.4.e.e.e.e.;.;.>.e.e.e.;.;.4.;.;.4.b.b.j.j.v.v.j.i.u.j.j.j.h.i.h.h.i.h.h.h.p.h.p.h.h.h.a.h.j.h.j.j.i.j.j.h.u.a.j.j.h.p.u.e.e.e.r.r.i.a.a.r.d.p.r.u.p.i.p.p.i.i.i.u.p.p.p.y.i.i.j.i.i.u.u.u.u.4.u.u.u.4.u.4.4.4.4.h.h.i.i.u.d.4.d.j.4.i.4.i.u.h.h.u.i.i.j.j.j.j.j.j.j.v.j.h.a.u.u.a.a.a.i.r.r.r.r.r.4.r.r.4.s.4.4.4.4.4.4.4.4.0.4.4.4.4.4.y.4.4.r.r.u.r.e.e.4.d.4.d.4.j.d.4.i.4.d.i.d.d.h.d.a.a.a.u.r.u.r.a.a.a.r.i.r.u.u.u.d.4.i.4.4.i.4.4.4.d.4.d.i.i.4.i.i.i.i.i.i.4.i.i.4.4.4.4.3.3.3.3.3.:.3.&.&.&.| | *.&.3.e.e.3.0.4.3.4.2.3.2.3.3.3.0.4.4.e.4.4.3.0.e.e.e.9.t.e.e.e.e.e.e.7.4.e.u.4.e.7.e.,.4.i.r.4.4.4.4.s.s.4.2.2.3.1.1.[ 3.3.[ L 1.[ | [ %.%.2.3.3.3.e.e.9.3.2.-.3.3.3.3.3.*.&.2.-.3.3.3.3.3.3.3.3.e.9.3.3.0.3.*.-.2.3.3.3.3.3.3.9.0.9.3.3.9.9.9.2.%.2.[ [ 1.[ [ 3.3.[ 3.[ 1.2.[ [ 3.3.3.4.%.%.3.:.:.*.*.:.*.*.:.;.;.;.-.>.>.;.;.>.>.;.6.;.;.;.;.%.%.%.4.4.%.3.4.3.4.3.4.4.4.4.4.e.e.7.e.7.e.e.7.7.7.u.u.e.7.e.e.4.4.4.i.i.i.4.:.%.:.%.:.,.:.>.;.%.:.:.:.:.:.%.:.3.%.3.:.4.:.4.:.>.,.>.7.>.e.e.7.e.e.4.3.e.>.,.7.",
"3.3.3.4.4.4.4.3.>.,.>.>.>.>.>.>.e.,.,.,.7.e.7.,.,.,.,.e.e.,.;.4.%.4.j.b.j.i.j.b.h.i.h.j.h.i.u.u.i.h.u.h.i.h.i.h.h.p.p.h.a.h.p.h.i.j.j.i.i.j.j.i.h.j.j.j.j.j.h.p.u.e.e.e.r.a.a.i.a.u.r.u.a.u.p.p.a.r.i.a.i.a.a.a.i.i.i.i.u.4.u.,.4.u.u.u.i.u.u.u.4.h.4.4.4.h.i.i.4.d.d.4.4.j.j.j.h.i.i.h.h.i.i.i.h.j.j.h.j.j.j.i.r.e.e.r.r.r.r.u.4.s.r.4.4.r.4.4.4.4.4.4.4.4.y.4.y.4.y.4.y.4.4.y.r.r.r.a.a.i.r.r.4.4.4.4.4.d.4.j.4.d.i.d.d.d.d.d.a.d.a.y.u.r.u.a.a.i.a.u.r.u.r.u.4.i.4.d.d.4.i.i.d.4.j.4.i.4.i.i.4.i.d.4.4.d.4.4.4.4.4.3.3.:.3.:.-.3.-.&.+.| | | | | | &.=.&.&.&.2.%.%.3.2.2.2.2.4.4.0.4.4.4.3.3.9.9.9.t.e.e.e.9.,.e.e.e.e.4.e.u.e.e.7.u.4.4.4.4.4.4.4.4.4.4.2.%.2.L [ 1.[ 3.%.2.1.1.3.3.3.3.2.2.-.-.-.-.2.3.3.3.9.3.3.e.*.+.&.3.3.3.3.3.3.-.-.3.3.3.3.3.3.3.3.=.&.*.-.-.2.3.9.3.3.0.9.3.9.0.3.3.2.3.[ 1.[ 2.[ 2.L L 3.1.3.3.3.3.3.3.%.3.:.3.*.4.:.*.*.:.*.:.*.*.;.-.;.-.;.6.6.>.;.>.6.;.>.-.-.;.4.%.4.%.4.4.3.%.3.%.4.4.4.4.4.4.e.t.e.7.e.7.7.e.7.u.u.t.t.e.7.u.h.4.i.4.i.4.4.%.%.:.:.:.>.-.>.;.:.:.:.:.3.:.:.:.3.:.4.4.3.:.4.4.>.,.>.,.7.,.,.7.>.,.,.,.,.7.>.7.",
"4.>.4.4.4.4.4.:.>.>.4.,.>.4.>.,.,.4.e.e.e.e.,.,.e.,.,.e.e.e.r.h.b.b.j.j.j.j.j.j.j.i.h.j.i.i.h.h.h.u.h.i.h.h.i.i.a.h.h.p.h.h.h.h.i.j.j.j.i.j.j.j.h.j.j.j.j.j.v.l.h.a.e.4.r.i.a.u.a.r.r.r.a.a.p.a.u.a.i.a.i.i.a.i.i.i.i.4.u.u.u.4.4.u.u.i.i.i.u.u.h.4.h.h.i.i.i.i.d.i.j.4.j.4.j.4.i.i.h.i.h.i.u.u.4.u.j.i.i.j.u.4.u.e.e.r.a.y.r.i.4.i.a.r.r.r.r.4.4.4.4.4.4.s.4.4.y.y.0.4.4.0.4.4.r.i.a.a.d.d.a.u.4.d.d.4.d.4.j.4.i.i.d.j.d.i.a.d.a.a.a.p.r.r.r.i.a.r.a.u.r.r.r.r.4.i.d.4.d.i.i.i.4.4.j.j.4.j.i.i.4.i.4.i.4.4.i.4.3.3.:.:.3.3.2.*.&.&.&.| | | @.&.| -.+.| &.@.| &.%.%.2.%.2.3.3.2.3.2.3.3.3.3.2.-.:.>.9.e.e.e.9.e.e.e.4.e.e.e.e.7.u.7.e.4.r.4.r.4.s.4.4.4.4.2.%.%.[ [ 4.4.3.3.2.2.4.4.4.3.3.3.&.3.3.3.3.3.3.3.3.3.2.*.9.9.| [ =.3.9.3.3.-.-.-.3.2.3.3.3.0.4.3.2.=.&.-.&.&.=.3.e.e.3.3.0.3.9.e.3.=.[ [ [ [ 2.[ 2.L 3.3.3.3.3.[ [ 3.3.3.[ 3.:.3.:.:.*.:.*.:.:.:.:.:.-.;.;.;.>.;.;.>.6.;.>.>.;.-.;.;.%.4.3.3.4.4.4.4.4.4.4.4.4.4.4.4.7.e.7.e.7.e.7.7.7.t.7.e.e.7.t.u.4.i.i.i.4.i.:.[ %.4.;.:.>.;.-.>.:.:.3.3.3.:.3.:.3.4.4.4.:.4.:.4.>.>.>.>.3.>.>.>.e.>.e.>.>.>.4.>.",
"3.2.3.3.4.3.3.:.:.3.:.4.4.4.4.4.e.4.,.,.u.u.7.,.h.,.,.h.j.h.h.h.v.v.j.j.h.h.h.h.h.i.h.h.h.h.u.h.h.a.a.h.p.h.h.u.h.h.h.p.h.p.h.h.j.i.j.j.j.j.j.j.i.j.j.j.j.j.j.b.h.h.p.7.e.e.e.4.3.>.>.e.p.a.a.h.a.a.a.a.h.4.j.h.4.j.i.i.i.i.4.4.u.i.u.u.u.u.u.u.u.i.u.i.i.a.a.i.4.4.d.4.d.j.d.j.d.j.4.j.4.4.4.j.e.r.e.4.:.&.=.*.e.r.e.a.s.r.r.d.a.a.4.i.i.4.4.4.4.4.s.4.4.4.4.i.r.a.a.i.r.r.r.r.p.a.a.i.a.a.a.a.z.4.j.4.i.i.a.a.i.j.j.d.d.a.h.a.a.a.a.u.r.u.a.a.a.a.a.r.r.e.u.a.d.4.z.i.i.i.d.4.z.i.i.4.d.j.4.4.4.4.j.j.4.4.i.4.4.2.2.2.*.:.3.*.-.&.&.| @.%.%.@.&.&.*.*.-.&.&.&.3.-.3.3.-.-.3.-.2.>.:.:.3.3.3.+.&.:.4.4.3.e.e.e.3.0.0.e.e.e.e.4.e.e.4.e.e.e.e.9.e.0.0.3.&.[ | | 1.3.3.3.3.4.4.4.4.4.4.4.2.2.2.*.3.3.3.1.3.2.2.3.3.2.4.3.` [ 3.3.3.3.3.3.=.*.-.3.4.3.4.3.2.3.&.-.2.2.3.2.-.3.>.3.2.3.3.3.3.3.3.*.| | %.[ %.%.%.%.*.*.*.2.-.-.-.-.%.4.3.%.4.%.4.4.%.4.:.:.%.4.%.:.%.3.%.%.3.%.%.4.3.:.;.:.;.;.;.;.;.>.;.>.,.4.4.,.e.e.e.e.e.u.e.u.t.7.7.u.7.,.7.7.7.u.7.p.7.p.7.u.e.p.,.,.e.;.[ [ ;.;.;.;.>.;.;.;.;.-.>.e.>.e.4.e.e.,.6.,.>.>.>.>.;.>.,.>.3.:.4.>.4.4.4.:.4.4.>.,.",
"3.*.*.3.3.3.3.3.3.3.,.,.;.,.,.,.,.,.u.u.u.u.u.e.,.u.h.h.h.a.a.h.j.j.j.j.h.h.u.h.u.h.i.h.i.h.h.u.p.h.h.p.h.a.a.a.h.a.h.h.h.p.a.a.j.j.i.j.i.j.j.j.j.j.i.j.j.j.j.j.x.k.a.t.,.,.3.2.3.3.>.e.p.p.p.p.a.d.a.h.j.j.j.j.h.h.i.i.i.i.i.h.i.i.i.u.h.u.i.u.i.i.i.i.i.a.a.i.j.d.j.j.4.d.j.4.j.4.j.4.j.4.4.4.d.e.:.&.%.=.:.:.a.a.3.3.e.d.i.s.i.4.i.4.4.4.4.4.4.4.4.4.4.4.4.i.r.p.u.a.u.r.r.r.a.a.a.a.a.a.a.a.4.z.d.z.a.a.a.a.i.a.a.j.a.d.j.a.a.a.a.a.u.r.u.i.a.a.a.u.r.r.u.p.4.z.j.i.j.4.i.j.d.d.d.4.j.4.i.i.a.4.4.4.4.j.4.i.4.3.&.3.3.3.*.3.-.*.&.&.-.-.:.-.=.&.-.2.-.3.2.3.:.2.-.>.-.3.:.-.:.2.2.:.3.3.:.%.&.:.3.2.3.0.e.9.e.e.e.e.e.e.e.0.4.e.e.e.9.0.0.e.0.3.3.&.| } | | 3.4.4.3.3.4.4.s.s.4.s.4.3.2.3.3.3.3.3.3.3.3.3.3.4.4.4.2.[ <.4.3.9.*.&.*.3.3.9.e.4.4.r.4.4.3.| *.&.:.3.3.3.3.3.3.3.3.3.0.e.e.-.@.` [ | %.%.%.2.&.:.*.*.*.:.:.:.:.3.%.%.3.%.4.%.%.3.%.%.4.4.%.:.:.3.%.4.3.3.4.3.4.%.4.4.;.>.;.6.;.>.;.>.,.,.,.e.7.7.,.u.e.e.e.u.e.e.e.e.7.7.e.7.4.e.e.e.e.e.e.u.e.e.e.e.e.e.&.[ &.>.;.>.>.;.>.>.;.;.>.e.e.e.e.,.e.e.e.4.,.7.,.,.>.>.>.>.4.>.4.>.4.4.4.4.4.4.4.4.:.",
"3.*.3.3.4.3.3.3.4.4.4.4.,.,.,.4.,.,.u.7.u.u.7.,.,.h.k.k.u.a.h.h.j.j.i.j.h.u.h.i.h.i.h.u.h.i.h.i.a.a.h.p.a.a.h.h.p.h.a.h.h.a.a.a.i.j.j.j.j.j.j.j.i.j.j.j.j.j.j.j.h.k.l.l.h.x.g.d.e.4.4.r.a.h.p.h.h.h.h.a.h.4.i.h.4.h.i.i.i.i.i.i.i.h.i.h.u.i.i.i.i.i.i.i.a.a.h.i.4.j.d.4.j.j.j.i.4.j.4.j.4.4.j.4.>.&.%.| &.&.| ` *.r.a.0.e.r.s.r.d.4.i.4.4.4.4.4.4.4.4.i.i.4.s.4.r.r.u.u.u.p.a.a.a.a.a.d.a.a.a.a.a.d.a.d.a.j.a.d.i.a.a.d.d.d.a.d.a.d.a.a.a.r.u.r.a.a.d.a.a.r.r.a.j.i.4.z.z.d.z.4.i.d.4.d.d.4.j.4.4.a.4.4.a.4.i.4.:.3.3.3.3.*.3.3.&.*.:.-.-.3.3.3.3.2.3.3.3.3.3.3.3.3.-.2.3.-.2.:.:.:.-.:.-.2.*.%.-.>.-.-.>.3.e.e.4.e.e.e.0.e.e.e.9.0.e.9.3.3.0.e.4.3.=.| | | &.>.3.4.4.4.3.4.4.4.4.s.4.4.4.4.4.3.4.4.3.3.3.3.3.3.3.4.2.` ` 1.3.3.0.-.| &.:.3.3.>.4.4.4.3.r.*.` | *.-.3.3.3.3.2.3.3.0.4.4.3.*.+.[ L [ | 1.2.%.&.&.:.*.*.3.3.*.-.*.3.%.3.%.4.%.%.3.%.%.:.%.%.:.:.%.%.3.%.3.%.%.4.%.:.:.:.;.>.>.>.;.;.>.,.,.e.e.e.u.e.e.e.u.u.e.u.e.e.e.e.e.e.7.e.,.,.e.e.e.e.u.e.u.e.u.e.e.;.%.{ &.>.,.>.>.>.;.>.>.e.,.e.7.7.e.e.7.e.>.,.>.e.,.>.>.>.4.4.>.4.:.3.3.3.3.>.:.3.3.4.3.",
"3.2.:.3.3.3.3.3.4.:.:.:.:.,.,.,.,.u.u.h.u.,.u.u.h.h.h.h.a.h.h.a.j.i.j.i.i.h.u.h.u.h.h.h.h.h.h.h.h.a.h.h.h.a.h.p.h.h.h.a.a.h.h.h.j.j.j.i.j.i.j.i.j.j.j.j.j.j.j.j.h.k.l.k.a.p.r.e.e.3.9.u.a.a.h.h.a.a.h.a.h.i.h.j.j.i.i.j.h.h.i.h.i.i.h.i.h.i.h.i.i.h.h.i.i.a.h.i.z.z.4.d.a.4.4.4.4.4.4.4.4.3.3.3.:.*.&.=.&.| %.*.` 2.e.e.r.e.r.r.i.a.s.4.4.4.4.4.s.4.d.4.i.a.4.d.u.u.r.r.u.a.a.d.a.a.a.a.a.a.a.a.4.a.j.4.a.a.d.j.r.i.a.d.a.a.d.d.l.j.a.a.a.i.a.a.d.a.a.a.p.u.r.a.4.j.4.i.4.d.j.z.i.d.d.i.d.d.j.4.d.4.j.a.4.d.4.i.4.3.:.2.3.:.3.*.-.2.3.3.3.:.2.3.9.9.9.0.3.3.9.3.3.3.3.3.2.3.3.:.2.2.:.:.3.2.*.[ &.&.&.&.3.e.e.e.3.0.4.0.e.4.4.0.e.e.9.e.e.9.3.9.3.-.| | { @.3.3.2.4.4.4.4.4.4.4.0.4.3.4.0.4.4.3.4.4.3.3.3.3.3.3.3.3.| L [ %.3.4.e.e.4.3.3.3.3.3.4.4.3.3.4.*.` +.&.&.&.3.-.-.3.3.3.e.4.2.| ` ` ` [ 1.%.%.[ %.%.2.3.*.*.*.3.*.>.*.%.3.%.3.%.%.3.%.%.4.%.4.:.:.:.:.3.%.3.3.3.3.3.3.4.4.;.4.;.>.>.>.;.,.,.7.e.e.e.u.4.u.e.e.e.u.e.e.e.7.7.e.e.e.7.e.u.7.e.u.7.p.u.e.7.u.u.>.&.{ %.;.>.>.7.,.-.;.>.6.>.4.4.>.e.,.7.e.e.7.>.>.e.>.7.;.:.>.>.4.>.4.:.3.4.4.4.4.3.4.3.:.",
"*.2.3.%.3.3.:.3.>.;.>.;.,.,.,.,.e.e.h.7.u.u.u.a.v.h.u.h.h.a.h.h.i.j.u.h.i.h.h.u.h.h.h.h.h.h.h.h.h.a.h.a.h.a.a.h.h.h.h.h.h.a.h.a.i.j.j.i.j.j.j.j.j.j.j.j.j.j.j.v.k.v.x.a.r.e.0.9.9.>.3.r.a.p.a.p.h.i.i.h.i.h.h.4.i.h.i.h.i.i.h.i.i.j.i.j.i.h.h.i.i.i.i.4.i.i.4.h.4.4.4.4.4.4.4.4.%.3.:.3.3.3.3.2.{ [ { &.{ _ ' { | | | *.e.e.e.e.4.i.s.4.3.3.4.4.d.4.d.4.s.j.4.d.i.a.r.r.u.a.a.a.a.a.a.a.a.a.a.a.j.a.a.i.d.a.a.a.u.a.a.j.a.a.j.d.d.a.a.a.a.a.d.a.a.a.d.a.p.u.r.a.i.j.i.i.j.d.j.4.4.d.j.4.4.i.i.i.4.d.4.4.4.d.d.4.4.4.3.3.2.3.3.3.-.3.3.2.2.:.3.3.3.3.3.3.3.3.3.3.9.3.2.3.3.:.3.2.3.:.-.2.3.-.&.| | | %.&.-.3.e.4.4.e.4.e.e.0.3.e.9.9.9.e.e.9.3.3.&.&.| [ { =.3.3.4.4.4.4.i.4.4.4.4.4.4.4.4.4.y.4.3.3.4.4.3.3.2.2.1.2.[ L +.&.2.4.3.3.4.4.3.>.3.9.3.3.3.3.4.%.%.3.-.*.*.3.3.-.>.3.3.3.3.+.{ [ [ [ [ [ %.%.%.%.*.&.*.*.&.3.:.>.*.:.3.%.%.%.4.%.%.4.3.%.:.:.:.:.%.:.:.:.3.%.:.4.3.:.:.:.:.:.,.:.;.,.4.,.e.e.e.u.7.4.e.7.u.e.u.e.e.p.e.e.7.u.e.7.u.,.7.u.e.7.7.u.e.e.e.u.p.;.{ ..;.>.>.7.,.>.;.-.>.,.7.,.>.,.>.e.e.e.,.>.>.7.e.3.>.>.>.,.:.4.:.3.4.4.4.3.:.4.3.3.:.:.",
"3.&.:.2.3.%.3.:.e.,.4.e.u.u.e.e.e.u.e.h.u.a.h.l.h.p.h.j.h.a.p.h.j.i.h.j.u.h.i.h.i.i.h.h.h.u.h.u.a.h.a.h.a.h.h.a.h.a.a.h.h.h.h.p.j.i.i.j.i.j.j.j.h.j.j.j.j.j.j.i.p.p.e.,.3.e.r.r.p.r.e.a.a.d.a.h.i.h.h.i.h.i.h.i.h.i.h.i.i.i.i.i.j.4.j.i.h.h.i.a.h.j.i.i.4.i.h.4.4.4.4.4.4.4.4.4.4.4.3.3.%.[ [ [ &.{ &.>.>.[ _ ` [ | &.>.e.9.3.3.4.4.i.4.3.3.4.a.4.j.4.d.4.4.d.4.i.a.u.a.a.a.a.i.a.a.a.a.a.a.a.d.a.d.a.a.i.j.a.d.i.a.a.a.d.a.a.a.j.a.a.a.a.h.a.a.a.a.j.a.a.i.a.a.d.4.4.d.i.4.4.j.4.j.4.j.d.4.j.4.j.4.4.j.d.4.4.4.4.4.3.3.3.:.3.:.>.-.3.3.2.>.3.3.-.3.3.9.3.0.3.3.3.3.3.3.3.3.3.>.3.2.:.3.3.3.=.&.&.&.=.:.>.3.3.3.r.r.0.r.e.e.4.3.9.3.3.e.9.3.:.&.+.+.| | | >.3.3.4.4.4.3.4.4.i.4.0.0.r.4.4.y.4.0.4.3.3.4.3.3.[ 2.1.2.[ 2.*.&.%.4.-.-.:.3.3.3.:.3.3.3.3.3.&.[ %.%.&.&.-.3.3.-.&.&.3.&.| | | +.| | %.2.[ 2.&.&.*.*.*.*.:.&.:.-.-.:.4.%.3.%.4.%.4.%.:.3.%.%.:.%.%.:.:.%.%.3.:.:.:.:.4.:.4.:.,.,.,.,.4.e.e.e.e.e.e.e.e.e.e.u.7.u.e.e.7.e.e.e.e.e.e.e.e.e.e.e.e.e.p.u.e.t.e.&.{ =.7.;.;.,.>.>.>.;.>.7.>.>.>.>.,.3.>.7.>.>.>.7.,.7.,.>.>.>.4.>.:.3.:.4.4.4.4.3.4.3.4.:.",
"3.3.3.3.3.3.3.3.>.,.;.,.e.7.e.,.u.u.u.a.a.h.j.l.p.h.j.h.h.h.a.h.u.j.u.u.i.h.u.u.h.i.u.h.i.h.h.h.p.k.a.h.h.h.h.h.h.h.h.h.p.h.h.h.i.j.j.j.j.j.j.i.h.h.j.j.h.h.j.i.v.x.d.a.u.d.d.d.d.s.a.d.l.k.h.a.h.h.h.h.h.j.h.h.i.j.i.h.i.i.i.h.j.h.h.i.i.h.a.a.h.j.h.i.i.i.4.4.4.2.3.4.4.4.4.4.L L L L [ %.3.3.:.| [ _ _ _ ' [ _ &.e.r.e.:.-.3.s.4.4.4.4.4.4.4.d.4.j.4.s.4.4.i.a.r.a.i.a.a.a.a.a.a.a.a.d.d.a.g.j.d.d.a.d.j.d.j.d.d.d.a.a.j.j.a.a.a.p.a.a.g.a.h.a.a.d.a.i.u.i.u.4.d.i.4.4.j.4.4.j.i.j.4.4.j.4.i.d.4.4.4.4.d.4.d.4.4.4.3.3.3.3.3.3.>.3.3.3.3.3.3.3.3.3.3.e.0.4.3.3.2.3.3.3.3.>.3.3.:.:.2.3.-.-.-.-.>.3.3.3.3.3.3.0.4.4.e.e.3.3.e.3.3.3.3.3.-.&.+.| &.&.+.| 3.3.2.4.4.3.4.4.4.4.u.4.s.4.i.4.4.4.4.4.3.1.3.[ 2.3.[ [ 3.%.2.&.@.&.:.3.3.3.4.r.4.3.4.4.3.3.&.%.[ 3.L &.| &.3.3.*.+.&.*.{ [ | &.*.%.%.%.%.%.3.&.:.:.&.&.3.:.3.>.:.;.-.%.%.%.3.%.4.%.%.:.:.:.:.:.%.:.:.:.3.:.:.3.3.:.4.:.:.4.:.,.4.4.7.,.e.e.7.e.u.e.e.7.e.e.u.e.e.e.u.p.e.e.e.p.7.u.7.7.e.e.e.u.e.e.e.r.-.;.&.&.;.7.;.>.>.,.>.,.>.>.>.>.>.,.>.7.4.,.7.>.>.e.>.,.>.>.7.>.>.,.3.:.>.4.4.3.4.3.4.4.3.:.:.",
"&.&.&.3.%.%.:.3.,.,.,.,.e.u.p.e.p.u.h.a.h.h.a.h.h.z.j.h.p.j.h.a.i.u.j.i.h.i.h.h.j.i.h.h.j.j.j.h.h.h.h.h.a.h.a.h.h.a.h.a.h.h.a.h.j.j.i.j.j.j.j.j.h.h.j.i.h.j.j.j.h.a.a.a.a.a.r.0.a.e.r.a.l.g.f.h.j.j.h.h.h.4.h.i.j.i.j.i.j.h.i.i.4.j.i.h.h.h.a.a.i.i.i.i.4.4.3.&.3.%.[ %.3.2.&.2.[ [ [ [ %.%.[ L { &.| ` _ { { { { -.3.&.-.3.*.&.3.4.4.4.4.4.4.j.d.4.4.d.4.d.4.i.i.u.u.a.a.a.a.a.a.a.a.d.j.l.l.l.d.a.a.d.d.i.d.a.a.j.j.j.a.a.a.a.a.a.a.a.a.a.h.a.a.a.a.a.a.u.r.a.d.4.i.i.d.4.4.j.4.d.j.4.j.4.j.4.4.4.d.d.4.4.4.4.4.4.4.3.&.3.3.:.3.3.:.-.-.3.2.3.-.>.2.3.3.3.2.2.-.3.3.-.3.-.3.-.2.-.:.3.3.2.3.3.3.>.>.>.:.-.3.3.3.3.3.3.3.e.9.9.e.e.e.3.-.*.&.| | %.&.%.| &.*.%.[ [ 3.4.4.4.4.4.4.i.4.4.4.4.4.0.3.3.2.[ 3.[ [ 2.[ [ 2.[ &.&.&.%.*.%.:.:.3.3.3.4.3.*.[ *.[ *.4.%.-.&.&.-.-.&.&.=.{ { *.*.2.+.&.:.3.%.%.%.:.:.:.&.:.&.&.*.>.;.;.-.4.3.3.%.3.[ %.3.%.3.:.:.:.3.%.:.:.3.4.3.:.4.3.4.4.4.4.4.4.,.4.4.e.e.e.e.e.7.e.e.u.u.e.e.e.u.e.7.e.e.7.p.e.e.e.u.u.7.e.e.7.u.u.e.e.&.%.&.;.-.;.-.>.>.>.>.,.7.,.7.e.7.>.7.>.7.>.;.>.,.e.e.6.;.>.>.:.>.:.:.3.:.:.4.4.:.4.4.4.3.3.:.",
"3.3.:.%.:.%.%.:.>.>.4.4.h.h.h.h.h.h.p.h.a.h.j.j.j.j.j.j.i.h.h.h.u.u.i.i.h.i.h.i.i.h.h.h.u.u.h.h.k.h.p.h.h.h.a.k.h.h.p.h.h.p.a.h.d.d.j.j.a.h.j.j.j.j.j.j.j.h.j.h.k.k.a.k.a.a.y.a.s.r.i.j.j.j.v.j.j.h.j.i.j.i.h.j.i.j.j.h.i.i.h.h.d.a.h.h.a.a.d.a.g.a.a.p.7.=...%.&.%.%.%.| | [ ` [ [ [ [ %.%.{ %.&.{ &.{ &.{ { { | :.:.| [ *.2.&.3.:.4.4.4.a.s.4.4.4.4.4.d.4.d.4.a.a.d.i.a.a.a.a.a.a.a.d.d.j.j.z.j.j.h.a.a.a.a.a.d.d.d.j.d.j.a.d.j.a.a.a.a.j.a.a.d.a.a.a.u.e.r.a.u.u.r.r.u.p.u.a.j.j.d.d.i.i.i.4.4.4.d.4.d.4.4.d.4.4.4.3.2.3.3.3.3.3.3.>.3.3.3.2.3.2.-.%.| | &.=.=.&.=.&.&.&.&.&.-.-.:.3.3.-.3.>.>.>.>.>.>.3.>.3.:.3.e.e.3.3.3.e.3.4.4.4.-.%.| { | | { { { &.{ ..%.[ [ %.%.4.4.4.u.4.4.4.%.3.4.4.3.3.3.3.1.[ 3.[ %.%.&.&.&.&.*.*.*.*.*.:.3.:.:.:.[ %.%.:.:.:.%.[ [ | &.-.*.*.%.%.&.&.| %.%.*.*.*.%.3.:.:.%.:.:.:.;.>.>.;.>.;.;.;.>.>.*.;.;.:.;.;.%.3.[ 3.%.[ 4.3.3.&.3.3.:.3.3.:.,.>.7.e.7.e.7.e.e.e.e.,.u.4.e.e.4.4.u.u.e.e.e.e.7.e.u.7.7.u.e.e.7.e.u.e.t.e.e.e.,.&.{ ;.>.>.;.>.>.;.>.6.>.>.,.>.;.>.,.>.>.,.>.e.,.>.e.7.>.>.;.;.3.:.:.3.3.:.3.3.3.4.4.4.4.:.:.:.",
"%.%.:.3.:.:.:.%.;.;.>.4.4.h.h.p.p.h.h.a.a.h.h.j.j.j.j.j.h.h.h.i.h.h.h.h.h.h.i.i.i.h.j.j.h.h.h.h.a.h.k.a.h.a.h.k.h.h.k.h.h.h.k.h.d.j.j.4.j.j.a.j.j.h.h.h.h.h.h.h.a.h.a.p.a.y.a.a.i.r.a.h.j.j.j.j.j.j.j.j.i.h.i.j.j.i.i.h.i.i.u.u.u.a.a.a.a.a.i.i.a.d.a.t.>.&.&.&.%.%.[ | | | { [ [ [ ` { | [ %.%.+.&.&.&.&.{ &.{ | [ [ | | [ %.3.3.3.3.3.4.4.4.4.s.4.d.4.4.d.4.s.u.a.a.d.a.a.a.a.i.i.d.d.d.j.j.j.d.a.a.a.d.d.j.a.d.a.d.j.d.a.d.a.a.d.a.a.d.a.g.a.a.a.a.u.u.r.r.u.u.r.a.a.d.a.d.d.j.j.d.j.d.i.i.i.4.d.4.4.4.4.4.4.4.4.4.3.3.3.3.3.3.-.-.3.e.4.3.*.| | &.=.&.+.| | -.3.:.2.-.2.2.:.*.-.-.3.3.>.-.3.-.3.>.>.-.>.-.*.-.3.3.3.3.3.3.e.3.:.*.{ [ [ | :.&.| | | | | %.{ %.[ %.%.%.[ [ %.[ %.3.%.%.4.%.4.L L [ [ L 3.[ 3.{ | | { | | %.&.*.*.*.*.:.%.%.[ :.:.3.4.4.4.:.%.L | %.*.%.%.%.&.*.%.%.| &.&.%.:.%.%.%.:.;.:.4.;.;.;.;.>.;.-.>.>.,.>.,.:.:.:.:.:.3.%.3.%.4.3.3.%.:.3.3.3.3.:.4.:.>.,.>.e.7.>.e.e.e.e.e.e.4.u.u.4.4.4.u.e.u.e.4.e.u.7.e.e.e.e.,.e.u.u.u.u.t.r.u.h.;.;.&.-.3.,.>.,.>.,.,.>.e.>.>.>.>.6.>.>.7.>.>.e.4.>.,.>.>.>.-.;.:.3.:.:.:.3.:.:.3.:.4.4.4.3.:.&.",
"%.3.:.:.3.:.4.4.e.u.u.a.h.h.h.h.h.h.h.p.h.h.h.j.j.j.j.j.h.h.h.h.h.i.h.i.i.h.i.h.j.j.j.j.h.h.h.h.k.h.h.a.h.k.h.a.f.h.a.h.a.h.h.a.d.j.j.j.h.i.a.j.h.h.i.h.h.p.h.h.p.k.h.a.p.p.y.r.r.s.h.h.i.j.j.j.j.j.h.i.j.i.j.i.j.j.i.j.h.h.i.i.i.i.a.a.a.a.a.i.p.d.a.e.;.&.&.%.| | { | | | | [ [ ` [ [ %.| | %.&.&.&.&.&.+.{ [ | K ` | | L [ *.:.3.3.3.i.i.4.i.4.4.d.d.4.d.4.j.u.a.j.a.d.d.a.a.i.a.d.j.j.l.j.d.a.u.u.a.a.j.d.a.j.d.d.d.j.a.a.a.a.a.a.a.a.g.a.h.a.a.a.r.r.r.u.i.r.a.a.d.a.d.l.g.j.j.d.d.d.i.i.i.4.4.4.d.d.s.4.4.4.4.4.4.3.3.4.3.3.3.3.3.3.2.*.| *.*.@.| | &.| | @.+.&.&.@.&.*.&.*.-.-.2.3.2.3.3.3.3.3.3.>.:.*.*.*.:.:.-.-.>.>.>.&.*.%.{ { | %.&.&.%.%.| %.%.%.{ %.%.[ 4.4.[ %.%.[ %.%.3.4.%.%.%.3.[ 3.[ 3.3.4.3.%.&.&.&.&.%.&.&.;.*.*.%.%.:.%.%.:.4.3.4.4.4.4.:.>.3.4.3.:.*.*.3.&.&.&.&.:.%.%.:.&.:.:.:.:.,.,.*.;.6.>.>.>.>.6.>.:.,.>.>.3.>.:.:.%.%.4.3.3.4.3.3.:.3.3.3.3.3.:.:.>.e.,.>.>.7.7.e.7.4.u.4.e.7.7.e.4.h.4.i.e.u.,.e.7.7.7.u.7.u.e.e.p.u.7.e.p.p.p.p.&.&.;.;.>.;.>.>.,.>.>.>.7.>.7.>.,.>.7.e.4.>.7.e.7.e.e.7.,.>.>.>.:.:.:.3.:.4.3.3.:.:.4.4.4.3.:.:.",
"3.%.:.:.4.4.i.i.h.h.j.j.h.i.h.i.a.h.h.h.h.a.h.h.j.j.j.j.i.h.h.h.h.h.h.h.i.h.h.i.j.j.j.j.h.u.h.h.p.h.h.h.h.p.h.k.k.a.h.k.a.h.k.a.i.j.j.i.j.j.h.h.h.h.h.h.h.h.h.h.h.k.a.a.a.t.r.r.4.i.4.h.j.j.j.v.j.j.j.h.j.j.i.j.i.j.h.i.j.j.i.i.d.a.a.a.a.a.j.a.a.a.e.:.........%.%.| | | | [ [ [ [ [ | | | %.%.&.&.&.&.{ { [ [ ` { | &.+.[ L [ [ [ { 2.4.4.4.4.4.d.4.4.d.4.4.4.e.a.d.d.d.d.a.a.a.a.d.d.d.d.d.d.a.r.e.e.a.d.d.d.a.j.j.d.j.j.j.a.h.a.a.a.h.a.g.a.a.p.a.u.u.u.a.a.u.a.a.a.a.a.a.d.z.d.d.s.i.i.i.4.d.4.4.4.4.4.4.d.4.s.4.4.3.4.4.4.2.9.9.3.-.=.*.-.3.-.+.| +.&.3.>.&.*.*.&.*.*.*.*.*.*.:.:.3.:.2.3.3.3.3.3.3.>.>.*.-.*.&.&.&.&.%.| %.| %.%.*.*.%.%.%.| %.%.&.&.&.&.%.4.%.%.%.3.3.%.%.4.4.%.%.3.%.%.3.3.2.3.3.4.[ 3.>.>.>.;.>.>.:.:.:.;.:.:.:.:.3.:.%.%.3.3.4.3.4.4.%.{ | %.*.:.*.%.&.%.*.&.%.:.&.&.&.%.%.:.:.4.,.:.>.>.;.>.;.>.>.7.>.>.4.>.,.,.4.;.%.3.3.3.4.4.4.[ :.:.:.3.4.3.4.4.7.,.e.>.7.,.,.,.e.e.4.u.e.e.e.u.4.u.4.4.4.7.4.4.u.e.e.e.e.u.e.7.p.e.e.u.k.p.;.;.{ &.>.;.-.;.,.;.>.6.>.,.>.>.>.,.>.,.4.,.e.,.4.7.e.e.,.>.>.;.;.>.:.4.:.3.:.3.3.4.4.3.4.4.3.3.:.&.",
"3.3.%.4.4.i.i.j.u.i.h.i.h.h.h.u.h.h.h.h.h.h.h.h.j.j.j.j.i.h.h.h.i.h.h.i.i.h.h.h.j.j.j.j.h.j.h.h.h.h.p.a.h.h.a.h.h.a.h.h.h.h.a.h.j.j.j.d.a.j.h.j.a.h.a.h.h.h.h.h.h.a.k.a.a.a.r.e.4.r.r.i.v.j.j.j.j.j.j.j.i.j.h.j.i.i.i.i.i.i.i.u.a.a.a.p.a.a.a.a.e.9.:...{ ..&.{ *.*.*.=.&.&.| | { { | | %.| | %.%.| %.{ { [ [ [ ` { | %.%.&.| { [ %.%.%.3.4.4.a.i.4.a.4.4.d.4.4.e.u.d.d.a.d.d.i.a.a.a.a.d.d.a.a.a.r.e.e.u.a.j.d.j.a.j.d.d.d.a.a.a.a.a.a.a.d.d.a.d.a.a.u.a.a.a.a.a.a.a.a.p.a.d.g.j.d.d.u.r.e.e.4.4.d.4.4.4.j.z.4.d.s.4.4.4.3.3.1.>.3.3.3.3.-.3.3.| | %.-.3.3.3.2.3.-.-.:.-.2.-.*.-.-.2.-.-.2.:.:.>.3.3.3.>.>.>.*.3.*.&.&.*.&.&.%.%.%.| %.%.%.%.%.%.%.%.&.&.&.*.;.4.%.%.%.4.%.4.%.3.3.%.%.%.%.4.4.%.4.4.4.3.3.3.[ >.,.>.,.>.4.4.>.4.3.:.:.;.:.:.%.%.3.4.4.:.4.:.4.:.*.*.*.4.4.4.:.:.*.%.*.;.&.:.%.%.;.%.%.:.,.,.;.>.;.;.;.;.>.>.7.,.,.,.,.4.,.:.;.;.;.:.:.3.4.3.3.:.:.3.4.4.4.>.4.e.4.>.e.,.e.7.7.7.e.e.e.u.e.e.e.4.4.u.u.4.u.4.4.e.e.u.e.e.e.7.e.e.p.u.p.u.4.%.' %.;.;.-.>.7.e.-.>.,.>.>.,.>.>.,.e.>.,.4.,.>.e.7.e.,.,.>.4.:.:.:.:.:.:.4.3.3.4.4.4.4.4.4.:.3.%.:.",
"3.3.4.4.i.i.i.i.i.i.h.h.h.h.h.h.u.h.h.p.u.h.h.h.j.j.j.j.h.h.h.h.h.i.i.h.h.h.h.h.v.j.h.h.h.i.i.h.h.a.k.h.h.a.l.h.h.h.h.a.a.h.h.h.j.i.j.i.h.h.a.j.h.h.h.h.h.p.p.h.k.a.a.a.a.r.r.e.4.s.r.r.j.j.i.v.j.j.j.i.j.i.i.i.j.j.j.i.i.i.u.4.u.p.a.d.a.p.t.e.3.-...[ [ ..&.&.*.*.*.*.*.*.&.&.| %.%.@.&.| | %.| { { &.&.%.+.| %.| | | %.| | &.%.%.%.&.3.4.4.4.s.d.4.a.4.4.4.d.r.p.a.a.a.d.a.a.a.r.r.r.i.i.i.i.p.i.e.r.r.a.d.j.a.d.a.d.d.j.d.d.d.a.a.d.a.h.a.a.a.a.a.a.a.a.a.a.d.a.a.r.a.a.d.l.d.d.u.u.e.4.e.4.4.4.4.j.4.4.4.4.4.d.d.4.4.4.3.3.9.3.2.3.3.3.-.+.&.-.2.2.3.3.>.-.3.-.-.&.:.*.-.&.-.&.*.*.:.&.-.-.-.3.:.:.>.-.>.:.:.*.*.*.*.-.-.&.:.*.%.%.*.%.*.%.%.%.%.%.&.;.*.%.%.4.4.%.%.%.[ %.%.%.%.%.%.4.4.4.4.%.4.4.3.4.4.:.>.>.>.7.e.>.7.>.4.4.4.:.:.:.:.%.%.%.:.4.4.:.4.:.:.3.4.:.*.%.%.%.*.*.*.%.&.&.%.&.%.%.%.;.;.>.-.;.;.>.6.;.;.;.,.>.4.e.7.e.,.4.,.;.;.,.:.,.3.[ :.[ :.*.:.4.4.>.,.e.e.3.>.,.,.e.t.e.u.e.u.e.e.7.u.e.i.4.4.4.u.4.4.4.u.,.7.e.7.7.e.7.e.u.a.u.;.&.%.%.;.;.-.;.;.,.,.>.>.>.>.>.>.,.,.>.7.,.>.7.e.e.7.e.e.4.,.>.:.:.4.4.4.3.:.3.4.4.4.4.4.4.3.4.:.:.3.%.",
"3.3.4.4.4.i.u.u.i.i.i.h.h.u.h.h.h.h.h.h.h.h.h.h.j.j.j.h.h.h.h.h.h.i.h.i.h.h.j.j.j.j.h.i.h.h.j.h.k.h.h.a.a.h.a.k.k.a.h.h.a.h.h.h.j.i.j.i.a.j.h.h.h.h.h.a.h.h.h.h.a.l.d.a.r.e.e.e.e.r.3.4.j.v.i.j.v.v.j.j.i.i.i.i.i.u.i.j.u.u.u.,.u.u.p.p.e.e.>.;.&.{ [ { | &.=.*.=.&.*.&.&.&.*.%.&.&.&.&.%.| &.&.&.&.&.&.&.&.&.*.*.| { | %.| %.%.%.[ [ %.%.3.4.4.4.4.s.4.4.i.4.i.r.i.a.d.j.a.d.i.a.u.e.e.i.s.i.i.u.u.u.r.u.u.a.d.a.d.d.j.d.d.j.d.j.d.a.a.a.h.a.a.a.a.a.a.a.a.a.a.d.a.i.a.d.d.j.a.u.y.u.e.u.4.e.4.4.j.d.4.z.4.d.s.d.4.4.4.4.4.4.4.9.9.3.3.*.&.| | 4.0.3.3.2.-.3.-.3.3.2.3.2.3.-.:.&.*.=.*.&.&.-.:.-.*.-.*.:.-.*.-.&.*.*.*.:.-.*.*.&.:.:.>.,.:.*.%.%.%.&.&.&.*.&.*.[ %.4.%.4.%.%.%.%.4.4.%.%.%.%.4.4.%.4.4.:.4.:.4.>.e.7.e.,.7.4.e.4.3.:.:.:.:.%.%.%.%.3.:.:.:.:.4.*.*.:.,.*.*.:.4.*.*.%.*.&.&.%.%.;.;.%.%.;.>.;.;.,.;.;.>.-.;.;.,.7.7.>.>.4.,.4.4.4.4.,.:.,.:.:.:.>.:.:.3.4.>.>.e.e.>.7.4.e.t.t.u.p.e.e.e.e.e.,.e.i.4.4.4.4.u.4.u.e.,.7.7.u.e.e.e.u.p.p.,.&.{ ;.>.-.>.;.;.-.;.;.;.,.>.>.,.7.,.6.,.,.>.>.7.,.e.e.,.4.4.4.>.4.,.:.:.:.4.4.4.4.4.4.4.4.4.3.:.3.:.:.:.",
"4.3.3.4.4.u.h.i.i.h.i.h.h.h.h.h.h.i.h.h.h.h.h.h.j.j.j.h.h.h.h.h.i.h.h.h.j.j.v.j.v.j.h.u.h.h.h.h.a.h.h.h.a.h.h.h.h.h.k.a.h.a.h.a.j.j.j.j.h.h.a.h.h.a.h.h.a.h.a.h.a.a.a.a.a.r.0.3.e.r.3.3.j.b.j.v.v.v.j.i.i.u.u.4.,.4.4.u.4.4.4.4.r.r.6.-.&.&.%.%...{ [ +.&.| &.-.*.*.:.-.*.*.*.*.%.2.&.&.&.&.&.&.&.=.&.+.&.&.&.&.&.&.&.| | %.%.{ [ [ %.%.%.3.4.a.4.4.4.4.4.4.4.4.r.p.j.a.d.j.a.a.u.r.r.u.i.d.i.i.r.e.u.r.e.e.e.p.a.a.a.j.d.j.d.d.j.j.a.j.a.a.a.a.a.i.a.a.d.a.a.u.a.a.i.a.j.d.a.u.r.r.u.u.e.u.e.e.4.4.4.4.j.4.4.d.4.s.d.4.4.4.4.4.3.9.r.9.@.| =.3.3.3.3.3.>.3.3.3.3.3.-.&.:.:.-.*.&.&.&.&.*.-.*.-.:.:.3.:.:.:.:.>.:.:.:.2.:.*.:.&.:.:.:.:.:.:.:.:.%.&.%.%.*.*.*.%.4.%.%.%.4.%.4.%.%.%.[ 3.3.;.%.%.4.4.4.4.4.4.4.4.,.e.>.>.,.>.7.>.4.3.3.:.:.%.%.%.:.:.:.3.4.4.4.:.4.:.:.*.:.:.*.%.*.%.*.%.&.&.%.%.%...&.&.&.;.;.>.;.>.,.;.>.>.,.>.;.>.;.-.;.,.4.,.:.4.,.:.:.:.:.:.3.:.:.4.4.>.>.e.4.e.>.,.4.e.u.u.u.u.u.u.7.u.,.e.4.4.u.u.4.4.u.4.e.u.e.e.u.u.h.u.p.u.4.:.%.%.;.;.>.>.6.>.,.-.>.,.>.7.7.7.7.e.e.e.,.7.>.>.e.e.e.>.4.4.,.,.:.,.4.:.4.:.3.3.4.4.4.4.4.4.3.3.:.:.3.4.",
"4.3.4.4.4.4.i.i.4.h.i.h.h.i.i.j.j.j.h.h.j.i.j.j.j.i.d.d.d.d.a.i.k.a.h.h.k.l.z.l.j.j.j.j.j.a.d.j.i.j.j.a.j.j.j.j.j.j.a.l.a.a.g.h.j.i.i.j.d.j.i.j.d.j.d.h.d.a.j.h.j.j.d.d.4.4.0.4.s.0.2.2.d.g.m.s.j.d.d.d.r.4.4.4.3.:.&.:.>.4.>.>.:.&.%.{ &.%...{ | | | | &.&.*.*.&.*.=.&.:.*.&.| %.&.&.+.&.&.=.&.*.*.*.*.*.:.*.:.:.=.&.&.&.&.| | %.{ %.{ [ %.4.4.4.4.4.4.4.4.4.4.4.a.i.d.d.d.d.4.a.4.i.i.i.i.s.4.r.u.i.i.i.i.4.u.j.j.j.d.4.j.j.j.j.z.j.a.h.i.a.a.h.i.h.h.h.h.h.d.j.4.j.4.d.4.d.4.4.4.d.4.r.4.4.r.4.i.r.u.r.u.a.a.j.i.4.4.4.4.4.4.3.3.3.%.| %.2.4.e.3.3.e.9.9.9.-.:.3.3.2.*.*.*.*.&.&.:.&.&.&.&.:.2.:.3.:.*.:.:.:.%.:.:.%.3.%.%.3.3.%.:.:.:.:.:.3.%.3.3.%.%.%.3.%.%.%.3.%.%.%.[ 3.%.%.3.[ %.%.4.%.4.4.4.4.;.;.4.4.>.7.4.>.e.e.,.e.4.4.:.:.;.%.[ [ [ 4.:.:.:.4.:.:.4.%.4.%.3.%.%.%.3.%.%.%.%.%.%.[ ;.&.&.&.&.:.3.3.3.:.:.:.:.:.:.:.&.*.;.:.4.4.4.4.4.4.>.>.3.3.>.,.*.:.3.3.3.3.:.3.4.4.4.4.4.4.4.u.u.u.u.u.4.u.u.u.4.4.u.u.u.u.u.i.a.r.r.a.u.r.r.a.a.,.;.&.&.&.:.e.;.>.;.,.>.>.>.;.,.,.,.,.e.4.e.,.>.e.,.e.e.e.,.,.>.7.>.>.>.,.>.,.>.6.7.e.6.6.9.e.,.3.3.:.:.:.3.3.",
"4.3.4.4.4.4.4.u.h.j.j.j.j.j.j.v.j.j.h.j.j.j.j.j.j.j.j.j.d.d.a.d.a.k.l.l.l.l.l.l.j.h.j.h.d.a.j.i.i.a.a.j.j.a.4.j.a.d.d.a.a.l.a.j.d.j.d.d.i.j.j.j.d.d.d.d.j.a.a.j.j.i.d.d.s.s.0.0.w.0.2.2.d.4.i.4.3.4.e.s.d.4.2.=.%.%.| | &.&.&.&.%.| +.{ { &.&.&.| %.%.&.&.=.&.-.:.*.=.-.*.=.&.| +.&.&.&.&.&.&.*.*.&.=.=.&.*.*.*.=.=.&.&.&.&.%.| { { %.%.| &.>.>.>.4.4.4.4.4.r.r.4.a.i.s.4.j.a.4.4.4.4.i.4.s.i.4.e.r.4.r.4.i.4.r.4.j.d.d.d.j.j.z.d.4.a.a.a.a.h.i.h.h.i.h.a.h.a.p.4.s.4.d.4.a.4.4.d.4.i.4.4.r.i.4.a.r.e.e.r.r.r.e.4.i.4.4.4.4.4.4.3.3.2.1.| 2.3.4.3.-.-.-.9.9.6.:.-.:.3.:.*.3.:.*.3.&.:.:.&.%.:.&.:.3.:.2.:.:.:.:.3.:.:.:.:.3.3.%.%.3.%.:.:.:.:.%.3.%.%.:.:.%.3.%.3.%.[ 3.%.3.3.%.3.[ [ 4.%.3.%.4.%.4.4.;.4.4.4.4.,.e.,.e.e.,.e.4.:.4.:.%.4.[ 4.3.4.:.:.%.:.:.:.:.%.3.%.3.%.%.3.3.%.%.3.%.%.3.%.%.%.;.;.;.&.;.&.3.:.:.:.3.3.3.:.:.*.*.;.3.4.4.4.4.4.4.4.4.4.4.4.3.4.:.:.*.3.4.4.4.4.4.4.4.3.4.4.r.4.4.4.,.,.u.u.u.u.i.u.u.u.u.i.i.a.i.p.a.a.a.p.a.e.;.%.%.;.;.:.,.,.,.>.>.;.>.,.,.,.,.e.e.7.u.,.u.,.e.4.,.,.4.e.>.e.,.7.,.,.>.>.,.6.6.6.>.>.>.-.>.>.4.4.4.3.:.&.3.",
"4.4.4.4.u.u.u.i.h.4.h.h.j.j.h.h.j.h.h.j.j.j.j.j.j.i.j.4.d.d.j.a.a.k.l.v.v.l.l.l.j.j.a.j.z.j.j.j.j.j.a.a.a.j.z.j.a.j.a.j.a.a.g.h.i.i.d.j.j.j.4.j.d.j.j.a.d.a.j.a.z.4.d.d.s.4.s.0.w.0.2.3.j.3.2.3.%.&.>.e.r.9.*.| { | | | { | | | { { %.{ | +.&.&.&.&.&.&.&.&.&.&.*.*.&.:.&.&.%.| &.&.&.&.&.&.&.&.&.&.&.-.*.*.*.*.&.*.&.*.*.*.*.&.%.%.{ %.%.%.%.:.:.3.>.3.4.4.4.4.r.r.r.r.i.4.4.4.s.4.4.4.4.i.4.4.e.r.4.u.u.4.i.r.d.4.4.d.d.z.4.4.i.j.a.a.h.h.a.a.i.h.p.h.h.p.i.p.4.i.a.4.d.4.4.d.4.4.i.4.r.4.r.4.r.r.r.r.r.r.r.r.4.4.4.4.4.i.4.4.3.1.[ | 2.2.3.3.9.-.&.=.>.9.-.=.*.2.3.:.2.3.*.*.&.&.&.:.:.&.:.:.:.:.3.:.:.:.3.:.:.:.:.:.3.:.:.:.:.:.3.%.3.:.3.%.%.:.:.:.3.%.%.%.3.%.3.%.%.%.3.%.%.4.3.%.%.%.%.4.4.4.4.4.,.4.4.4.e.>.3.e.>.7.,.e.4.:.%.4.3.[ [ :.3.%.4.3.4.3.4.[ 3.%.%.%.%.3.3.%.%.3.%.%.%.3.%.3.&.;.-.;.:.&.&.;.%.:.:.:.:.:.:.&.%.*.*.:.:.4.4.4.r.4.4.4.4.4.4.4.4.3.:.:.4.4.4.4.4.4.4.4.e.4.4.r.u.u.u.u.i.u.4.4.i.i.u.u.u.u.i.i.a.a.i.u.i.a.p.u.,.&.&.&.;.-.;.>.>.>.>.>.,.,.,.e.,.4.,.e.e.e.4.4.e.7.e.e.7.e.,.,.e.,.4.3.,.,.>.>.6.6.>.;.;.;.-.>.>.>.,.>.:.:.3.4.",
"4.4.4.u.u.4.u.i.i.h.h.v.j.j.j.j.h.h.j.h.i.j.j.j.j.j.j.j.4.j.j.j.k.a.l.l.l.l.h.a.d.j.j.h.4.j.a.a.d.i.j.a.d.a.d.j.d.d.d.a.a.h.a.a.j.d.d.i.j.4.j.j.j.a.d.d.d.d.a.j.l.d.j.s.s.4.0.0.0.0.4.1.z.3.*.3.-.*.-.3.3.*.| | { [ { { { { { | | | &.&.&.&.=.;.:.-.:.&.&.&.&.&.*.*.&.&.&.&.&.&.&.&.*.&.&.@.&.&.*.*.&.&.*.*.>.:.-.&.:.-.:.*.*.*.%.%.| %.;.{ { >.3.:.:.:.4.4.4.4.4.4.4.4.4.4.s.4.4.4.i.4.4.i.4.i.4.u.r.4.r.r.u.4.4.4.d.d.d.4.z.j.i.i.i.a.i.h.h.a.h.p.a.i.i.i.i.i.d.4.d.a.4.d.d.4.a.s.4.d.r.r.r.4.3.r.i.u.r.e.u.a.i.i.4.4.4.4.4.4.3.[ [ [ 2.3.3.4.9.3.=.=.>.>.:.=.-.:.2.2.*.*.3.*.3.&.&.%.%.:.:.&.:.:.:.:.:.:.3.:.3.%.3.:.%.3.:.:.:.3.%.3.%.3.%.3.:.%.:.%.%.%.3.%.%.%.%.%.3.%.[ 3.%.[ 3.%.4.%.%.%.4.;.4.4.,.:.4.:.,.>.e.,.e.>.>.,.4.:.3.%.3.4.4.%.3.4.%.3.3.[ [ 4.4.%.3.%.%.%.%.%.%.%.3.%.%.%.%.:.:.:.-.:.:.;.&.&.%.%.%.%.%.%.%.:.%.%.%.*.&.*.:.3.4.4.4.4.4.4.4.4.4.4.4.4.4.4.4.4.4.4.4.4.4.4.4.4.4.4.4.4.u.u.i.j.i.u.u.u.u.u.i.u.r.r.u.r.r.a.r.,.;.%.&.;.:.;.;.>.,.;.;.>.>.,.>.,.,.e.,.u.e.e.4.,.e.e.e.7.4.e.>.,.e.e.,.,.,.>.,.>.>.>.6.>.>.>.>.6.>.>.:.*.:.3.4.4.",
"4.h.4.4.4.4.4.i.p.h.j.j.h.h.j.l.h.h.j.j.j.h.j.i.d.d.d.d.z.d.d.d.f.k.l.l.l.l.a.h.a.h.j.a.h.a.j.a.d.a.j.a.a.d.a.j.d.d.a.a.a.a.a.a.a.j.j.a.4.d.4.z.j.d.d.d.d.a.j.a.j.j.4.z.4.4.4.w.0.3.3.} 4.3.3.3.9.9.3.-.%.| | ` ` [ { { [ [ | { | %.| &.&.:.*.&.-.&.*.&.&.&.&.&.&.&.&.&.&.&.&.&.&.&.*.*.-.&.&.&.-.&.*.*.-.:.-.*.:.:.:.*.*.*.*.=.%.%.%.[ %.[ %.4.>.:.:.4.3.4.4.4.4.4.4.4.4.4.4.4.4.i.4.4.4.4.4.i.4.r.r.4.4.r.r.4.r.4.s.i.i.d.i.d.j.i.i.i.a.j.d.j.a.a.a.a.i.u.a.u.i.i.i.4.r.r.r.r.4.a.i.s.4.i.4.r.4.r.r.r.e.e.r.r.4.4.4.4.3.3.[ 3.[ [ 1.2.:.*.2.3.3.-.*.*.;.6.>.6.:.-.-.*.*.2.:.*.&.&.%.%.&.:.*.:.&.:.*.:.:.*.:.3.3.:.3.:.:.:.:.:.:.%.3.%.:.%.%.%.:.:.%.3.3.:.%.%.%.3.%.3.%.%.%.%.3.[ [ 3.[ %.%.3.:.:.,.4.;.4.4.4.,.3.4.4.,.e.>.6.:.4.%.3.4.3.%.4.3.4.[ 4.4.[ 4.[ %.%.3.%.%.%.3.3.%.%.%.3.%.:.:.%.:.:.*.*.*.&.&.&.&.&.[ %.%.%.%.%.| { %.[ L %.%.&.*.*.:.>.3.>.4.3.3.4.4.4.:.3.3.3.:.>.>.,.3.3.>.3.4.4.:.:.:.4.4.4.4.4.u.i.u.u.u.4.e.r.r.e.u.u.,.:.%.%.;.;.;.:.;.,.>.;.,.>.,.,.4.e.4.e.e.e.4.4.u.h.t.e.e.e.e.,.>.4.e.,.>.,.,.>.,.>.;.>.6.>.>.6.6.>.:.3.4.4.3.4.4.i.",
"4.4.i.4.4.i.h.j.a.h.j.j.a.h.a.a.h.h.j.i.i.j.j.j.j.j.d.d.j.j.j.j.l.l.k.g.a.g.k.k.d.a.a.d.a.a.i.d.i.a.a.d.a.j.d.a.j.d.a.h.a.d.a.d.a.a.a.a.z.d.a.a.a.d.a.j.d.d.j.d.j.d.j.j.4.4.s.4.0.3.2.[ 2.3.3.3.r.a.9.-.| { ` ` ` { { { | { | | { +.{ &.-.>.:.*.&.*.&.-.&.&.&.%.%.&.=.*.=.&.*.&.&.*.*.-.*.&.-.*.-.:.:.&.:.*.:.*.-.:.:.*.*.*.*.&.%.%.%.| %.{ *.4.4.4.:.3.4.4.4.4.4.4.4.4.4.4.4.4.4.4.i.s.i.4.s.i.r.4.4.r.r.4.4.r.i.4.4.i.i.4.r.d.j.j.j.4.i.d.j.d.a.a.i.u.u.u.i.i.s.i.i.s.r.e.e.r.4.4.4.r.r.r.y.4.r.r.4.e.i.a.r.4.3.3.3.[ [ %.3.%.[ 2.%.3.2.*.3.3.-.-.-.>.-.-.-.>.:.3.-.&.%.3.3.*.&.*.%.%.&.;.&.&.&.&.:.*.*.:.:.:.%.3.%.3.:.:.:.3.%.3.%.3.%.:.3.%.%.%.:.%.%.:.%.3.%.%.%.%.3.%.3.%.[ 3.3.%.[ 3.3.%.:.,.:.:.4.4.4.4.9.,.,.6.>.>.6.>.4.4.3.%.[ 3.4.%.[ 4.4.%.[ 3.%.3.3.%.4.%.3.%.%.%.%.3.%.%.3.%.:.3.:.&.%.*.&.&.&.&.%.[ %.{ %.%.%.L [ [ L [ [ L %.&.%.%.*.*.:.:.:.:.4.:.4.;.&.%.*.:.:.:.:.>.3.>.:.>.i.:.:.%.%.%.%.%.;.;.4.4.u.u.u.u.e.r.r.u.e.e.;.;.%.;.-.;.-.;.>.e.>.>.>.,.>.,.e.7.7.e.e.7.u.4.4.4.e.e.e.,.,.,.,.,.4.,.7.,.,.7.>.>.>.6.>.>.>.>.>.>.%.;.4.4.4.4.4.4.",
"i.a.4.h.h.i.j.j.h.h.h.a.a.j.j.h.h.h.i.h.j.j.j.j.d.d.d.d.d.d.j.z.l.f.l.d.h.a.f.a.a.h.a.a.a.a.j.a.d.i.d.i.i.d.d.a.j.a.j.a.j.a.a.a.a.a.i.d.a.d.a.a.d.a.d.j.d.j.j.d.j.j.j.z.s.4.4.0.r.9.4.2.| 4.3.3.a.e.3.*.| | [ ` { { | | +.&.&.&.&.&.&.&.:.-.:.-.&.&.&.*.-.&.&.@.&.&.*.*.*.&.&.*.&.*.*.-.:.:.-.-.:.:.>.-.:.-.:.:.-.:.-.>.*.*.*.*.%.%.{ %.{ %.*.%.4.4.4.4.4.4.4.4.4.r.s.4.4.4.4.4.4.4.i.i.4.4.4.4.r.4.r.4.4.r.r.4.4.4.4.s.4.4.4.a.h.j.i.a.a.d.a.d.a.u.u.r.r.u.i.i.i.r.r.r.r.r.e.e.i.4.i.r.4.4.r.y.0.4.e.e.e.e.3.:.[ 3.1.[ 3.[ 3.[ [ 3.3.3.:.:.:.2.2.3.3.3.-.-.-.;.:.-.-.&.&.2.3.*.&.*.%.&.&.;.*.&.&.:.:.:.*.*.*.:.:.:.:.:.:.:.:.%.3.%.3.%.:.3.%.%.3.%.%.3.3.%.3.%.%.3.%.%.%.%.%.3.4.3.[ %.3.%.3.%.:.:.:.4.,.4.,.,.7.,.e.>.,.>.6.>.4.4.[ 3.4.3.:.:.:.[ %.4.4.%.3.4.%.%.%.%.3.%.%.%.[ 3.3.%.3.:.:.:.:.;.%.&.&.%.&.%.[ %.[ %.%.%.%.[ [ [ %.{ %.%.%.;.%.%.%.%.*.*.:.,.:.3.:.*.%.%.%.%.*.:.:.:.:.*.:.*.%.%.%.%.%.:.:.:.4.%.;.:.:.:.4.u.u.u.t.e.e.-.;.&.;.;.>.,.;.>.>.>.,.>.>.,.,.,.,.e.4.7.e.4.u.,.4.4.e.e.e.,.e.>.>.7.,.4.e.,.,.,.,.,.6.6.>.>.;.>.;.;.:.4.4.4.4.i.i.i.",
"j.j.j.h.i.h.4.4.&.&.&.:.e.j.x.a.h.h.h.h.j.j.i.j.j.d.d.d.d.d.z.j.f.k.a.f.l.d.a.a.a.a.a.a.a.a.i.d.i.d.i.d.j.a.d.d.d.d.d.a.a.a.a.a.i.d.j.a.a.a.a.d.a.d.a.j.i.d.d.d.j.d.j.4.4.4.s.4.0.0.s.r.| 4.3.3.9.>.&.{ ` { | } { { { +.&.=.=.+.&.&.*.>.>.*.*.=.&.-.:.*.-.=.&.%.%.=.*.-.*.*.&.&.&.*.:.3.:.:.:.:.3.:.-.3.>.-.:.-.-.:.>.>.*.>.*.*.*.[ %.%.%.%.%.L 4.4.3.3.4.4.3.:.3.4.4.4.4.4.4.4.4.s.4.4.i.i.4.4.r.r.4.r.r.r.4.r.4.4.i.d.i.4.4.i.4.j.j.j.j.j.d.i.a.a.u.u.r.r.r.i.r.s.r.r.r.r.r.r.s.4.4.r.r.y.4.r.4.r.r.e.*.| [ { %.[ [ [ 3.%.[ 3.[ [ 2.[ *.2.3.-.-.-.>.3.>.6.>.>.-.-.-.*.%.3.*.*.%.%.&.%.&.*.%.*.&.3.:.:.:.:.:.:.:.:.:.:.3.%.3.%.%.3.%.:.%.%.%.3.:.:.3.%.%.:.%.3.4.%.4.3.%.3.%.%.%.%.3.%.[ %.%.4.,.:.;.:.,.4.:.;.>.,.>.,.6.,.>.6.4.%.3.[ :.:.:.:.:.3.4.%.%.4.[ [ 4.4.%.3.%.%.%.%.%.%.%.3.%.3.%.:.:.*.&.%.%.&.%.%.%.&.%.%.%.%.&.&.:.:.:.:.%.%.L %.%.%.%.%.%.*.*.:.:.:.*.*.&.&.%.%.%.%.%.%.%.%.%.%.%.%.[ %.%.%.%.%.%.%.%.%.%.4.,.4.u.e.e.e.e.;.&.;.>.,.;.>.4.,.,.;.>.>.,.;.,.,.4.,.e.,.e.e.4.u.4.4.e.e.e.,.,.,.,.,.,.e.>.7.>.4.4.7.6.6.>.;.>.>.>.;.4.4.4.u.u.i.i.j.",
"j.j.d.d.r.%.H I H L _ L I [ ;.u.r.p.f.g.d.d.d.g.a.d.d.d.j.j.l.d.g.f.f.a.f.a.a.a.s.i.d.a.i.s.a.a.j.d.i.a.a.a.a.j.d.d.a.d.a.h.a.a.j.i.d.a.j.a.j.j.4.j.j.d.a.h.d.j.z.j.s.d.s.r.4.s.s.s.e.2.2.4.3.%.| ` E K ` | | | | | | @.=.@.*.@.&.:.:.-.-.=.=.=.&.:.-.&.&.%.%.%.=.*.:.:.*.&.&.*.%.&.-.:.3.-.:.:.:.:.>.>.2.-.:.:.:.-.-.-.-.-.:.:.*.%.%.%.%.{ %.{ %.4.u.4.>.3.4.3.4.4.r.r.4.3.3.4.4.4.4.4.i.4.i.s.r.r.r.r.e.0.e.4.r.r.r.i.i.4.r.i.j.z.z.4.4.j.j.4.i.i.i.r.r.i.i.4.r.r.r.e.e.r.e.e.i.r.3.3.3.e.e.3.r.3.2.%.2.L [ L L [ 2.2.[ 3.[ [ 2.[ 3.3.2.3.2.3.+.=.-.-.:.:.-.6.:.-.&.-.-.-.&.&.&.*.*.*.%.%.%.:.&.:.:.&.&.3.:.:.&.:.:.:.:.:.:.:.4.%.:.:.%.%.%.:.%.:.%.:.:.:.%.:.%.3.:.:.3.%.%.3.:.%.:.%.%.:.:.:.;.;.:.-.;.>.>.3.;.;.>.,.>.>.;.:.[ 4.;.:.:.:.:.:.%.4.%.[ :.4.[ 4.%.3.%.3.%.%.%.%.%.%.3.:.%.%.3.:.&.&.&.&.%.%.%.&.&.:.:.%.%.%.:.3.:.:.3.*.%.%.&.:.&.%.%.&.&.%.%.>.%.%.3.%.%.%.%.%.%.%.%.&.%.&.%.%.%.%.%.%.%.%.%.:.%.%.%.:.:.:.:.4.4.,.,.,.>.;.;.;.;.;.e.,.>.>.,.,.,.,.,.>.,.3.7.,.4.4.4.u.4.4.4.4.e.e.4.,.,.4.e.e.,.7.,.,.,.,.e.4.>.>.7.>.;.;.,.,.i.i.u.h.h.h.h.u.",
"j.j.e.3.e.e.e.t.,.,.e.u.e.-.%.[ &.-.r.l.g.g.g.a.a.a.a.d.d.j.g.l.l.k.k.f.a.f.l.a.j.d.a.a.d.i.s.a.a.a.a.a.a.a.h.a.j.d.d.d.d.a.a.h.a.d.i.j.a.a.a.j.j.j.a.d.a.h.a.j.j.j.j.d.i.r.r.r.r.e.4.3.4.3.:.&.` _ _ | | | | | | | @.*.&.*.*.*.:.:.-.:.:.=.&.*.*.*.-.:.&.&.&.&.*.-.-.3.:.*.&.-.&.&.-.:.:.3.:.2.2.>.>.>.>.3.-.-.-.:.-.:.:.:.:.*.;.&.%.[ %.%.%.%.[ &.2.4.4.a.4.4.4.4.4.y.4.3.3.4.3.4.4.4.4.4.4.i.4.i.i.r.r.r.r.r.e.r.r.r.s.r.a.s.4.4.z.m.z.z.4.j.r.r.i.r.i.s.d.s.e.r.r.0.r.a.e.3.-.&.=.-.3.3.3.-.*.+.{ L L L [ 2.3.[ [ 2.1.3.4.3.1.3.[ 2.[ 3.3.[ -.-.>.>.-.:.>.-.:.-.=.-.*.*.&.%.%.%.*.*.%.%.*.*.:.&.:.:.:.&.:.:.:.:.:.:.:.3.%.3.:.3.%.%.3.%.3.%.%.:.3.%.:.:.3.%.:.%.:.:.:.3.%.%.:.:.:.:.:.%.:.%.&.:.;.:.:.-.;.;.>.-.:.-.>.;.;.;.4.%.%.%.:.:.:.:.3.%.4.3.[ 3.3.4.%.%.3.%.%.%.%.[ %.:.:.:.%.3.%.:.&.%.%.%.%.%.:.:.3.4.4.3.3.:.:.3.:.3.4.4.3.:.:.3.:.&.%.&.&.%.%.*.3.3.%.%.%.3.%.%.%.*.*.;.:.;.&.&.%.%.%.:.%.:.:.:.:.:.:.%.%.[ %.%.&.;.:.;.>.-.;.:.;.>.>.,.;.,.>.,.>.,.,.,.4.,.4.4.u.4.,.,.4.4.4.u.e.7.7.e.4.,.>.,.,.>.>.>.>.,.>.,.7.,.,.>.;.,.,.h.i.i.h.i.h.h.h.h.",
"j.j.e.:.e.p.a.a.r.r.t.u.r.9.=.+.&.-.-.9.e.a.a.a.a.a.d.j.d.l.j.d.f.f.k.f.f.f.g.l.d.d.d.d.d.i.a.a.a.a.a.a.a.d.a.a.j.j.a.j.d.a.h.a.j.i.a.d.a.j.a.a.d.a.d.d.d.a.d.j.j.j.j.d.d.i.s.r.r.3.:.*.+.K H K W L [ | +.+.+.&.&.=.*.*.*.*.*.*.-.:.=.:.-.:.:.&.&.&.:.*.-.-.&.-.:.:.:.:.:.&.*.*.:.:.:.2.:.:.:.-.>.>.2.>.>.:.:.:.:.-.:.-.:.:.*.:.:.*.&.%.%.%.{ { %.%.>.:.:.>.4.4.3.4.r.4.4.4.4.3.4.4.4.4.4.a.4.4.4.0.r.r.r.r.r.r.s.s.r.r.4.3.4.e.d.4.z.4.4.d.j.4.r.r.i.4.i.4.4.4.s.r.e.e.9.3.*.| | | | { | | | { [ [ ` L L 3.2.[ [ 2.3.2.3.3.[ 2.3.3.3.2.[ 1.3.[ 9.3.3.3.-.-.>.>.>.-.&.&.=.*.*.&.| | %.&.%.%.*.*.&.:.&.:.&.3.:.:.:.:.:.:.:.%.:.:.%.3.%.:.%.3.%.3.3.%.:.3.:.%.%.:.%.3.:.:.:.%.4.3.3.%.%.:.:.%.:.:.;.-.-.;.-.;.:.;.>.;.;.;.;.>.;.&.%.4.%.4.%.3.4.:.3.3.3.4.:.:.:.:.4.3.%.%.%.%.%.%.%.:.:.:.:.%.:.:.:.%.%.&.&.&.:.3.3.3.3.3.3.:.3.4.3.4.4.4.3.3.:.:.,.:.*.&.*.%.;.&.3.%.%.3.3.%.%.%.*.*.&.*.&.:.:.:.:.:.:.%.:.:.:.:.:.:.%.:.%.:.%.:.;.:.;.,.,.;.&.&.:.>.4.,.>.,.;.>.>.,.4.7.,.,.>.e.,.4.:.4.4.,.4.4.,.e.e.,.,.4.>.,.,.,.,.,.,.>.>.>.>.,.,.>.,.e.7.h.h.i.h.h.h.h.h.h.",
"a.a.u.4.r.p.y.e.e.e.r.e.e.e.y.a.r.e.6.:.:.9.e.a.d.a.j.d.d.d.d.j.l.a.f.f.a.k.a.a.d.a.i.d.a.d.d.i.h.d.a.a.a.a.j.d.d.a.d.d.j.a.a.h.i.d.a.a.a.a.j.d.a.d.d.a.a.a.a.d.4.j.z.j.j.z.j.i.s.3.3.3.*.| | &.| } | | | | | =.&.@.@.@.*.-.*.=.-.-.:.:.:.:.:.*.&.*.>.:.:.:.3.-.:.2.-.3.>.:.:.:.3.:.:.:.2.:.:.-.>.>.3.:.3.:.:.-.:.:.:.-.>.-.-.*.:.;.*.%.%.{ { [ %.*.:.:.%.%.%.3.3.4.r.4.3.4.4.:.4.4.4.4.4.4.a.4.r.r.r.4.r.r.r.e.4.4.r.4.0.r.r.r.z.z.4.4.z.4.4.4.r.r.r.r.4.4.4.4.3.3.3.3.0.0.3.2.&.+.| ` _ _ ` ` } { | 2.[ 3.3.3.3.3.3.[ [ 3.3.3.[ 3.2.2.3.3.3.3.-.3.9.>.>.-.-.>.-.-.*.*.*.*.&.&.%.| %.%.*.*.:.*.:.:.&.:.:.:.:.:.:.:.:.:.:.3.&.&.3.%.3.%.:.%.:.:.%.3.:.%.:.:.:.:.3.%.:.:.:.3.3.:.:.3.4.:.:.:.:.:.:.>.;.;.;.-.;.-.>.>.;.-.;.-.;.;.4.%.3.%.3.4.4.4.%.3.3.%.:.:.:.:.4.%.%.4.3.%.3.%.3.3.%.:.3.%.%.%.&.%.%.%.&.:.:.4.:.3.:.3.4.4.4.3.3.3.4.4.4.:.3.3.,.4.>.*.%.%.%.&.%.3.3.%.3.%.%.3.%.*.%.%.%.%.&.&.:.%.:.:.:.:.:.:.:.:.:.:.:.4.4.4.>.;.4.e.,.-.;.&.;.,.e.>.>.>.>.;.,.,.4.4.>.,.>.,.:.:.:.;.,.,.,.,.,.,.4.4.e.7.e.,.,.4.4.e.,.4.7.,.e.>.>.;.4.u.u.h.h.h.h.h.h.h.h.h.",
"l.a.r.r.p.r.e.a.>.r.a.a.0.0.t.a.r.t.r.e.0.e.y.a.a.d.l.d.l.d.g.l.k.f.f.a.a.a.a.p.a.a.a.a.a.d.d.d.i.j.a.h.a.a.d.a.d.d.d.d.a.a.a.a.d.a.a.d.i.d.a.a.a.j.d.a.a.h.a.j.z.z.d.4.l.m.s.4.%.&.&.&.%.| &.:.&.@.@.@.| | +.&.@.&.*.@.*.*.2.-.:.-.>.:.:.*.:.:.-.:.>.:.3.-.:.3.3.:.>.:.2.:.2.:.-.*.:.:.3.-.:.3.>.3.:.3.:.3.:.:.-.:.:.-.>.:.:.:.:.:.*.*.%.%.%.%.%.%.%.*.>.*.&.%.*.3.4.3.&.3.4.3.4.4.4.4.4.4.4.4.e.r.e.e.e.r.e.e.4.r.4.r.4.4.4.4.3.2.3.3.4.4.4.[ [ [ [ [ [ { { { ` | | | { | | | &.&.@.| | | &.*.| 1.%.3.3.3.3.2.3.2.3.3.3.1.[ 3.3.3.3.3.3.[ 3.3.>.3.>.3.>.>.-.-.:.-.-.=.*.*.*.*.*.%.%.%.*.:.*.*.:.&.&.:.:.:.:.&.:.:.:.:.:.&.&.:.%.%.:.:.:.:.:.:.3.%.:.:.:.%.3.%.:.:.%.3.%.:.:.4.%.:.:.:.3.%.:.:.:.-.;.>.>.;.>.;.>.;.>.>.>.>.>.>.%.4.%.3.%.%.3.3.3.3.%.3.4.%.4.%.3.4.%.3.%.3.%.4.%.3.%.%.3.%.:.%.&.%.:.&.&.&.:.:.3.:.4.4.4.4.4.4.,.4.4.4.4.4.4.3.3.4.4.*.{ | %.;.:.%.3.%.:.%.:.%.%.3.&.%.&.&.:.:.%.:.%.:.:.:.:.:.:.:.:.:.:.:.4.4.;.;.;.>.>.;.>.-.,.,.e.,.>.>.,.;.;.,.,.4.>.;.>.,.%.;.4.4.4.4.4.;.,.,.,.,.4.4.,.4.e.e.e.e.,.7.4.,.e.,.>.,.,.p.h.h.k.p.k.k.h.h.h.h.",
"l.d.a.a.d.r.e.a.e.t.y.e.y.e.0.0.e.t.a.y.e.e.p.g.s.d.l.g.d.d.l.d.f.f.f.a.a.a.a.r.i.i.r.r.r.a.s.d.a.a.a.a.d.j.a.d.j.a.j.a.j.a.j.a.i.d.a.d.a.a.a.a.i.a.a.j.a.a.d.d.j.j.j.z.l.l.4.4.*.:.>.&.&.| +.| | @.&.&.@.+.+.| +.&.@.*.*.2.2.3.>.-.;.-.-.-.:.-.-.>.>.-.>.>.>.>.3.2.>.:.>.3.:.2.*.*.-.:.:.:.-.3.3.:.2.:.:.>.3.-.:.-.3.3.>.-.>.-.*.:.:.*.*.*.%.%.[ [ [ [ %.%.;.>.%.3.3.&.%.3.4.4.4.4.4.4.4.4.4.4.4.4.e.4.r.r.e.0.s.a.4.3.*.@.| [ [ L L [ [ 1.[ [ [ [ %.[ %.| &.&.-.3.-.&.| | | | | &.&.-.-.-.:.-.%.*.2.%.2.%.%.2.3.[ [ 3.[ 3.3.3.3.[ 2.[ 3.3.[ 1.>.>.-.-.>.;.-.>.:.-.-.=.*.*.*.-.*.*.*.*.*.:.*.*.:.:.:.:.:.:.:.:.:.:.:.:.:.:.:.:.%.3.:.:.%.3.:.:.%.3.%.:.%.3.%.3.:.3.3.%.3.3.%.%.3.:.:.:.%.:.:.%.;.;.;.>.>.,.;.,.>.;.;.>.>.>.>.;.4.%.4.%.4.3.4.[ 4.4.4.4.3.4.%.4.%.%.4.%.4.%.%.3.3.%.%.3.%.:.:.%.:.%.&.:.:.:.3.3.4.4.4.4.4.4.3.3.>.4.4.4.4.4.4.4.4.4.4.*.%.| %.;.%.3.%.3.:.:.%.:.:.&.:.&.%.&.&.%.:.%.:.:.4.:.4.:.4.:.:.:.:.:.:.:.>.;.-.>.;.,.>.,.,.e.e.,.,.,.>.>.>.>.-.;.>.>.>.;.4.;.%.;.%.%.%.3.:.;.>.,.,.e.e.e.e.,.e.,.4.,.7.>.7.>.>.,.,.u.p.h.p.k.p.p.u.h.k.p.",
"a.l.d.d.l.a.e.e.p.a.e.t.a.s.a.a.t.t.0.9.9.0.a.g.a.d.z.l.l.d.d.l.f.f.f.s.g.a.a.r.d.r.s.r.y.a.a.a.d.j.a.j.a.a.d.d.j.d.a.d.a.h.a.a.d.a.a.a.a.a.a.a.d.i.d.i.d.a.d.j.d.d.z.j.j.a.4.*.%.&.&.&.&.&.&.| | | @.@.@.%.| @.| | | @.*.*.-.3.>.>.-.:.:.:.-.:.:.3.3.3.3.-.>.>.:.:.>.2.3.>.:.:.-.:.3.-.3.:.:.:.3.>.>.>.>.:.-.3.3.:.>.:.:.>.:.:.>.:.:.*.*.%.*.%.%.%.%.[ L _ | >.%.&.3.3.3.:.4.4.4.4.4.4.4.4.4.3.2.2.3.4.0.e.e.3.3.*.&.| | +.&.| <.[ L [ [ [ %.%.2.%.%.1.%.%.&.&.+.&.&.&.+.*.-.-.&.*.-.:.>.-.-.&.3.3.2.2.%.2.%.2.2.2.3.3.3.3.3.3.3.[ 3.3.3.3.3.3.-.-.>.-.>.>.-.&.*.-.-.-.-.*.-.-.:.:.*.;.;.*.*.*.%.&.:.:.:.&.:.&.:.:.:.:.&.:.&.%.%.:.%.:.:.%.%.:.3.:.3.%.:.:.3.:.3.%.3.%.%.3.:.:.:.:.3.:.%.:.:.%.-.>.>.>.>.>.>.>.;.>.;.>.,.>.;.>.%.4.%.4.4.%.3.%.3.%.4.4.3.%.3.%.4.%.%.3.4.%.4.3.%.3.:.:.3.%.%.3.:.&.&.:.:.:.:.4.4.4.4.:.3.:.:.:.>.4.3.4.4.4.4.3.4.4.4.4.-.&.%.&.%.3.:.:.:.%.:.%.%.%.%.%.%.%.&.%.%.:.:.:.:.:.:.4.:.:.:.:.4.4.4.4.>.:.;.4.,.,.,.4.e.e.e.,.;.>.>.;.>.;.;.;.;.>.>.>.4.:.4.;.%.%.;.;.;.;.,.>.,.,.4.7.,.e.,.,.>.>.e.,.4.,.e.e.,.p.p.p.k.k.k.k.k.k.h.h.",
"d.l.a.a.d.v.g.a.p.a.a.t.t.e.t.e.e.e.t.t.a.a.d.d.d.j.l.z.l.l.d.l.f.g.f.g.g.f.s.a.a.d.i.r.y.t.y.a.a.a.d.a.d.d.d.a.d.d.j.d.d.a.a.h.i.j.d.i.a.i.a.a.i.d.a.d.i.d.a.j.4.d.j.z.j.u.4.3.:.&.&.%.| | &.+.&.| | | | | +.+.| | | | &.&.-.2.>.-.-.-.:.-.:.-.-.:.:.3.>.3.3.>.:.2.:.3.3.>.:.:.:.:.:.3.3.2.3.:.>.3.>.>.>.2.:.:.-.3.-.>.>.>.-.>.:.:.>.*.*.*.&.&.&.%.%.[ [ { { { %.*.&.3.3.:.4.4.4.4.4.4.4.3.3.3.*.*.&.3.3.e.4.3.3.*.%.[ [ | %.| L ` L [ ` [ [ [ 2.[ | %.%.1.%.&.&.&.=.=.*.*.-.&.-.:.*.2.:.2.3.3.3.2.2.%.2.%.3.%.[ 3.[ 3.3.[ 3.[ 3.3.[ 3.3.3.[ 3.-.-.>.>.>.>.-.=.&.&.:.:.:.*.-.*.;.*.*.*.*.*.&.:.:.:.:.:.:.:.:.%.:.:.:.&.3.%.&.:.3.%.:.:.:.%.3.%.4.%.%.3.%.%.:.:.%.3.%.:.3.%.:.:.:.:.3.:.3.:.:.:.;.;.;.>.>.;.>.>.>.>.,.>.>.,.>.;.3.4.3.4.4.3.3.4.4.%.3.%.3.4.4.%.3.4.4.4.%.3.4.%.3.:.3.:.:.3.:.3.:.:.%.:.;.:.4.4.3.4.4.4.3.4.:.4.>.3.>.4.4.4.4.4.4.,.4.4.,.&.%.%.:.%.:.:.:.2.:.3.%.:.:.&.&.&.&.:.:.%.:.:.:.:.:.:.4.4.4.4.:.4.:.:.&.;.;.>.,.,.4.e.,.e.e.,.>.,.>.;.;.:.&.;.;.,.,.,.;.4.4.,.,.,.;.4.,.>.>.,.>.,.>.e.,.>.,.>.,.,.,.e.,.,.,.e.u.p.h.k.p.k.k.k.k.k.p.p.",
"a.l.a.l.a.k.h.a.f.p.y.y.t.t.t.a.t.u.r.r.a.h.k.l.a.l.l.v.l.h.j.l.a.f.l.g.f.a.a.f.a.y.a.y.y.y.f.f.a.j.a.a.g.a.g.a.h.a.a.a.d.a.j.a.a.j.a.a.a.j.j.a.a.d.h.a.d.d.d.j.z.d.d.z.l.e.;.&.&.&.+.&.%.&.+.&.+.| [ { | +.&.| { | +.&.&.&.*.-.=.*.&.&.&.&.&.-.>.>.3.3.9.>.>.3.:.3.3.3.3.:.:.3.3.3.3.3.:.3.:.-.:.3.:.3.>.3.>.3.:.3.-.:.:.:.:.3.-.:.-.:.-.=.*.*.*.&.%.{ { { | %.%.%.%.%.:.3.3.&.:.&.&.;.:.:.,.4.>.>.>.3.>.&.&.| &.&.+.+.{ [ [ ` [ 2.[ [ [ | | | | | %.*.*.%.| &.&.*.=.*.*.*.&.-.-.2.:.2.3.-.-.:.:.3.>.*.:.*.*.*.*.*.*.*.:.&.-.-.3.[ 3.3.3.3.3.3.3.[ 3.[ 3.3.%.%.&.3.2.3.&.3.&.:.&.&.*.&.&.&.&.:.%.4.%.4.%.3.[ 3.4.%.%.3.%.4.3.%.%.3.%.%.%.3.%.%.3.%.%.3.[ 3.3.%.%.3.:.:.:.:.3.%.3.:.%.3.3.%.:.:.;.;.;.>.>.>.>.>.7.>.>.7.>.,.>.,.3.:.4.:.4.3.4.3.3.3.%.3.%.%.3.%.3.:.3.:.4.3.3.:.:.4.3.%.3.4.:.:.%.%.%.%.>.4.e.u.e.3.>.>.7.>.>.,.>.>.7.4.e.e.e.3.e.>.e.e.,.>.&.%.%.%.%.3.%.3.3.%.:.&.%.%.&.&.%.%.3.%.3.%.3.4.4.3.4.4.4.:.4.4.:.;.;.;.:.;.,.,.,.e.,.,.4.e.,.,.>.>.;.;.:.,.4.u.u.4.4.4.4.i.4.i.4.,.>.>.>.,.,.>.7.e.;.,.,.,.,.,.,.,.t.e.7.e.u.p.h.h.h.h.h.h.h.h.h.h.",
"l.a.l.a.j.a.a.f.a.f.f.y.a.a.a.a.a.a.a.p.a.h.h.h.l.j.z.v.z.l.l.l.l.l.a.l.f.g.l.a.a.a.y.s.f.p.y.y.a.a.a.l.a.j.a.d.g.a.g.l.a.h.a.a.a.a.a.a.a.a.a.a.h.a.a.a.a.d.d.g.z.d.j.z.f.e.:.@.&.=.&.&.+.&.&.+.&.| [ } | &.+.| | +.&.=.&.&.*.*.:.:.-.*.&.&.&.=.>.>.3.9.3.9.>.>.3.2.2.*.3.3.3.2.&.:.2.*.3.2.3.3.3.:.3.:.3.:.3.-.3.>.3.>.3.3.:.-.:.:.:.:.*.*.-.*.>.*.=.&.{ | | { [ %.%.%.%.%.%.%.%.%.%.%.%.%.%.&.&.=.:.*.:.&.{ | *.*.*.-.&.&.&.%.%.[ [ [ [ { { | &.&.%.*.&.%.&.&.&.&.&.&.&.@.-.&.:.:.:.>.:.3.:.3.3.>.>.>.*.*.-.*.-.:.*.*.:.-.:.>.1.3.3.%.[ 3.3.[ 3.3.3.[ 3.[ %.3.&.&.:.&.&.3.3.3.3.*.*.:.*.&.-.&.3.%.4.%.%.%.3.%.%.%.4.%.3.%.%.3.:.%.:.%.%.3.3.%.3.%.3.[ 3.%.%.3.:.3.:.:.:.:.%.3.:.%.%.3.3.:.%.:.;.>.;.>.>.;.>.,.>.,.>.>.>.>.>.>.%.:.:.4.%.3.4.4.4.4.3.3.4.3.3.4.:.:.:.3.4.:.:.3.4.:.3.:.%.3.%.%.%.&.,.4.e.4.4.4.,.,.,.>.>.>.>.>.,.>.>.>.,.,.7.>.>.e.,.e.e.>.;.&.4.4.4.%.%.%.3.%.:.:.&.:.&.&.%.%.%.3.%.%.%.3.3.3.4.:.4.4.4.:.;.;.:.:.>.,.;.>.>.>.r.e.e.e.,.,.,.:.:.,.4.i.i.i.i.i.i.i.4.u.4.u.u.4.,.>.;.-.;.>.>.>.:.,.,.,.,.,.,.,.e.,.7.e.u.a.h.h.h.h.h.h.h.h.h.h.",
"a.j.a.j.l.a.a.a.f.a.a.a.a.a.f.f.k.l.k.h.h.a.h.k.l.k.l.v.z.v.l.l.l.a.f.k.a.f.f.g.y.y.a.y.p.s.y.f.a.a.a.a.l.a.j.a.a.a.g.a.a.k.h.a.a.a.a.a.a.a.a.a.a.a.d.a.a.d.j.g.j.d.j.z.f.e.;.&.>.:.&.| &.| | +.&.| } | +.+.&.| | &.=.&.&.-.-.-.3.-.3.*.-.&.=.=.>.>.3.3.>.3.3.>.3.3.3.3.:.3.3.:.3.3.3.3.3.:.3.:.2.:.:.2.:.3.3.3.-.3.>.-.:.3.3.:.:.:.:.-.:.-.:.*.>.>.*.*.%.| | | %.%.%.%.[ %.%.%.:.:.;.&.%.%.%.*.&.| &.&.&.+.&.&.*.&.:.:.:.=.&.+.| [ [ | { [ { %.2.*.*.&.&.%.&.&.&.&.&.&.&.&.&.-.:.:.:.3.:.:.-.3.>.>.>.-.>.*.-.:.:.:.-.:.-.-.:.:.3.3.3.[ 3.[ 3.[ 3.3.[ 3.3.[ %.3.&.3.3.&.:.3.&.&.:.*.*.*.:.-.-.&.%.3.3.%.4.%.%.4.3.%.%.4.%.%.4.%.3.%.%.%.3.[ 3.%.%.%.%.3.4.%.%.3.:.%.3.%.%.:.%.%.:.%.:.3.:.:.%.:.>.>.;.>.>.;.>.,.>.,.;.>.>.,.>.e.4.4.4.:.3.3.4.4.4.4.%.3.%.3.%.4.:.4.4.:.3.3.:.:.3.4.:.:.3.%.%.%.:.;.4.i.u.e.e.4.>.7.,.,.7.,.>.,.7.7.,.>.7.e.e.e.,.4.4.t.r.e.4.>.3.4.3.%.[ 3.[ %.;.&.*.&.%.2.%.3.%.3.%.3.%.3.3.3.4.4.4.4.4.,.;.:.>.;.>.;.;.:.;.,.4.7.4.4.4.4.;.>.,.4.i.i.i.i.i.i.i.i.i.i.i.u.u.u.e.7.>.,.3.>.>.;.,.:.,.;.,.,.,.,.,.7.e.u.a.h.j.j.j.j.h.h.h.h.u.h.",
"h.j.l.a.l.a.k.a.a.f.a.a.f.s.f.k.a.h.h.h.a.a.h.k.l.a.h.l.v.z.l.l.k.l.a.k.a.f.a.g.f.f.p.s.y.f.y.p.a.d.d.a.d.d.a.d.j.g.a.j.a.a.a.a.p.a.a.a.a.a.a.a.a.d.a.a.a.a.d.d.l.j.j.z.a.9.:.&.-.-.&.=.2.| &.&.+.| | | +.%.| | &.&.-.-.*.&.-.:.*.-.:.:.-.:.:.:.>.9.3.3.9.>.3.>.:.3.3.:.3.3.>.>.2.3.:.3.3.3.>.>.3.3.:.:.:.-.-.:.>.>.:.3.3.:.-.3.:.-.:.*.:.:.-.=.*.*.>.*.*.&.| %.%.%.%.%.L %.%.%.:.&.*.&.%.%.%.%.%.| %.| %.| | &.&.:.:.:.&.&.| { | [ | [ [ { { | %.*.*.*.*.@.&.&.| &.&.&.&.&.*.*.:.>.2.:.-.3.:.:.:.>.>.>.>.*.:.*.-.-.:.*.*.:.*.:.3.[ 3.3.3.[ 3.1.[ 3.3.3.3.3.3.[ &.%.3.&.&.3.3.&.*.&.*.&.&.&.&.*.%.%.%.3.%.4.%.3.%.4.3.4.%.4.%.4.%.%.3.%.%.%.%.%.%.3.3.%.%.%.3.%.:.:.%.3.3.:.:.:.%.3.%.3.:.:.3.:.6.>.,.>.>.>.>.;.;.>.,.>.>.>.>.,.4.4.4.4.3.3.3.3.%.3.%.3.3.4.%.3.4.:.3.4.:.3.:.4.%.%.3.4.4.3.%.%.4.4.4.4.e.e.t.e.e.7.e.e.e.e.e.e.r.e.e.e.e.,.e.e.e.,.>.>.7.e.e.e.%.%.%.3.3.%.3.%.&.%.*.*.&.%.:.%.3.%.3.%.%.3.%.3.4.4.4.4.:.:.:.:.4.4.>.,.,.;.:.;.>.,.,.,.,.;.>.,.4.4.i.i.i.u.u.i.i.i.i.4.u.4.u.4.r.e.e.e.>.,.,.e.4.4.,.,.,.,.,.,.e.e.e.a.h.j.j.h.h.h.h.h.u.u.h.u.",
"h.h.j.l.a.j.h.a.f.f.a.f.f.a.f.a.a.h.h.h.a.a.h.k.k.h.a.l.l.l.l.h.k.a.a.a.a.a.a.a.y.p.y.y.f.y.a.s.a.a.d.d.a.j.d.j.a.d.a.a.a.d.a.d.a.a.a.a.a.d.a.d.h.h.a.a.d.d.d.d.l.l.l.l.a.3.&.;.:.2.2.%.&.&.&.| | | | | %.@.| | &.*.-.*.=.-.-.-.*.-.:.>.:.-.-.>.>.>.9.9.3.3.3.4.3.3.:.3.>.>.3.3.&.3.3.:.3.>.>.>.3.>.:.:.-.:.3.-.2.:.-.3.-.:.:.>.-.>.:.-.:.:.*.*.*.:.-.:.:.&.&.&.%.%.%.%.%.%.%.%.%.%.%.%.%.%.%.{ { { %.| | | | | :.:.:.:.*.&.| { | | [ [ [ | { { | %.&.*.*.*.%.&.&.&.&.&.&.&.*.:.:.:.:.2.>.:.:.3.-.:.3.3.>.*.*.:.*.:.*.:.*.:.:.-.[ 3.[ 3.[ 3.[ 3.3.%.3.%.[ %.2.%.%.3.&.3.2.%.3.%.*.*.&.*.*.&.&.*.4.%.3.%.4.%.3.%.3.%.4.%.4.%.%.[ %.%.3.%.%.%.3.%.%.3.%.%.%.%.4.%.:.&.:.%.:.:.:.:.3.:.3.3.:.:.:.3.>.>.>.>.>.>.>.>.7.>.>.>.>.7.e.4.4.4.4.4.4.4.4.3.4.%.3.4.%.4.3.%.4.3.4.4.3.:.3.:.4.:.4.4.:.%.:.3.u.e.e.,.7.e.r.r.e.e.e.e.e.t.e.e.e.e.,.,.>.7.,.,.e.>.>.7.3.7.e.7.3.4.4.[ [ [ 3.3.&.*.*.&.&.&.=.;.%.3.3.%.3.3.%.4.4.4.4.:.4.4.,.4.e.e.e.e.,.e.e.e.e.e.e.4.,.,.;.>.u.u.u.h.h.4.h.h.i.u.u.u.u.u.u.4.e.e.t.,.;.>.e.u.i.4.4.4.,.,.,.;.e.p.p.a.j.j.h.h.h.h.h.u.h.u.u.h.",
"g.h.l.a.l.h.a.l.h.a.a.a.a.p.a.a.a.h.h.h.h.h.a.h.k.a.a.h.j.l.j.h.h.a.a.a.a.a.a.a.y.f.f.y.s.p.y.f.a.d.j.a.d.j.d.a.l.a.a.d.a.h.j.a.d.a.d.j.j.a.j.d.a.a.a.d.d.d.j.l.g.l.l.z.r.-.&.-.%.%.2.3.2.*.%.1.| | | | | | &.@.@.*.*.*.*.&.&.-.>.:.3.:.:.:.>.>.>.>.3.>.3.3.9.3.3.3.3.3.3.>.>.>.3.3.3.3.>.6.3.>.>.>.>.>.-.:.:.:.>.2.:.:.-.*.-.:.>.>.>.*.*.-.-.*.:.>.>.>.:.:.=.=.;.&.&.&.%.%.%.%.:.%.&.:.*.*.%.%.{ %.&.=.&.&.&.| :.=.=.-.&.&.&.{ [ 1.2.[ ` | { [ | %.*.&.2.*.*.&.&.&.*.&.&.&.*.:.:.:.2.:.:.>.-.3.3.-.3.:.>.*.:.:.:.*.*.*.-.:.*.:.[ 3.3.3.[ 1.3.[ %.3.%.3.3.3.3.3.3.&.3.&.:.3.3.3.*.*.*.:.:.-.:.:.%.4.%.3.%.3.%.3.%.3.%.4.%.3.%.4.%.3.[ 3.%.%.%.%.%.%.4.4.4.%.4.%.%.3.3.:.:.3.:.%.%.3.:.4.:.3.3.4.;.>.>.6.,.>.7.e.7.7.>.,.>.,.>.e.4.4.4.4.4.4.4.4.4.4.4.:.4.%.%.4.:.:.3.:.3.3.:.3.3.4.4.3.:.%.4.4.u.e.e.e.e.u.e.e.e.7.u.e.e.e.e.e.,.7.>.>.>.>.>.>.,.4.e.,.e.,.e.e.4.4.4.[ %.3.%.[ &.*.;.*.:.*.&.;.%.%.%.3.%.%.%.4.4.4.:.4.3.4.4.4.4.u.u.u.e.e.e.p.e.u.e.e.e.e.r.u.u.h.u.u.h.h.4.,.i.i.i.u.u.u.u.u.u.u.u.e.4.4.u.a.h.u.h.u.,.u.u.u.u.u.p.a.h.a.p.h.h.h.h.h.u.h.u.h.",
"a.h.h.j.a.l.l.a.a.h.k.a.a.f.f.a.h.h.h.h.h.h.a.h.j.h.h.h.l.j.h.h.a.h.a.a.p.a.p.h.p.a.a.p.p.p.f.p.a.g.a.l.d.d.d.j.j.d.a.a.a.a.a.d.d.j.d.a.d.d.a.d.d.a.j.j.j.l.g.l.l.g.z.d.r.-.&.;.3.%.2.%.%.2.2.%.| &.&.@.@.%.&.&.&.*.*.*.-.*.-.3.-.>.-.-.:.-.-.>.>.3.3.3.3.3.9.9.3.3.3.:.4.>.:.3.3.3.3.3.>.>.>.6.3.3.:.:.3.:.:.-.:.:.:.:.:.-.:.:.-.:.:.-.-.-.>.*.-.-.-.-.*.&.:.-.:.:.:.:.:.%.%.&.:.%.%.&.%.%.%.[ &.&.*.&.&.*.-.&.=.&.&.&.&.| | &.%.%.%.[ [ | { { | %.*.:.*.*.*.&.&.-.=.&.&.&.&.:.2.:.3.3.3.3.:.:.-.>.3.-.2.>.:.-.&.*.=.=.-.&.&.:.3.3.[ [ 3.3.3.3.%.3.3.%.2.3.%.3.3.3.3.3.3.%.3.%.:.:.-.-.-.:.:.:.4.%.4.%.3.%.4.%.4.%.%.4.4.%.3.%.%.3.%.%.%.%.3.3.4.%.%.%.%.3.%.4.3.%.:.:.:.:.:.3.:.3.:.:.:.3.3.%.;.>.,.7.>.7.,.,.e.,.7.7.6.4.4.4.4.4.4.4.4.4.4.i.4.4.:.4.%.3.%.3.3.4.3.3.:.3.:.3.3.:.3.:.:.:.4.u.r.e.t.e.u.e.7.e.e.e.e.e.e.e.e.7.e.>.>.6.>.7.7.>.7.,.e.,.,.e.e.e.4.4.4.4.4.%.3.[ ;.%.&.&.&.:.;.&.%.%.3.%.%.%.%.4.4.:.4.:.%.4.u.4.4.e.e.7.e.e.p.u.e.e.e.u.u.u.p.a.h.4.4.,.4.h.,.h.h.i.i.i.i.u.u.u.p.p.u.u.u.u.p.p.u.u.4.u.u.u.u.u.u.u.p.p.a.a.a.p.u.u.h.u.h.h.h.h.",
"j.h.h.l.l.h.k.k.k.a.h.f.f.a.h.p.a.a.a.a.a.h.h.a.h.h.a.h.h.a.h.h.h.a.k.h.a.h.a.a.f.p.a.s.f.y.y.f.a.a.a.d.j.d.d.d.d.j.a.j.a.a.g.a.d.a.d.j.j.a.d.d.a.a.d.l.g.l.l.l.g.l.j.d.e.:.&.-.&.3.%.%.2.%.2.%.+.&.=.&.&.| @.*.@.&.-.-.-.*.-.:.:.>.:.*.:.:.>.3.>.>.3.3.>.3.9.e.3.:.3.3.>.3.3.3.:.:.3.:.9.>.>.>.>.>.3.>.:.-.-.:.2.:.:.2.:.-.3.:.*.:.:.:.:.>.-.>.:.:.*.*.=.*.:.:.:.&.%.:.:.:.:.&.%.&.:.&.%.%.%.*.| &.*.&.&.*.&.&.&.&.&.| | | | | %.%.[ | | [ { | *.:.>.2.*.3.*.*.-.&.*.&.+.&.&.*.:.:.-.:.:.:.3.:.:.:.>.3.:.2.:.:.=.*.&.&.&.&.-.-.3.[ 3.1.3.[ [ 3.%.3.%.3.%.%.3.%.%.3.3.%.3.3.2.3.*.*.:.*.*.:.-.2.%.4.%.4.%.3.%.3.%.%.3.%.%.3.%.%.%.%.%.%.%.%.[ %.4.%.3.%.%.%.%.%.&.:.:.:.:.3.:.3.:.:.%.:.:.4.%.3.>.>.>.7.e.,.>.-.e.e.>.e.,.>.e.e.4.4.4.4.4.4.4.4.3.4.4.:.4.[ 4.[ %.:.3.3.:.:.3.3.%.4.:.%.3.4.4.4.e.t.r.u.e.e.e.e.e.7.e.u.e.e.e.,.7.>.,.>.>.>.,.>.>.>.>.e.e.>.>.e.,.,.4.3.3.4.%.3.%.%.%.%.&.&.&.&.2.%.%.%.3.3.%.%.:.:.:.:.4.4.4.4.4.4.e.e.e.e.e.u.e.u.u.e.r.e.r.u.4.u.h.h.h.4.h.u.i.i.i.i.u.u.i.u.p.u.u.p.a.h.p.u.u.u.u.u.u.u.p.u.p.a.u.u.a.u.p.p.h.u.u.h.u.u.h.u.",
"h.j.h.h.h.h.h.j.k.a.k.a.f.a.a.k.a.h.h.a.h.h.h.h.a.h.h.h.h.h.a.h.h.p.h.h.a.a.a.a.a.a.a.a.a.a.a.a.a.a.a.j.j.d.a.d.j.d.a.a.j.a.a.l.d.a.a.d.j.d.a.a.a.d.j.z.l.a.d.l.l.l.j.p.4.:.*.:.&.3.&.&.2.%.&.&.&.&.&.@.&.&.@.=.&.*.*.-.2.:.:.>.-.:.:.:.3.3.-.-.:.>.3.3.3.3.9.>.3.3.3.>.>.6.>.4.7.>.3.6.>.>.>.>.3.>.:.3.>.3.3.:.>.:.:.2.>.:.3.:.&.:.:.:.-.:.:.:.:.*.*.*.-.:.&.&.&.3.3.:.:.&.&.:.*.%.&.*.*.*.*.*.| | | &.&.*.*.*.&.&.| | | %.| | &.&.{ { { { { &.-.:.:.>.-.-.&.&.&.*.&.&.%.&.&.2.-.-.-.3.3.-.3.:.3.:.2.>.>.>.&.&.&.&.&.&.&.*.*.*.*.=.*.*.:.*.-.;.3.%.&.2.:.:.&.3.%.3.3.3.3.%.3.%.3.%.3.%.3.%.3.%.3.%.3.%.3.%.3.%.%.4.%.4.%.3.[ %.%.%.%.%.[ %.%.%.%.%.[ %.%.3.%.%.:.:.:.:.:.%.&.:.:.;.*.&.*.:.>.:.7.>.,.>.e.e.,.>.4.4.4.,.,.4.,.4.4.4.i.4.4.4.4.4.4.4.4.4.4.4.[ %.3.3.3.*.&.3.3.4.3.3.4.4.4.4.r.u.e.u.e.u.e.e.e.p.e.e.p.e.e.4.e.u.e.,.>.>.6.4.>.>.7.3.4.,.7.7.4.,.4.4.4.4.>.;.>.;.>.;.%.%.%.%.%.%.[ [ 3.%.%.:.3.3.%.4.4.4.u.4.u.4.e.7.e.e.r.r.r.r.e.e.r.r.r.u.u.i.u.u.u.,.h.u.u.u.h.u.h.u.u.u.p.p.u.u.u.u.p.h.u.u.u.u.u.u.u.u.u.u.u.u.u.u.u.u.h.u.h.u.h.u.h.h.u.h.",
"j.h.h.l.h.j.j.h.p.h.a.k.k.a.f.a.h.a.h.h.a.h.a.h.h.h.a.h.a.k.k.a.h.h.h.p.u.h.p.a.a.f.p.y.f.a.a.a.a.j.d.a.d.j.a.d.d.d.d.a.a.d.a.d.l.j.d.d.j.g.j.d.g.d.a.d.l.d.a.u.l.l.a.e.4.:.*.:.:.&.3.&.&.2.%.2.*.*.*.*.*.*.*.@.&.&.-.-.:.:.2.2.3.:.-.3.-.:.:.&.*.>.3.3.3.3.3.3.4.:.4.>.4.>.>.>.>.3.>.>.>.6.>.>.3.3.3.:.>.>.2.:.2.:.2.:.:.:.2.:.-.-.-.*.*.*.*.*.*.*.*.*.-.:.:.&.%.3.3.:.&.&.%.%.:.&.*.:.:.:.:.*.&.&.| &.&.&.=.*.&.%.| | &.&.&.%.&.{ &.%.{ { { &.:.3.3.>.:.-.-.:.&.:.-.&.%.&.&.-.:.:.:.:.:.3.>.3.-.3.3.:.*.%.%.%.&.&.&.&.&.=.*.*.*.:.*.*.:.*.=.-.%.3.3.&.&.:.:.&.3.3.%.3.2.3.3.%.%.3.%.3.3.3.%.3.%.4.%.3.%.3.[ 3.4.%.3.%.%.%.3.%.%.%.%.[ %.%.3.3.%.3.3.%.4.%.%.4.%.:.:.3.:.3.3.:.:.:.&.;.*.:.>.>.>.,.>.>.e.,.7.e.:.;.,.,.>.,.e.4.4.4.4.4.4.4.4.4.4.4.4.:.4.[ 4.:.3.3.3.3.3.3.4.4.4.r.r.4.r.r.4.r.e.e.e.e.e.e.e.7.e.e.e.e.e.e.e.u.e.>.7.>.,.7.,.>.,.7.7.>.>.,.>.e.4.4.4.4.>.>.-.;.>.-.&.&.;.%.=.;.%.3.3.%.3.%.%.4.4.4.4.4.i.i.u.u.u.e.e.r.r.u.u.r.e.p.u.u.u.u.r.a.u.u.u.h.u.u.h.,.u.u.u.u.h.u.h.p.u.a.u.p.p.p.p.p.p.p.u.u.u.p.u.u.h.u.u.u.u.u.u.u.h.u.u.h.u.h.h.h.",
"h.h.h.k.j.h.h.h.h.h.k.p.a.f.a.h.a.h.a.k.h.h.h.a.h.h.h.h.h.a.a.h.h.h.h.u.h.a.h.h.a.a.a.a.a.a.a.a.a.a.l.d.l.a.l.d.g.d.d.d.l.a.j.a.d.d.d.j.d.l.g.d.v.l.g.j.l.l.g.a.l.a.u.,.:.:.:.:.3.&.3.2.%.2.3.2.:.*.:.-.*.@.*.*.*.*.-.:.:.*.-.:.-.:.:.:.:.&.-.&.:.>.>.>.3.3.3.3.4.4.3.4.7.>.7.>.>.>.9.>.>.>.6.9.3.>.:.3.>.3.>.>.>.>.:.:.:.:.:.:.-.:.:.-.:.*.=.&.=.=.&.*.&.:.-.*.:.&.3.3.&.%.&.2.:.-.-.:.3.>.>.3.&.=.&.&.&.=.&.&.&.+.&.&.&.&.&.=.&.{ &.| +.{ | &.3.3.3.>.:.:.*.:.*.:.:.&.&.&.-.:.:.3.-.3.3.3.3.-.2.>.>.:.&.| %.%.*.&.&.&.&.&.*.&.*.*.-.*.:.-.;.-.3.%.3.&.2.*.:.:.%.3.%.3.%.%.3.3.3.%.3.%.%.3.%.3.3.%.4.%.3.%.3.%.3.%.%.4.3.%.%.[ %.3.%.3.3.%.3.%.3.4.%.4.%.4.3.%.&.:.:.:.:.:.:.:.&.%.*.&.:.:.,.>.7.7.,.7.>.e.e.,.4.4.4.4.4.4.4.e.4.4.4.4.4.4.:.4.4.:.4.[ [ 4.4.:.4.4.4.4.3.4.4.h.i.i.u.u.r.r.r.4.e.e.r.e.e.e.7.e.e.e.u.e.e.7.e.e.e.7.,.>.,.>.>.,.>.7.>.>.>.e.7.>.:.4.4.4.>.;.;.:.7.;.;.;.=.&.&.&.%.2.[ 3.%.3.4.4.i.u.u.4.i.i.i.i.u.r.r.r.r.u.p.i.u.u.p.u.u.u.p.a.u.u.u.u.h.h.7.h.h.u.h.u.u.u.h.p.a.p.p.u.p.u.a.u.p.p.p.p.p.u.p.p.u.u.u.h.h.u.h.u.u.u.h.u.h.h.h.h.",
"h.h.h.k.h.h.h.h.a.h.f.h.k.a.k.a.a.h.h.h.h.a.h.a.h.a.h.a.h.h.h.a.h.h.h.h.h.a.h.p.k.a.f.p.a.a.f.a.a.a.d.d.d.l.d.d.j.l.d.l.d.d.d.j.a.d.a.j.a.d.d.j.a.j.l.a.a.d.l.d.p.e.,.:.:.:.:.:.3.3.3.&.3.3.%.3.2.:.2.*.*.*.*.*.*.*.*.-.-.*.-.-.-.&.-.:.3.3.:.:.*.-.>.>.>.>.>.3.4.:.>.>.>.6.>.9.7.>.>.,.6.>.>.>.3.>.3.:.:.>.>.>.>.>.3.:.2.2.:.:.:.3.:.-.>.*.*.*.*.&.&.&.&.*.:.*.&.3.&.:.3.&.:.:.:.&.-.>.>.3.3.>.>.*.&.&.&.&.&.&.&.&.&.&.&.&.&.&.&.&.{ %.%.{ | &.*.:.*.-.-.*.-.:.-.:.&.&.&.-.:.3.3.:.3.>.3.-.3.:.>.3.>.*.%.| | &.*.-.&.&.&.*.-.-.:.:.:.:.*.*.-.-.%.2.%.3.:.:.*.:.3.3.3.3.3.3.3.%.3.3.3.%.3.%.3.%.%.3.%.3.%.4.%.3.%.3.%.%.[ 3.%.3.%.%.%.%.3.%.%.%.[ %.%.%.%.%.%.%.&.&.&.:.:.%.%.%.%.&.%.&.*.:.>.>.4.>.>.e.e.,.e.3.4.,.,.:.>.,.,.4.4.4.:.4.[ 4.3.4.3.[ [ 3.3.4.:.4.y.4.4.4.4.4.4.4.i.r.e.r.e.e.4.r.e.e.e.e.e.e.e.e.e.e.e.7.e.e.7.e.e.e.e.7.>.>.>.,.>.>.>.4.,.>.,.e.4.4.;.4.,.>.4.>.>.;.-.-.;.&.&.;.%.%.%.%.:.4.4.4.4.i.4.i.4.i.i.i.u.u.u.r.u.u.u.u.u.u.p.p.i.u.r.r.u.u.u.h.u.u.h.u.h.u.u.u.u.h.p.h.a.p.h.h.p.h.p.h.p.p.p.p.p.p.p.u.h.u.u.u.u.h.u.u.h.u.h.h.u.u.h.h.",
"h.h.u.h.h.h.h.h.h.h.a.h.k.a.k.a.h.a.h.h.h.h.a.h.h.h.h.p.a.h.a.h.h.h.h.h.h.a.a.h.a.a.h.a.h.a.a.a.a.d.d.d.g.g.j.l.l.d.j.d.g.d.d.d.d.d.j.g.l.d.d.g.d.l.z.h.a.l.k.a.9.>.;.;.%.4.:.3.3.3.2.3.%.%.3.3.:.2.:.-.-.*.=.*.*.*.*.*.-.&.=.*.-.-.*.3.3.3.-.-.*.>.>.>.>.>.>.9.e.>.>.6.9.6.6.7.7.>.>.>.>.6.6.>.>.>.>.-.>.:.:.>.>.3.3.3.>.>.:.:.:.3.:.>.>.:.-.:.*.*.&.&.%.*.&.-.*.*.*.*.&.&.3.3.-.:.>.-.>.>.3.:.3.:.&.&.&.&.&.| &.&.*.=.&.&.&.&.&.%.{ { { { | &.*.*.*.-.:.*.:.>.-.:.:.*.-.:.:.3.3.-.3.>.3.:.3.3.>.>.>.:.&.| &.*.*.=.&.&.&.*.*.*.:.-.:.-.:.-.&.:.:.:.:.-.*.*.:.-.3.2.%.%.%.3.3.%.%.3.%.3.3.%.3.4.[ 3.3.%.3.%.4.[ %.%.4.%.%.%.3.%.3.3.%.%.3.[ %.%.%.%.[ [ [ [ %.%.&.&.:.%.&.%.%.%.%.&.:.&.&.:.:.>.>.,.>.e.e.e.,.e.:.4.4.4.4.4.i.i.4.4.4.%.%.3.%.%.3.3.[ 3.%.4.4.4.4.4.4.4.r.4.4.r.4.4.r.r.e.r.e.r.e.e.e.e.e.7.e.t.e.7.e.e.e.7.e.e.e.e.e.,.;.;.;.>.,.;.>.3.7.>.,.>.:.4.4.,.,.,.4.,.4.>.>.7.>.;.;.>.3.3.%.4.4.4.i.i.4.4.i.4.i.i.i.i.u.p.u.r.r.u.u.r.p.r.u.r.u.r.r.u.u.u.p.u.u.u.u.h.u.u.u.u.p.h.p.p.p.h.h.p.h.h.u.u.p.p.p.p.u.u.u.u.u.u.u.u.u.u.h.u.u.h.h.h.h.h.h.h.",
"h.h.h.h.h.h.h.h.h.a.k.a.h.h.a.h.a.h.a.h.h.a.h.h.h.h.a.h.a.h.h.p.u.h.h.h.h.h.h.h.a.a.h.a.a.a.a.a.a.a.a.d.l.d.l.d.g.l.g.d.d.j.g.d.g.l.l.g.l.g.d.l.v.l.a.a.a.a.p.7.:.&.=.;.:.3.4.:.3.%.3.%.3.2.3.2.2.:.*.:.-.*.-.&.@.*.*.*.&.*.*.-.2.>.>.:.-.:.:.*.:.*.>.-.>.>.>.>.>.6.6.6.6.>.e.>.6.6.6.6.7.>.7.>.>.3.>.>.2.:.2.3.>.>.>.:.3.>.:.3.3.-.3.:.>.>.-.:.*.*.*.*.*.%.:.:.:.2.:.3.3.&.:.&.>.:.>.>.3.>.3.>.3.3.&.&.&.-.&.&.&.&.&.*.&.&.| %.&.+.&...{ { | &.*.*.:.:.:.-.>.>.3.3.2.>.3.:.3.3.>.3.3.:.>.:.-.>.-.>.>.*.&.+.*.*.&.=.-.&.*.-.:.:.:.-.-.:.-.-.:.:.:.:.*.:.:.*.-.:.3.%.3.3.3.3.%.3.3.%.3.%.%.3.%.%.4.4.[ 4.%.3.3.4.3.%.%.4.4.3.%.%.[ %.3.%.%.%.%.%.%.%.%.[ %.3.%.3.&.%.%.%.&.&.:.:.&.:.:.3.*.:.>.>.,.>.7.,.,.>.>.>.4.4.4.4.4.4.4.4.4.4.%.3.4.:.:.3.[ %.3.3.4.4.4.4.r.4.4.r.r.r.i.i.a.i.a.4.e.r.e.u.u.e.4.e.e.e.e.e.u.u.e.e.e.u.e.t.t.e.e.7.>.>.-.>.>.>.,.>.,.,.>.7.4.:.,.,.:.,.>.,.7.>.>.7.6.>.>.>.4.3.4.4.4.4.4.4.4.4.4.4.i.i.i.j.u.u.r.r.r.r.r.r.r.i.r.r.r.r.r.u.h.u.h.u.h.h.u.p.u.u.u.h.p.p.p.h.h.p.h.h.h.7.p.u.p.u.p.p.h.u.u.h.u.u.h.u.h.u.u.h.h.h.h.h.h.h.h.h.",
"h.h.h.h.h.h.h.h.k.k.k.p.h.a.h.a.h.a.h.h.h.h.h.a.h.a.p.a.p.a.h.h.h.h.h.h.h.a.h.p.h.a.p.a.a.a.h.a.a.j.d.l.d.l.l.d.l.d.l.d.l.a.d.d.l.l.l.l.g.j.a.j.p.e.,.,.e.>.%.{ ;.;.;.-.3.:.%.3.%.3.%.3.3.%.%.3.-.-.:.*.*.-.-.-.-.*.-.@.&.&.*.*.>.>.-.3.3.>.:.:.-.>.>.>.>.-.3.>.6.>.>.6.6.6.>.6.9.>.7.>.>.6.>.6.>.>.3.>.:.:.:.3.3.:.3.2.3.3.3.2.:.3.3.>.*.:.*.*.*.*.*.=.*.*.*.:.:.:.:.*.*.*.:.:.>.>.>.>.>.3.>.>.>.-.&.-.-.:.-.&.*.=.&.=.&.&.&.{ &.&.&.%.| { { %.*.*.-.:.:.-.*.*.-.-.:.:.>.3.:.:.3.3.>.-.3.-.>.>.-.:.:.:.&.*.*.*.&.&.=.*.:.:.:.-.:.:.:.-.:.:.*.*.-.:.:.*.-.-.&.:.3.3.3.%.%.3.3.%.%.%.%.2.[ 4.%.4.%.3.3.%.3.4.%.4.%.3.4.%.3.%.%.3.3.%.[ %.%.%.%.[ %.3.%.3.3.%.%.%.%.%.%.&.&.&.:.:.%.:.:.&.:.;.:.;.>.>.>.e.7.,.,.>.:.4.;.:.:.%.%.%.%.%.%.3.3.3.3.3.4.3.4.4.4.4.4.4.4.r.4.4.i.i.r.4.i.s.r.r.r.4.4.r.e.t.e.e.e.e.u.u.u.r.e.7.e.r.t.e.e.e.e.e.e.;.,.;.,.>.,.7.e.>.7.>.:.4.;.:.,.,.,.,.>.>.>.>.>.;.>.7.3.3.3.3.4.4.4.4.4.4.4.i.i.i.i.i.a.u.r.u.u.a.i.u.i.u.u.i.u.r.p.p.h.u.p.u.u.p.u.u.u.h.h.h.p.h.h.p.h.p.p.p.p.p.p.p.h.u.p.u.u.u.u.u.u.u.u.h.h.u.h.h.h.h.h.h.h.h.h.h.",
"h.h.h.h.h.h.h.h.p.h.h.h.h.h.h.h.a.h.a.h.a.h.h.h.h.h.h.a.h.h.h.a.u.p.h.h.h.h.a.p.h.h.a.h.h.a.a.j.a.a.d.d.l.g.l.l.l.j.g.g.j.d.d.d.d.d.l.j.a.a.a.a.e.,.e.t.e.-.&.+.-.;.>.>.:.3.3.3.3.3.3.2.2.2.2.3.:.:.2.2.:.:.:.:.-.-.-.-.-.:.:.>.2.:.3.:.>.-.3.3.>.>.>.>.>.>.-.3.>.6.e.>.6.>.,.6.6.>.6.6.6.>.>.>.3.3.3.3.3.:.3.3.2.:.:.3.:.:.>.>.3.3.:.:.-.=.&.&.&.&.*.&.*.*.2.3.*.*.*.*.3.:.*.:.:.*.-.-.-.3.3.3.3.:.:.*.3.3.:.-.*.&.&.&.&.&.&.+.&.&.&.&.&.{ | | =.&.:.*.-.&.=.&.%.| &.-.:.:.3.:.>.2.3.:.:.:.-.:.>.>.-.-.>.*.*.*.&.&.*.:.*.>.:.-.-.:.:.*.:.:.*.*.-.-.:.*.*.:.-.:.%.3.3.3.%.3.3.%.3.3.%.%.3.%.3.[ 3.%.%.4.[ [ 4.%.3.%.3.3.%.3.3.%.%.%.%.%.%.%.%.3.%.%.%.3.%.%.3.%.%.%.%.&.%.%.%.&.%.%.:.:.&.&.:.-.>.,.e.e.>.>.7.>.4.:.4.;.:.%.%.%.[ 3.4.4.4.%.4.4.4.4.4.4.4.i.i.4.i.i.a.i.s.i.i.r.i.i.i.4.r.e.r.e.u.e.e.7.e.e.u.u.u.e.e.e.u.u.e.e.4.e.e.7.e.e.e.>.>.7.e.>.>.,.>.>.4.;.4.,.,.,.>.,.7.7.7.,.7.>.7.7.3.3.3.3.4.4.4.4.4.4.u.i.i.i.i.i.u.p.r.u.r.u.a.p.r.a.u.a.p.a.u.a.p.u.h.h.p.h.h.u.u.u.u.h.h.h.h.h.h.p.h.p.p.p.p.p.p.p.p.u.h.u.u.u.h.h.u.h.u.h.h.h.h.h.h.u.h.h.h.h.",
"h.h.u.h.h.h.h.h.h.h.h.a.h.h.h.h.a.k.h.h.h.a.h.p.k.a.h.h.h.h.a.h.a.p.h.h.h.h.h.a.a.h.a.h.a.a.p.a.h.a.k.l.j.g.d.l.a.l.l.l.a.l.a.l.j.j.d.a.a.i.4.4.4.4.3.2.%.%.&.&.-.&.&.2.3.>.>.:.:.3.2.>.:.2.:.2.:.:.:.3.%.3.%.3.3.2.3.3.%.%.3.3.:.:.3.-.3.>.3.>.:.-.:.3.>.>.3.>.7.>.9.9.3.3.9.3.4.3.3.3.>.>.6.3.4.3.3.3.3.:.3.3.3.3.:.3.4.4.3.3.%.4.3.[ 3.3.2.[ &.&.*.*.2.:.&.:.*.:.:.:.>.*.*.*.>.>.:.3.3.>.3.>.>.-.:.-.:.:.*.*.*.*.*.&.*.>.*.%.&.*.=.&.| | { | &.&.&.&.=.| | %.| | | *.:.3.:.:.3.4.4.3.:.3.:.:.:.2.>.:.*.*.:.:.&.-.:.>.>.-.:.:.:.-.:.:.2.3.:.:.3.:.&.:.3.:.3.&.:.:.:.:.3.:.:.:.%.:.%.:.%.%.:.%.%.*.*.:.:.:.4.:.:.:.:.:.*.*.%.%.%.%.&.&.%.| | %.2.%.| { { | 2.%.*.&.%.%.&.:.4.u.r.e.-.&.%.&.;.>.-.;.;.-.-.;.;.&.%.%.&.;.&.&.;.-.*.-.>.3.3.e.r.r.u.r.r.r.u.u.p.u.r.r.u.p.p.p.a.y.a.r.r.r.e.e.4.r.e.u.u.e.7.e.u.e.7.t.u.u.u.p.p.e.e.u.e.t.7.e.>.,.>.,.>.,.>.>.,.>.>.,.,.,.>.4.>.e.,.e.,.4.4.4.,.,.,.;.;.,.e.e.e.e.3.e.r.r.u.e.r.r.u.u.u.u.i.i.i.u.u.h.p.h.i.i.i.i.h.u.p.p.h.u.h.u.i.p.h.h.h.h.h.h.h.h.h.p.p.p.p.p.p.p.p.p.p.h.p.h.h.h.h.h.h.u.h.u.h.h.u.h.h.h.h.u.",
"h.h.h.h.h.u.u.h.h.u.h.h.h.p.a.h.h.h.p.k.h.k.k.a.h.h.k.a.h.a.h.h.h.a.a.h.a.a.h.a.h.h.h.a.h.h.h.h.a.h.a.l.l.l.d.a.a.k.d.l.d.a.d.a.d.d.s.i.s.i.4.3.4.4.3.2.-.&.-.-.&.-.-.-.>.3.3.>.:.3.:.2.:.3.3.:.3.:.3.:.3.:.3.%.3.%.%.3.3.3.3.%.-.>.>.3.3.>.>.:.>.>.:.3.3.>.>.6.3.3.3.3.3.9.>.e.e.3.3.3.9.>.4.>.3.3.:.3.3.3.:.3.:.3.:.3.%.3.3.3.3.3.3.3.3.[ 3.3.-.&.*.&.*.*.2.*.*.&.*.*.*.>.>.>.>.>.3.>.3.>.3.>.3.-.>.3.>.3.>.*.*.*.&.=.:.>.>.&.&.&.&.&.| | | { | &.&.*.&.&.&.&.%.%.&.:.*.*.:.3.:.4.4.4.:.:.:.:.:.:.:.:.:.&.&.-.-.:.>.:.>.:.>.-.-.>.3.:.:.:.:.3.:.3.:.:.:.:.:.:.3.%.:.:.%.3.:.%.:.:.:.:.;.4.:.:.*.*.*.:.:.>.:.:.:.:.:.*.*.*.*.*.%.%.| [ | | &.-.4.4.4.4.4.4.4.3.[ [ %.2.u.a.u.r.r.r.u.u.t.>.;.&.{ %.%.%...%.&.;.{ { | =.;.>.e.e.a.a.a.p.a.a.y.a.a.r.e.e.e.u.r.u.t.r.t.p.a.a.p.y.i.u.r.r.r.r.r.r.7.7.u.7.u.u.7.p.u.u.7.7.7.7.u.p.e.e.u.e.e.,.e.e.e.e.7.>.7.e.>.7.>.>.,.>.;.;.;.;.;.>.;.,.-.:.;.;.&.&.:.,.e.e.,.,.4.r.u.r.u.u.r.u.u.i.u.a.p.p.h.u.u.u.p.i.i.h.h.p.i.p.h.i.h.p.i.i.p.h.a.h.h.h.h.h.h.h.h.h.p.h.p.p.p.p.h.p.h.p.h.p.h.p.h.h.h.h.h.h.h.h.h.h.h.h.h.h.",
"h.h.h.u.h.h.h.h.h.a.h.a.a.h.h.h.p.k.h.k.a.h.p.h.k.a.h.a.h.h.h.a.p.p.a.h.h.a.h.u.h.h.a.h.a.h.a.h.k.a.l.l.l.d.g.f.l.g.k.l.k.a.a.l.j.d.a.i.4.d.4.2.| &.&.*.2.*.*.&.*.-.-.3.2.>.-.>.:.2.:.2.2.>.>.3.3.3.3.:.:.:.:.:.3.%.3.3.[ 3.3.[ :.>.>.>.-.>.:.-.:.3.3.>.3.>.>.3.3.3.3.9.3.3.e.>.>.3.3.e.3.3.>.3.:.3.3.>.3.:.3.3.:.3.3.3.:.3.:.3.3.3.%.3.[ 3.[ 3.&.&.&.&.&.&.*.*.&.*.*.*.*.>.>.>.>.>.3.>.>.3.3.>.>.>.>.>.3.-.>.-.*.*.*.>.>.3.>.*.&.%.| | %.%.{ { +.%.&.&.&.+.&.&.&.&.*.:.*.*.:.:.3.4.4.3.3.:.3.:.:.2.:.-.-.-.&.:.-.-.-.3.>.-.:.>.>.:.:.:.:.*.:.:.3.&.:.:.:.:.:.:.3.:.&.3.%.:.3.%.4.:.%.:.:.:.%.%.&.&.;.;.:.:.,.:.&.*.*.*.*.%.*.%.%.| [ | %.&.2.4.4.s.s.d.s.i.i.r.a.r.4.i.a.d.a.e.u.p.a.p.u.e.;.;.&.&.&.&.*.>.e.u.k.a.a.p.p.p.p.a.a.a.a.y.u.a.r.a.a.p.t.e.e.e.t.r.t.u.u.p.y.a.p.a.u.r.u.r.r.r.r.r.u.u.u.t.7.t.7.p.t.7.u.u.u.u.p.e.r.t.e.e.e.>.e.,.e.,.>.e.,.4.,.>.,.,.,.>.>.:.&.:.>.;.;.-.;.;.&.&.&.&.,.,.e.7.e.e.e.u.a.a.u.u.r.a.a.u.p.a.i.i.i.i.p.h.i.i.i.h.i.i.u.i.i.u.i.p.p.i.a.a.h.h.h.a.h.h.h.h.h.7.h.h.k.h.p.h.p.h.h.h.h.h.p.h.p.h.h.h.h.p.h.h.h.h.h.h.h.h.",
"h.h.h.h.h.u.h.h.h.h.h.h.h.h.a.h.h.h.a.k.h.h.k.h.h.h.h.h.a.h.h.h.h.p.h.h.a.a.h.h.a.h.a.a.a.h.h.a.a.h.a.f.d.l.k.l.d.g.g.a.g.d.a.l.j.s.r.a.j.4.4.2.| | &.*.:.*.-.:.-.&.:.:.>.3.-.3.2.:.3.:.:.2.2.:.3.3.3.3.3.3.:.3.%.3.3.%.4.3.3.3.>.>.>.>.:.>.>.3.3.>.-.3.>.>.3.>.3.>.e.>.3.3.3.e.9.3.9.>.3.3.>.3.3.4.4.3.3.3.3.3.4.3.:.3.3.3.3.3.%.3.3.%.3.3.[ 2.| | &.*.*.3.*.*.*.*.&.&.*.*.>.3.>.3.>.3.3.3.>.3.>.>.>.>.>.3.3.>.>.>.>.>.3.>.-.=.&.@.&.&.&.%.| { { { &.&.&.&.&.&.*.*.:.>.:.:.:.4.3.4.4.4.:.3.3.:.-.3.:.-.&.&.*.*.:.>.:.:.:.>.:.:.:.>.>.:.:.*.*.*.:.:.:.:.:.:.&.3.&.:.:.&.3.%.%.:.%.:.:.%.%.:.%.%.%.%.%.;.*.*.*.*.%.*.%.*.%.%.%.[ %.%.%.-.3.e.4.4.i.i.4.i.i.s.4.i.d.a.a.r.e.e.r.i.r.r.r.r.t.e.r.e.;.&.%.;.3.r.a.y.p.r.r.r.r.r.r.r.a.r.r.a.a.a.a.d.a.a.u.e.t.r.u.r.u.t.t.p.y.p.y.r.r.u.r.r.u.r.u.i.t.u.u.u.e.7.e.p.u.e.e.7.t.u.e.p.e.e.t.e.e.e.,.e.e.e.,.e.9.,.e.>.,.,.;.,.-.;.;.;.&.:.&.:.;.&.;.;.:.;.,.e.e.e.e.u.e.u.i.i.a.p.u.a.p.a.i.i.i.h.p.h.p.p.i.h.p.p.p.u.h.p.i.h.u.i.p.h.h.h.h.p.h.h.p.h.h.h.h.h.h.h.h.h.h.h.h.p.p.h.h.h.h.h.h.h.h.h.h.h.h.u.h.h.h.h.u.h.",
"h.h.h.h.h.h.h.h.h.a.k.p.h.h.h.h.k.h.a.p.a.h.p.h.a.h.a.h.h.h.h.h.a.p.a.l.h.h.h.a.d.a.a.h.a.h.k.a.j.l.a.l.l.f.l.a.a.g.a.f.l.d.g.k.i.r.4.4.r.4.:.*.*.*.&.*.*.2.:.2.*.-.>.-.>.2.>.>.2.>.2.3.:.3.2.:.3.3.3.:.:.3.:.:.:.:.:.:.3.3.[ 4.>.>.>.-.>.>.>.>.-.3.>.3.>.3.3.3.3.3.9.3.3.3.3.3.9.3.3.3.3.3.>.3.4.4.>.4.4.3.;.>.3.:.4.:.4.:.3.:.3.%.3.%.3.3.[ 3.| | %.&.:.:.-.:.3.*.*.&.:.-.-.2.>.3.>.3.>.3.>.4.>.3.>.>.3.3.3.>.3.>.>.3.>.>.:.*.-.*.&.&.&.=.| | | { | %.&.&.&.&.*.:.>.4.3.:.3.:.4.4.4.4.4.4.3.3.3.-.:.:.*.*.*.&.:.2.3.-.-.*.-.-.:.:.:.;.*.*.%.*.&.:.3.3.:.3.&.3.:.:.:.:.%.%.%.3.%.%.%.%.%.%.%.%.{ { | | %.%.%.%.:.%.%.%.{ { | { &.&.2.0.i.r.r.r.s.4.i.4.4.4.r.i.e.e.a.p.u.r.e.e.4.e.e.p.a.r.a.p.7.;.:.3.r.p.p.e.r.r.e.a.a.j.d.a.d.a.a.a.a.a.a.a.a.a.r.a.r.r.r.r.r.r.y.y.p.y.y.p.r.r.r.r.r.i.i.i.u.r.u.t.7.e.e.7.u.e.u.e.u.e.u.e.u.e.e.e.e.e.7.,.e.e.>.e.e.e.,.,.>.,.>.>.>.;.-.-.;.;.&.;.;.-.-.-.;.;.e.r.e.,.4.e.u.u.u.a.a.r.u.r.a.p.i.a.h.i.i.p.i.i.a.a.h.i.p.h.i.h.u.u.p.p.a.a.a.h.h.h.a.h.p.h.h.p.h.k.p.h.p.h.h.p.h.h.p.k.p.k.h.h.p.h.h.h.h.h.h.h.h.h.h.u.h.h.",
"h.u.h.h.h.h.h.h.h.h.h.h.h.a.h.a.a.h.h.h.k.h.k.k.a.h.h.h.h.a.a.h.j.a.a.d.p.a.a.a.a.a.h.a.a.a.f.l.a.a.g.g.a.l.f.l.l.d.l.g.j.l.a.a.r.4.r.r.r.4.:.%.3.2.3.*.*.*.:.3.-.-.3.>.3.>.>.3.3.:.>.>.3.>.3.3.3.3.3.:.:.:.:.3.4.4.:.[ 3.3.3.4.>.>.>.>.6.>.9.>.3.>.>.3.>.3.3.3.3.3.3.3.3.9.4.3.>.3.3.3.>.9.3.3.>.4.4.>.>.>.>.>.3.3.:.3.:.3.:.:.3.3.3.3.3.[ 3.[ &.| | | +.:.>.3.3.2.:.:.*.:.-.3.>.>.>.>.3.>.>.>.3.3.>.3.3.3.3.3.-.>.:.3.3.-.*.-.*.:.:.*.*.&.&.%.{ | | | %.&.&.&.>.,.:.4.4.:.:.:.4.4.4.4.3.4.4.:.:.>.>.-.-.*.:.-.:.:.:.:.*.:.*.*.:.:.:.*.*.%.%.%.%.&.&.:.&.&.:.&.:.&.:.:.:.:.%.%.%.3.%.%.:.%.%.%.%.{ { | | &.%.%.%.%.{ [ [ %.&.2.4.3.3.0.d.r.r.r.4.s.s.a.s.s.r.s.d.a.a.a.d.a.e.-.4.e.e.u.r.a.r.u.t.p.a.a.a.p.r.r.r.r.y.a.a.p.r.r.a.a.y.y.y.y.e.a.r.p.a.a.r.r.r.r.t.y.p.a.p.a.p.r.r.r.u.r.4.r.r.i.u.u.t.u.p.e.u.e.e.u.p.e.e.u.7.u.u.e.u.e.e.e.e.e.e.7.e.,.>.e.3.e.,.>.>.,.7.>.>.;.*.-.-.&.;.-.;.;.:.;.,.e.e.4.e.r.r.u.r.r.p.r.u.a.p.a.i.h.i.h.h.a.h.h.i.p.i.i.u.u.a.p.i.i.a.u.h.a.h.a.h.p.a.h.h.h.h.h.h.p.h.h.h.p.p.k.p.h.k.p.k.p.h.h.h.h.h.h.h.h.h.h.u.h.h.h.h.h.",
"h.h.h.h.h.h.h.h.a.k.h.h.h.a.h.h.k.h.h.a.h.p.h.a.h.h.h.h.a.h.h.h.a.a.a.j.a.p.a.p.a.a.a.d.a.k.a.a.l.a.l.d.l.g.l.a.l.f.l.l.l.d.a.p.i.r.4.r.4.4.>.3.3.:.3.*.:.:.2.:.3.>.3.3.3.>.3.3.>.3.2.3.2.>.>.>.:.3.:.3.3.:.:.:.4.4.3.3.4.[ 3.3.>.>.>.3.3.3.>.9.>.>.3.>.3.3.3.3.>.>.9.3.3.3.3.3.3.3.3.3.3.3.3.3.>.>.4.4.4.>.>.>.3.:.4.4.4.%.4.:.3.%.3.%.3.[ 3.[ *.=.&.&.=.>.>.3.3.2.:.>.-.:.:.:.-.>.>.>.3.>.>.3.3.>.>.>.>.3.3.3.>.*.:.>.>.*.=.&.*.*.:.&.-.&.&.=.| %.| | &.&.&.&.>.3.>.3.:.*.:.4.4.4.4.4.3.3.3.3.3.>.>.>.:.:.:.:.:.:.:.-.*.*.*.*.:.&.;.&.%.&.%.%.%.%.:.:.%.&.%.*.%.:.:.:.%.:.%.3.3.%.3.%.%.3.%.%.+.{ { { | &.| | %.%.{ { %.:.3.e.r.e.9.r.r.r.0.s.r.r.i.s.d.4.4.i.a.e.e.e.u.a.u.e.e.e.e.e.r.r.p.p.r.p.a.a.r.e.e.r.e.r.a.a.a.a.d.d.a.a.a.a.a.a.d.d.p.a.a.r.r.r.r.r.u.p.p.p.a.p.p.r.r.i.r.r.i.i.r.r.u.u.u.e.e.e.e.e.e.p.e.u.e.e.e.e.u.e.e.e.t.e.e.7.e.e.7.4.e.,.e.4.,.e.4.>.,.>.,.>.-.;.;.;.&.;.;.;.>.>.>.e.e.e.r.a.r.u.r.u.r.p.u.u.a.a.p.p.i.p.h.i.i.p.h.p.u.h.i.u.i.p.p.p.p.h.h.h.h.h.a.h.h.h.h.h.h.p.k.h.h.h.p.h.p.p.p.p.p.k.k.k.p.h.h.h.p.h.h.h.h.h.h.h.h.h.h.u.",
"h.h.h.u.h.h.h.h.a.h.a.h.h.h.h.a.p.h.h.h.h.k.h.k.a.a.a.a.h.p.a.a.a.p.a.d.p.p.a.u.a.p.p.p.p.a.a.a.a.l.a.l.a.l.f.l.l.l.a.l.d.a.p.r.4.r.4.r.r.3.>.3.3.3.3.3.3.2.2.3.3.3.9.3.-.>.>.3.>.3.>.:.3.>.3.>.3.:.:.:.:.4.4.4.:.4.4.4.4.3.3.3.>.3.3.3.3.3.3.>.>.3.3.3.3.3.3.9.9.3.3.9.3.9.e.3.3.3.>.3.3.3.9.3.4.>.4.4.4.4.4.3.3.4.4.4.4.3.3.:.3.3.[ 3.3.3.3.3.:.*.*.>.3.>.>.>.:.3.>.:.:.:.-.:.>.-.>.>.>.>.>.>.3.:.-.>.:.>.>.>.>.*.:.-.:.=.&.&.&.*.-.:.&.&.&.-.| &.%.%.+.&.&.&.:.>.,.:.*.*.:.4.4.4.4.3.4.3.3.:.:.>.>.>.>.-.-.3.3.-.3.*.*.*.*.*.:.&.&.*.&.%.%.%.%.%.&.:.%.%.%.%.%.%.:.:.:.%.%.%.%.3.%.3.%.%.%.%.{ { [ [ { { | | %.{ *.:.3.4.r.e.y.4.9.y.y.r.r.r.s.r.4.0.r.r.s.i.u.a.p.u.u.e.u.e.e.e.u.u.a.u.u.y.p.p.r.y.a.a.a.y.a.p.a.a.a.r.a.a.a.a.a.a.a.a.y.a.d.a.a.a.r.r.p.p.u.t.u.y.y.p.p.y.r.r.r.r.i.4.i.i.u.u.u.e.u.7.u.u.u.e.p.e.p.7.u.e.u.u.7.e.e.e.e.e.9.7.e.4.,.4.>.7.6.>.,.7.,.e.>.;.;.;.-.&.:.&.;.-.;.;.;.,.e.e.e.p.p.a.u.u.a.r.a.r.p.a.h.i.h.i.p.h.i.h.p.u.h.u.i.i.a.p.a.p.p.h.h.h.i.h.a.h.a.h.a.h.h.k.p.h.h.h.h.p.k.p.h.h.p.h.k.p.h.h.p.h.h.h.h.p.h.h.u.h.h.h.h.h.",
"h.h.h.a.l.j.k.l.k.h.a.h.h.h.h.k.h.h.h.h.a.h.h.p.h.h.h.p.a.h.h.p.a.a.a.f.a.f.a.a.t.t.p.r.r.p.a.l.a.l.g.l.d.l.d.l.a.g.l.g.a.p.r.e.4.r.4.4.r.4.2.>.-.3.3.2.3.3.-.>.>.3.3.3.3.3.3.3.>.>.>.3.:.3.:.2.>.,.>.;.>.>.>.e.4.4.4.4.u.4.u.4.3.3.3.>.>.>.>.>.6.>.>.>.>.>.>.3.3.>.3.3.3.>.>.9.9.3.3.3.3.4.9.4.>.e.e.e.4.e.,.,.4.,.,.e.e.>.>.>.3.%.%.3.>.>.;.@.&.;.:.>.-.>.>.6.>.>.>.3.3.-.*.&.*.*.>.3.>.3.>.>.>.>.:.=.*.>.>.:.3.:.*.:.:.=.&.&.>.*.*.&.&.&.&.&.*.| | | | &.:.*.3.3.%.%.%.:.4.4.4.4.3.3.4.3.3.3.3.:.-.>.3.>.>.:.:.-.:.*.&.*.*.&.&.&.:.&.&.&.%.&.%.[ %.%.%.[ [ %.%.%.&.;.&.*.*.*.%.%.[ %.%.%.%.%.` | | ` ` | | ` ` &.e.s.r.s.r.9.0.r.4.0.4.r.s.i.r.4.s.s.s.s.i.r.u.r.p.a.t.t.e.p.p.e.a.r.r.p.y.r.p.r.r.a.a.r.e.a.a.a.y.a.a.a.a.y.p.p.a.a.a.a.a.a.a.a.a.r.y.r.r.r.t.u.t.u.p.a.p.y.p.r.r.t.4.i.r.4.u.r.e.t.e.e.e.e.4.r.e.u.e.e.e.e.r.r.e.e.e.e.7.e.e.e.4.4.e.e.e.e.4.4.>.,.3.7.>.>.;.;.-.;.;.=.;.-.-.,.,.e.e.e.e.u.u.u.u.a.u.i.a.i.h.i.p.p.i.h.h.p.i.p.h.i.i.h.u.u.,.h.u.h.u.h.h.h.h.h.h.p.h.h.h.h.h.p.k.k.k.p.p.p.p.p.p.k.p.k.p.k.h.p.h.h.h.h.k.p.u.h.h.h.h.h.h.h.",
"h.a.h.l.a.j.h.a.h.h.h.k.h.a.a.h.k.a.a.h.a.h.k.a.h.h.a.a.h.h.a.a.a.p.a.a.a.f.a.a.y.p.r.t.y.a.a.f.f.a.a.a.g.d.l.j.l.l.l.d.a.r.e.e.r.r.4.r.4.4.3.-.>.>.>.9.3.3.3.>.3.3.3.3.3.3.3.3.3.3.3.>.3.3.3.:.>.>.>.>.,.>.4.7.4.4.4.4.4.4.4.4.9.4.3.3.>.9.9.>.3.>.9.3.9.3.9.4.3.9.>.>.>.3.3.3.3.3.e.3.e.3.e.9.e.>.e.t.e.e.e.,.7.e.e.e.e.9.7.>.3.3.%.3.;.-.;.=.&.&.:.6.6.>.>.;.:.-.>.>.>.>.:.-.>.>.3.3.>.-.:.-.-.:.:.-.*.>.>.>.:.&.-.:.>.>.*.>.| &.*.>.:.:.=.&.=.%.&.*.*.*.&.| L [ [ [ %.3.4.4.4.4.4.4.4.4.3.3.e.4.3.>.>.>.:.-.*.&.=.&.*.*.>.>.%.3.:.%.L { %.L &.[ L %.{ [ [ [ L [ %.%.%.%.%.*.2.3.1.3.%.[ ` L ` | { [ ` ` _ K 2.4.r.r.r.r.0.r.0.4.4.0.s.4.4.s.s.i.i.i.i.4.s.4.r.r.a.a.p.e.e.p.g.e.r.r.r.y.r.p.y.r.r.a.r.r.r.a.y.r.a.a.a.a.p.a.y.y.r.a.a.a.a.a.a.a.r.a.p.a.r.e.t.7.7.t.p.p.y.e.r.r.t.e.r.u.r.r.u.r.u.e.e.p.u.u.r.r.u.e.u.e.e.u.t.e.e.e.u.e.e.e.e.7.>.7.,.>.>.e.>.e.e.e.e.>.>.>.>.-.;.-.>.;.>.6.,.e.t.r.u.e.e.u.u.e.r.u.r.a.i.a.i.i.h.i.i.p.i.i.h.p.p.i.i.i.p.p.h.u.h.u.h.h.p.h.p.h.h.h.p.p.h.h.h.k.k.k.k.k.p.p.p.p.p.p.p.p.k.k.h.h.h.k.p.h.h.h.u.h.h.h.h.h.h.h.",
"a.h.a.j.h.a.j.h.h.h.a.a.h.a.h.l.h.h.h.h.h.h.h.h.h.a.h.h.h.h.p.a.p.p.a.a.a.a.a.p.p.p.p.p.p.p.a.p.a.h.h.l.l.l.l.g.l.l.a.p.p.r.u.e.e.4.4.r.4.4.3.3.>.3.3.3.9.9.9.9.3.4.3.3.4.3.>.3.3.4.3.>.4.:.>.>.>.,.>.>.,.,.e.9.4.4.u.4.4.u.4.4.9.9.3.3.9.>.>.>.3.3.3.>.>.e.9.3.4.3.>.3.3.3.3.3.9.3.e.3.3.3.9.e.e.e.e.e.7.7.e.e.e.e.e.7.e.7.9.7.4.;.4.3.>.6.>.>.-.-.6.e.e.e.>.>.>.3.3.3.3.3.3.3.e.9.3.3.3.-.>.-.3.>.>.*.&.&.+.| &.=.-.&.=.*.:.*.*.&.&.| | | =.:.%.| | &.>.3.3.3.4.4.3.3.4.4.3.:.4.4.4.4.4.4.3.3.>.-.:.*.-.3.:.>.3.*.&.| &.&.&.&.3.%.%.3.3.[ L | [ | L %.{ 3.{ { ;.&.&.&.&.;.2.4.%.%.%.| [ ` [ } &.| K J K | -.r.r.r.r.e.0.e.r.r.4.0.0.0.4.s.0.y.i.s.s.4.r.s.i.s.y.a.a.y.e.9.6.7.>.3.a.a.a.g.9.9.a.r.r.a.p.r.p.a.r.a.a.a.a.a.a.r.a.a.a.a.a.a.a.a.d.a.r.r.p.a.y.t.p.t.u.u.t.t.t.e.e.4.4.e.4.r.r.4.e.u.u.r.u.4.e.e.u.u.r.u.e.u.e.e.e.e.e.e.u.e.e.e.e.,.,.>.>.>.>.>.>.6.4.7.6.e.t.e.3.>.-.>.e.e.e.e.u.r.u.u.t.r.u.e.e.e.r.u.a.a.a.i.p.a.i.h.p.h.h.i.i.i.i.p.p.p.h.i.h.h.h.h.u.h.h.h.h.u.h.p.h.h.p.h.k.k.k.k.p.p.p.p.p.p.k.p.p.p.p.k.h.h.h.p.h.h.p.k.h.h.h.h.h.u.u.h.",
"a.h.h.h.j.h.a.k.a.k.h.h.h.h.h.a.h.k.p.h.a.h.a.h.h.h.j.h.h.a.h.a.p.t.y.a.y.a.p.p.p.p.t.y.t.y.p.u.a.a.d.d.d.j.l.l.l.a.a.u.r.u.u.u.e.4.u.e.4.3.3.3.>.3.3.3.9.9.9.9.e.4.4.4.4.4.4.4.4.>.4.>.:.4.>.>.;.>.>.,.9.e.,.e.i.4.4.4.4.4.4.4.e.e.e.e.3.3.>.3.3.>.>.3.>.3.3.4.9.3.3.3.4.>.3.>.3.3.>.e.e.e.9.e.e.e.7.e.e.e.e.e.e.e.e.e.e.e.7.e.4.3.3.3.>.e.6.6.e.7.9.9.6.6.e.e.3.9.9.e.e.3.e.r.e.e.e.9.3.3.>.:.:.>.3.>.-.>.>.3.&.-.:.&.%.-.*.&.&.=.*.>.:.&.| | { | | | &.:.*.*.3.3.4.4.4.4.4.4.4.4.4.4.3.4.3.3.3.>.>.>.-.*.&.%.*.&.&.&.&.=.&.| %.&.:.L L { %.[ [ 4.i.h.[ [ [ *.L %.%.%.%.%.&.2.3.[ [ [ [ | 2.3.=.>.e.d.l.a.e.9.4.e.0.0.r.r.r.e.4.4.0.e.s.s.0.y.s.s.4.s.s.i.s.s.y.0.9.3.>.-.>.-.-.9.t.-.5.y.t.a.u.y.a.p.r.a.y.a.a.r.r.a.a.a.a.a.a.d.a.a.d.a.d.a.d.a.a.r.a.r.a.a.p.p.p.a.a.p.p.p.e.t.e.e.4.r.r.r.e.u.r.r.4.,.,.,.r.4.4.i.e.4.4.e.e.,.e.7.7.e.e.e.e.e.e.,.7.,.e.7.e.6.>.>.>.>.7.e.e.>.;.6.e.e.e.t.u.r.e.r.u.u.r.u.e.e.r.r.u.a.a.a.h.i.i.h.p.i.p.u.i.h.h.u.h.i.h.i.,.h.h.u.h.h.u.h.u.h.h.h.p.h.h.p.h.p.k.p.p.p.p.p.p.k.p.p.k.p.p.k.h.p.h.k.p.p.h.h.h.u.h.u.h.h.h.h.",
"k.h.a.k.h.j.h.a.l.a.h.a.a.a.h.l.h.h.a.a.h.a.a.h.a.h.h.j.h.h.i.i.r.y.t.u.p.p.t.p.y.p.p.p.y.r.u.u.a.a.a.a.d.d.d.d.a.a.p.r.u.t.p.u.4.e.e.r.e.3.>.4.3.3.3.3.3.9.9.9.4.4.4.4.4.3.3.>.>.>.>.4.:.4.>.,.7.>.7.e.>.e.e.e.e.7.e.7.4.4.4.4.e.9.e.9.e.3.9.>.>.>.3.>.6.3.>.3.3.3.3.3.3.3.3.9.3.3.3.9.9.e.e.9.e.e.7.,.6.e.7.e.7.e.e.7.7.t.7.6.4.4.4.,.e.e.e.e.7.e.6.6.6.7.e.e.e.e.3.3.3.3.3.3.3.3.4.3.3.>.>.:.*.>.>.*.&.&.&.&.&.&.&.&.=.>.*.+.| | +.&.*.&.| ` { &.&.&.-.*.*.3.:.3.4.4.4.3.3.4.3.4.3.4.4.4.4.3.-.;.>.:.-.*.&.&.` { | *.3.3.3.3.3.%.&.&.%.L %.d.4.d.4.d.4.d.3.| ;.3.4.j.d.e.3.3.4.4.0.0.4.0.4.0.3.3.3.9.0.3.2.3.2.2.3.e.s.r.r.0.0.0.0.r.r.s.0.s.4.s.4.s.s.4.w.0.9.2.=.=.=.=.+.] @.-.9.-.=.6.9.f.y.r.p.r.e.y.r.r.r.a.a.a.a.a.a.a.a.a.l.g.d.a.d.a.a.a.a.e.r.a.a.a.a.a.p.f.f.a.a.a.a.p.a.r.r.r.r.i.4.r.i.4.4.,.,.4.4.4.u.4.e.4.e.e.e.e.e.4.e.e.e.7.e.e.,.4.e.>.e.7.e.9.>.>.-.-.;.-.>.>.6.7.0.e.e.r.r.r.e.r.e.p.u.u.r.r.p.u.a.i.a.a.i.i.p.h.i.i.h.h.h.p.i.u.i.i.p.h.h.h.h.h.h.h.u.h.u.u.h.h.h.h.p.h.p.p.p.k.p.p.p.p.p.p.p.p.p.p.p.p.p.h.p.p.p.p.p.p.p.p.p.p.p.h.h.p.",
"a.h.h.h.h.k.h.j.h.h.h.h.k.h.a.h.h.h.h.h.a.h.h.h.h.h.j.a.h.p.p.a.p.p.y.p.p.y.p.r.y.r.t.t.t.r.u.e.p.p.p.p.a.a.p.a.p.u.r.u.p.p.p.u.e.e.e.4.4.>.3.>.9.3.3.9.3.9.3.3.4.e.4.3.4.4.4.>.,.>.3.:.:.3.3.4.7.7.6.7.e.7.7.7.7.e.7.e.4.u.4.4.e.e.e.9.9.9.>.3.>.>.>.>.>.>.3.3.>.9.9.>.3.9.3.3.e.e.e.9.e.9.9.e.e.7.e.6.e.7.e.e.e.7.7.e.e.7.e.e.4.4.4.4.e.6.7.e.7.>.9.7.e.e.9.e.9.3.3.>.3.:.&.*.:.-.3.3.-.:.-.>.>.3.-.&.{ ` _ K | | | | &.*.&.&.*.&.+.| &.*.-.3.` &.{ E { %.-.3.4.i.i.4.4.4.3.3.:.:.3.4.4.4.4.3.&.;.&.&.&.&.| { | | :.3.e.e.e.3.4.4.4.3.:.4.4.4.3.i.4.d.4.d.4.a.4.h.i.i.r.r.4.4.2.2.3.3.2.3.2.1.3.3.3.0.r.e.e.r.3.3.3.4.r.w.0.e.e.0.0.r.w.r.y.y.s.4.s.i.s.s.0.0.9.-.@.-.@.+.' G E ' $.-.9.-.@.s.a.a.a.a.a.y.p.r.a.a.y.a.y.a.a.a.a.a.a.a.a.d.a.a.a.a.y.a.a.a.a.a.t.a.a.f.f.a.a.f.a.a.p.u.r.r.r.r.i.r.i.r.u.4.4.e.r.4.r.4.u.u.u.u.u.e.e.t.e.u.e.e.e.7.7.e.e.e.e.e.6.7.9.e.,.>.-.;.>.6.7.e.e.e.e.a.u.u.r.r.u.u.u.r.u.y.a.a.a.a.i.a.i.h.i.i.h.p.i.i.i.p.h.h.h.i.a.a.p.h.u.h.u.u.h.u.h.h.p.h.h.p.h.p.p.p.p.p.p.p.p.p.k.p.p.p.p.p.p.p.p.p.h.p.p.p.p.p.p.p.p.p.p.p.p.h.",
"p.h.a.a.h.a.a.h.h.a.h.h.a.h.h.j.h.a.a.h.h.h.a.h.a.h.h.a.h.i.i.h.a.y.y.t.y.t.y.t.r.t.r.t.t.e.t.t.r.r.y.u.u.p.p.y.y.u.u.r.u.r.p.y.r.e.e.4.>.3.9.>.9.3.3.3.3.3.6.9.3.3.4.4.3.4.>.4.>.>.4.3.4.4.4.4.,.e.e.,.7.e.,.7.e.e.7.e.u.u.u.4.e.e.e.9.9.3.>.>.3.>.3.>.>.9.>.3.>.9.3.>.3.3.4.9.e.e.e.e.9.e.e.9.e.e.7.t.7.e.e.7.e.7.e.6.e.e.e.7.4.4.4.u.6.6.9.9.e.e.e.e.e.e.7.e.3.>.>.>.>.:.-.%.&.-.=.&.&.*.:.>.>.>.:.&.*.*.&.| { | %.&.| { | &.&.>.e.a.a.r.r.e.a.l.0.&.>.3.e.d.4.4.4.4.4.4.4.4.3.:.3.:.3.3.3.:.-.-.&.&.%.| { | 3.3.e.e.9.>.>.>.4.3.3.4.j.d.4.3.i.s.4.4.4.i.4.4.j.j.4.4.4.4.0.r.e.r.y.4.3.0.y.0.0.9.9.3.3.3.3.3.e.3.3.0.r.r.r.r.r.0.r.0.r.y.y.0.s.s.a.s.4.4.4.4.2.9.5.5.-.=.+.Q +.+.] ] X.+.+.a.a.d.d.a.d.d.a.e.a.a.s.a.a.d.a.d.a.g.g.a.d.a.a.d.a.a.y.y.t.a.a.a.a.a.f.a.a.a.f.a.a.a.u.r.r.r.e.e.i.i.i.i.i.i.a.i.i.r.4.r.u.4.u.u.t.e.e.e.u.u.u.r.e.4.7.e.e.e.7.4.>.6.9.e.e.e.e.,.>.>.>.e.r.r.y.a.p.a.i.u.u.r.u.r.u.a.i.a.i.i.a.u.h.i.p.h.u.i.i.u.h.i.h.u.h.i.h.i.h.u.h.h.h.u.h.u.u.h.h.h.h.h.h.p.k.k.p.p.k.p.p.p.p.p.p.p.p.p.p.p.h.p.p.p.p.p.p.p.p.p.p.u.p.p.p.p.",
"u.p.a.a.h.a.h.a.l.h.a.h.k.h.a.h.h.h.h.h.a.h.h.h.h.h.h.a.p.i.i.p.p.a.y.y.r.r.r.r.r.r.e.e.e.t.t.e.r.r.r.u.y.p.p.p.r.p.p.u.e.r.u.p.r.e.3.>.,.>.>.>.3.3.2.9.3.3.e.e.4.4.4.3.3.>.,.>.4.>.,.4.4.4.4.4.e.7.e.>.4.7.,.,.e.7.e.e.,.4.4.4.>.9.4.e.e.4.e.>.>.>.3.>.>.>.3.4.>.>.>.3.>.e.9.9.e.9.e.9.e.e.e.>.3.7.,.>.7.6.7.>.e.e.7.e.7.e.e.e.4.4.4.4.e.e.7.e.9.6.6.e.6.6.6.>.>.>.*.>.3.3.&.| &.*.&.%.| &.*.3.:.*.=.&.&.=.&.| &.&.>.3.&.` [ =.&.>.a.a.r.9.9.e.e.a.e.3.r.a.9.e.a.i.i.4.i.i.4.4.:.4.:.3.:.3.%.%.%.{ [ %.-.>.e.r.3.e.e.3.>.>.3.e.4.4.4.h.4.i.i.i.4.i.a.i.4.r.s.d.4.h.4.i.r.r.e.4.4.0.0.3.2.0.4.4.9.e.e.0.0.r.0.0.e.3.0.e.y.e.0.0.r.0.0.r.r.w.y.s.4.s.4.s.s.4.4.4.-.2.-.-.-.0.0.9.-.t.9.' ] -...=.a.s.a.a.a.a.y.9.a.d.a.a.a.a.a.d.a.a.a.g.a.a.a.a.r.r.a.u.a.a.a.a.a.a.f.f.f.a.a.k.a.a.a.a.i.i.r.i.s.i.i.i.i.i.u.u.i.i.i.r.u.u.4.e.e.e.e.e.r.e.u.t.t.r.e.e.e.7.e.4.e.9.>.6.>.>.,.e.>.>.>.9.r.y.r.p.r.r.r.p.u.a.u.p.r.u.r.r.i.a.i.a.u.u.h.i.h.u.h.h.i.h.u.h.u.h.u.h.u.h.u.u.h.h.p.h.p.u.p.u.h.p.p.p.p.p.p.k.p.p.p.p.p.p.7.p.p.p.p.p.p.p.p.p.p.h.p.p.p.p.p.p.7.u.p.p.",
"u.u.p.h.a.h.h.h.l.h.a.a.h.j.l.k.h.h.k.h.a.h.h.p.h.p.p.p.p.a.i.p.u.t.u.r.r.p.t.p.u.t.u.e.t.e.t.u.t.u.t.e.t.e.u.t.u.t.t.u.u.t.u.p.r.e.>.>.6.6.3.>.e.9.>.e.e.3.>.9.>.e.e.>.3.7.3.>.>.e.>.e.e.e.7.e.>.e.e.>.>.,.e.7.e.e.e.e.e.7.e.e.e.4.e.e.,.e.e.u.e.e.e.4.,.,.>.,.e.e.>.>.7.9.e.e.3.3.e.9.4.3.6.3.>.7.>.>.>.-.>.7.9.e.7.e.9.e.e.e.4.4.4.4.4.4.4.4.3.4.4.:.3.4.:.3.>.>.:.>.3.:.*.&.%.&.&.&.&.&.3.:.-.;.&.&.&.&.&.&.&.&.;.;.3.e.r.p.p.r.9.3.e.r.r.e.e.t.r.e.e.e.r.r.4.a.d.4.a.a.i.4.z.4.2.1.%.%.%.[ [ :.3.4.i.4.h.h.r.r.e.e.e.e.r.r.u.r.i.a.a.a.i.y.p.p.y.p.p.y.y.y.4.i.i.r.e.y.e.a.0.3.9.e.9.>.3.e.r.0.e.e.t.e.0.e.0.0.9.e.t.0.e.t.e.0.w.y.y.t.y.y.s.4.s.s.0.4.4.2.9.8.9.8.9.0.8.0.9.9.0.8.-.@.+.' ] y.p.y.a.y.t.9.a.a.a.a.s.g.a.a.a.a.a.a.g.d.d.a.a.a.r.y.r.a.a.d.k.a.a.f.a.f.a.k.a.p.p.a.a.p.a.p.i.a.a.i.a.r.r.r.r.r.u.r.r.r.e.e.e.e.e.e.e.7.e.e.7.e.e.e.e.7.,.>.3.>.>.e.9.>.9.6.6.>.6.e.p.p.t.u.u.r.u.u.r.u.a.r.u.p.p.u.u.p.p.p.u.h.i.h.i.i.h.u.h.u.p.u.p.h.p.h.p.u.p.h.p.h.p.p.p.p.p.p.k.p.k.h.a.p.p.p.t.u.u.u.u.u.u.u.r.p.p.p.p.p.p.u.p.p.p.p.u.u.u.p.u.7.p.7.",
"u.p.p.p.h.a.h.h.h.h.h.h.a.h.h.a.k.a.k.a.k.a.h.k.h.h.h.u.i.i.i.i.r.u.t.t.p.t.u.u.e.u.t.t.e.t.e.e.t.e.e.t.u.e.u.u.e.u.r.p.p.r.r.r.t.9.>.>.>.>.e.>.>.e.e.>.>.9.e.>.>.7.>.,.,.>.,.7.,.,.e.9.,.e.4.>.,.e.e.,.e.e.e.4.e.e.4.e.4.e.7.e.e.e.4.u.u.4.e.,.e.e.e.7.4.,.,.>.>.-.>.>.>.7.e.e.e.e.e.9.e.e.9.e.e.e.e.7.6.9.e.e.e.e.e.e.e.e.9.e.i.4.4.4.4.4.4.4.4.4.4.4.3.:.4.:.>.:.:.>.:.3.:.:.&.&.:.&.:.&.&.%.-.;.&.;.&.;.;.&.&.>.e.a.d.a.y.r.d.a.r.r.y.a.a.p.u.r.u.t.r.r.r.r.a.4.4.4.4.4.s.4.4.4.4.3.3.%.[ L 4.4.h.j.j.h.i.h.a.a.u.p.a.a.a.a.r.a.i.r.r.a.p.r.a.y.r.r.a.r.r.e.4.i.4.r.t.e.e.e.e.9.e.r.t.e.e.y.y.e.r.e.e.r.e.t.0.e.0.e.e.0.t.y.w.t.t.y.w.w.y.y.s.s.s.4.w.1.w.4.9.9.8.9.8.8.9.9.8.8.9.0.2.8.9.-.+.0.y.t.y.a.a.0.y.a.g.a.d.d.s.a.s.a.d.a.d.a.a.a.a.t.r.a.r.a.a.a.a.h.h.a.k.a.k.a.a.a.a.a.a.a.r.r.a.a.a.a.i.r.i.r.r.r.r.r.r.r.e.t.e.e.e.e.e.u.u.e.u.t.e.e.e.e.e.e.e.>.>.0.9.-.e.6.e.6.>.e.t.p.p.t.r.u.u.r.u.r.r.p.a.r.r.a.r.u.a.r.4.i.h.i.h.h.u.h.h.h.p.h.p.p.h.p.p.h.h.p.p.p.p.p.p.p.p.k.k.p.p.p.p.p.p.p.7.p.7.u.t.e.u.u.r.r.u.u.7.h.u.u.u.u.u.u.r.r.u.7.u.u.7.h.",
"u.u.a.a.p.h.a.a.h.a.a.h.h.a.h.h.k.f.h.k.k.h.a.h.p.a.u.u.i.i.u.u.r.t.r.p.y.p.t.u.u.t.t.e.7.u.u.t.t.u.7.e.u.t.t.u.u.u.t.u.p.t.r.e.e.e.>.>.e.6.3.6.3.6.>.6.>.6.9.>.,.>.>.,.>.e.,.>.e.>.,.e.e.6.,.4.7.e.7.e.e.t.e.,.e.7.e.e.e.e.e.e.7.e.e.e.u.7.4.e.7.e.e.e.e.e.>.,.;.>.>.>.9.e.e.e.r.r.r.r.r.r.e.e.e.e.e.e.e.9.7.e.>.e.e.e.e.e.e.9.4.4.4.4.4.4.4.3.:.4.3.3.:.4.:.4.:.:.*.:.:.3.:.:.&.&.:.:.:.:.%.&.-.;.;.&.;.-.;.;.e.e.r.p.a.a.a.u.a.a.a.r.r.p.r.r.u.u.r.r.r.r.r.p.4.4.4.4.4.4.4.4.4.4.4.3.L L %.3.i.i.i.i.i.i.i.a.l.a.a.a.a.a.a.a.p.a.r.a.a.r.r.a.r.r.y.r.e.y.y.e.4.e.r.r.e.e.e.9.a.e.=.+.-.>.9.a.e.a.e.a.a.e.y.e.e.9.9.t.0.t.t.w.t.t.t.e.t.t.y.s.s.s.s.w.4.3.2.w.8.9.0.8.9.8.8.9.9.8.9.0.9.9.0.8.+.>.0.a.y.w.a.t.w.a.a.a.a.d.g.a.a.a.a.d.a.a.a.a.r.a.a.r.a.a.a.a.j.a.a.d.a.l.h.a.a.p.a.a.a.a.p.a.a.a.a.i.r.r.i.r.u.r.r.r.u.e.u.e.e.t.e.e.e.e.t.e.e.u.u.u.e.t.e.9.9.9.>.9.:.:.9.e.6.6.6.t.y.a.p.p.p.y.p.p.p.p.u.p.p.r.u.p.a.r.y.p.h.h.h.h.h.h.h.h.h.7.h.p.p.p.h.h.p.p.p.h.k.p.p.p.p.p.p.p.p.p.p.p.p.t.u.7.u.t.u.e.7.e.e.e.r.r.u.u.u.y.u.u.t.e.t.u.r.u.u.u.p.p.h.7.",
"u.u.u.u.p.a.a.p.h.a.l.h.l.h.k.h.k.k.k.k.a.k.a.h.h.h.u.p.u.u.4.i.e.u.r.y.p.y.u.u.u.e.u.7.e.e.e.7.e.7.e.u.e.e.7.t.u.t.u.t.t.t.e.e.e.e.e.6.>.7.e.>.6.3.7.>.,.6.>.,.>.e.4.6.,.4.e.>.7.e.e.7.e.e.e.e.e.e.e.6.4.e.e.e.e.7.e.e.e.e.e.e.e.u.7.e.4.e.e.,.e.7.e.e.e.,.e.,.e.7.e.e.r.r.p.p.r.a.a.r.p.r.r.r.e.e.t.e.e.e.7.4.e.7.e.e.e.e.7.e.4.4.4.4.4.3.4.:.:.3.4.:.4.:.4.4.>.>.:.:.:.:.:.*.&.:.:.&.%.%.%.:.;.>.>.>.;.9.e.e.p.t.r.e.e.r.a.d.a.p.p.u.r.r.r.r.p.r.r.r.r.r.p.u.4.j.4.a.4.4.4.4.4.4.4.2.[ 3.4.i.i.i.i.i.a.a.j.j.a.a.a.a.a.a.a.i.a.a.a.a.a.a.a.r.a.p.r.y.y.y.t.e.e.r.e.r.r.t.e.e.e.y.>.>.a.r.-.e.t.e.r.t.y.y.r.0.q.e.q.e.0.r.t.y.t.t.t.0.0.r.w.a.s.4.s.w.3.w.0.4.0.8.0.8.9.0.9.8.0.9.0.0.-.8.0.-.-.-.0.s.y.t.g.y.t.s.s.a.a.a.g.g.d.d.d.a.a.d.a.y.a.r.a.r.r.a.r.a.a.l.l.a.l.a.a.f.d.a.a.a.a.u.u.a.r.a.i.a.d.i.i.i.p.r.r.r.r.r.r.u.e.u.e.e.e.u.e.e.u.e.e.t.r.e.4.e.>.9.9.>.=.=.7.9.e.>.6.r.a.a.p.p.p.r.i.u.p.r.r.u.r.a.u.r.i.u.p.u.h.4.u.i.u.u.h.u.p.h.p.p.p.p.u.u.p.h.p.p.p.p.p.h.p.p.k.p.p.p.p.p.t.p.u.7.u.7.e.t.u.e.e.t.e.u.r.r.r.r.u.u.u.u.e.u.t.u.t.u.p.7.h.7.",
"u.u.u.u.i.p.p.p.p.a.h.h.a.k.h.k.f.k.k.f.k.k.a.a.p.u.u.e.e.t.e.e.e.t.e.u.u.u.t.e.t.e.7.u.t.7.e.e.e.7.e.e.7.t.e.u.y.p.u.t.u.e.e.7.e.e.9.6.>.e.>.e.4.>.>.7.>.9.6.>.7.>.e.,.>.4.>.e.e.4.e.e.e.e.e.7.e.e.e.e.,.,.e.r.e.e.r.r.e.e.e.e.e.e.e.e.e.e.7.4.e.7.4.4.,.e.e.r.r.r.r.a.p.a.u.a.r.a.a.a.i.i.r.r.p.r.r.a.u.r.r.r.e.e.e.e.4.e.4.e.4.4.4.4.4.:.3.4.3.4.:.4.:.4.:.:.4.4.>.:.:.:.:.:.:.&.:.&.%.&.&.:.;.>.e.,.>.e.r.r.r.u.a.a.a.a.y.r.r.y.p.a.y.u.p.r.r.r.r.r.r.r.r.r.i.4.4.4.i.4.4.4.4.4.d.4.4.4.d.d.j.d.d.a.j.d.a.a.a.a.a.a.d.a.a.a.a.a.a.r.a.a.r.a.r.y.r.r.y.r.e.e.r.r.e.e.e.t.y.y.9.d.t.y.l.a.6.e.t.r.y.y.a.y.y.e.e.q.e.t.0.t.y.t.y.t.t.0.e.e.y.s.s.0.4.4.3.4.4.2.8.9.8.0.0.8.0.8.8.9.8.9.3.0.9.-.5.>.9.s.a.q.g.y.e.s.d.a.y.a.g.g.d.d.a.a.d.a.a.r.r.a.a.r.r.a.r.a.a.f.h.h.l.a.a.a.a.j.a.a.a.u.a.r.a.a.a.a.r.a.r.r.u.y.r.r.u.u.r.t.e.r.e.e.t.e.e.e.e.r.e.u.e.e.e.7.>.9.3.>.-.+.6.6.e.>.7.e.y.a.a.p.p.a.r.r.p.p.u.r.p.r.t.e.u.u.p.a.i.u.i.i.h.h.h.u.p.h.p.h.k.p.p.p.p.p.p.p.p.k.p.p.k.p.p.p.p.p.7.p.7.7.p.t.u.7.u.u.7.e.e.7.e.u.e.u.u.r.e.u.e.e.e.u.t.u.p.p.p.p.p.p.",
"u.r.a.u.i.u.u.i.t.r.u.p.a.a.a.a.a.a.a.k.a.a.p.a.u.u.t.e.e.u.u.r.t.u.u.u.t.u.u.t.t.e.e.t.u.7.u.t.t.u.u.7.e.u.t.u.y.y.p.u.t.u.t.t.e.e.9.7.7.>.e.>.>.e.6.>.6.>.>.6.e.4.>.e.e.4.e.,.e.7.e.6.7.e.4.e.7.e.e.e.,.>.7.r.u.u.e.e.e.t.e.e.7.e.,.e.7.e.e.e.e.,.,.,.e.e.r.r.r.r.a.r.a.y.a.r.d.r.a.r.i.i.i.r.a.r.a.p.p.p.p.r.r.r.e.e.e.e.e.4.4.4.4.4.4.:.3.:.3.:.:.3.3.4.4.4.4.3.3.3.3.:.:.:.3.3.:.%.%.%.&.&.-.>.e.7.e.r.u.r.r.r.p.a.a.a.a.r.r.r.u.y.u.r.a.a.r.r.p.u.y.r.r.r.s.i.4.4.4.4.4.4.4.4.4.d.z.z.4.4.a.i.i.d.a.a.i.r.a.a.a.a.j.d.d.a.a.a.a.i.p.y.a.r.a.r.e.r.y.e.e.e.r.r.e.e.e.e.r.r.e.p.e.9.e.e.e.f.e.e.e.a.e.r.t.0.t.e.0.y.0.t.e.t.0.t.t.0.0.e.w.y.s.4.2.2.3.3.2.2.-.5.2.8.9.9.0.0.0.8.0.8.2.8.8.$.6.9.9.a.a.t.s.t.a.a.a.s.a.s.a.s.d.a.a.d.a.d.a.a.r.r.r.a.a.r.a.p.a.a.a.a.a.k.a.a.a.a.a.a.a.a.p.a.a.r.r.a.a.r.a.r.r.u.p.r.r.t.u.e.u.e.e.t.e.u.e.u.e.t.e.t.e.u.e.e.>.0.3.9.:.&.e.>.e.7.6.t.y.p.y.a.u.u.y.p.u.u.r.u.u.r.u.u.u.u.i.p.i.h.u.h.u.u.h.i.h.p.h.p.p.p.k.p.p.k.p.p.p.p.p.k.p.p.p.p.7.7.p.p.p.p.p.7.u.p.u.7.u.u.t.u.u.e.u.u.u.r.r.r.u.e.t.u.u.t.p.7.u.7.t.t.",
"a.r.r.u.u.r.u.i.r.r.r.u.p.p.p.p.p.p.p.p.p.p.p.p.u.u.e.e.u.e.r.u.e.u.t.u.u.t.u.e.t.u.u.e.e.e.t.e.u.e.e.e.t.u.u.e.p.y.t.u.t.u.e.e.e.e.e.6.3.9.9.e.e.>.>.e.e.>.6.>.>.e.e.,.4.7.7.e.e.e.e.e.e.e.e.e.e.e.e.e.e.e.e.r.u.e.e.e.e.e.e.e.,.e.e.7.,.u.e.7.e.e.,.e.e.r.a.a.a.p.a.a.r.a.r.a.r.a.r.a.a.r.i.i.r.r.r.y.a.a.p.y.a.r.r.r.e.e.r.r.4.4.4.4.4.3.4.:.3.4.4.4.3.:.3.4.>.>.:.:.:.:.:.*.:.:.:.&.&.&.&.:.;.>.e.e.e.p.p.r.r.r.r.r.e.y.a.a.r.r.r.r.r.r.r.p.r.r.p.y.r.r.a.e.4.4.4.s.i.4.4.4.4.s.s.4.d.4.4.d.a.d.d.j.j.d.j.j.d.a.a.a.a.j.d.a.d.a.a.a.a.a.y.a.a.y.y.y.e.e.t.e.r.0.e.e.t.e.a.y.e.y.a.a.a.a.y.r.r.y.y.y.t.r.e.y.y.t.t.e.y.y.0.0.0.t.e.w.0.0.r.0.s.0.0.3.3.2.2.&.-.1.-.8.8.8.8.0.0.8.8.9.8.8.-.+.-.9.6.t.y.y.s.a.s.a.a.y.y.a.a.a.a.a.a.a.a.a.a.y.p.y.p.a.a.r.a.r.p.a.a.a.h.a.a.a.a.a.p.p.a.u.p.a.r.i.i.a.a.a.r.a.p.y.u.r.u.t.u.u.e.r.u.e.e.e.t.e.u.r.r.r.u.e.e.e.9.9.9.9.;.&.e.>.e.6.7.e.y.p.p.f.p.a.a.p.a.r.r.u.r.r.u.t.u.u.p.p.u.u.i.i.i.i.i.h.p.k.p.k.k.7.p.p.k.p.p.k.p.p.p.k.p.p.p.7.p.p.7.p.u.p.p.7.p.7.e.u.p.e.e.e.t.e.r.r.p.u.r.e.e.e.u.t.t.e.t.t.t.p.p.t.",
"p.y.a.u.u.u.u.r.p.u.u.r.y.r.u.p.p.p.t.p.p.t.p.p.p.e.e.e.u.u.u.u.u.e.t.t.t.u.u.t.u.u.t.u.t.u.e.t.t.t.u.t.t.e.u.t.y.u.p.p.u.t.u.u.e.e.e.e.e.>.7.9.6.e.e.>.>.e.>.e.>.,.>.e.,.e.e.e.,.e.e.4.e.e.e.e.7.,.7.u.u.e.t.r.e.u.e.e.e.7.4.,.4.,.4.,.e.4.e.u.7.e.e.r.u.u.a.a.a.a.a.a.r.r.a.r.a.r.a.r.r.a.i.i.a.p.r.r.a.a.a.a.a.a.p.p.u.r.u.u.4.3.4.3.:.3.3.4.4.:.4.3.4.4.:.4.3.4.4.>.:.:.:.*.:.&.:.:.:.%.:.:.*.7.r.r.r.p.a.r.r.u.p.p.a.a.y.a.p.p.r.r.r.a.r.r.p.p.r.a.a.a.r.t.s.i.i.4.s.4.s.s.4.s.4.d.d.d.s.d.a.a.d.d.d.d.d.d.l.l.l.d.g.l.d.d.j.d.d.d.d.a.a.d.a.a.a.p.a.a.y.e.r.a.r.y.a.t.a.a.a.y.y.y.e.y.a.e.a.y.a.a.e.a.y.y.y.y.t.t.0.e.0.t.0.0.t.e.0.4.0.r.s.w.w.4.2.2.2.1.-.-.-.-.-.8.8.8.9.8.0.8.9.8.8.@.-.9.5.0.s.a.y.t.s.a.y.e.y.a.a.t.t.a.e.y.a.a.a.a.a.r.a.r.r.a.r.r.p.a.a.a.a.a.a.a.a.a.a.p.p.u.a.a.i.s.a.i.r.r.a.r.p.p.r.u.u.r.r.r.r.u.e.e.e.u.r.r.u.u.u.r.u.r.r.e.9.e.3.>.=.=.9.>.e.7.6.e.p.p.p.p.a.p.r.p.u.r.u.r.r.r.t.u.u.p.p.a.h.u.u.u.h.u.h.u.p.p.k.k.7.k.p.p.p.p.p.p.p.p.k.p.p.p.p.p.p.p.p.p.7.7.t.p.e.p.7.7.e.u.p.e.r.u.r.u.u.r.r.r.u.u.u.u.t.u.t.t.p.t.y.p.",
"p.p.p.y.p.r.r.r.t.e.u.t.r.t.u.u.p.p.t.7.u.t.u.u.7.e.u.t.r.e.e.e.u.u.e.u.u.u.t.t.t.e.u.t.u.t.t.u.r.r.e.r.t.r.p.p.r.r.u.t.p.t.u.t.e.e.e.9.6.e.e.9.e.>.9.7.6.>.e.>.e.>.>.r.e.e.7.e.,.r.t.4.,.r.r.,.e.e.r.t.r.r.t.7.e.r.t.e.e.7.e.e.u.e.,.,.4.e.e.r.r.e.u.u.a.a.a.u.a.a.a.a.a.i.a.a.i.a.i.i.i.i.h.a.a.i.a.a.a.a.i.i.a.i.a.i.i.i.4.4.4.4.4.3.4.4.3.3.4.4.3.4.4.4.3.:.4.:.3.:.:.3.3.:.:.&.:.&.:.:.:.:.e.e.u.u.u.r.r.r.r.r.a.r.r.d.a.r.a.r.u.r.r.r.r.p.t.y.y.y.p.a.e.a.i.i.i.s.4.4.s.i.s.s.4.d.s.s.d.d.a.a.d.d.d.g.j.d.d.d.d.d.d.d.g.d.d.d.d.a.d.a.a.d.a.d.a.y.t.e.e.0.e.r.y.y.t.y.a.d.a.y.y.r.y.p.a.a.r.y.a.r.y.r.e.r.a.t.y.y.w.y.w.y.t.t.q.t.t.e.0.9.y.y.0.9.2.2.2.2.$.8.8.@.+.2.8.8.8.0.8.8.w.8.-.$.9.-.9.t.s.y.y.y.a.a.a.a.y.a.a.a.a.y.a.a.a.y.a.a.e.a.r.a.a.a.y.y.a.p.a.p.a.a.u.a.y.a.p.a.p.a.a.r.a.a.r.a.r.a.r.a.p.a.p.r.r.r.u.r.r.u.r.u.r.p.u.r.e.r.r.r.u.e.r.e.e.>.9.y.{ ;.e.>.e.7.,.,.t.u.p.p.p.y.p.p.i.y.y.p.r.u.u.r.r.u.r.u.i.i.i.h.a.a.h.d.a.a.a.a.p.p.a.p.k.p.p.p.k.p.p.p.p.p.7.p.p.7.p.7.p.p.7.p.7.7.u.t.e.u.u.e.e.u.u.a.e.e.r.t.e.t.r.r.u.p.y.t.t.p.p.y.",
"a.y.p.p.y.p.t.u.t.e.t.u.u.u.r.t.t.p.p.p.u.u.t.t.e.t.t.u.e.e.u.r.t.t.t.u.u.t.u.e.u.u.u.u.u.e.u.u.t.u.t.y.t.r.u.u.t.u.r.r.r.r.t.7.r.y.e.>.-.>.>.e.>.e.>.>.e.e.>.e.e.e.,.e.e.>.>.e.e.,.4.u.t.>.4.r.r.e.u.e.r.r.e.e.e.e.u.u.r.e.e.e.e.,.4.,.r.r.u.p.r.r.u.u.a.a.a.r.a.a.a.y.a.i.a.i.i.a.i.i.i.i.i.i.a.a.a.a.i.a.a.i.a.i.a.i.h.4.i.4.4.4.4.3.4.3.3.3.3.4.3.:.3.3.4.:.3.3.3.3.:.:.%.:.:.:.&.:.3.:.3.3.t.r.r.u.r.r.r.r.r.a.r.r.r.i.a.a.p.p.y.r.p.r.r.a.a.y.p.a.r.a.a.y.s.a.s.i.s.i.a.4.4.d.4.s.d.4.4.d.d.a.a.d.d.d.l.l.d.l.j.l.l.l.l.l.l.l.g.d.d.d.d.d.a.y.y.a.y.a.a.y.e.t.e.r.r.a.y.s.y.r.r.r.y.u.e.a.a.y.r.y.a.y.y.y.e.y.0.y.t.y.t.t.t.t.e.0.y.w.0.9.0.r.0.2.2.2.2.2.2.8.2.$.@.2.8.0.0.8.w.8.8.0.1.+.0.9.0.t.y.y.y.y.s.a.a.s.a.s.s.a.a.a.a.a.a.a.e.a.r.e.a.a.a.a.p.e.a.a.a.p.p.a.a.a.a.a.a.a.a.y.p.r.r.r.a.r.y.p.r.u.r.r.r.p.r.r.r.r.r.r.r.u.r.r.t.u.e.r.r.r.r.r.t.e.r.9.>.e.{ &.e.e.e.7.,.e.e.u.p.a.p.p.u.u.p.u.p.r.u.u.t.r.r.r.p.r.h.i.h.i.p.p.p.p.p.p.a.p.a.a.p.a.p.k.p.k.p.p.p.p.p.p.7.p.p.p.p.p.p.p.t.p.p.p.t.u.u.t.t.e.e.u.r.u.d.a.d.a.u.t.e.e.>.6.t.p.f.f.f.t.",
"p.p.y.r.u.p.p.y.y.p.e.u.r.t.u.u.t.p.t.p.t.7.7.u.t.7.e.u.e.r.e.e.e.u.u.u.t.u.u.t.e.u.u.t.u.u.t.u.t.u.a.p.u.t.t.t.u.p.y.r.u.t.u.e.e.t.e.:.&.>.6.7.>.6.>.e.>.e.e.6.,.,.e.7.7.e.e.t.t.e.e.u.e.>.e.p.r.r.u.u.t.u.r.e.e.r.r.u.e.e.e.e.4.e.e.u.u.a.a.a.a.r.r.u.a.i.a.i.a.a.p.a.i.i.i.h.a.a.i.r.4.j.j.j.a.a.a.a.h.i.i.h.a.i.i.a.4.h.h.i.4.4.3.3.4.4.4.3.3.3.4.:.4.4.3.3.:.4.3.%.%.:.%.3.&.:.:.:.4.4.4.4.r.r.u.r.r.t.u.p.r.p.a.a.a.a.r.r.a.a.r.r.p.u.r.a.a.a.y.a.a.a.a.a.s.i.i.s.a.i.i.s.d.4.j.s.s.d.d.s.a.a.j.d.g.l.l.l.g.l.l.l.l.g.l.l.l.l.d.l.d.g.a.d.a.a.y.a.a.y.e.e.e.t.y.y.a.r.y.a.r.r.r.r.y.r.y.t.a.t.y.a.r.y.a.y.y.y.y.0.y.y.y.t.y.t.w.t.t.t.0.9.0.0.0.3.3.2.2.2.-.8.8.$.$.-.8.w.w.0.8.0.w.w.5.+.9.9.t.t.y.y.a.s.a.a.a.y.a.a.a.a.a.a.a.a.a.a.a.a.a.r.p.a.r.y.e.a.p.a.a.a.a.a.a.p.a.a.a.a.p.p.a.a.a.a.r.a.p.p.y.u.r.y.u.r.r.r.r.u.u.r.r.u.r.u.r.r.r.r.u.p.u.r.r.e.e.e.>.e.{ =.r.e.>.e.e.7.t.7.p.a.p.p.u.u.i.p.r.a.p.u.r.r.r.p.a.a.h.h.i.h.p.y.r.r.u.p.p.p.a.p.a.a.k.p.p.p.p.p.p.p.p.7.p.p.p.7.p.p.t.u.u.p.u.u.u.t.u.r.e.r.u.a.a.u.e.t.e.t.t.t.t.p.a.f.a.a.f.p.p.f.",
"y.r.r.e.r.y.p.p.p.p.p.u.p.t.u.e.p.t.p.t.u.t.u.u.e.u.e.t.e.e.u.u.u.t.t.e.u.u.u.e.t.u.t.r.u.t.7.u.p.u.p.p.p.u.r.r.p.p.t.p.p.p.u.r.9.t.e.;.&.;.6.>.>.6.6.>.6.>.>.e.7.>.>.e.e.e.e.e.e.r.r.>.,.u.u.e.u.r.r.u.p.r.r.r.r.u.e.e.t.e.e.r.e.u.u.p.i.a.r.r.i.p.u.r.u.i.a.d.a.a.a.a.h.i.h.4.h.a.a.i.4.j.4.4.i.a.a.a.h.4.h.4.i.a.i.i.h.j.4.4.r.4.3.:.3.4.4.4.3.4.4.4.:.4.4.4.4.3.3.3.%.3.:.:.3.:.3.4.4.4.i.i.r.r.r.r.r.r.u.p.a.a.r.a.d.r.d.r.a.r.a.r.a.y.a.a.a.a.a.a.a.a.a.a.d.a.s.a.s.a.s.i.4.s.d.4.4.s.s.d.j.d.d.j.j.g.l.l.l.l.g.d.l.d.d.j.d.l.d.d.d.d.a.a.a.d.s.y.r.e.e.e.e.r.e.a.a.y.y.a.y.y.y.p.a.a.a.r.e.a.e.e.y.r.y.y.y.y.t.y.r.w.w.y.a.t.t.t.y.t.0.0.y.0.0.0.3.0.3.0.8.8.8.0.8.2.8.8.8.8.8.8.0.8.8.$.@.-.q.t.y.y.y.f.y.s.a.a.a.a.a.s.y.a.a.a.a.y.a.y.a.a.r.a.p.r.a.a.a.a.a.a.a.d.a.a.a.p.a.a.a.u.r.u.a.r.a.r.r.a.u.y.p.r.r.r.t.r.r.r.r.r.r.r.r.r.r.r.p.u.t.p.u.r.r.r.e.e.e.r.;.-.p.4.7.7.e.e.7.e.u.h.u.u.r.u.r.u.p.i.u.p.u.p.p.p.a.a.4.i.i.i.p.r.p.u.u.t.p.p.p.p.p.a.p.p.p.k.p.p.7.p.p.p.p.7.p.p.7.7.7.u.7.p.u.u.u.e.r.r.r.p.a.a.u.u.d.g.a.a.p.t.p.t.p.a.f.f.a.a.a.f.",
"r.r.7.t.t.u.y.u.p.p.p.y.p.r.u.t.t.7.u.t.7.p.t.e.7.u.u.t.e.e.u.e.t.u.t.u.t.u.e.u.t.u.y.p.u.y.r.u.p.y.r.p.f.g.a.t.y.p.t.t.p.a.y.t.e.t.r.>.-.>.>.;.,.9.6.7.,.>.3.>.e.e.e.7.e.e.e.4.e.e.e.e.e.a.a.e.p.r.r.p.p.a.r.r.r.r.r.e.e.e.e.r.u.a.i.a.r.u.u.i.a.a.u.u.a.r.a.a.a.a.i.h.i.h.j.h.a.h.i.i.j.i.4.h.a.i.i.i.h.i.h.h.i.a.h.4.j.h.4.j.h.4.4.4.3.4.4.4.:.4.4.3.4.4.3.4.4.3.%.4.3.3.3.2.4.4.4.4.j.4.j.4.r.r.r.r.r.r.y.a.r.a.a.a.d.r.a.a.a.a.a.r.a.a.a.a.a.a.a.a.a.a.a.a.i.s.s.i.s.s.i.s.s.s.s.4.d.s.s.d.d.l.l.d.d.l.d.g.d.g.g.d.j.d.d.a.d.l.d.d.d.a.a.a.a.a.a.a.a.e.e.e.y.e.a.a.a.a.a.y.a.y.a.a.s.a.a.a.e.a.e.a.e.y.y.y.y.y.y.y.y.s.y.y.a.t.w.y.y.y.w.0.y.4.0.0.0.4.0.0.0.8.8.0.0.8.$.8.8.8.8.8.$.5.-.5...=.9.a.s.y.y.s.s.s.a.s.y.a.a.a.a.d.a.d.a.s.a.a.a.a.a.a.y.a.p.a.a.a.a.a.d.a.j.a.a.a.a.p.p.y.p.p.a.r.r.a.r.p.r.r.u.r.r.u.u.t.e.e.u.r.r.t.r.r.r.r.r.p.r.p.r.r.r.r.e.r.3.r.e.;.j.e.e.,.e.7.e.e.p.u.p.r.t.u.r.u.r.u.r.r.p.p.p.a.a.a.i.4.u.i.u.i.p.p.y.p.p.p.y.p.p.p.p.k.p.p.p.p.p.p.7.p.7.p.p.p.p.p.p.7.t.u.7.t.7.u.r.p.p.p.t.>.-.>.+.@.-.9.6.y.f.x.x.l.k.7.a.l.k.7.",
"t.e.e.t.t.r.p.y.y.a.p.p.y.y.t.t.t.p.u.7.7.t.t.e.e.t.e.t.e.e.e.t.e.7.t.u.u.t.t.u.u.t.r.r.t.u.t.t.p.y.r.a.g.l.f.a.p.p.a.a.a.a.p.t.r.y.r.e.,.6.>.-.>.>.>.3.6.>.>.6.>.e.e.e.e.u.r.u.r.,.>.u.a.r.r.a.y.p.r.r.r.r.p.u.r.u.e.e.7.e.r.a.p.u.a.p.r.a.i.a.a.a.a.r.r.p.a.a.j.a.h.i.h.i.4.h.i.i.h.h.4.h.h.h.a.i.h.i.h.4.4.h.i.i.4.h.h.i.h.i.i.4.4.4.4.4.3.4.4.3.4.3.3.4.:.4.4.:.:.3.4.4.3.3.4.4.j.4.a.a.j.4.r.r.r.u.r.r.y.a.a.r.a.r.i.a.r.r.r.r.a.a.r.a.a.s.a.a.a.a.a.a.a.a.i.i.i.s.s.i.s.i.d.4.d.4.s.d.d.g.d.l.d.l.g.d.l.g.l.j.d.l.d.d.d.a.g.d.l.l.g.a.a.d.y.a.y.a.a.a.a.r.a.a.y.a.a.a.a.a.s.a.a.s.d.d.s.y.a.a.y.t.y.a.y.y.y.y.y.y.y.w.y.w.y.y.t.t.y.y.t.t.0.y.y.0.0.s.0.w.w.w.8.8.8.$.8.8.2.8.8.-.$.$.$.-...-.q.y.y.a.a.q.a.y.a.a.a.s.s.a.a.s.a.a.a.a.a.a.d.a.a.a.y.a.a.a.a.a.a.l.j.d.g.h.a.a.p.p.p.a.p.p.r.d.a.r.a.p.r.p.r.r.r.t.u.t.u.u.r.r.r.r.t.r.u.r.r.r.r.r.r.r.u.u.r.r.3.e.u.;.a.r.e.u.7.,.p.u.u.p.u.p.u.t.t.r.u.u.r.u.p.a.a.a.u.p.h.h.i.u.r.i.r.y.y.p.p.p.p.t.t.p.p.p.p.p.p.p.7.p.p.p.p.p.p.7.p.7.u.u.u.t.p.p.t.u.y.p.p.r.,.;.&.;.@.$.=.+...' ' ' 6.p.k.k.k.p.k.a.",
"e.e.t.r.u.t.y.t.y.y.r.t.r.r.r.t.t.t.7.t.p.t.e.t.e.e.t.r.t.e.e.e.e.e.e.u.t.u.u.t.p.r.p.u.u.t.t.u.p.t.p.a.g.l.g.f.a.f.a.a.f.a.r.r.t.r.e.e.r.,.>.>.;.>.>.6.>.e.6.>.,.e.r.r.u.u.u.r.e.>.e.a.a.r.r.a.p.r.r.r.r.r.r.r.u.r.p.r.e.r.p.r.u.a.a.a.a.r.a.a.a.a.a.a.a.a.a.a.a.a.a.h.i.i.h.i.i.i.h.i.j.j.j.4.i.a.i.i.h.i.h.4.i.i.i.i.4.j.i.j.h.4.4.4.4.3.4.4.4.3.4.:.4.:.4.4.3.3.4.4.3.3.4.4.4.4.4.z.4.d.d.4.r.p.p.u.r.r.u.a.r.r.r.a.i.a.a.a.r.a.r.a.r.a.a.a.a.a.a.a.a.s.a.a.s.s.i.i.a.i.s.d.d.4.d.s.4.d.d.g.g.l.d.g.d.d.j.a.d.d.z.d.l.d.d.l.d.j.l.g.g.g.a.a.a.a.a.y.a.s.a.s.a.a.s.a.a.s.a.s.a.a.a.d.d.g.d.a.s.a.s.y.a.r.y.y.y.y.y.w.y.y.y.y.y.w.t.y.y.y.w.t.0.0.0.4.0.0.0.0.w.w.8.8.8.8.8.8.$.8.8.8.$.$.$.@.@.-.9.t.q.y.a.y.s.a.s.a.a.a.a.a.a.a.a.a.a.a.a.a.a.a.a.y.a.a.a.a.a.a.a.k.l.f.a.a.a.a.a.r.y.p.a.a.a.r.r.r.p.y.p.r.r.u.r.u.e.r.e.e.u.r.u.e.e.t.r.u.u.u.r.r.r.r.u.r.r.a.3.u.u.%.u.e.p.e.e.u.e.p.u.7.u.u.u.u.u.t.r.r.r.p.p.p.p.a.p.u.4.i.i.a.u.y.r.r.y.t.p.t.p.p.t.p.p.p.p.p.p.p.7.p.7.7.p.7.p.p.p.p.p.7.u.u.p.p.p.a.a.a.u.t.;.;.;.>.-.=.@.+... .' ' S I ;.k.v.k.7.7.",
"t.t.e.t.r.p.y.p.y.t.t.r.r.t.e.t.7.t.t.t.t.t.t.e.7.t.t.e.e.e.r.t.7.u.t.t.u.u.t.u.r.t.r.t.r.u.r.p.t.a.f.l.g.g.l.x.l.l.l.l.k.a.t.e.r.e.9.r.y.e.,.e.-.-.>.3.3.3.e.4.t.p.a.u.r.t.e.>.-.e.a.a.r.p.i.r.p.r.r.u.r.p.r.r.r.p.p.a.p.r.p.a.p.a.a.a.a.a.a.p.a.a.a.a.r.p.a.a.a.h.j.a.h.h.i.h.h.h.a.i.4.j.j.i.a.a.a.a.i.i.4.h.h.i.4.h.h.4.h.4.i.h.4.4.4.3.:.4.4.4.4.4.4.4.:.3.:.4.4.4.3.3.4.4.s.4.d.4.d.j.4.j.y.a.a.u.e.t.r.r.r.r.a.r.r.s.r.r.a.r.a.r.a.a.a.a.g.a.f.f.a.f.f.s.d.i.s.d.s.a.i.s.s.d.d.s.j.d.g.z.d.j.d.g.d.g.g.l.g.l.d.d.d.d.d.d.a.d.a.d.d.a.a.a.a.s.a.a.a.a.y.a.a.a.s.a.a.a.a.d.a.g.a.d.d.g.a.d.d.d.a.a.a.y.a.y.y.a.y.y.y.y.w.y.y.y.t.w.y.e.w.t.0.0.s.s.0.0.0.0.8.0.w.w.8.w.8.-.2.8.8.0.8.8.-.$.-.6.5.9.9.t.s.s.a.a.y.a.y.a.s.a.y.a.y.a.a.e.y.y.a.a.a.a.a.p.p.p.p.a.a.f.a.k.a.k.a.a.p.a.p.p.p.a.r.d.r.a.p.p.r.u.r.r.r.u.r.u.e.u.u.u.e.e.u.e.u.u.e.e.t.t.r.r.a.r.e.i.r.j.h.{ e.e.u.p.u.u.u.u.u.p.u.u.7.e.t.u.r.r.p.p.u.y.r.r.a.y.i.i.i.p.a.r.p.p.u.u.u.p.t.p.p.p.p.p.p.7.p.p.p.7.p.p.p.p.7.p.7.p.t.p.t.p.p.a.a.h.v.k.u.>.;.;.=.-.=.@.+.@.5.-.=...%.I I ;.k.7.h.k.",
"y.t.y.t.a.y.t.t.y.t.y.t.t.t.t.t.t.t.r.t.t.t.e.e.e.r.p.t.e.e.e.e.t.7.7.p.t.7.t.e.t.t.r.t.t.t.y.y.e.a.f.l.g.g.f.l.g.l.l.f.a.p.r.t.s.4.4.r.i.r.4.4.3.3.3.3.4.2.3.4.h.4.i.e.d.>.3.e.r.a.r.a.r.i.a.r.a.u.u.r.r.r.r.a.r.r.u.p.a.d.d.p.a.a.a.a.a.a.a.a.a.a.a.a.a.r.u.r.j.a.i.a.h.a.a.a.a.a.a.a.a.h.a.a.i.i.i.i.i.a.i.a.i.i.a.u.u.u.i.d.i.j.i.i.4.4.4.4.,.4.,.e.>.,.>.e.>.>.r.7.>.>.e.r.r.p.a.a.i.r.i.r.y.y.p.a.e.r.y.r.y.p.a.a.a.a.a.a.r.a.a.a.a.a.a.t.a.a.a.a.a.s.a.a.d.a.d.a.a.a.a.a.a.d.d.a.d.d.g.d.d.d.l.d.g.d.g.g.a.d.d.d.a.g.d.d.d.d.d.a.z.4.z.4.z.j.z.4.j.4.d.4.a.a.a.a.a.a.d.a.a.a.j.j.d.d.a.g.a.d.a.a.y.r.a.s.a.t.y.y.y.y.y.s.s.t.t.y.q.w.w.e.t.0.0.w.y.0.0.0.w.w.q.0.9.8.0.8.8.-.2.3.8.9.2.2.-.] +.t.2.0.e.a.s.s.a.s.s.a.s.s.e.y.d.s.a.0.0.t.a.a.y.f.a.t.p.f.p.a.f.f.f.f.f.f.p.p.p.p.a.y.p.p.a.r.r.r.u.r.r.u.r.e.e.e.r.e.e.u.e.e.t.e.e.u.r.e.e.u.r.r.r.u.u.t.r.h.>.p.l.&.,.p.p.e.e.u.e.u.u.t.u.t.u.7.p.t.t.u.p.p.p.p.y.u.p.p.7.h.k.7.h.7.h.7.7.k.p.p.7.h.7.h.u.t.p.p.u.u.u.u.t.u.t.u.u.u.u.t.t.u.u.t.7.u.p.h.l.a.e.6.>.>.-.=.&.=.=.=.$.@.$.@.+.| E f >.7.6.6.",
"t.t.e.t.t.t.e.t.9.e.e.t.r.0.e.7.4.e.e.e.e.6.9.e.9.e.r.t.e.e.e.t.u.7.7.t.7.t.7.t.7.t.p.a.e.0.w.t.a.g.l.x.l.l.l.g.f.g.f.a.t.t.r.u.i.r.4.i.i.i.s.4.4.3.3.%.2.4.4.4.z.i.d.i.>.>.a.a.a.r.a.r.r.a.p.p.a.p.u.r.r.r.r.u.u.a.a.a.a.a.d.a.y.a.a.a.y.a.a.a.a.a.a.i.a.a.p.r.a.a.a.a.a.h.a.a.a.a.j.a.a.a.a.a.d.a.a.a.i.a.a.i.a.a.i.r.a.r.a.a.a.a.j.i.r.4.4.4.e.4.,.>.,.7.,.4.e.e.>.>.>.9.r.u.y.p.r.a.i.a.r.a.y.a.a.r.e.a.e.r.p.r.r.r.i.a.a.a.a.a.d.a.s.a.a.a.s.a.d.a.a.a.a.f.a.a.a.a.f.a.g.a.a.a.a.a.d.d.g.l.g.g.d.g.g.g.l.d.d.l.d.g.l.d.d.d.d.d.d.d.4.z.4.z.z.4.4.z.4.z.4.d.a.a.y.a.d.a.a.a.a.a.a.d.d.l.j.a.g.g.d.a.a.y.y.y.a.y.y.y.w.a.y.y.t.q.q.t.t.t.e.0.0.r.y.e.0.0.0.4.w.t.q.0.0.w.8.9.9.8.2.3.3.8.2.2.2.[ @.e.2.e.w.e.y.y.y.e.r.s.r.e.e.-.} +.-.t.a.y.t.q.t.s.s.y.y.p.y.a.y.p.f.k.k.a.f.a.y.a.y.a.y.p.p.r.r.r.r.r.r.r.u.e.u.e.e.t.e.e.r.e.e.e.e.u.r.t.e.u.u.r.r.r.p.u.a.4.h.p.r.,.{ l.h.r.e.u.t.r.u.e.u.7.p.7.p.u.7.u.u.y.y.p.p.p.p.p.h.7.h.h.7.h.7.k.h.7.p.p.k.7.h.7.p.r.p.t.u.e.t.e.7.u.e.u.t.7.t.u.7.t.u.e.t.e.p.a.p.u.e.7.7.7.>.;.=.#.+.+.+.@.@.$.+.$.+.F -.6.6.6.",
"e.t.e.9.0.e.9.9.9.9.t.9.e.9.9.e.7.4.9.9.9.e.e.e.6.e.t.e.e.e.t.t.7.7.t.7.u.7.u.t.p.y.r.9.9.t.a.g.g.g.g.g.l.g.g.k.f.p.y.e.t.e.r.r.i.4.i.i.i.d.i.i.i.4.3.&.3.4.4.d.i.4.j.z.&.,.l.r.a.r.a.r.y.r.p.y.r.r.r.r.u.u.a.r.a.d.a.a.a.l.a.a.a.p.a.a.a.p.p.a.a.a.a.a.i.a.p.a.d.a.a.a.a.h.d.a.a.a.a.h.h.a.d.a.i.a.a.i.d.i.a.i.r.a.i.a.r.p.a.a.d.h.a.i.u.e.4.4.e.,.,.7.,.,.,.4.t.>.>.>.3.e.e.a.u.r.a.u.a.r.p.a.y.y.a.a.a.e.a.e.r.r.r.u.p.p.a.a.a.a.d.s.d.a.s.a.s.a.a.s.s.a.a.a.a.a.g.a.a.a.a.g.d.a.d.d.d.g.l.g.l.d.g.g.l.g.g.l.g.g.d.g.g.d.d.d.d.d.d.d.z.4.z.4.j.4.z.4.z.4.z.4.p.a.a.a.a.d.a.d.a.a.d.d.j.a.d.g.g.d.d.a.a.y.r.t.e.y.y.y.w.y.y.y.t.s.t.y.w.w.e.t.e.0.0.e.0.y.0.0.0.0.0.0.9.8.0.8.9.2.2.2.2.3.2.3.-.} +.2.-.0.9.0.r.s.s.0.e.r.3.@.` =.e.y.6.-.>.y.a.y.y.y.y.f.f.t.a.p.t.f.k.l.f.f.f.p.p.a.p.a.p.p.a.r.r.r.r.r.r.r.r.t.e.u.e.e.u.u.e.e.u.e.u.e.t.u.t.e.u.r.r.r.r.p.j.>.v.u.e.u.%.p.k.p.u.p.u.u.p.7.u.p.7.t.p.p.p.p.p.p.y.p.y.t.p.p.7.h.p.7.h.7.7.7.7.p.p.p.7.h.7.h.t.u.u.p.t.u.u.t.u.t.t.e.e.e.u.7.e.7.e.e.e.e.t.u.u.u.e.7.t.e.>.>.6.-.=.@.$.@.$.@.+.$.@.E ' 6.6.6.",
"t.t.t.e.9.9.e.6.9.6.6.9.9.e.q.e.e.e.7.9.6.e.e.t.9.e.e.e.9.e.e.e.t.t.7.u.t.t.t.7.e.9.6.t.g.g.g.a.g.a.a.p.f.a.a.a.a.t.e.e.e.7.t.t.4.s.i.4.r.4.s.4.j.4.4.j.4.3.4.z.i.4.j.j.&.r.a.e.r.a.r.a.u.a.a.r.u.r.u.u.p.u.u.r.a.a.j.a.a.d.g.a.a.a.a.r.a.a.a.a.r.a.u.a.a.a.a.a.d.a.a.j.a.a.a.a.a.h.a.d.a.j.a.a.a.a.a.a.a.i.r.a.u.i.i.a.r.a.a.a.i.a.a.a.u.4.4.>.>.,.,.>.>.,.,.>.>.>.,.t.a.a.a.e.a.a.r.y.e.a.r.a.a.y.t.t.y.y.e.a.r.r.u.r.y.a.a.a.a.s.d.a.d.d.s.a.a.a.a.a.a.f.a.s.a.d.a.a.a.g.a.g.d.d.d.d.d.d.g.l.g.l.l.g.l.g.j.g.d.l.l.d.l.g.d.d.d.d.d.a.4.z.s.z.4.z.4.z.4.z.4.d.a.y.a.a.a.a.a.a.a.a.d.a.d.d.a.a.a.s.a.a.d.a.a.y.y.y.y.w.y.y.y.w.y.w.y.q.t.t.t.0.y.0.y.0.4.0.0.0.q.q.q.9.0.9.9.9.8.9.9.2.3.2.2.3.2.+.+.| +.2.0.e.3.0.r.0.0.r.3.&.@.$.-.-.+.....=.y.a.s.a.t.f.y.t.t.p.p.a.a.f.f.a.f.a.f.a.a.y.a.y.r.r.r.u.u.r.y.u.r.u.u.e.e.u.e.e.u.u.e.r.e.u.e.u.e.u.u.u.r.r.p.r.p.p.u.e.t.h.e.%.a.r.p.a.u.u.p.u.7.u.p.p.p.p.p.k.y.p.p.p.p.p.p.p.h.p.k.7.k.7.h.7.7.p.p.7.k.7.h.p.t.p.u.t.u.t.u.7.e.t.e.t.u.7.e.e.e.t.t.7.t.7.t.e.e.t.e.e.7.7.>.;...+.=.#.@.@.+.+.$.$.@.' I =.6.6.",
"t.y.e.0.9.6.e.9.6.9.6.e.e.e.e.9.9.9.7.9.e.9.e.e.e.e.e.e.6.e.9.6.t.7.7.t.7.e.e.e.9.6.9.t.d.g.s.e.a.t.e.e.e.y.y.t.y.e.e.e.e.e.r.e.4.a.i.i.4.4.i.4.4.4.d.z.4.4.4.4.p.a.r.e.;.r.p.a.r.a.r.r.p.u.a.p.r.u.u.a.p.a.r.p.a.a.d.a.a.l.a.a.i.a.a.r.a.a.a.a.a.i.a.a.a.y.a.a.a.a.d.a.h.a.a.a.a.d.a.j.h.a.d.h.a.a.d.a.a.r.u.i.r.r.a.i.i.a.a.a.a.a.a.a.a.u.4.3.,.,.,.,.,.,.>.4.,.e.e.r.p.a.t.a.a.y.a.e.a.r.y.a.y.y.p.a.a.a.y.y.p.p.r.r.a.a.d.d.a.s.a.f.a.a.a.a.a.y.s.a.s.a.f.a.a.a.a.g.a.g.a.a.d.d.d.d.g.l.g.l.z.l.g.l.l.d.g.d.g.l.l.d.g.g.d.d.d.d.d.d.d.d.d.4.z.4.z.4.z.4.z.4.a.y.a.a.a.a.a.a.a.j.d.a.g.a.g.a.a.a.a.a.s.f.y.t.e.y.r.y.y.y.y.y.w.s.t.y.t.t.0.t.0.0.w.r.0.0.0.9.e.w.0.9.q.9.0.8.1.w.1.3.2.3.3.2.3.@.@.} +.3.0.e.9.y.r.0.2.3.3.@.0.*.} | +.@.+.{ -.t.f.y.t.y.t.t.e.t.p.a.a.a.a.a.a.a.a.a.a.y.p.p.p.p.r.r.r.r.r.u.u.r.e.e.e.e.t.r.r.r.e.e.u.e.e.e.e.t.r.r.r.r.u.p.t.a.7.t.p.f.a.' e.t.a.a.t.e.t.t.7.t.r.r.t.t.p.p.p.y.p.u.y.p.p.p.7.h.p.p.7.h.7.h.k.7.k.7.h.7.k.h.p.y.r.r.e.u.u.t.e.t.7.e.7.t.e.7.e.e.7.t.e.7.e.e.e.e.7.7.e.7.e.7.=.=.+.#.=.@.$.$.#.....' ' 7.6.6.",
"y.e.t.e.e.6.6.9.6.6.6.6.6.9.6.t.e.e.e.e.e.r.e.e.e.e.e.e.e.e.e.e.6.t.7.7.t.7.e.e.t.t.9.>.:.-.3.0.9.9.>.9.e.t.e.e.e.e.t.e.t.e.t.e.s.4.r.4.s.r.i.s.a.d.4.4.4.d.4.4.r.f.r.4.r.a.r.a.a.r.a.r.a.y.r.r.u.r.u.r.r.a.a.r.r.a.d.j.a.j.a.a.a.i.a.d.d.a.a.a.a.a.a.a.a.a.a.a.u.i.d.a.a.d.a.d.j.a.d.a.g.a.a.a.d.a.d.a.a.i.a.a.p.a.i.a.i.a.i.a.a.a.j.d.h.u.r.e.e.e.e.e.e.t.r.e.e.t.a.r.r.r.a.a.a.a.y.a.y.a.y.y.s.y.a.a.t.a.p.p.a.a.a.a.a.d.a.d.a.a.a.s.a.s.a.s.a.a.a.f.a.a.a.s.a.s.g.a.d.a.d.d.d.d.d.d.j.g.d.l.l.d.g.d.g.g.g.l.g.d.g.g.l.a.d.d.d.d.d.d.d.d.d.d.4.z.4.z.4.z.4.j.a.a.y.a.d.d.a.s.a.a.a.a.a.a.a.a.d.s.s.a.a.y.y.e.y.y.w.t.y.w.w.y.y.y.t.q.t.w.e.e.w.r.0.r.0.0.0.9.0.0.0.q.0.9.8.9.4.4.4.3.2.2.2.4.2.-.9.@.2.2.2.3.0.s.e.3.*.*.-.3.2.2.9.9.3.=.&.@...5.6.y.f.y.y.t.r.t.a.a.a.y.a.a.f.a.p.p.y.a.y.y.p.u.t.u.r.r.r.r.u.t.u.t.u.t.e.r.u.r.u.t.r.u.t.u.e.u.t.r.r.r.u.y.u.t.u.r.a.p.;.;.u.t.a.l.t.e.t.t.u.r.r.r.p.p.p.p.p.p.p.y.p.p.y.p.h.7.h.7.h.7.h.7.7.h.7.h.7.k.p.7.p.p.u.t.t.u.u.t.u.u.t.u.u.e.e.t.u.u.e.e.t.e.u.7.t.u.u.t.7.e.t.t.q.6.5.=...+.+.@.....6.5.=.7.6.5.",
"t.e.e.0.9.>.6.9.6.>.6.6.6.9.9.9.e.e.6.e.r.t.t.e.t.e.9.e.e.e.9.e.7.e.7.e.7.t.6.e.6.9.t.e.9.-.2.*.6.9.6.9.e.e.t.e.0.t.t.r.e.e.e.e.r.y.r.r.i.i.r.i.s.d.4.4.s.z.d.4.e.r.u.e.f.a.r.r.r.a.a.r.r.p.u.a.u.r.r.u.u.p.a.a.p.d.l.d.a.a.a.a.u.a.a.d.d.a.a.a.a.a.a.a.a.a.a.a.u.u.a.a.a.a.a.d.a.h.a.j.a.d.j.a.a.d.d.a.i.u.u.a.r.a.a.a.i.i.r.a.l.a.a.j.j.a.u.u.e.e.r.r.u.u.r.r.u.p.a.p.r.r.a.d.r.y.y.y.y.a.a.r.s.y.s.y.a.y.y.y.r.a.a.d.d.d.a.d.f.a.a.a.a.f.f.a.a.a.a.a.s.a.a.a.g.a.a.d.a.d.d.s.d.d.d.d.g.g.g.l.l.d.l.g.l.d.d.d.d.d.d.g.l.g.d.d.j.d.d.d.d.d.4.d.z.4.z.4.j.4.z.4.a.a.a.a.a.a.a.a.j.d.a.a.d.d.a.d.a.s.a.a.a.y.y.t.t.y.0.y.t.w.y.y.y.w.t.t.w.e.t.0.0.r.0.0.0.0.4.0.9.8.q.q.9.w.9.8.1.4.3.1.2.2.2.4.8.1.9.=.2.*.@.2.2.-.2.2.3.9.0.s.0.3.-.-.-.-.=.+.....=.6.t.f.f.y.t.a.a.f.a.t.a.a.y.p.t.p.p.a.y.a.y.u.r.r.r.r.r.r.r.r.r.u.u.e.r.r.r.r.u.u.u.e.e.e.u.u.r.u.r.u.r.p.u.e.a.t.t.r.&.t.p.r.p.a.p.a.a.a.p.p.p.p.p.u.p.p.y.u.r.a.p.y.a.r.p.p.p.p.p.p.h.7.p.p.k.7.h.7.p.p.p.u.r.t.t.e.u.e.u.e.e.u.e.e.t.e.t.7.t.e.e.u.e.7.e.e.t.e.e.e.u.r.q.q.5.#...] ..+.=.=.5.5.6.7...5.",
"t.t.t.9.6.6.9.9.6.9.6.>.6.6.6.7.6.6.>.9.e.r.r.e.t.t.e.e.6.e.e.e.9.6.e.6.9.6.e.6.e.9.9.0.0.9.3.2.>.>.6.9.e.0.0.9.e.e.y.y.e.9.e.e.r.r.r.r.i.s.s.y.4.j.d.s.4.4.4.4.e.4.r.>.y.r.a.p.r.a.r.a.r.a.y.r.a.a.u.r.r.r.a.a.a.a.l.d.j.a.a.a.r.i.a.d.d.d.a.a.a.a.a.a.a.a.r.a.r.u.a.a.a.a.a.d.a.a.a.a.h.a.a.a.a.d.j.a.a.r.u.i.r.r.a.i.a.r.a.a.a.a.a.a.a.a.a.u.r.u.r.r.u.u.u.r.u.u.a.a.a.a.a.e.r.s.a.a.y.s.y.y.y.y.a.a.y.a.f.y.a.a.a.s.d.a.a.a.a.d.a.s.a.a.a.s.a.a.a.f.y.f.a.f.a.a.g.a.d.d.a.d.a.d.d.a.d.d.d.g.g.z.g.d.d.g.d.d.d.d.d.j.a.g.d.d.d.d.d.d.4.z.z.4.4.j.4.z.4.z.4.z.a.t.a.a.d.a.a.d.a.a.a.d.a.a.a.a.a.a.g.a.y.y.y.y.y.t.y.t.y.y.y.w.y.w.y.y.t.w.q.e.t.0.e.0.4.0.0.9.9.9.8.q.0.8.0.9.1.3.3.4.2.2.1.3.9.2.9.2.8.-.1.0.0.3.9.0.0.9.9.0.9.-.$.2.8.-.-.=.=.] ] ..6.t.t.f.f.a.a.a.a.a.a.r.t.p.t.p.y.p.p.p.p.y.r.r.u.r.r.u.r.r.u.e.r.u.r.u.r.r.r.t.r.t.u.u.u.e.r.r.r.r.y.r.t.a.p.>.t.r.;.r.p.e.e.t.p.a.a.a.a.a.p.p.y.p.p.y.p.p.y.p.p.u.p.p.h.p.p.p.7.h.7.k.7.p.p.p.7.p.p.p.p.u.t.u.u.t.u.t.u.t.u.t.t.t.t.r.u.t.7.7.e.7.t.e.e.t.e.t.7.,.7.e.6.9.e.9.-.-.-.9.6.6.6.6.6.6.....",
"a.t.9.6.>.6.6.6.6.6.>.6.6.6.6.9.e.>.7.3.9.e.e.e.y.r.r.t.t.e.6.e.7.7.6.e.e.e.9.e.6.6.9.9.3.2.3.0.2.2.3.4.4.y.4.s.e.0.e.e.e.e.0.e.e.e.r.r.a.r.r.y.r.r.r.r.e.e.r.a.a.>.>.a.r.r.a.r.p.y.u.y.p.a.r.a.r.u.r.a.r.u.a.a.j.l.d.g.a.a.d.a.d.a.a.a.a.a.d.a.a.a.a.a.a.a.u.a.i.i.i.a.a.a.a.a.d.d.j.d.a.a.a.d.d.a.a.a.p.a.a.y.a.r.r.u.a.a.a.a.a.a.a.a.d.a.p.u.r.r.r.r.r.r.u.u.p.t.y.a.a.y.a.y.a.a.y.y.y.a.y.y.y.y.y.y.f.y.y.y.d.a.s.d.a.d.a.d.a.f.a.a.f.a.a.a.s.a.a.a.a.a.s.a.g.a.g.a.d.a.g.d.d.d.d.d.d.g.l.d.d.l.g.j.l.d.d.s.d.a.a.a.a.d.d.d.4.z.z.z.z.4.z.4.z.4.4.d.d.z.d.4.a.a.a.a.a.a.a.a.a.d.a.d.d.r.a.a.a.d.a.a.s.y.a.s.y.y.y.w.t.w.t.y.y.y.w.t.w.y.t.0.r.0.0.0.0.0.9.0.9.8.0.2.w.4.4.2.4.3.3.2.2.4.1.3.2.2.2.2.3.0.9.0.4.w.w.4.2.w.4.w.0.0.5.-.5.5.-.5.6.+.=.-.=.6.f.f.s.a.a.r.a.r.a.a.p.p.a.p.i.i.i.i.r.r.y.r.r.u.r.r.u.r.r.u.r.u.r.r.r.u.r.r.r.r.r.r.e.t.r.r.p.e.r.e.e.a.7.7.p.>.;.p.y.p.t.f.p.t.f.a.a.f.a.a.r.u.p.a.a.a.r.p.a.a.p.r.p.p.k.7.k.p.p.p.7.k.7.k.7.h.7.k.p.r.e.t.u.r.e.t.r.t.r.7.e.e.p.p.e.t.e.u.t.t.e.e.7.7.e.t.u.7.t.t.6.6.6.6.t.f.7.7.t.t.t.6.6.5.6.6.",
"a.t.6.6.6.6.6.6.6.6.6.6.7.6.6.t.e.6.>.6.>.e.6.e.e.e.e.e.e.e.e.e.e.6.e.6.9.9.q.6.9.9.9.9.0.3.3.3.2.3.3.3.4.y.4.4.0.e.0.e.e.t.e.0.e.0.e.s.r.r.r.r.r.e.r.s.d.d.s.r.p.>.t.a.u.r.a.u.p.r.r.u.r.p.a.r.r.a.a.a.a.a.d.d.d.d.g.d.l.j.a.d.d.d.j.a.j.a.a.j.a.a.h.a.a.a.a.a.u.i.a.a.a.a.a.j.d.j.d.a.a.h.a.d.j.a.a.a.a.a.a.u.a.a.u.r.i.a.a.a.a.a.a.a.a.a.a.a.r.u.r.r.r.r.u.u.a.y.a.a.a.a.a.a.a.y.a.a.s.y.s.s.y.y.s.y.y.y.y.y.a.d.a.a.a.a.a.z.s.a.s.a.a.s.a.s.a.f.a.s.a.f.a.s.a.g.a.f.a.j.a.d.d.d.d.d.d.d.a.g.d.d.g.g.d.d.d.d.d.a.g.a.a.d.d.l.z.z.4.4.d.d.d.z.4.z.d.j.s.4.d.z.a.a.a.y.a.s.a.a.s.r.d.i.a.d.a.s.a.a.s.a.a.a.y.a.a.t.r.y.e.y.w.y.w.y.y.y.t.q.t.9.0.r.e.0.9.9.0.9.0.2.0.0.0.1.s.s.s.1.2.2.4.1.4.1.8.2.2.2.8.8.9.0.w.2.w.w.w.3.w.4.9.9.9.5.6.5.9.9.-.=.#.....-.t.t.a.a.a.i.r.i.r.a.y.r.r.r.u.r.r.i.u.p.u.r.r.r.r.r.r.y.r.r.r.r.r.r.r.r.r.r.u.r.r.r.e.u.r.r.p.a.r.r.6.r.6.6.t.e.-.6.r.t.t.a.a.y.f.a.h.a.a.a.p.r.a.a.a.p.a.u.u.u.p.p.h.p.7.h.7.p.p.p.k.7.h.7.k.7.k.7.p.r.7.e.u.t.e.u.r.p.p.r.t.p.r.7.t.u.e.t.u.7.e.e.u.t.7.e.e.e.e.7.6.6.6.5.6.p.7.7.t.t.7.6.6.;.6.5.",
"0.9.6.6.6.6.6.>.6.6.6.6.6.6.9.6.9.e.>.>.>.3.e.6.e.6.9.e.e.9.9.e.6.9.6.6.9.6.9.e.e.9.9.9.4.3.2.2.3.2.3.3.3.3.4.4.9.9.e.0.e.e.e.e.s.0.e.s.y.r.4.0.y.0.e.e.0.3.-.&.>.&.4.a.r.r.a.u.y.r.p.r.r.r.a.r.a.a.a.a.a.a.d.l.d.d.l.g.d.d.l.g.j.d.j.a.a.d.l.g.a.d.l.a.a.a.a.a.i.u.a.a.a.u.a.l.a.d.a.d.d.a.a.d.d.a.a.a.a.a.a.a.u.p.r.p.i.a.a.a.a.a.p.d.a.d.a.a.r.r.u.p.a.i.a.i.a.a.a.a.s.a.a.a.s.s.a.s.a.s.y.y.a.s.a.s.y.y.p.f.s.a.d.d.a.s.s.4.a.a.a.s.a.a.s.a.s.a.f.a.f.a.s.a.a.g.a.a.l.a.d.g.d.d.d.d.d.g.a.d.d.d.g.d.d.d.d.a.d.d.d.a.a.d.a.a.j.4.j.d.d.4.d.4.z.4.z.4.4.z.4.z.a.s.a.s.a.a.d.a.i.d.i.d.s.i.a.a.a.s.a.s.a.a.y.y.y.y.y.t.r.t.t.r.t.y.t.t.w.0.0.0.0.0.0.0.0.0.9.8.2.9.0.0.2.w.w.1.3.4.2.3.4.1.4.1.8.0.2.0.0.8.0.0.4.w.2.4.4.w.2.w.8.0.8.0.q.0.9.8.........=.y.f.q.a.i.i.i.i.i.i.i.r.u.r.u.r.a.u.r.u.u.p.r.r.r.r.r.u.t.r.r.u.r.r.r.p.y.y.u.u.y.r.p.u.u.p.a.a.a.r.r.e.e.e.e.r.t.>.;.>.t.e.a.a.a.f.a.k.a.a.a.p.a.p.a.p.p.p.r.p.p.a.a.k.h.7.7.p.p.p.p.7.k.p.p.p.p.k.k.a.t.e.t.7.t.u.u.y.p.y.p.p.p.r.e.u.e.u.u.t.u.e.u.t.e.u.u.u.t.t.7.6.5.;.5.5.6.7.;.e.9.6.6.7.7.6.6.",
"6.6.6.6.6.6.6.6.6.6.6.6.6.6.6.6.6.,.3.e.e.4.6.e.e.e.6.e.e.6.>.e.7.e.6.9.6.6.9.0.t.0.0.9.4.3.3.2.2.3.2.3.2.2.4.4.0.9.9.9.0.0.0.0.r.r.r.r.y.0.3.3.3.0.3.:.@.| | @.&.&.>.u.r.r.p.u.u.a.r.p.r.a.r.a.u.a.a.i.a.a.a.d.a.d.a.j.a.j.d.d.d.d.d.d.l.d.j.d.d.d.d.d.h.a.a.p.d.r.r.a.a.r.r.d.a.a.j.j.a.j.j.j.a.h.a.a.a.a.a.a.r.a.u.r.a.a.a.a.d.j.a.a.a.a.a.a.u.u.r.p.u.a.a.a.a.a.a.f.p.s.f.p.a.y.y.y.y.s.w.y.s.s.t.y.y.s.f.s.a.s.s.d.a.a.d.s.s.a.f.a.a.f.a.s.a.s.a.a.p.s.a.a.g.a.h.a.a.a.d.d.d.a.d.d.d.d.g.l.d.d.d.d.d.a.d.d.d.g.d.d.g.a.a.d.4.z.z.4.d.z.j.4.4.z.4.z.z.4.z.4.a.a.a.a.s.a.a.s.a.a.s.a.a.d.s.a.a.a.a.s.a.a.y.t.y.y.r.w.y.t.w.y.t.0.t.w.t.0.9.9.0.0.9.0.0.3.9.9.9.0.2.0.w.4.w.4.s.1.4.1.1.4.1.4.0.8.0.2.2.0.0.8.w.3.w.w.4.2.w.3.0.8.0.0.9.9.6.5... ...@.5.q.f.f.s.i.i.r.r.r.r.i.r.r.r.r.r.r.r.r.a.y.r.p.u.r.r.r.t.r.u.r.r.r.u.y.r.u.u.u.y.u.r.r.u.p.a.r.r.p.p.r.p.t.t.t.r.t.e...-.t.t.e.t.t.f.a.a.a.h.a.r.a.p.a.i.y.u.a.a.a.h.l.k.k.k.p.p.p.p.p.k.7.k.p.p.k.7.k.p.a.t.t.e.e.t.p.p.y.p.t.r.t.p.r.t.t.t.u.u.e.t.e.e.e.u.t.t.t.e.7.6.5.=.5.5.=.;.7.7.7.7.e.7.6.6.6.",
"6.;.6.6.6.6.6.>.6.-.6.6.6.6.6.6.e.>.e.6.9.6.e.e.e.e.e.7.e.>.6.9.e.9.9.9.-.9.9.t.t.e.0.9.9.3.3.2.3.3.*.2.2.3.3.4.3.0.3.3.0.9.9.3.9.0.9.e.e.9.3.-.2.3.3.2.2.3.9.a.e.>.4.u.p.a.a.a.p.r.y.u.y.p.a.r.a.i.a.a.a.a.a.d.a.d.d.a.d.a.d.d.j.d.a.d.d.d.d.j.j.d.a.a.a.a.a.a.h.r.e.u.a.u.r.a.a.a.j.a.d.a.d.j.j.a.a.a.a.d.a.a.i.u.a.r.r.a.a.a.a.a.a.a.a.a.a.a.p.r.p.i.a.a.a.d.d.a.a.a.a.f.a.s.s.y.s.y.w.t.s.q.s.t.s.y.y.s.a.s.d.d.s.d.d.4.d.d.a.f.a.f.a.a.a.a.f.a.f.a.f.a.f.a.g.a.f.a.a.d.d.d.d.d.d.d.d.d.d.d.d.a.d.a.d.d.a.d.l.d.d.d.d.d.a.a.z.d.4.z.z.d.4.z.d.4.d.4.4.z.4.z.y.s.a.a.a.a.a.a.s.i.d.a.a.a.a.a.a.a.a.s.a.y.y.y.y.y.r.t.w.y.t.y.t.t.0.t.0.q.9.9.9.0.9.9.0.9.0.0.8.0.0.8.3.w.3.w.4.s.s.1.4.4.4.1.0.1.0.0.2.w.2.w.3.w.4.w.w.2.w.w.0.8.w.0.8.q.9.9.#.+.#.=.=...6.x.i.i.i.r.r.r.r.r.r.r.r.r.r.r.r.r.y.u.y.r.u.p.p.r.u.r.r.r.p.t.p.r.p.a.r.p.a.r.r.a.r.r.a.r.r.a.r.a.a.e.a.y.9.a.t...&.t.t.e.e.9.a.a.f.a.a.a.a.p.r.u.a.r.a.a.l.l.a.a.k.k.k.k.k.p.p.p.a.k.p.a.p.p.p.p.p.y.p.r.e.7.u.u.p.p.p.a.r.e.r.r.e.e.u.u.t.e.7.t.t.7.e.u.u.7.e.>.5.5.=.6.5.....;.7.7.7.7.7.7.6.6.",
"6.5.6.6.6.6.6.6.6.6.6.6.>.6.6.6.>.6.>.6.e.e.e.e.e.e.9.e.e.e.>.>.e.6.3.6.9.9.9.9.t.0.0.0.9.2.2.2.2.2.2.2.2.2.2.2.0.0.2.3.9.2.2.2.3.3.e.3.3.9.3.3.3.3.3.4.y.a.a.e.p.u.t.e.y.a.u.t.a.p.u.u.r.a.r.r.i.a.a.a.a.a.a.d.a.a.a.j.a.d.a.j.a.d.j.d.a.d.d.a.d.a.l.a.a.a.a.a.a.r.e.r.a.a.u.a.a.a.d.j.d.d.d.d.d.d.a.d.a.a.a.a.r.u.i.a.a.a.a.a.a.a.a.a.a.a.a.d.a.p.u.r.r.a.d.d.a.g.a.g.s.a.a.s.y.a.q.w.q.s.t.s.y.t.y.t.y.y.y.a.d.a.s.a.d.s.d.s.a.a.s.a.a.s.a.f.a.a.p.s.a.a.a.s.a.d.a.g.g.a.a.d.a.d.a.d.a.d.d.d.d.d.d.d.a.d.d.d.d.g.d.d.a.d.a.a.4.z.4.d.4.z.z.4.d.d.d.d.z.4.z.4.r.a.a.a.s.a.s.d.i.d.i.s.d.a.s.a.y.a.a.a.a.a.a.y.s.y.y.y.t.e.t.0.t.w.w.t.e.e.q.0.9.0.0.0.9.9.9.9.0.0.0.0.s.1.w.3.s.4.1.4.4.1.1.4.0.1.0.2.w.2.4.2.w.1.w.2.3.2.4.3.8.9.0.8.q.8.q.q.=.....6.t.=.@.q.4.s.r.r.i.r.r.r.i.r.i.i.i.r.i.i.r.a.r.a.y.r.u.y.r.u.r.r.p.u.r.u.a.r.r.a.r.a.a.r.a.a.r.a.a.r.a.r.y.e.t.t.t.a.t.;.;.a.t.e.t.e.t.f.a.k.k.a.a.a.u.a.d.a.p.d.d.d.u.>.7.p.p.k.k.k.h.k.a.k.k.p.k.h.p.p.t.p.p.u.t.e.t.7.u.u.a.a.p.r.e.r.u.7.e.t.t.e.e.e.u.e.t.e.e.t.e.>.=.=.=.;.6.5.6.6.p.7.p.7.7.6.6.6.",
"6.6.6.6.6.6.>.6.5.6.6.6.6.6.>.6.7.e.9.e.6.e.e.e.e.9.6.e.e.6.>.9.t.6.6.9.9.t.0.9.9.9.9.8.9.3.2.2.3.3.:.2.&.3.2.2.2.3.3.3.3.3.3.2.3.0.3.3.2.3.3.0.e.0.e.r.y.t.9.>.y.p.e.,.r.r.r.t.r.y.r.y.r.a.r.a.u.a.a.j.d.d.j.j.d.d.g.d.l.a.d.d.j.d.d.a.d.a.d.j.d.j.d.d.d.a.a.a.a.p.r.r.i.a.d.a.a.a.d.d.j.a.a.j.a.j.a.a.a.a.j.a.r.u.a.a.r.a.a.a.a.a.a.a.a.a.a.a.r.u.a.a.a.d.a.a.g.a.g.a.a.a.a.a.y.y.q.y.q.s.s.s.t.s.y.a.s.a.a.a.a.s.d.a.4.z.4.s.a.s.a.a.s.f.a.a.s.a.a.a.s.a.f.a.d.a.a.a.d.a.d.g.a.d.a.d.d.d.d.d.d.d.d.a.a.d.d.d.d.g.g.g.d.a.d.d.d.z.z.4.d.4.z.4.d.s.j.d.d.j.4.d.a.r.y.a.a.a.d.a.a.d.d.a.s.a.s.a.a.a.a.s.s.a.a.a.a.y.y.w.t.w.0.y.q.t.t.w.t.q.0.0.0.e.9.0.9.0.0.9.q.8.9.0.4.w.w.4.1.4.4.1.4.1.4.4.2.0.2.0.2.w.4.w.w.2.4.2.4.w.4.2.8.9.0.9.9.8.q.t.#. . .t.x.s.5.6.r.i.4.s.r.i.r.i.r.r.r.i.r.s.r.i.p.a.r.p.p.r.r.r.r.r.u.p.r.r.p.y.r.r.a.r.a.r.r.a.r.a.i.p.y.r.r.r.t.t.p.t.t.t.y.e.&.t.7.e.a.e.t.a.a.a.a.a.a.a.a.a.d.d.d.d.d.u.3.;.7.7.k.k.k.k.k.k.k.k.a.k.k.p.a.a.a.a.y.t.u.p.t.,.7.e.e.y.p.p.4.e.t.e.e.7.7.t.7.e.e.t.e.e.7.e.7.6.6...=.6.6.6.7.7.p.7.7.7.7.6.6.7.",
"5.6.6.6.;.>.6.6.6.;.6.6.6.;.6.6.6.e.e.e.t.e.9.e.6.e.>.e.e.3.9.9.t.9.9.6.t.t.0.9.3.9.9.9.2.3.0.3.3.2.3.2.1.2.2.2.2.2.2.2.2.2.3.2.3.9.3.=.+.&.3.9.3.0.r.r.e.e.0.t.e.r.e.-.e.r.r.r.a.e.p.r.u.p.a.r.r.u.a.d.d.j.j.j.j.l.j.l.j.j.d.j.d.d.j.j.a.d.j.d.d.d.j.d.j.d.a.d.a.d.a.i.u.a.a.i.a.a.d.d.j.d.d.a.j.a.a.a.l.d.j.a.r.r.a.a.p.r.y.a.a.l.a.a.p.a.a.a.e.u.a.a.d.a.a.u.a.g.a.a.f.y.s.s.s.y.y.y.t.t.y.s.s.y.a.s.s.s.s.a.d.a.d.s.d.s.z.d.s.a.f.a.a.a.a.s.a.f.a.s.a.s.a.a.a.g.g.a.a.d.a.d.d.a.d.d.d.a.d.d.d.d.d.a.d.d.d.d.l.g.d.a.a.g.a.d.4.4.d.z.z.4.d.d.z.4.4.d.s.4.s.d.y.y.r.r.a.a.i.s.a.i.s.a.a.a.a.a.s.d.a.a.y.a.y.s.y.y.y.r.y.r.t.0.e.0.t.t.0.t.t.e.0.9.0.0.0.9.9.0.0.9.w.8.4.s.1.s.4.1.4.4.1.s.4.1.0.1.0.2.w.2.1.w.4.w.2.w.1.w.3.s.9.8.0.w.w.9.9.q...&.=.8.f.t.9.p.r.i.i.i.i.i.r.r.a.a.r.a.a.i.i.r.a.r.y.u.a.r.u.p.r.u.r.r.y.p.a.r.a.a.r.a.r.a.r.r.a.r.r.a.p.a.r.a.a.a.a.p.p.t.a.p.&.e.6.e.g.t.0.p.a.a.h.h.d.d.l.l.j.g.j.d.a.r.>.:.7.p.p.p.k.p.h.k.k.k.k.k.k.k.a.k.k.a.a.p.p.a.u.e.t.-.&.3.e.a.r.r.7.e.7.t.7.e.e.7.7.7.7.7.e.7.7.,.6.5.=.=.7.7.7.7.k.7.7.6.7.7.6.6.",
";.6.6.6.6.6.5.=.6.6.6.6.=.6.6.6.6.7.7.7.e.t.7.t.9.9.e.9.9.3.3.>.9.9.9.0.0.9.9.9.9.8.8.9.3.2.2.2.2.2.3.2.2.2.2.3.2.2.3.2.3.1.1.%.*.=.&.+.&.&.3.9.e.t.e.0.q.e.e.e.t.9.e.t.;.>.r.6.e.r.y.p.p.y.a.a.d.a.a.j.j.a.j.v.j.j.j.j.z.j.j.j.a.a.l.g.a.l.d.a.d.d.a.g.d.a.a.a.a.a.a.a.i.i.i.j.j.d.j.d.4.4.z.j.d.a.a.a.g.d.y.0.e.e.r.p.a.y.a.a.4.a.d.i.4.d.4.3.4.4.s.4.i.4.d.d.a.a.y.s.s.f.y.y.q.y.t.t.s.t.y.p.s.f.y.f.s.a.s.p.f.a.s.g.4.z.d.d.d.d.d.d.s.d.z.4.i.a.s.d.a.a.d.a.a.a.a.s.a.a.s.g.a.s.a.g.d.d.a.d.d.d.a.a.d.d.j.g.d.d.d.a.a.g.l.g.z.d.a.d.a.a.i.d.a.a.y.a.a.y.y.p.t.t.y.a.a.a.a.s.a.a.a.a.a.a.a.d.a.a.a.d.a.s.a.y.a.t.y.t.q.t.w.t.y.0.w.0.0.0.t.e.e.q.0.9.9.9.9.9.0.9.8.0.9.9.8.0.9.8.8.3.8.9.9.8.9.8.0.8.0.0.2.0.2.0.2.1.4.0.w.1.0.9.9.9.8.9.-.@.| } &.r.s.r.y.r.4.r.e.u.u.r.u.u.p.a.r.a.r.p.r.p.i.a.a.u.r.u.r.r.r.r.r.y.p.a.t.r.r.e.e.a.e.a.a.s.a.a.a.a.r.i.a.r.p.a.p.t.t.p.y.a.6.-.6.t.t.t.y.e.r.u.u.u.r.p.a.a.p.e.t.a.y.e.6.;.7.9.s.f.a.g.f.a.a.f.k.k.x.k.k.p.k.h.k.k.k.p.p.p.p.,.{ ' | 3.4.r.s.7.7.7.7.7.7.6.6.7.7.q.7.7.7.7.6.6.6.6.q.t.t.t.t.q.7.6.5.6.6.6.",
"6.6.6.;.6.;.6.6.;.6.6.5.6.6.6.6.7.7.e.e.e.e.q.e.7.e.e.6.9.3.3.3.0.9.8.9.9.0.8.9.9.9.9.9.0.3.3.8.2.2.2.2.3.2.3.2.2.2.2.| | | | 2.=.+.{ +.-.e.t.e.t.e.t.e.e.e.9.t.e.6.t.e.-.6.e.6.e.e.r.p.p.p.y.a.a.u.a.a.j.h.j.j.h.j.j.j.j.j.j.h.d.a.a.a.d.d.d.d.d.a.d.a.g.a.a.a.d.d.a.a.d.i.s.4.j.4.j.z.z.j.4.j.d.a.a.d.s.a.a.t.r.y.a.a.a.a.y.y.j.s.s.i.s.s.d.d.4.j.4.d.s.d.s.4.s.a.y.a.y.y.y.y.y.y.s.y.s.s.s.f.a.f.f.p.f.a.a.s.f.a.s.a.s.z.4.g.s.d.4.s.d.d.s.d.s.a.s.i.d.s.s.s.a.g.a.f.a.g.f.a.a.a.d.a.a.d.a.d.g.a.d.d.d.d.g.g.g.j.d.d.d.a.a.l.4.d.d.a.a.a.a.s.a.a.s.s.s.a.y.y.y.p.t.a.a.s.a.a.d.a.s.a.s.y.a.a.a.s.a.s.a.a.y.a.a.s.s.t.t.t.y.w.y.0.e.0.e.0.e.w.w.e.0.0.0.0.0.0.8.0.0.w.8.w.0.8.9.8.8.2.8.2.8.3.9.8.8.0.2.0.0.2.0.2.0.0.0.2.3.3.8.8.0.t.0.@.@.:.| 2.2.4.s.r.r.s.r.r.r.r.r.r.u.r.r.a.y.u.r.a.a.p.r.i.i.r.a.a.y.a.p.y.r.r.y.y.u.y.r.a.y.y.r.a.y.t.a.a.a.a.i.a.a.u.u.u.p.a.a.p.a.a.f.9.>.6.9.t.y.t.r.u.u.u.r.r.r.p.e.r.y.y.e.9.9.9.9.8.s.f.y.f.g.x.x.k.k.p.h.k.k.k.k.k.k.p.p.p.h.7.k.t.&.` K K L [ 7.7.t.7.5.5.7.s.6.7.7.7.7.7.7.7.6.6.6.7.7.q.7.t.7.7.7.6.6.6.6.6.",
"6.;.6.6.6.5.=.6.6.6.6.6.6.6.6.7.7.t.7.t.7.e.7.e.e.9.e.6.9.3.9.3.9.8.8.9.9.9.8.9.9.8.9.9.3.9.8.9.3.2.2.2.3.2.2.2.2.2.%.1.1.| | | { ..@.6.t.a.t.e.e.0.0.0.t.9.6.e.9.>.t.t.6.6.e.6.6.e.r.t.y.p.p.p.i.h.i.h.h.h.j.l.j.j.j.j.j.j.j.h.a.d.d.a.d.d.d.d.g.d.g.d.d.d.d.k.d.j.j.d.a.d.i.i.4.d.4.4.z.4.z.j.d.a.d.a.a.a.a.y.a.a.a.s.a.a.a.a.s.4.s.4.4.a.d.d.z.d.s.4.s.j.s.d.a.f.s.y.y.y.s.t.s.s.p.s.s.s.s.f.f.p.a.f.a.a.f.a.a.s.d.a.d.4.4.s.s.s.s.d.4.d.d.s.d.d.d.s.s.s.s.a.a.f.s.f.a.s.a.g.f.a.a.s.d.d.g.d.d.d.d.d.d.g.g.j.g.g.d.a.a.g.a.d.z.d.a.a.d.a.a.a.a.s.a.s.y.s.y.y.y.y.p.a.r.d.a.s.a.a.s.a.a.s.a.s.f.a.s.a.a.a.s.a.a.y.a.w.y.y.t.y.t.y.0.0.0.r.y.w.e.q.0.t.0.9.e.q.0.8.w.8.0.0.0.8.0.8.8.2.2.2.2.8.2.2.9.2.2.2.0.0.2.0.w.0.2.2.2.4.-.9.0.0.-.+.=.3.3.3.4.s.r.y.y.0.r.r.r.r.r.y.r.a.r.p.y.r.y.r.u.y.a.r.a.a.i.a.p.p.p.y.y.y.r.e.t.r.e.e.e.a.a.r.a.e.r.a.i.r.i.a.r.u.t.t.t.p.t.t.t.y.y.9.;.=.9.t.y.a.a.u.e.e.a.k.a.p.a.x.y.>.>.=.+.=.+...5.q.a.g.f.f.p.a.k.k.k.p.k.k.h.h.p.7.p.k.k.a.>.[ F S S h h d j n  .7.7.6.6.7.6.7.q.6.6.7.7.7.7.6.6.7.7.q.7.q.7.6.6.6.6.5.5.6.",
"6.6.6.6.6.6.6.6.6.6.6.;.6.6.6.6.e.7.e.e.t.e.e.6.e.e.6.9.2.9.3.9.9.9.9.9.0.8.9.8.8.9.9.2.9.8.9.8.3.3.2.2.3.2.&.2.1.2.3.3.1.<.| | +.:.t.a.p.t.0.9.e.e.e.9.9.9.t.t.9.6.e.t.6.9.e.6.6.e.r.y.p.p.p.t.i.i.i.a.a.h.j.j.j.j.z.j.j.j.j.h.g.j.g.d.d.d.d.d.g.d.d.d.l.g.a.a.d.d.d.d.a.d.j.a.j.d.z.j.j.d.j.j.g.g.l.f.a.a.a.a.d.a.a.a.p.a.y.y.i.i.4.i.4.4.4.s.d.s.d.d.4.d.d.d.s.s.s.s.s.y.y.s.p.s.f.s.f.f.s.f.s.a.f.a.a.s.a.a.d.d.d.s.z.4.z.z.d.d.s.s.d.d.s.d.d.s.d.s.i.d.a.a.s.s.a.a.d.s.g.a.g.d.g.d.a.d.a.d.d.d.d.d.d.g.g.g.l.g.d.d.d.a.g.d.j.a.d.a.a.a.d.s.a.a.a.s.y.y.p.y.y.p.a.a.a.a.a.a.s.a.a.a.a.a.a.a.a.a.a.a.a.s.y.a.s.y.y.s.y.w.y.y.w.y.0.y.0.0.r.0.0.t.0.9.9.0.0.9.0.9.0.9.8.8.0.0.0.9.2.9.2.9.2.2.2.2.2.2.2.0.2.2.0.2.0.9.w.2.3.1.9.q.9.+.+.9.e.9.4.r.s.4.r.y.y.4.r.r.r.r.r.u.r.r.r.a.p.a.p.a.a.r.a.u.u.p.u.r.y.p.r.r.y.a.e.e.9.e.0.e.e.e.y.r.y.r.a.r.a.r.r.p.u.y.p.t.p.t.a.y.p.t.t.t.>.-.9.t.e.y.r.a.p.r.e.>.e.p.9.r.;.' ..+.....$.' { ] ..>.6.6.e.7.u.h.k.f.p.a.h.h.h.t.p.k.7.;._ I D S S J ` | I k F 5.7.6.5.q.6.7.7.7.7.6.6.7.6.6.6.7.q.7.q.7.6.6.6.6.6.6.6.6.",
"6.5.6.5.6.6.6.6.6.6.6.6.6.6.6.6.7.e.7.6.e.9.7.e.9.e.9.9.6.3.3.9.0.9.9.9.0.9.9.9.3.3.9.9.9.9.9.9.3.3.4.2.2.2.2.2.2.3.3.*.L ` 1.3.9.e.a.t.9.0.0.a.9.t.9.9.t.9.t.9.e.9.t.6.6.6.e.6.t.r.p.t.p.a.y.a.a.h.a.a.h.h.j.j.j.l.j.j.j.h.j.a.d.a.l.d.l.a.a.h.l.a.j.a.l.a.a.a.i.j.h.i.j.d.j.d.j.4.d.d.j.d.j.d.l.g.l.g.f.a.a.g.a.a.p.a.a.a.a.a.d.d.4.3.2.4.4.z.4.d.d.d.s.d.d.z.f.y.s.y.y.y.y.y.a.s.a.s.y.s.f.y.s.f.a.s.f.a.a.s.d.s.d.s.d.s.d.4.4.d.s.s.d.s.s.s.s.d.s.d.d.s.a.s.a.s.f.a.s.f.f.g.g.g.d.s.a.a.a.d.d.a.g.d.d.g.g.g.d.d.d.d.a.d.a.d.d.a.a.d.d.i.s.a.a.y.s.y.y.s.y.a.y.r.y.a.s.d.a.a.a.s.a.a.a.a.a.a.a.d.a.s.s.s.a.a.y.s.y.y.y.y.t.t.y.w.t.e.y.e.y.0.e.q.0.0.e.0.0.0.9.w.9.0.0.9.8.w.0.8.8.8.8.-.2.8.w.4.4.2.2.0.2.2.9.8.2.3.3.8.8.9.r.4.2.+.2.d.g.s.y.s.i.s.4.s.s.r.r.r.r.r.u.r.a.r.a.r.u.p.r.r.y.r.a.r.r.u.y.r.r.a.u.r.e.e.9.6.6.e.e.e.r.r.r.r.a.a.a.r.r.r.a.u.u.p.p.p.p.a.f.a.y.f.p.f.e.6.9.6.-.9.r.r.e.7.y.y.t.>.&.>.;.{ =.;.#.=.=.5.a.y.q.t.a.f.l.7.%.;.7.k.p.t.t.p.p.p.a.y.=.H H H H E | -.*.} 5.I F ' 5.6.6.7.6.7.6.7.7.6.6.6.6.6.6.6.7.7.7.7.;.6.6.6.6.6.6.5.",
"6.6.6.6.6.=.=.6.6.6.6.6.6.7.7.7.6.7.7.e.7.e.e.e.9.9.9.9.9.9.9.9.9.8.8.0.9.0.9.9.8.9.9.0.e.9.0.9.3.4.4.2.2.2.3.2.0.2.@.+.%.2.3.4.t.e.0.9.e.t.e.t.t.9.9.t.9.9.9.e.q.e.9.6.6.6.9.e.t.t.a.p.y.a.f.p.i.h.h.h.h.j.v.j.l.j.l.j.h.d.j.j.l.g.g.d.g.l.l.h.d.l.a.a.a.l.l.a.d.i.a.a.a.a.a.d.d.s.d.j.z.d.z.j.a.g.g.g.a.a.f.f.g.a.f.a.g.g.f.a.s.i.4.4.3.4.s.4.4.z.d.d.d.s.s.4.s.y.y.a.a.s.y.a.s.a.s.s.f.s.y.f.a.a.f.a.a.s.a.a.d.d.d.s.d.a.s.d.d.d.d.s.s.d.4.j.i.s.i.i.s.r.s.i.a.a.s.s.a.f.a.f.g.g.a.a.a.a.a.a.a.d.d.d.d.j.d.d.g.d.d.d.d.d.d.a.d.d.d.d.d.d.a.a.a.a.a.a.y.y.y.y.a.y.a.a.a.a.i.s.a.a.a.a.a.a.s.a.a.a.a.a.a.a.y.a.y.a.a.y.y.t.e.t.0.e.w.w.0.0.0.0.t.0.0.9.0.q.9.q.8.9.w.0.9.0.0.0.0.8.9.-.9.9.2.-.1.2.2.2.3.2.2.3.2.3.3.2.2.8.0.8.0.2.%.3.s.g.s.s.4.i.s.4.4.r.r.r.r.r.r.r.p.p.a.p.p.y.a.r.p.a.p.a.r.r.r.p.p.r.r.p.y.e.9.>.>.>.>.t.e.t.r.y.y.t.e.a.a.a.a.a.i.y.a.i.p.t.r.p.p.p.t.p.t.a.t.>.-.-.:.6.y.r.9.e.p.p.6...I +.=.+...#...&.' ..q.f.f.g.a.a.l.a.7.6.7.t.p.t.6.7.7.t.t.6.[ H p _ >.-.| } | ` Q k k 5.7.q.7.7.q.7.q.6.6.5.7.5.6.6.6.6.7.7.7.7.6.6.6.6.6.6.6.6.",
";.6.6.;.6.=.6.6.6.6.6.6.6.6.7.7.7.6.6.e.9.7.6.6.6.9.9.e.9.9.0.9.3.9.9.9.0.0.9.0.9.9.8.0.0.0.0.0.3.4.2.2.2.3.3.3.0.&.| +.0.s.4.3.0.9.0.e.a.a.e.0.t.0.e.9.e.9.e.6.9.t.9.6.6.e.9.q.t.a.a.y.p.p.a.a.h.h.h.a.h.j.j.l.j.l.j.j.j.j.j.j.l.a.a.j.g.l.l.j.l.a.l.l.j.a.g.a.d.d.a.d.d.a.j.j.4.j.d.j.j.j.d.d.a.l.f.f.l.f.f.g.l.g.f.g.l.l.f.f.r.r.y.4.4.s.4.4.4.s.d.d.d.d.d.s.t.t.t.y.y.y.s.f.s.f.f.a.a.f.f.s.a.f.s.a.a.a.a.a.r.d.r.a.i.d.i.d.s.s.4.d.s.4.i.i.s.4.s.s.s.d.s.d.a.y.s.s.a.f.f.a.a.s.a.a.a.a.a.a.d.a.d.a.d.d.d.a.a.d.d.d.d.d.a.d.d.i.d.a.d.d.d.s.f.a.a.a.s.a.y.a.y.a.a.d.d.i.d.r.a.s.a.a.a.s.a.s.a.s.s.a.s.a.a.y.y.y.y.y.w.0.0.9.0.0.e.t.t.e.0.0.0.9.e.q.9.0.9.t.t.q.8.q.0.0.9.0.8.9.2.8.2.8.8.-.2.4.4.2.2.2.4.2.9.5.9.8.9.9.9.8.2.@.2.r.d.s.r.s.r.s.s.4.s.i.s.4.r.r.r.p.r.a.r.y.a.r.r.a.a.r.u.p.p.r.r.a.p.e.>.,.e.-.:.>.>.6.6.9.9.e.e.t.p.a.a.a.a.a.a.r.a.i.r.y.u.7.7.t.t.t.t.p.t.e.9.6.;.:.>.>.-.p.f.6.&.] { { ..=.7.t.s.g.f.f.g.q.q.q.0.a.a.s.a.l.x.f.7.6.7.q.e.6.>.;...' H v | @.@.{ } +.@.+...I I 5.q.q.7.s.q.7.6.7.7.7.6.6.6.6.6.6.7.6.6.6.6.6.6.6.6.6.6.6.",
"6.6.6.6.6.6.6.6.6.6.5.6.6.6.6.6.7.7.6.6.9.6.>.6.6.6.6.9.9.e.0.e.2.3.2.9.9.0.9.9.9.9.3.3.3.9.9.0.4.4.0.2.2.3.3.2.=.@.*.2.2.4.0.4.t.t.y.t.0.0.t.p.e.t.9.e.q.9.9.q.6.e.6.>.9.e.6.9.a.a.a.p.y.y.p.p.p.j.h.a.a.h.j.j.h.h.j.j.j.j.j.j.a.l.l.f.l.h.h.l.l.l.g.a.l.k.l.d.j.j.d.a.i.d.a.a.4.j.d.d.j.z.4.d.f.f.l.g.l.l.l.g.l.g.g.g.l.l.g.a.g.0.4.0.d.4.4.4.d.s.s.s.4.d.d.s.t.t.t.t.y.s.f.s.f.p.a.f.s.p.f.f.f.a.f.f.a.s.d.s.s.a.s.a.i.s.s.4.4.s.4.s.s.4.s.s.4.s.s.4.r.s.r.r.y.y.a.a.y.s.a.s.a.a.a.a.y.a.a.a.a.a.a.d.l.a.d.d.d.d.d.d.g.d.d.d.d.d.d.a.d.a.d.a.f.s.y.s.y.t.y.a.a.y.i.s.a.s.a.d.a.a.s.a.a.a.a.s.a.a.a.a.a.a.s.a.s.y.a.y.t.e.0.9.e.0.0.0.0.0.9.0.9.0.0.9.0.9.0.9.0.0.9.w.9.8.0.9.0.9.3.3.8.>.9.-.2.1.2.2.4.0.2.0.8.8.9.0.8.0.9.6.+.3.i.s.s.a.s.r.s.r.r.r.s.i.r.r.r.u.r.r.r.u.r.a.p.u.y.r.a.p.y.r.a.r.a.a.p.>.&.&.&.+.=.6.9.9.6.9.-.>.9.r.p.a.a.r.a.a.a.i.a.i.a.p.t.7.7.p.p.p.t.p.a.t.p.t.6.9.6.@.=.=.+.&.-.a.a.y.t.9.6.a.g.x.g.f.g.s.g.f.t.a.a.f.f.f.f.t.t.f.6.5.+...' _ G v H W +.+.+.+.| } } }  .F F ..5.7.6.6.q.q.6.q.q.7.6.5.6.6.6.6.6.6.6.6.6.6.6.;.6.6.6.6.",
"6.6.6.6.6.6.6.6.6.6.6.6.;.6.6.6.6.7.>.6.7.9.9.9.q.e.9.0.9.9.9.0.0.9.9.9.0.9.9.3.0.e.0.3.3.3.9.e.a.0.9.0.q.9.9.9.| *.9.q.t.e.q.t.t.0.e.t.a.y.t.0.t.9.e.e.e.q.9.e.t.9.6.9.e.6.e.t.t.p.a.a.p.f.a.f.a.h.k.h.h.a.h.x.l.h.h.k.l.j.j.l.l.k.v.v.k.l.l.l.k.l.l.l.l.l.k.k.l.a.a.a.h.g.f.l.a.d.j.d.j.d.j.d.a.l.l.g.l.d.l.l.l.a.f.l.l.g.l.f.g.s.s.4.4.3.4.4.d.i.i.d.d.4.i.i.y.y.y.y.y.s.a.s.a.s.a.a.g.a.g.a.f.a.f.s.f.a.a.y.s.d.4.d.4.d.d.4.d.4.s.4.0.0.0.0.0.r.s.s.s.r.d.s.a.s.a.f.s.a.s.s.d.a.a.y.a.a.a.a.d.d.d.d.d.a.d.a.d.d.d.d.d.d.j.4.d.d.d.d.a.a.d.a.s.a.y.y.y.y.y.t.y.a.a.a.a.a.a.a.a.a.d.y.a.s.d.a.s.f.a.a.a.a.y.a.y.a.y.w.e.0.0.0.0.e.w.0.q.0.e.0.0.0.9.0.9.0.e.0.9.0.9.q.0.0.e.0.9.0.9.9.8.8.3.8.4.4.2.4.4.w.w.s.3.2.s.0.t.6.5.$.*.r.g.g.s.i.s.i.s.s.4.i.s.4.i.r.r.t.u.t.r.r.u.r.r.r.y.p.r.a.a.a.a.a.a.a.9.:.=.>.>.-.>.>.9.e.6.=.` @.9.a.y.a.a.r.r.r.a.a.a.a.a.a.a.a.a.p.a.a.f.f.a.p.r.t.9.-.;.-.&.{ ..y.x.f.a.a.p.h.p.p.p.f.x.f.f.f.f.a.l.k.p.7.t.7.;.;.=. .I ' | [ E S v v K } @.$.-.+. .+... .' P I 6.6.f.6.5.5.6.6.7.5.q.q.7.7.6.6.6.6.6.7.7.6.6.6...6.6.6.6.",
"6.;.6.6.5.6.6.6.6.6.6.6.6.6.6.6.6.6.6.6.6.>.6.9.e.e.e.0.0.0.9.9.0.e.9.0.0.e.9.3.3.0.e.0.3.0.0.0.0.e.t.q.9.6.9.9.@.-.9.e.0.0.0.e.e.t.t.y.a.a.t.t.e.t.9.q.e.9.t.9.t.6.6.9.9.6.t.t.y.y.p.f.y.a.a.a.a.h.h.l.h.h.h.k.h.l.l.h.k.l.h.l.k.k.k.k.k.l.l.l.l.l.l.l.l.v.k.k.l.l.g.g.d.k.a.a.i.d.a.j.d.a.a.d.f.k.l.l.l.l.f.l.l.l.l.l.k.l.k.l.j.d.i.s.4.4.4.s.s.i.s.s.d.d.d.4.y.y.w.q.y.y.a.y.f.a.f.a.a.f.d.a.a.f.a.a.a.a.a.a.4.4.d.4.s.s.4.d.4.s.0.0.s.4.4.s.s.r.s.r.s.s.s.i.a.y.a.s.a.f.a.a.a.a.y.y.a.a.a.a.a.d.d.g.g.g.d.d.d.d.d.d.d.d.j.d.d.d.d.d.d.a.a.a.a.a.s.s.y.a.s.a.s.a.a.s.d.a.s.a.a.s.a.t.t.a.a.a.a.a.a.s.a.s.s.a.s.y.t.t.w.e.e.t.e.w.q.e.t.9.q.0.9.e.e.9.0.9.0.9.9.q.0.0.0.0.0.0.9.9.8.9.9.9.9.-.4.2.4.3.4.2.4.1.s.2.0.4.6.6.=.=.4.s.g.s.i.s.d.s.d.4.s.i.4.s.r.i.r.r.r.u.r.u.p.a.a.a.r.a.a.r.r.a.a.r.a.a.e.-.-.>.9.e.q.6.6.-.&.] -.9.a.y.y.y.r.a.a.a.a.a.a.a.a.y.k.a.p.a.7.f.p.f.p.t.a.g.a.6.:.:.6.;.7.p.f.t.t.s.k.p.k.p.f.k.k.f.g.7.p.x.p.7.7.;.=.=.{ _ ' I F n D D b D D D K @.+.+.+.$.@.X. ...5.I T 6.6.7.7.7.6.7.7.7.5.7.6.7.7.7...6.6.6.6.7.6.6.6.6.6.6.6.6.",
"6.6.6.5.;.6.6.;.6.6.6.6.6.6.6.6.>.6.6.6.6.9.9.9.0.t.0.t.0.0.0.9.9.9.e.e.e.e.0.3.0.e.e.0.0.9.e.r.0.t.t.t.9.9.5.>.:.8.9.0.q.9.0.e.t.e.e.t.y.a.t.e.9.q.e.e.e.9.9.t.e.6.>.6.9.e.r.t.y.p.y.a.a.a.f.a.a.h.k.k.k.k.k.k.k.k.l.l.k.l.l.l.l.k.k.k.l.h.v.h.l.l.v.l.v.h.v.k.l.l.l.l.l.a.a.a.j.j.d.d.a.a.a.a.k.k.k.x.k.g.k.l.f.l.l.l.l.l.l.l.d.d.s.i.0.4.4.s.s.i.i.a.d.s.4.s.y.q.y.y.y.s.y.a.a.a.a.f.g.a.a.g.a.a.s.a.a.y.y.a.s.4.4.d.4.4.s.4.s.4.4.4.4.s.s.s.s.r.r.s.r.s.r.s.y.s.y.s.s.a.a.a.a.a.a.a.a.a.a.s.a.d.d.l.l.l.g.g.d.d.d.d.j.d.d.d.d.d.d.d.d.a.s.a.d.a.a.a.a.s.a.a.a.a.a.a.s.a.s.a.a.a.a.0.e.a.a.a.d.a.a.a.a.a.a.s.y.y.y.0.y.w.0.t.w.e.t.0.e.0.0.e.9.0.q.0.e.0.9.0.0.0.e.0.0.0.0.9.9.9.9.9.8.0.9.9.1.4.w.4.4.s.4.4.s.3.4.2.5.=...5.r.s.g.s.d.d.d.s.d.s.i.4.i.4.4.a.u.r.t.u.r.y.r.a.a.a.a.a.a.r.r.y.r.y.a.a.e.>.>.e.-.6.6.9.6.9.6.-.p.a.d.a.e.a.r.r.a.a.a.a.a.r.y.a.h.p.k.p.k.p.p.p.y.t.p.a.a.t.e.e.y.y.f.f.y.t.p.f.k.k.p.k.f.f.a.f.s.x.a.=.=.7.;.' ' I F f S G F n b b h h v f G =.+.] [ +.@.{  ...' I I 7.s.6.5.s.7.q.7.6.7.5.7.5.6.6.6.6.6.6.6...6.6.6.6.6.6.6.;.",
"6.6.;.6.6.6.6.6.6.6.6.6.6.6.6.6.6.6.6.>.>.7.6.6.e.0.y.t.e.9.9.9.9.e.0.e.e.0.e.9.e.e.0.e.0.4.e.r.a.0.0.q.q.9.:.=.-.9.e.t.e.9.0.t.t.9.e.t.w.t.w.0.6.e.9.t.9.t.t.9.e.6.>.6.9.e.e.p.t.y.y.a.p.f.f.f.h.h.a.h.k.k.k.k.k.k.h.k.x.k.l.l.k.v.v.v.v.v.v.v.v.v.l.l.l.v.k.l.g.l.l.l.l.a.a.a.j.d.d.d.h.h.a.j.k.l.k.k.k.l.l.l.k.f.f.f.k.l.l.l.z.d.d.s.r.4.4.4.i.i.4.s.s.d.j.d.y.y.t.w.y.a.a.y.a.a.a.s.a.g.a.a.g.g.a.a.y.a.y.t.4.d.j.4.s.d.4.4.4.s.s.0.0.0.s.4.0.w.r.s.s.i.s.r.y.s.a.f.s.a.y.a.s.a.a.a.a.a.a.a.a.a.a.d.g.d.g.d.j.z.z.d.d.d.j.s.d.d.d.a.a.d.a.a.a.a.s.a.a.f.s.s.y.a.a.s.a.a.a.a.s.a.a.r.t.a.a.s.a.a.a.s.a.s.a.y.a.y.y.t.e.0.t.t.e.w.e.0.0.9.0.0.q.t.9.0.9.0.0.9.0.e.t.t.y.e.0.9.9.9.8.0.9.9.9.9.4.4.1.w.4.3.s.4.0.2.0.2.5.....6.s.d.s.s.4.s.s.i.4.d.4.s.i.4.d.a.t.u.e.r.r.a.r.a.a.a.a.a.a.p.r.r.r.r.r.e.e.>.6.9.9.9.9.6.6.-.6.9.a.a.y.y.e.r.a.a.a.a.a.e.r.a.a.p.p.k.p.p.p.f.a.f.p.p.t.y.y.y.a.g.a.f.t.t.t.y.p.f.p.p.k.k.f.a.k.k.f.t.=.=.6.=.' ;._ _ I I E E F v h h N K E H E ] } ` ! { @.+.#...I F ' 7.7.7.6.7.q.t.7.7.7.7.7.7.6.6.5.6.6.6.6.6.6.6.6.6.6.6.6.6.",
"6...6.6.6.;.6.6.6.6.6.6.6.6.;.7.6.6.>.6.6.>.6.9.9.9.q.t.0.9.8.9.9.9.e.e.e.e.0.e.0.r.0.0.e.0.e.t.y.9.9.y.t.-.=.=.5.6.9.t.t.9.9.q.e.9.9.9.e.0.e.9.t.9.t.9.9.e.t.t.t.9.6.6.9.6.t.t.t.p.p.a.a.f.k.x.a.h.p.k.k.k.k.k.k.k.k.l.k.k.v.x.k.v.v.k.v.k.k.v.k.v.k.v.l.l.v.l.l.l.l.g.a.k.l.g.g.k.h.f.h.j.a.l.x.k.k.l.v.k.k.k.x.k.a.h.v.v.k.h.g.g.g.d.r.4.4.4.i.r.r.s.a.s.i.s.s.y.y.y.a.s.a.t.a.a.a.j.a.a.j.j.d.d.d.a.s.i.4.s.4.4.d.4.s.4.4.s.0.0.0.0.s.0.s.4.w.y.y.y.y.t.y.w.y.f.a.s.a.f.a.a.f.s.a.a.g.a.a.a.a.a.d.d.d.d.d.d.z.l.g.d.d.d.d.d.d.d.d.d.a.d.d.a.s.f.f.a.s.a.f.a.s.a.a.a.s.a.a.d.a.a.a.a.y.a.a.y.a.s.a.s.a.a.y.a.y.y.y.w.t.0.e.t.t.w.r.0.0.0.0.0.e.q.e.9.q.0.0.0.0.t.r.s.0.y.0.0.8.0.9.0.9.9.9.9.4.1.4.4.s.1.4.4.r.1.@.+.=.-.5.t.d.s.d.s.i.s.s.i.d.4.i.s.4.4.4.4.e.e.e.u.u.r.p.p.a.a.a.a.r.a.r.r.p.y.t.e.e.>.6.6.t.9.6.9.-.6.-.6.9.e.e.e.e.a.a.a.a.r.r.a.p.a.a.a.h.a.h.p.p.a.p.a.a.p.a.d.p.t.u.r.p.p.p.p.7.p.p.p.p.p.k.h.k.k.k.k.t.5...7.;.' [ I H F k j k v I X.| @.{ ! ` W D S | +.| +.5.......F F 5.7.s.f.6.7.7.f.7.6.6.7.7.7.6.5.6.6.6.6.6.;.6.6.6.6.6.6...6.",
"6.6.6.6.6.6.6.6.6.7.;.6.6.6.6.6.6.6.6.6.6.6.5.6.9.9.9.0.0.9.0.9.9.0.0.e.0.e.0.y.0.r.r.r.t.e.t.e.q.0.t.q.-.....6.-.6.9.q.9.q.6.6.9.9.t.t.9.t.e.0.9.e.6.t.e.t.9.e.e.9.9.6.6.e.e.e.t.y.a.a.a.a.f.k.k.a.p.p.h.k.k.k.k.l.k.k.l.l.k.v.v.v.k.v.k.k.v.v.v.k.k.v.k.l.k.l.l.l.f.l.f.g.l.l.k.k.a.a.a.l.a.l.k.k.v.k.k.k.x.x.l.h.p.k.h.z.l.h.g.d.z.d.s.4.4.0.r.r.r.i.r.r.a.d.g.s.w.y.a.s.s.a.a.a.d.a.l.d.j.a.s.a.r.a.i.i.a.4.z.s.d.4.y.4.s.4.0.9.3.0.4.s.s.s.y.y.w.0.0.0.0.9.t.y.y.s.s.g.s.f.a.a.a.d.g.g.g.d.a.a.a.d.d.d.d.d.d.d.d.d.d.d.d.d.d.d.d.d.a.d.a.d.s.a.s.a.a.g.s.s.a.d.a.d.a.a.s.y.a.a.a.d.s.a.a.a.a.a.a.a.a.s.a.a.a.s.y.t.t.e.0.0.w.y.0.0.e.0.0.w.0.0.0.0.t.9.0.w.0.t.0.s.0.0.0.9.9.9.9.9.9.0.0.9.s.4.4.4.4.s.4.3.3.| ' ' 5.y.s.f.s.d.s.d.d.d.s.i.s.4.4.i.4.i.s.4.e.e.e.e.t.r.r.p.a.r.a.r.a.a.a.y.a.y.r.e.9.9.9.>.-.6.6.0.0.9.0.0.3.9.r.y.a.a.a.t.u.a.r.r.a.i.a.a.p.a.p.h.a.a.p.p.p.a.r.r.r.t.r.p.y.f.l.p.t.7.7.p.p.p.p.h.p.k.k.k.6.7.6...' [ ' S F I ..$.-.#.#.5.2.&.} L } @.*.@.[ } | +.....I n k t 5.7.6.7.6.f.7.f.7.7.7.7.7.6.6.6.6.6.6.6.6.6.6.6.6.6.6.6.6.6.",
"6.6.6.6.6.6.6.6.6.6.6.6.6.6.6.6.6.6.6.6.>.9.5.6.8.6.9.9.9.9.9.9.e.e.e.0.0.e.r.y.y.r.0.r.r.0.e.0.q.9.6.#.....5.9.6.6.9.6.6.9.9.6.9.e.e.0.t.t.e.t.e.e.e.t.t.9.6.e.9.t.e.6.6.6.e.t.y.p.a.a.a.a.f.a.p.a.k.p.h.p.k.k.v.k.k.x.k.v.k.v.v.k.v.k.v.k.k.k.k.k.v.k.k.l.x.k.l.l.l.l.l.l.l.l.l.f.a.k.f.f.l.f.k.k.k.x.v.k.k.v.x.v.k.k.j.z.l.j.z.g.d.g.s.r.r.r.r.r.s.a.r.r.y.s.s.y.y.q.y.s.d.a.g.d.d.d.d.j.j.d.d.a.s.i.s.a.s.s.d.d.4.s.r.r.0.4.0.0.3.0.0.0.4.y.t.0.0.9.8.9.9.6.9.t.t.p.a.s.a.s.g.d.a.d.d.a.a.a.r.r.i.r.i.d.d.d.g.d.d.d.d.s.d.d.d.d.d.d.d.d.d.s.f.d.a.g.s.s.f.a.a.a.a.a.s.a.a.a.s.a.a.s.g.a.y.g.a.f.a.s.a.a.y.s.a.y.y.w.y.y.w.y.y.w.y.r.y.0.r.e.0.9.e.q.q.q.0.e.r.0.r.0.r.0.3.9.0.0.9.0.0.9.0.0.1.4.4.4.4.4.2.2.*.| =.@.7.f.f.f.d.d.d.d.d.d.i.i.4.s.4.4.a.i.i.i.u.e.e.t.e.r.r.r.a.a.a.a.a.a.a.a.a.e.e.e.9.7.9.6.9.9.9.9.-.;.=.:.9.e.y.y.r.a.p.r.a.r.r.a.u.a.a.a.p.h.a.a.a.p.u.u.a.p.r.e.e.r.p.a.p.f.k.f.p.7.7.k.p.p.p.k.k.k.p.7.7.6.I ' { F k ' &.6.9.$.$.5.$.+.+.2.2.+.*.2.@.| } | ] ` ' I F 2 s k V 6.6.6.7.f.7.7.7.7.7.7.7.7.6.6.6.5.6.6.6.6.6.;.5.6.6.6.6.;.",
"6.6.6.6.6.6.6.7.6.6.6.6.6.6.6.6.6.6.>.>.6.5.6.6.6.9.9.9.9.9.9.0.0.e.e.e.9.0.r.s.r.s.r.y.y.e.e.e.t.t.;._ ' -.6.6.q.9.e.6.q.9.6.9.q.9.e.t.e.e.q.e.t.t.9.e.9.e.t.9.e.t.t.e.e.9.t.p.y.y.y.a.a.p.p.a.p.p.f.k.p.a.k.k.v.l.k.x.v.k.v.k.v.v.v.v.k.v.v.v.v.v.v.v.v.k.v.x.l.l.k.l.l.v.f.f.l.k.f.h.l.l.k.a.k.k.v.k.v.k.k.x.k.v.v.v.j.j.z.z.m.g.d.d.j.a.s.s.s.r.r.r.s.r.t.y.g.t.t.q.y.a.d.a.d.d.d.j.j.j.j.a.d.j.j.d.d.d.d.d.4.4.4.s.a.s.3.*.e.0.0.2.3.3.2.3.8.9.-.9.-.8.9.9.9.9.t.a.a.a.g.a.g.d.d.a.a.y.e.9.e.r.e.e.r.r.a.d.g.d.d.d.d.d.d.d.d.d.d.d.d.d.d.d.a.d.s.a.a.a.a.a.s.a.s.a.a.a.y.a.d.a.y.a.a.a.a.s.s.a.a.a.a.d.a.y.s.a.a.y.y.y.s.a.a.y.s.0.y.0.0.0.9.0.0.9.0.e.t.0.y.0.0.r.0.0.0.9.0.9.0.9.9.0.9.0.4.4.s.1.1.1.1.<.+.2.a.f.f.f.f.s.d.s.d.s.s.4.s.4.i.i.4.a.i.4.4.i.r.r.u.u.u.u.u.u.a.a.y.a.t.a.r.a.e.0.9.6.6.9.9.9.9.6.-.=.] ] +.-.e.a.p.y.r.r.a.y.r.a.a.i.a.a.i.u.a.p.p.p.p.u.u.e.e.u.p.t.t.e.e.7.p.t.p.h.k.p.p.p.p.k.k.p.p.k.p.;...I I ..I F I _ { >.-.] +.8.w.-.&.2.2.2.*.| +.2.3.+.[ W I F k F k k 5.f.f.f.7.f.7.7.7.7.7.7.7.6.6.6.7...6.6.;.6.6.6.6.6.6.6.6.6.",
"6.6.6.6.6.6.6.6.6.6.6.6.6.6.6.6.6.6.6.6.6.6.6.6.6.7.7.q.q.q.6.t.9.9.e.9.e.e.r.y.s.e.0.r.a.0.9.e.9.9.&.f &.>.e.e.t.e.e.e.9.6.9.e.t.t.e.t.t.e.r.t.e.t.7.t.e.e.e.7.9.r.6.a.-.,.a.a.a.a.a.a.a.a.a.a.e.y.a.f.a.k.k.k.h.h.h.j.v.v.l.k.l.k.l.h.l.l.l.h.v.v.v.l.v.l.l.l.j.l.j.l.l.k.l.l.v.k.h.h.h.k.l.l.k.k.k.l.k.v.k.v.j.l.l.l.j.j.l.v.l.l.l.f.f.a.p.y.y.r.y.s.s.a.s.i.y.s.s.s.t.t.u.d.a.a.j.p.g.a.g.t.a.a.u.j.z.e.` } ` ` ` ` } } | | } +.9.0.2.-.2.y.8.8.2.9.9.9.2.3.3.3.9.r.d.s.i.d.d.d.r.r.e.e.e.e.e.r.i.i.r.r.i.r.j.d.d.j.d.d.d.d.g.g.d.d.d.a.a.d.d.d.a.a.i.s.r.d.a.a.a.a.a.s.d.i.a.d.a.a.d.i.d.r.4.d.j.4.s.d.4.d.4.s.d.4.s.s.d.4.i.s.i.s.r.r.r.r.y.r.0.0.w.0.w.e.w.q.w.9.w.9.9.0.e.0.0.e.0.e.9.9.-.9.5.9.0.+.5.8.q.f.g.a.d.d.l.a.d.d.d.z.d.4.d.4.r.4.4.r.r.i.i.r.r.u.r.r.u.r.r.r.y.d.a.a.r.y.r.e.9.e.9.5.6.e.0.e.9.-.-.9.5.....=.-.p.y.e.y.e.a.y.u.p.r.y.i.a.r.u.a.p.r.r.u.r.u.p.e.r.a.a.e.e.e.u.u.p.p.p.a.a.p.p.p.h.p.h.p.u.e.7.%.H ] { n G ' E ] ] -.=.-...9.q.-.2.-.-.-.@.=.#.&.-.@.{ G f v F d j I 6.f.t.7.a.t.7.t.7.7.6.6.5.6.6.6.6.6.5.6.6.6.6.5.6.6.6.=.6.",
"6.6.6.6.6.6.6.6.6.6.6.6.;.6.6.6.6.6.6.6.6.6.6.6.6.6.7.6.7.q.q.9.0.0.e.0.e.e.y.e.d.s.r.e.t.e.9.9.9.*.H ` p.9.6.e.e.e.t.9.e.9.e.t.e.e.e.t.t.e.t.e.t.e.e.e.t.7.9.e.e.r.t.a.,.>.a.a.a.a.a.a.a.a.a.a.y.a.a.a.f.a.a.k.h.h.h.h.h.h.h.h.h.h.h.k.l.l.v.l.l.l.l.z.j.v.l.l.l.l.v.l.l.l.v.k.j.h.h.h.h.j.j.k.h.l.l.l.l.l.k.v.l.l.v.l.l.j.j.v.l.l.l.l.f.f.d.a.p.y.y.y.s.r.r.s.y.y.a.a.p.y.a.i.a.u.a.e.f.a.l.f.h.j.j.j.z.3.` ` } } @.2.@.| ] ` W H G ! 2.a.9.-.3.0.0.2.2.8.0.w.e.3.e.e.e.r.s.d.s.i.r.0.9.9.3.e.e.r.4.r.r.r.r.r.4.d.s.d.4.d.d.d.a.d.a.d.d.d.g.d.a.a.d.d.d.a.d.a.d.a.s.a.a.a.a.s.s.r.s.d.r.s.a.d.j.s.d.d.s.d.d.d.j.d.s.d.4.d.4.s.i.i.i.i.i.s.a.s.y.t.e.0.e.0.0.0.0.q.9.0.9.9.0.9.e.e.9.9.9.9.9.6.-.t.q...@.6.g.g.y.s.g.f.s.d.d.a.d.z.4.4.4.d.4.d.r.r.r.r.r.i.4.r.r.r.r.u.p.r.r.r.e.e.p.a.a.p.e.e.6.9.6.9.t.t.9.9.6.6.6.9.6.=...&.&.u.y.y.a.e.a.y.r.a.a.r.a.u.r.a.p.p.p.r.r.r.r.r.r.p.a.a.e.e.e.u.r.r.r.u.p.p.e.e.p.h.h.u.u.p.u.;._ _ _ P D E ....' ' @.=.#. .+.X.| +.@.:.>.5.>.-...=.-.>...H S f k I 5.7.7.y.p.f.p.p.t.7.9.q.6.6.6.6.6.6.6.;.;.6.;.6.6.6.;.5.=.6.",
"6.6.6.6.6.6.6.6.6.6.6.6.7.6.6.6.6.6.6.6.6.6.6.6.6.6.7.7.9.9.e.9.e.r.y.e.y.e.r.0.e.e.0.3.e.e.y.u.{ ..S -.e.e.e.e.e.e.e.e.6.6.e.e.e.e.t.e.e.t.r.e.e.t.e.e.e.t.e.e.e.e.a.a.u.>.a.a.a.a.a.a.r.a.a.a.a.f.a.f.a.a.a.l.h.j.j.j.v.j.j.j.h.h.h.l.z.l.v.l.l.j.v.v.z.v.l.l.l.l.v.l.v.l.l.l.l.l.j.k.h.l.l.l.l.k.k.l.l.k.k.v.v.v.v.j.j.j.j.j.l.l.l.l.l.g.g.g.d.a.e.r.i.s.r.s.g.a.y.a.g.g.d.a.h.a.a.e.a.a.d.a.h.a.&.` | ` ] @.@.@.+.@.+.+.| } @.+.W H G W +.2.2.e.y.9.9.0.9.@.0.3.0.e.a.r.d.d.s.r.e.4.0.e.0.3.4.e.r.r.r.i.4.r.s.4.i.d.j.d.d.d.d.a.d.a.d.a.d.d.d.a.d.i.a.a.d.a.a.a.a.s.d.a.a.a.i.d.d.r.d.a.a.a.d.s.z.s.d.s.4.z.d.s.j.s.z.4.4.d.s.i.s.i.s.a.s.r.y.0.0.0.w.e.0.0.w.0.w.9.0.9.q.0.0.0.0.9.e.9.3.>.] -.+.G +.f.g.g.f.a.a.s.a.a.d.a.4.z.4.d.d.4.4.4.r.4.4.r.4.i.r.4.t.t.r.r.r.y.r.r.p.r.r.a.h.t.e.>.6.6.9.0.t.t.9.5.6.-.>.-.-.-.=.+.{ e.e.e.y.e.p.r.r.p.p.a.a.r.p.i.u.r.p.u.p.y.r.r.y.p.r.r.u.e.t.e.t.e.u.u.p.p.u.e.7.,.7.h.e.p.,.{ ' +.I s D Q Q [ Q E ] +...] Q E ' ' ' ..#.=.-.-.=.-.=.-.{ G v f j F  .6.p.7.7.7.7.7.7.6.6.6.5.5.6.6.6.6.6.5.;.6.6.6.6.6.6.;.6.;.",
"6.6.6.6.6.6.6.6.6.6.7.;.6.6.6.6.6.6.6.6.6.6.6.6.6.7.7.7.t.t.9.e.0.y.e.y.y.0.0.e.e.s.s.r.3.9.>.-.{ { H ;.>.r.t.9.6.e.6.6.e.e.r.r.t.t.e.t.t.e.t.t.t.e.e.t.t.e.t.7.e.e.g.a.p.>.p.a.a.y.a.a.a.a.a.a.a.a.f.a.h.a.a.l.v.l.v.v.l.v.v.v.l.j.j.v.v.v.l.l.l.l.l.l.j.l.l.v.l.v.j.l.h.l.l.l.l.l.l.l.l.l.l.h.l.l.x.k.l.v.k.x.l.l.z.v.z.j.l.j.k.k.g.l.l.l.g.g.g.a.a.a.a.r.r.r.s.s.a.g.l.z.l.d.v.j.l.a.a.e.a.e.>.:.| _ ` } +.*.@.+.} } } | @.@.` X.-.*.@.+.[ W E @.w.s.8.2.0.y.3.3.3.r.s.r.s.s.r.e.3.2.3.3.e.e.e.e.r.r.i.i.4.r.i.i.4.4.4.z.4.z.d.d.d.d.d.d.d.d.d.d.a.d.r.d.i.s.a.s.a.s.a.a.d.i.a.a.a.d.i.s.a.s.4.d.4.d.z.4.s.d.4.s.4.s.d.d.z.4.s.d.i.d.i.s.a.s.r.s.y.e.w.w.w.0.0.0.9.w.8.0.9.0.e.0.0.e.9.9.9.9.-.+.] G w.x.a.s.g.a.a.a.d.a.s.i.d.4.j.4.s.4.d.4.i.i.r.r.4.r.4.4.e.e.r.r.r.p.r.a.d.r.r.p.u.r.7.e.0.9.9.9.8.6.9.-.>.5.-.=.-.-.=.+...&.=.>.e.a.a.p.y.r.a.r.r.a.r.p.r.r.y.u.p.r.r.u.r.r.r.e.u.u.e.e.e.u.u.u.p.u.u.e.7.,.;.;.;.,.%.I ' ' j q I ' E ' ' ' E { I ' Q E ] ' ' [ { { .. .@.-.-.6.@.E H f k k F ..y.7.f.7.t.7.t.7.q.6.5.=.6.5.6.6.6.6.6.6.5.6.6.;.6.5.6.6.",
"6.6.6.6.6.6.6.6.6.6.6.6.6.6.6.6.6.6.6.6.6.6.6.6.9.0.0.e.t.t.9.t.t.e.t.y.t.e.r.r.e.s.y.e.e.0.-.%.;._ [ e.a.t.e.3.9.9.9.9.e.e.r.r.e.e.e.t.e.t.u.t.t.t.t.7.e.t.e.e.e.e.g.a.a.>.e.a.a.a.a.y.a.p.a.a.p.a.f.a.a.a.l.l.l.l.j.l.h.l.l.k.v.j.j.z.v.j.j.l.l.l.j.z.v.l.v.l.l.l.v.z.l.l.l.l.l.z.l.l.l.l.l.h.x.k.k.v.l.v.l.l.l.l.l.z.j.v.v.j.f.l.k.l.l.l.g.l.x.g.a.a.s.a.s.i.a.a.s.g.j.j.h.h.l.d.x.d.l.e.t.y.| | | +.@.-.@.} +.+.@.+.+.+.| +.$.@.| } } =.2.-.-.} W | 9.y.y.0.0.3.3.3.0.a.e.e.e.3.2.*.3.3.3.4.4.e.r.r.r.r.r.r.4.i.i.i.s.i.i.s.g.d.g.g.d.d.a.d.d.a.a.s.a.a.d.a.a.a.a.f.a.d.a.s.s.a.d.r.a.a.a.a.j.d.4.z.z.s.d.s.j.s.4.j.4.d.s.j.4.d.4.d.a.s.a.a.s.w.0.r.0.t.0.t.0.q.0.0.9.0.0.9.0.0.e.9.e.9.0.9.y.=.] E q.g.w.g.g.s.a.f.d.i.i.s.d.4.d.4.4.a.4.j.a.r.r.r.4.4.4.4.e.e.e.u.u.p.p.p.u.y.r.e.e.u.r.e.e.5.9.0.:.-.9.9.-.5.-.=.-.-.;...{ -.&.7.r.r.y.r.r.r.u.y.u.u.r.i.r.r.r.r.p.u.r.r.r.e.e.r.r.r.e.e.e.r.y.p.r.t.t.u.7.7...H _ L S H E G d G ] I I Q ' ' E ' G E E E [ ' ] { [ ' E ' ] ..+.:.+.G S v k k P k ' ;.a.7.p.7.t.6.6.6.5.-.=.;.6.=.6.6.6.=.=.6.6.=.6.6.;.6.",
"6.6.6.6.6.6.6.6.6.6.6.6.6.6.6.6.6.6.6.6.6.7.6.6.e.e.t.t.e.t.r.t.e.r.y.e.t.r.r.e.e.9.6.e.y.y.;.{ E ' e.e.t.e.r.r.e.e.e.e.e.t.e.t.e.t.t.t.t.e.e.t.e.e.e.t.t.e.t.e.e.e.f.a.a.e.>.u.a.t.a.a.r.a.r.a.a.y.a.a.a.k.d.l.l.j.k.j.v.l.l.l.v.j.h.j.v.z.j.z.l.l.v.l.l.z.v.j.l.v.l.j.l.l.v.l.l.l.v.l.l.j.l.h.k.v.k.k.l.k.l.l.l.l.j.v.b.j.z.j.k.f.f.l.l.g.l.l.l.g.g.g.d.a.a.a.a.g.g.g.d.h.p.h.j.d.z.l.x.9.9.9.+.} ] } | @.+.X.o.+.+.$.+.+.+.| +.@.@.+.| } +.@.=.$.-.=.} W $.y.r.e.0.3.3.0.e.9.9.3.-.*.=.3.3.3.0.0.4.0.r.r.r.r.s.r.4.i.4.i.i.a.a.g.d.g.d.d.d.a.a.d.a.a.s.a.a.a.a.s.a.a.a.s.a.a.i.d.r.d.s.a.s.a.d.s.d.s.4.d.4.z.j.d.s.d.z.4.s.4.j.d.d.s.i.s.s.i.r.r.0.0.q.w.0.0.0.e.0.0.0.9.9.0.9.0.e.e.0.9.9.0.q.#.E G w.g.s.f.s.g.a.a.a.s.i.i.4.d.4.d.s.4.d.4.r.i.r.i.i.4.4.4.4.e.e.u.r.r.y.p.r.a.p.r.e.u.r.4.9.6.e.y.9.9.t.q.&.-.>.6.6.>.+.] { >.e.r.t.e.r.y.r.r.r.p.p.r.u.r.u.u.r.u.r.r.r.u.r.e.e.e.e.t.u.t.r.y.p.p.r.r.t.e.%.;.L F H S S F S v f E E n G P E E ' ' I E ' Q ' E E E E E E ' ] ..{ @.] F S v s k I k k P =.7.p.7.7.6.=.5.5.=.=.5.5.;.=.6.6.5.6.6.6.6.5.6.6.5.",
"6.;.6.6.;.6.6.6.6.6.6.6.6.6.6.6.6.7.;.7.6.6.6.7.e.e.t.e.e.r.e.y.y.r.y.t.e.r.t.t.a.e.9.9.>.+._ I S &.a.0.e.e.a.r.e.e.e.e.y.r.e.t.t.e.t.e.t.e.t.e.e.e.9.e.e.t.e.7.e.e.a.a.a.p.>.a.y.a.y.r.a.a.a.r.t.a.a.a.a.a.a.l.j.l.j.l.k.v.l.v.l.a.p.j.l.l.l.v.j.v.l.v.l.v.l.l.l.z.l.l.l.z.l.l.l.v.l.z.l.l.h.l.v.k.l.v.l.v.l.l.l.l.j.l.b.j.v.j.l.l.g.g.l.l.g.g.g.l.g.g.d.a.d.d.l.x.x.l.j.a.h.h.l.d.z.v.g.2.=.*.@.+.@.$.$.@.@.X.@.+.o.+.+.+.@.@.| } [ +.*.@.+.} } | +.@.+.X.@.2.e.s.s.e.0.9.0.9.9.3.3.3.2.3.3.3.3.3.0.r.4.r.r.r.r.r.r.i.4.d.i.a.a.a.a.d.d.d.d.a.d.a.a.d.a.a.s.a.a.f.s.a.a.a.a.a.s.a.d.a.a.a.s.a.4.d.4.z.z.s.z.4.z.4.d.4.d.s.s.d.4.d.4.d.s.a.s.r.s.r.0.0.9.t.0.0.0.0.9.0.9.0.0.0.0.0.w.e.0.9.9.9.9.+.E ' y.g.g.t.a.s.s.a.i.d.j.4.j.4.d.4.i.i.i.i.i.i.r.r.4.i.4.4.4.e.e.e.r.r.r.y.a.a.d.a.r.e.e.e.e.-.9.t.6.e.9.6...=.:.-.-.=.+.{ &.9.7.r.r.e.r.a.u.r.r.r.r.u.r.r.u.e.r.r.r.r.p.t.r.r.r.r.e.u.r.r.u.t.u.p.p.u.4.>.[ I I I H S F F p k 5 f G G ' I G G ' E E E E I H S v S H H H _ ' ..@.6.;.I S k j k F I F k I ..=.6.6.5.5.6.5.5.6.6.=.5.;.6.6.6.6.;.6.6.6.6.;.6.",
"6.6.6.6.6.6.6.6.6.6.6.6.6.6.6.6.6.6.7.7.7.6.7.7.t.e.e.e.e.e.r.y.p.y.r.y.e.e.e.t.3.e.e.9.{ H H _ &.e.:.r.g.e.a.6.e.t.e.e.r.r.r.t.e.t.e.t.e.t.t.t.7.t.t.7.e.e.e.t.e.e.r.d.a.d.>.d.a.y.a.a.a.r.r.d.t.a.a.a.p.a.a.d.h.h.l.h.v.j.v.j.v.h.h.j.v.j.l.v.l.z.v.j.z.l.l.l.l.j.v.l.j.v.l.v.l.v.v.l.j.j.l.l.x.v.l.l.x.k.l.l.z.v.v.v.z.b.j.j.l.l.l.l.g.l.l.l.l.l.g.d.a.i.d.z.l.l.a.j.j.l.k.k.l.a.z.x.d.-.=.=.-.o.o.@.X.X.$.$.@.@.@.-.$.@.=.@.@.@.+.+.X.| X.*.@.+.| ] +.@.+.[ -.0.d.s.e.0.9.9.0.0.0.0.3.3.2.2.2.3.3.4.0.r.r.r.r.r.4.4.i.4.i.i.y.a.a.a.d.d.d.d.d.d.a.a.d.a.a.a.a.a.s.a.d.i.s.d.i.d.i.s.d.a.a.a.j.z.4.s.4.d.s.d.s.d.s.z.d.4.d.4.d.j.4.s.a.i.s.s.r.r.e.0.0.0.0.t.q.9.0.9.0.0.e.w.e.0.y.w.9.8.9.9.-. .I ..5.-.s.f.q.g.g.a.i.s.d.d.4.d.4.s.4.s.i.4.s.4.r.i.h.4.4.4.,.,.e.t.r.r.u.r.p.r.e.e.7.>.>.p.e.+.=.6.;.-.-.+.&.&.&.=.....{ ..>.7.&.-.r.r.p.p.r.r.r.r.u.u.r.r.t.u.t.r.r.r.r.p.p.p.p.y.e.u.r.u.u.t.t.u.t.t.;.&.;.I _ [ S S _ ' ] ;.v s ' -.9.+.I G Q H H v n f d s f G ' E F k D G G ' E n S v k k s S k F S S s H ' ..=.-.5.=.6.=.6.;.6.=.;.6.6.6.6.;.6.6.;.6.",
"6.6.6.5.6.6.6.6.6.6.6.6.6.6.6.6.9.6.7.7.e.;.4.u.e.t.r.r.e.e.a.d.k.a.p.t.f.f.t.e.>.e.7...H G { 6.p.p.y.y.r.r.r.t.e.t.e.y.r.r.r.e.t.t.e.e.e.e.t.e.t.t.t.e.t.t.e.t.e.e.e.p.a.g.a.a.r.a.a.a.y.a.y.a.p.a.f.a.l.d.g.a.l.l.l.l.l.v.l.z.v.l.l.l.v.j.h.z.v.l.v.l.z.v.l.l.v.v.l.l.v.l.v.z.l.z.l.v.l.l.l.l.v.v.k.v.k.v.k.l.l.l.l.x.j.b.j.z.p.k.x.k.k.v.x.k.x.l.l.l.x.v.k.f.v.k.k.k.k.k.k.k.d.d.g.r.&.@.2.+.+.$.O.$.o.@.@.$.+.@.$.@.$.@.@.@.| o.| +.@.=.&.+.| +.| +.X.} | } W ` +.0.a.0.0.9.r.0.0.9.0.e.0.*.2.:.3.e.e.0.9.e.e.r.r.r.u.r.r.i.r.r.p.d.d.d.a.d.a.a.k.d.a.a.d.a.a.a.a.a.s.a.s.a.a.a.s.a.a.s.s.a.d.s.d.s.4.4.z.4.4.z.d.s.4.z.d.s.d.s.4.j.d.4.j.4.r.0.0.0.e.w.0.0.0.9.e.0.9.t.q.0.0.0.0.0.9.5.9.-...Q ' 6.6.6.s.t.s.a.d.s.i.r.d.4.d.4.z.4.4.d.4.d.i.s.4.4.d.4.3.3.e.e.r.e.e.e.e.u.a.e.4.e.e.r.e.-.&.&.-.7.s.a.r.a.a.0.-.| ' +.=.:.:.e.r.y.e.r.r.p.r.u.r.r.u.u.r.u.r.e.e.e.e.u.r.r.r.r.e.r.r.r.r.r.p.r.p.e.y.=.=.&.{ { ..' k F &...-.+.E D I '  .-.+.] E I I F v F v S f k E H v S v d a a f f f s s j k F v S S S k S F I ..6.9.6.6.6.q.6.-.6.6.>.=.6.6.6.>.6.>.6.",
"6.6...5.6.6.6.7.6.6.6.7.6.6.6.6.e.e.>.>.9.e.e.4.e.e.e.r.e.r.r.a.7.h.p.t.t.7.7.=.t.;._ H ' ;.p.g.t.y.r.u.y.y.e.e.e.e.r.y.y.y.e.t.e.e.t.e.7.e.t.t.e.r.t.e.e.t.t.e.r.e.7.u.p.a.u.e.a.a.a.a.r.y.a.a.a.a.a.f.a.k.f.l.l.l.l.l.l.z.v.v.v.l.l.v.v.l.l.l.v.l.j.z.v.j.v.z.j.z.z.j.v.z.l.v.v.v.v.l.v.l.l.l.v.k.v.l.x.l.v.l.l.v.v.v.v.v.z.j.k.x.x.x.k.x.k.x.l.l.l.k.k.k.k.x.k.v.v.k.k.k.k.k.z.z.g.4.*.+.@.@.$.O.O.$.$.@.$.@.@.@.$.@.@.+.+.| @.+.+.| @.@.@.@.+.+.+.| +.| } | | W K | 0.g.a.0.+.| ' ` ] } -.s.-.2.2.2.3.r.r.e.r.r.r.r.r.r.4.i.r.r.u.a.d.a.a.d.a.g.a.a.d.a.a.a.a.s.s.a.a.a.d.a.s.a.a.a.a.a.a.a.4.d.d.j.z.d.s.z.s.d.4.z.z.4.j.4.z.4.z.4.s.s.s.d.y.0.0.0.0.0.0.0.0.t.e.0.0.9.0.9.0.e.9.-.3.-.8.5...I I 5.5.7.f.p.d.s.a.i.i.s.4.d.z.4.4.4.d.4.s.4.r.i.i.4.4.4.:.3.,.e.e.u.u.t.u.u.u.u.4.3.7.4.,.>.>.-.6.t.y.y.t.s.e.r.9.9.>.9.9.3.9.e.y.p.e.e.e.t.r.r.u.r.r.u.u.r.r.u.u.t.e.u.r.p.p.u.r.u.r.u.r.r.u.a.a.&.;.>.>...' { ....k p F ] I Q Q Q #.@.+.=.-.+...+.+. . .+.@.=.' E { ..] =.=.=.*.=.+.' D f q s j k S F S v k S S v G '  ...+.5.9.9.6.6.9.6.;.6.6.6.9.7.7.>.",
"6...7.7.6.6.5...6.6.6.6.6.6.6.6.=.7.t.e.-.,.h.i.g.p.u.r.i.a.r.r.k.7.p.p.t.a.k.p.p.&.H H { 7.e.6.r.t.r.r.e.e.e.e.e.e.r.r.r.e.e.e.u.t.t.t.t.e.e.r.t.t.e.t.e.e.e.t.u.r.e.e.r.a.r.r.a.r.y.p.a.a.a.a.p.a.a.a.a.h.a.l.v.z.v.v.v.v.v.v.v.z.l.l.z.k.l.l.l.l.v.v.l.v.j.v.l.l.v.z.j.l.v.l.l.v.z.v.z.v.l.v.v.v.v.l.l.v.l.v.v.x.l.v.z.j.v.j.l.x.x.k.x.k.k.k.l.v.x.x.l.l.k.k.v.k.v.k.k.k.v.v.z.z.s.3.*.@.@.@.$.$.$.$.$.$.$.$.$.*.*.$.@.+.o.+.@.*.@.@.+.@.@.@.+.@.@.@.+.+.+.+.} | @.} W E [ @.+.X.] +.} G D [ 2.0.4.3.2.9.0.3.r.e.0.e.r.4.r.r.r.e.u.u.d.a.a.d.a.a.a.a.a.a.a.a.a.a.a.a.a.a.a.a.a.a.a.a.a.y.a.y.d.d.4.4.s.d.4.z.z.s.4.s.d.s.4.s.d.4.d.s.s.d.s.4.y.0.e.0.w.0.0.w.0.0.9.0.e.0.9.t.t.0.9.-.-.-.-.-.] P ' #. .s.f.t.i.i.i.s.d.s.s.d.4.j.4.d.d.4.4.d.r.r.a.i.4.*.3.3.>.e.e.e.t.r.r.u.e.e.e.4.>.,.e.r.y.e.e.t.t.r.t.a.r.y.y.y.a.a.r.0.r.t.y.t.e.e.e.e.r.u.t.r.r.u.r.p.u.r.u.r.u.u.u.r.p.p.u.u.t.t.r.r.t.a.p.&.=.>.;.{ ' ] I F k d k f ' ]  ...@.+. .+.@.....+.+.+...+.+.;.@.] +...] +.` +.=.=.$.@.] E k j d k v S S F F F F v v F G G P I I [ =.9.6.;.6.6.;.;.-.>.>.7.",
"6.6.6.6.6.6.7.7.6.6.6.6.6.6.6.6.e.7.>.,.r.h.4.,.>.-.-.:.4.s.s.d.p.7.;.;.' { &.{ F S S [ 7.k.l.g.y.r.r.r.y.e.t.e.e.t.e.e.y.e.t.t.u.r.r.e.t.t.t.e.e.e.7.e.7.t.e.t.u.e.t.t.y.p.r.r.d.r.y.e.a.a.a.a.f.a.y.a.a.a.l.h.l.v.l.z.b.v.v.v.l.l.v.z.v.v.l.j.z.l.l.l.l.l.z.l.v.l.l.l.v.l.z.v.l.v.v.l.v.z.v.l.l.x.v.x.v.x.v.l.v.l.v.l.v.v.j.z.k.k.k.x.k.k.v.x.l.l.k.v.v.l.l.l.k.k.k.k.k.k.h.v.j.j.e.@.*.@.+.@.1.$.2.$.-.$.@.-.*.$.-.-.$.-.-.2.2.2.2.*.@.| @.=.+.+.@.@.=.@.@.@.*.@.@.+.X.} } @.@.*.@.2.9.} b E E @.9.3.0.0.r.r.e.e.4.0.r.4.r.4.r.t.e.u.a.a.a.a.a.g.a.d.a.d.a.d.s.a.d.a.s.a.s.a.d.s.y.y.y.a.y.a.d.s.z.s.d.j.4.d.4.d.z.d.4.z.j.d.4.z.d.s.s.d.4.d.y.e.w.0.e.w.0.e.e.e.e.e.0.e.0.q.w.q.9.8.9.8.$.+.Q I 5.6.' q.q.t.s.4.s.i.i.i.4.4.4.4.d.4.4.4.d.4.i.4.i.i.3.3.3.:.>.>.,.e.e.r.r.r.e.u.e.e.e.e.r.p.a.y.t.t.a.e.y.a.p.y.r.r.y.a.y.e.y.u.r.r.r.t.r.r.r.r.u.r.r.r.r.r.t.r.r.r.r.r.r.r.r.r.u.e.e.e.e.e.t.e.6.-.;.....] ' ' k d S n v s Q ' ] ....+.+.=.@.#.+.#.+... ...] +.+.{ +.{ ] +.@.*.=.+.=.-.=...F k 2 p p 9 q s v F F F F v v k G k k S Q +...{ =.6.t.e.>.;.;.t.",
";.6.7.6.6.6.7.6.5.6.6.6.6.6.6.6.e.t.t.;.{ H H H [ L L L L { &.*...L [ .._ I F f H _ ;.7.p.t.r.e.r.r.r.r.r.e.r.r.t.e.e.e.t.e.e.t.r.t.t.t.t.e.t.t.e.e.9.e.t.t.e.t.e.r.e.r.p.u.r.r.a.a.r.a.a.a.a.a.a.y.p.a.a.f.h.l.v.l.x.v.v.v.v.l.v.z.v.l.z.l.l.l.v.l.j.v.v.j.v.l.z.l.v.j.l.v.v.z.z.x.v.l.v.v.v.v.x.x.v.v.v.v.l.v.l.l.x.k.v.l.v.z.x.f.f.f.k.k.k.k.k.v.v.k.k.v.k.k.k.v.v.k.h.h.h.a.d.d.9.@.2.@.+.1.$.2.8.8.-.2.-.-.2.2.2.2.2.8.0.0.9.8.8.2.@.@.@.@.@.@.@.@.@.@.&.@.@.+.} @.2.2.2.$.$.-.} } 2.@.} @.K ` @.3.0.9.9.e.e.0.e.9.e.r.r.i.e.e.t.r.y.a.a.d.a.a.d.a.a.s.d.r.d.a.s.a.i.a.s.i.a.a.a.a.y.a.y.a.4.z.z.4.4.s.d.4.4.z.s.d.4.d.d.4.d.j.d.d.d.s.s.4.0.r.0.0.0.q.0.0.0.e.e.0.e.e.q.e.w.9.0.w.6.5.5. .' P 7.q.6.t.s.f.r.4.s.i.s.4.y.4.4.4.4.d.d.d.4.d.i.4.r.4.>.;.4.-.>.>.>.e.e.u.r.u.r.4.r.e.i.i.a.d.p.y.e.y.p.y.r.a.a.a.r.e.y.p.a.e.p.r.e.y.r.y.p.r.r.r.r.u.r.r.r.t.e.u.e.u.u.u.t.r.r.r.r.r.r.r.r.r.p.7.6.>.&.' I ' I F v H E s j I G I ] +.@...+.+.+.#.#.@.@.+.+.+.+.+.......+.+.=.{ +...{ +.+.' D ' E F F v d s d k v v v F G H H G P F v S F H I L [ ;.,.>.;...%.",
"I I ..;...6.7.7.6.6.7.6.6.6.7.7.&.' _ [ %.[ L H [ L L L L L L | [ H F H H [ ;.&.%.;.7.p.a.p.p.p.u.t.r.r.r.t.t.e.t.e.y.e.e.e.e.e.e.e.t.t.t.t.t.e.t.7.t.t.e.e.7.e.e.r.r.r.r.r.r.e.a.r.r.a.a.d.a.a.p.y.y.y.a.f.l.k.l.v.l.v.v.l.v.v.l.v.v.v.v.l.v.j.l.z.v.l.l.z.z.v.l.l.j.v.l.l.l.v.l.l.l.v.l.v.z.z.v.v.v.x.v.x.v.x.v.v.x.x.z.v.j.v.v.x.l.k.v.k.k.x.k.k.v.v.v.v.k.v.k.v.v.v.v.v.h.h.j.d.e.2.2.@.@.@.1.8.8.8.9.8.8.8.3.9.9.8.9.8.8.w.9.9.9.2.2.-.=.-.@.*.=.@.@.@.@.+.+.@.2.+.} } } @.+.$.@.| @.+.+.+.@.} +.*.9.9.3.2.e.0.9.3.e.r.r.u.u.t.e.r.y.p.a.a.d.a.a.a.a.a.a.d.r.d.i.a.d.a.a.d.a.s.a.y.a.y.a.a.j.4.s.d.d.d.s.z.d.s.4.j.j.s.d.d.d.4.s.4.4.d.4.d.s.r.0.0.0.q.9.9.0.0.e.e.0.e.0.t.9.9.9.w.6.5.' Q ' T s.q.g.f.f.s.a.a.4.i.a.s.y.r.d.d.4.4.4.4.4.4.u.4.3.3.>.>.4.>.,.,.,.e.e.u.t.u.r.r.r.r.i.d.4.4.y.e.r.t.a.p.y.a.y.e.e.r.a.a.t.a.a.r.r.r.r.t.r.r.p.u.r.r.u.r.t.u.e.u.u.e.u.e.t.r.r.r.u.p.a.u.r.p.p.r.;.%.' _ I I I ' I T I d s n G F ' +... . .....+....... .....+.+.+.{ +.+.....+.+.+.+.@.:...' I E E E I F v f k f s q f F G G F F H F F H H H H F H H { [ [ [ ",
"6...' ' ' ' ..7.6.7.7.7.6.7.7.6.H S F S f < f S f S D D D K L [ F H _ [ %.....{ p.e.7.p.a.t.t.a.r.r.r.t.r.t.e.y.t.e.t.e.r.e.t.t.e.t.e.t.e.t.t.e.6.e.6.e.7.e.e.e.e.e.r.r.r.r.r.r.e.a.a.a.p.p.y.p.a.p.a.a.a.k.l.x.v.x.v.l.l.v.v.z.v.v.z.l.v.v.v.l.l.l.v.z.v.j.l.l.l.v.l.l.z.l.z.l.l.l.v.z.v.x.l.v.x.v.v.l.x.v.x.v.x.v.v.v.l.z.l.z.x.x.l.x.x.k.k.x.v.x.v.k.v.v.v.v.v.v.l.v.v.v.l.h.d.a.9.3.*.2.1.@.-.8.8.9.0.9.9.9.9.0.9.9.8.9.8.8.9.8.9.8.8.9.2.2.-.2.@.@.&.+.+.@.@.+.o.+.+.+.+.+.W X.$.-.@.*.+.+.+.| ] } -.e.s.s.r.0.0.e.r.r.r.u.e.u.r.r.y.a.d.a.a.a.a.d.d.i.d.a.d.r.i.d.r.s.d.r.a.a.a.a.y.a.a.s.d.d.d.s.s.d.4.z.z.d.s.d.d.s.d.s.4.d.s.d.s.s.d.s.y.r.e.0.0.0.9.0.e.e.e.e.e.0.e.w.w.9.6.6.5.#./ ' ' 5.7.q.f.t.t.t.s.4.d.4.4.d.y.y.4.4.d.4.4.4.d.4.r.e.,.*.>.4.>.4.e.7.7.e.r.r.u.p.i.u.r.r.r.r.4.a.e.e.t.r.y.y.r.y.e.e.e.y.t.e.t.e.y.t.y.y.r.r.r.u.r.p.r.r.u.u.e.u.e.e.r.r.r.r.r.r.r.r.p.p.a.y.a.p.r.e.+.{ I { ' ' I ..Q I I F n s v k G ] ..+.-.=.@.=.@.@.+...+.X.+...@.=.=.+.+.{ &.@.+.....} ....{ ..+...X...Q G v v k f f v f f v v v S I ' _ L I F S S H L { %.",
". 2 k ' 6.' ' ..F ' ' ' I ' ' F S S S S S L %.%.[ { %.%.[ | | | ;.;.....{ ;.7.f.p.t.t.p.p.r.t.p.e.t.e.t.e.t.t.e.r.e.e.t.e.e.e.e.7.7.e.e.t.e.t.t.e.t.e.t.9.e.6.e.e.e.e.e.r.p.s.d.e.e.y.a.p.r.r.t.t.p.a.a.f.k.x.l.l.v.l.v.v.l.l.v.z.v.v.l.j.z.v.j.v.v.j.z.v.v.l.v.z.l.v.l.l.v.v.v.l.l.l.v.l.v.l.l.v.v.v.v.k.v.v.l.v.v.v.v.v.v.v.v.x.l.k.l.v.x.v.k.k.v.v.v.k.k.v.v.v.k.k.h.v.v.z.d.d.e.3.2.@.@.2.1.$.2.2.9.8.9.9.9.0.9.0.0.9.8.8.w.8.8.9.9.0.0.9.2.-.*.*.=.@.@.@.@.| @.@.+.+.| +.+.-.@.+.+.+.@.1.=.} | +.] X.2.e.y.r.r.3.e.4.r.r.4.r.u.r.y.p.a.d.a.d.a.a.a.a.d.i.s.a.d.s.a.d.a.a.d.s.a.a.a.s.a.a.a.4.s.j.4.d.j.4.d.4.s.d.j.4.d.4.d.s.d.d.j.4.d.d.4.t.t.t.0.0.t.0.0.0.0.0.0.e.0.y.e.q.9.6.5.5...I 5.I 5.s.f.f.s.s.t.s.4.s.s.4.4.r.r.4.d.4.4.d.s.4.4.e.u.4.*.>.,.>.e.e.3.3.>.e.r.r.r.4.r.r.r.i.r.4.j.r.r.r.r.e.a.r.e.y.e.t.y.r.e.r.a.r.r.r.r.r.r.r.p.t.r.u.r.r.u.u.e.t.t.r.r.u.u.u.r.r.r.y.a.a.a.p.t.e.;.' ' _ ..' { ' ' H I E T Q E D F E +.+. ... ...+.+.+...X...+.+...{ ..] { @.+...{ @.=.@.....+.+.=.+. ...@. .E ]  ...] ! G v p d f k d f 2 S 2 S S S S S S H [ ",
". . # * 2 S F H ..' ..] { I I I L L ' ..%...] ] ' %.6.>...' ' { +.>.6.6.e.t.f.t.t.t.t.t.t.t.t.y.t.7.e.7.e.t.e.t.e.t.u.t.u.e.7.e.e.r.t.e.e.t.e.t.e.9.t.q.6.9.6.6.9.t.e.9.e.r.y.p.t.r.r.t.p.t.p.a.p.f.p.p.k.x.k.x.k.x.x.v.l.l.k.v.v.v.l.v.l.v.v.v.v.l.b.v.j.j.b.z.v.z.j.z.l.v.l.z.h.l.l.v.l.l.l.z.b.b.v.v.b.b.v.v.v.l.v.v.v.v.v.b.k.l.k.x.k.x.k.l.x.v.v.v.k.v.k.k.k.v.v.k.k.v.x.f.9.0.9.2.2.$.*.2.2.2.8.w.0.0.0.8.8.0.0.8.0.8.8.w.8.8.8.8.8.3.8.9.-.2.=.@.@.@.@.*.@.@.@.@.| +.+.X.@.@.2.@.1.*.@.@.+.} +.| W +.w.y.a.a.y.9.3.r.r.r.r.r.r.u.i.a.a.a.d.d.d.s.4.4.z.j.d.a.a.d.a.d.a.a.d.s.a.a.a.a.a.s.j.d.d.4.d.i.s.i.s.a.i.d.i.d.i.s.a.a.s.a.s.r.a.s.e.0.r.0.w.0.0.9.e.r.0.0.y.0.0.4.3.2.3.| 1.{ } ` ..6.f.f.s.q.t.t.s.t.w.t.0.e.e.r.s.4.4.a.t.e.e.u.e.e.,.:.&.;.>.e.3.3.0.r.a.e.r.i.i.i.r.r.4.j.4.4.p.t.r.r.r.e.e.e.r.r.p.u.y.a.p.u.r.r.r.e.e.e.e.e.u.r.r.r.4.i.r.r.u.t.u.p.p.r.u.p.a.r.r.p.t.t.p.y.7...' ..&.{ ' ] ] [ ' E W E G v n I ] +...+.+.+.+.+.#.X...+.+.+...] ] ] { ..+.+.&...+.+.+.+.+.&.+.+...+...+.+...+.......+...' H s f k d d v k d k k f 2 1 % % . ",
";.' F k F ' _ H { &.-...' I ' &.;...[ { ..#.=.>.6.7.q.q.6.9.0.a.6.9.6.>.>.9.9.e.e.e.e.9.9.e.e.t.u.u.u.t.7.u.7.t.u.u.t.u.u.e.t.7.e.e.t.e.e.e.t.e.t.9.9.9.9.6.9.9.9.0.9.9.9.t.y.y.p.r.t.r.t.p.t.a.p.7.f.f.k.k.k.k.x.v.k.k.l.k.v.v.v.l.v.l.j.z.l.l.v.v.j.v.v.v.j.v.v.j.v.l.l.l.v.j.v.v.z.l.l.x.z.b.v.j.v.v.v.v.b.b.v.v.v.v.v.v.v.v.l.l.v.k.v.v.l.l.k.v.x.v.x.v.x.v.v.v.v.k.k.k.f.t.3.2.2.-.*.1.1.2.-.2.8.9.8.9.8.0.9.9.8.0.0.0.w.8.9.8.8.8.2.8.2.8.2.-.$.-.*.-.@.@.@.@.@.| +.+.+.+.@.*.@.*.*.@.@.@.+.W W } } W @.a.y.f.d.y.r.a.p.p.u.u.i.i.i.s.a.s.a.a.d.j.z.j.4.d.i.s.s.i.d.r.d.i.a.a.s.a.a.a.a.a.d.s.d.d.i.d.a.d.d.a.d.a.s.a.a.a.a.s.r.d.i.s.r.s.r.r.0.r.e.w.0.9.0.0.0.0.0.0.3.2.2.3.%.2.[ { @.3.-.q.f.f.s.q.t.t.q.t.e.q.t.0.w.r.4.d.i.4.e.e.e.e.e.u.u.e.,.>.>.>.e.3.>.-.3.r.i.u.r.r.i.4.4.j.j.4.r.r.r.r.t.e.e.r.r.r.u.u.u.u.u.u.r.r.r.e.r.e.e.e.4.r.r.i.i.i.r.r.e.r.u.p.p.p.y.y.p.r.p.a.a.p.a.t.&.[ ' ......] ] ] ] ] ] [ ' E D D I ' ]  ...+.....+.....+. . .+.+.........+.+.+.+.#.+...+...+.&.+...=.+.#.#...&.+.+.+.+.+.&.+.] v k s q v ' =.#.] .. .] ] ..+.@.",
"6.9.;.' S S G I f S F I _ %.=...;.#...=.=.-.6.5.6.6.5.;.6.6.9.t.9.9.6.6.-.6.6.9.9.9.9.6.9.6.9.t.r.t.e.e.e.7.7.t.7.u.t.u.t.7.7.t.e.e.t.e.e.e.e.q.9.t.t.9.q.9.9.6.>.>.>.9.9.y.p.a.t.t.r.t.y.t.p.a.7.f.f.f.f.k.k.x.v.v.l.l.v.l.v.v.v.v.z.l.v.v.v.v.j.j.v.b.v.z.v.v.l.v.l.v.z.j.v.v.v.z.l.l.v.v.v.v.v.b.v.v.j.v.v.b.v.v.v.v.v.v.v.v.x.v.v.v.v.v.v.l.k.v.x.x.v.x.k.k.v.v.k.v.v.g.t.5.@.@.@.@.$.@.2.2.1.2.8.9.8.9.8.0.8.8.8.0.0.8.w.8.8.9.8.8.2.8.2.8.2.$.-.$.-.$.@.+.@.@.@.+.+.+.@.+.@.@.@.2.*.@.@.+.$.} W ] +.E ! e.y.a.g.a.a.p.p.p.s.a.a.d.i.d.d.s.a.a.d.4.s.d.z.d.a.a.a.d.r.s.i.s.s.a.a.a.a.s.a.a.d.d.s.a.a.a.a.a.i.d.i.s.i.d.d.i.a.a.a.s.d.s.r.r.0.r.r.0.w.e.0.0.e.0.0.0.r.0.9.3.2.2.{ 1.` ` | s.q.t.f.s.q.y.q.t.w.t.w.e.w.e.e.e.r.r.4.4.r.r.r.e.e.t.u.u.r.e.r.r.0.r.e.3.=.2.4.4.4.r.i.i.j.4.a.a.r.r.u.y.r.r.r.r.y.u.u.r.r.r.e.u.e.r.e.e.e.e.e.r.u.r.4.4.r.r.4.r.r.t.y.p.y.y.u.p.t.t.a.a.f.a.7.;.' ' ' ] .. .] ' ' ] ] ] ] ] E G m H I ! ..#.+.+.+...+.+.+...+...+.+.+...+.+.+.&.&...+.+.....+...+...+.+.&.....#.+.+.+.....+.+.+.+...&.-.6.q.6.-.=.#.......#.#...",
"-.6.;.{ _ _ ] ' =.6.;.>...;.=.;.=.=.;.6.6.6.-.5.6.5.>.5.>.5.-.-.>.>.6.e.9.6.>.9.9.9.>.6.6.6.9.e.e.t.t.7.e.7.e.e.t.t.t.u.u.u.u.e.e.e.e.r.t.0.e.e.e.9.6.9.9.9.9.9.>.9.>.-.>.0.e.e.7.6.e.t.u.r.r.p.p.p.k.k.k.k.k.v.k.x.x.l.l.x.k.v.l.v.l.v.j.v.l.j.v.v.v.j.j.v.v.j.v.l.z.l.l.v.l.z.l.l.v.v.v.v.h.h.v.v.b.b.v.v.v.v.v.v.v.v.v.b.v.v.v.l.v.v.l.x.v.x.v.v.v.k.k.v.v.v.v.v.k.v.x.a.9.-.2.-.@.$.2.2.2.*.-.2.8.8.9.8.8.0.0.0.0.8.0.0.w.8.w.8.9.8.8.2.3.8.0.-.$.@.@.*.=.@.+.+.+.+.+.+.+.@.| @.@.@.@.@.@.+.+.2.@.} } [ [ @.y.y.a.g.g.a.p.a.i.r.d.r.d.i.d.d.a.d.a.d.4.d.j.4.d.i.s.i.d.a.d.a.a.y.a.a.a.a.s.a.s.4.d.a.s.i.d.s.s.a.d.i.d.a.a.s.s.a.a.a.r.a.r.s.r.0.r.r.e.e.0.0.r.0.0.e.0.0.9.3.1.| 2.[ } L 2.s.t.f.s.y.y.q.t.t.e.e.w.e.e.0.e.e.4.4.4.4.e.r.r.r.e.r.e.e.e.r.p.p.3.d.s.r.2.:.4.4.i.i.i.i.4.a.4.4.r.r.t.r.r.t.u.r.r.p.u.r.r.r.u.e.e.e.e.e.u.e.u.r.u.u.i.r.4.4.r.r.r.r.u.y.p.y.p.a.p.y.a.a.p.p.7.{ ' I I ' ' { ] ' { ' [ ] } [ ` E F n D E  .=.@.#.+.#...+.#.#.+.....+.+.&.&.+.+...+.+.....+.+.+.+...=...=...+.+.&.+..... .{ +.+.....#.5.6.5.5.-.5.6.=.....+.-.=...",
"6.6.;.=.6.t.9.;.;.{ F ' ..6.>.-.6.6.6.5.-.6.6.9.-.>.5.6.6.6.6.5.-.>.6.9.9.6.6.9.9.9.6.6.6.9.9.e.e.e.7.7.,.6.,.7.7.t.e.u.t.t.t.t.e.e.t.e.e.e.0.e.9.e.9.9.9.9.9.9.0.e.0.-.:.>.-.>.-.>.e.p.p.y.y.p.p.k.l.l.k.k.v.v.v.x.k.v.v.k.v.v.v.l.v.l.l.v.v.v.l.v.z.v.v.v.v.v.l.v.l.v.l.l.z.l.l.l.l.v.v.z.h.a.h.h.h.j.v.v.v.v.v.v.v.v.v.v.v.v.v.x.v.v.x.v.x.v.v.k.x.v.v.k.k.v.l.l.k.h.a.e.6.5.2.-.@.*.2.*.2.2.2.8.9.8.0.8.w.8.8.w.0.8.w.8.8.8.8.8.8.8.8.8.8.8.0.9.-.$.1.2.-.$.$.@.@.@.+.@.+.+.| +.@.@.@.@.$.+.+.@.2.@.[ X.@.' w.0.y.a.l.g.a.f.a.d.a.a.d.d.d.a.d.d.d.a.z.a.4.j.i.d.a.d.a.s.a.s.a.a.a.a.s.a.a.d.a.d.i.s.a.a.d.i.i.d.a.a.i.i.s.a.a.a.y.a.a.a.y.t.r.r.r.r.0.0.y.0.0.3.9.0.0.3.2.2.@.&.2.[ | @.4.s.y.s.f.t.t.a.t.r.y.r.r.e.e.e.e.9.r.3.4.4.e.u.u.r.u.u.e.e.e.4.t.u.r.0.e.r.s.r.e.3.r.r.r.s.4.i.s.4.r.r.r.t.y.y.r.u.y.r.r.r.u.e.e.u.r.e.e.u.e.e.u.r.r.u.r.r.u.r.r.e.r.r.p.p.y.p.p.a.p.a.f.a.t.y.>.{ _ I I ' ............{ ..+.] ] ] G D F H ' ..=.@.&...+...+.+.+.+.....+.+.+...+.....+.&.&.#...&.#.#.+...#.#...&...+.+.+.....+.+.+.+.=.;.5.-.6.9.y.t.6.-.=.-.6.6.-.",
"=.-.6.6.>.5.6.6.6.6.6.t.6.-.-.y.6.6.6.6.>.5.6.6.-.-.5.-.-.5.6.6.0.e.e.6.9.>.6.9.9.6.9.6.6.9.6.9.7.7.e.>.,.6.e.>.e.e.t.7.e.t.e.e.e.e.e.9.e.e.e.0.e.6.9.q.9.q.9.9.9.e.0.3.>.-.>.>.;.6.t.a.f.f.p.p.k.k.l.x.x.k.k.x.k.v.k.k.k.k.k.v.v.l.z.l.j.l.l.z.z.v.j.l.z.j.v.j.l.z.z.j.l.v.l.v.v.z.l.l.l.l.v.v.v.j.h.j.l.v.v.b.b.v.v.v.l.v.h.h.k.k.k.v.v.v.x.v.v.v.v.v.v.x.v.v.v.v.l.a.9.-.-.-.@.$.@.2.1.2.2.2.2.2.8.8.8.8.8.0.8.8.0.8.8.8.8.8.8.8.8.8.8.8.8.8.8.8.2.8.9.9.2.2.2.2.-.$.@.+.@.@.+.$.@.@.-.@.+.+.@.} 1.2.+.@.-.[ 9.9.e.y.a.f.f.a.i.i.a.d.a.a.a.a.a.a.a.d.j.j.d.d.s.a.s.i.a.a.a.a.a.s.y.a.a.s.s.a.j.4.d.a.4.d.a.s.s.i.d.s.s.d.d.a.y.a.s.a.y.p.r.t.r.r.t.w.e.t.e.w.0.0.0.0.0.9.3.-.&.2.} } } y.a.s.a.f.a.a.y.p.p.y.y.y.r.r.t.e.e.e.r.r.e.e.r.r.r.p.r.t.u.e.t.t.u.e.a.e.0.r.r.e.3.4.4.4.4.y.i.i.i.i.e.t.t.e.e.y.r.t.a.r.r.r.e.e.u.e.e.u.e.r.e.u.e.e.r.r.r.r.u.r.e.r.r.y.t.p.r.t.y.p.a.p.a.a.p.r.6.{ I I I ] =.#.....+.+.X...| X.} { Q I n n G E ] ..#.=.@.#.+...+.@.+.#...&.+.&.+.=.&.#.#.+.&.&.......&...&...&...#...+.&.+...+.+.+.......=.-.6.;.=.5.7.6.-.......=.",
"7.>.-.-.6.6.-.>.;.5.6.e.t.6.-.+.-.-.6.6.6.9.6.-.6.6.6.6.6.9.9.t.t.y.t.9.6.9.9.6.9.q.6.9.9.6.>.9.7.9.>.6.6.7.6.9.e.e.7.e.e.6.6.e.t.9.e.e.e.e.e.9.q.9.9.q.9.9.8.q.3.9.3.>.6.e.9.6.6.e.t.f.f.p.p.k.k.k.k.l.k.v.x.v.k.k.k.v.v.v.v.v.l.v.l.v.v.z.v.l.j.v.l.v.l.v.z.l.l.v.v.z.v.z.v.j.l.l.z.l.l.v.v.b.n.v.v.v.l.l.v.v.v.v.z.l.h.l.v.h.v.k.k.x.v.v.v.k.k.x.x.v.v.k.x.k.k.v.l.t.-.:.-.-.@.*.*.2.*.2.2.2.2.2.2.8.8.w.w.0.8.8.8.8.8.8.8.8.8.2.2.8.8.8.8.9.8.9.0.0.0.0.0.9.8.9.2.2.-.$.$.$.@.2.*.2.2.@.@.+.@.o.+.2.-.$.-.-.-.e.a.a.a.f.a.a.d.a.d.a.a.a.r.a.4.i.d.d.d.i.a.i.d.a.a.a.a.d.s.a.a.a.a.a.a.a.a.a.d.a.d.a.d.a.d.i.d.i.d.i.i.d.i.d.a.a.a.a.a.r.p.r.s.y.r.r.y.r.y.r.e.r.0.e.e.0.3.-.&.@.[ +.&.s.s.s.y.a.f.a.a.y.p.r.y.p.y.y.y.r.e.e.r.r.r.e.e.e.t.p.e.e.e.u.r.r.u.r.e.r.r.e.3.3.3.e.4.4.y.0.r.s.4.i.a.e.e.e.e.t.r.y.u.y.r.t.e.t.r.r.u.e.r.e.r.e.u.r.r.r.u.r.r.r.u.r.y.p.p.u.r.u.t.p.y.t.p.a.a.e.;.[ H I I ' ......{ +.{ ..+.| ] ] ] ' E G D F H E E ..#.=.=.#.+.+.=.=.=.+.+.+.&.#.&...&.#.+.#.&.+.+.+.+.+.+.+.+.+.....+...{ ..+.+...-.+.....-.6.7.6.;.6.q.6.-.-.>.6.",
"q.5.-.9.6.-.=.6.5.6.t.-.6.>.6.6.6.5.-.5.9.t.q.-.-.5.5.6.6.6.6.-.-.9.q.0.9.e.0.>.6.9.9.6.9.5.9.-.>.6.7.7.6.e.t.7.e.e.e.7.e.7.e.e.e.e.e.9.e.t.t.9.9.e.9.9.q.6.6.9.0.9.-.6.t.t.9.>.9.e.p.a.a.p.p.p.x.v.k.k.k.v.k.k.k.k.k.k.k.k.k.v.v.z.l.l.l.l.j.v.v.l.v.j.z.v.j.z.l.v.j.l.v.j.z.l.j.v.v.v.v.l.z.l.v.v.v.v.v.l.j.v.l.l.l.j.v.j.v.l.v.x.v.x.v.x.k.v.v.k.v.x.v.v.l.l.j.l.a.6.=.=.:.$.*.2.2.2.2.2.2.3.2.2.2.2.8.w.8.8.w.0.8.0.8.8.8.8.1.1.$.2.8.8.8.8.8.8.8.8.8.8.0.0.9.8.9.9.8.2.-.5.2.2.2.2.2.@.@.+.} 2.| ] @.-.$.-.9.g.c.g.a.a.l.a.r.r.a.a.a.a.a.e.4.r.4.i.s.d.d.d.i.s.a.s.a.a.a.a.d.a.s.a.a.a.y.s.s.a.i.s.d.s.i.d.i.d.a.a.s.a.s.i.s.a.y.a.a.e.t.p.r.r.t.r.y.t.y.t.0.e.0.0.0.9.-.-.*.[ | +.y.y.a.4.e.a.d.a.a.p.y.r.r.r.u.r.y.r.r.e.4.r.e.e.4.4.e.u.a.u.t.e.e.r.e.r.0.e.e.3.3.4.3.>.y.4.4.4.4.r.r.r.t.t.t.0.0.e.e.r.p.u.u.e.r.r.r.r.e.e.e.e.e.r.r.r.r.u.r.r.r.i.u.u.p.p.p.u.t.t.p.p.y.e.p.g.p.6.&.' F I I I E ..=.+.+.+.{  .} [ W ' I E I U I P G I E ] +.=.#.+.@.$.=.=.+.......+.+.+...&.&.+...+...+...=...+...&.+.@.+.+.+...&.+.+...&.=.&.=.6.6.>.-.-.;.5.;.-.;.=.",
"6.6.6.5.-.6.5.6.8.6.>.5.9.-.6.-.5.6.-.6.6.9.9.6.6.6.6.8.q.6.6.6.6.9.5.9.6.9.9.8.6.t.9.9.q.t.9.q.e.e.e.e.6.e.9.e.e.e.e.e.e.e.e.9.e.e.9.e.9.t.9.9.e.e.9.t.6.9.9.9.9.e.9.-.9.9.6.e.6.e.y.p.p.a.k.k.v.v.k.v.k.k.k.v.k.k.k.k.v.v.v.k.v.l.z.l.z.l.l.x.l.z.l.l.l.v.x.d.l.l.z.j.v.z.j.v.l.z.j.v.l.z.v.j.v.v.j.v.v.b.j.b.v.x.v.l.v.l.l.v.k.x.v.v.x.v.v.x.v.v.v.k.k.l.v.v.l.l.p.-.@.:.-.@.-.-.5.5.2.2.2.2.-.8.8.8.8.8.w.w.8.8.8.8.8.w.w.8.w.8.8.8.<.8.8.8.8.8.-.8.w.8.8.0.8.0.8.0.0.8.8.8.8.2.2.8.8.8.-.+.@.@.@.@.@.1.&.| 3.l.a.g.a.y.d.a.t.a.l.p.e.t.t.t.4.r.p.a.a.a.a.a.y.a.y.a.y.a.a.d.a.a.a.a.a.a.a.a.a.i.d.a.a.a.d.a.s.a.d.i.s.i.s.a.f.y.a.y.p.y.t.t.9.q.a.a.t.r.r.r.e.w.t.9.6.6.-.=.*.] @.0.9.0.a.y.r.d.d.a.a.a.y.e.p.r.a.p.t.7.=.p.r.e.e.r.a.p.r.e.r.u.e.t.e.e.r.e.r.0.-.&.%.-.3.3.3.>.3.r.e.-.*.-.-.3.e.e.t.a.t.0.e.t.a.r.r.y.p.y.e.t.u.t.t.u.u.u.p.p.p.p.y.t.p.r.k.p.p.a.t.7.p.p.7.,.;.;.;.[ H F F H I I I ' ..+.+.+.+.{ ] ' W ` E ' ' ! ! E E E E E E E E ] ..+.+.+.+... .+.| ..@.+.=.+.&.+.+.&.=...+.] { +.+.+.+.+.+.+...+.....=.-.9.6.>.>.6.-.-.;.-.;.6.6.-.-.",
"5.5.>.5.5.;.6.-.6.6.6.6.6.6.5.>.6.-.6.6.5.6.6.6.6.6.5.6.6.q.9.9.5.6.9.9.5.9.6.9.-.q.t.9.0.q.9.9.9.e.9.7.6.>.>.e.9.9.9.9.e.9.e.e.9.e.e.6.e.e.e.t.9.q.q.6.9.9.q.9.6.0.8.9.t.t.9.9.6.e.p.a.p.h.k.k.v.k.v.v.k.v.k.v.v.k.v.k.k.v.k.v.l.l.l.l.l.l.z.l.l.v.l.l.l.l.l.l.v.l.l.v.v.l.z.v.v.l.v.z.l.l.v.z.v.j.v.v.v.j.z.v.l.v.l.v.v.z.l.l.v.k.k.v.v.k.k.k.v.x.x.k.l.l.l.k.l.a.t.-.=.=.=.$.5.-.-.8.2.2.2.2.8.8.8.8.9.0.w.0.w.8.w.w.8.8.w.8.8.8.8.8.8.8.8.8.8.0.8.8.0.0.8.0.0.8.8.0.0.8.8.0.8.2.2.2.9.8.2.1.@.@.@.@.| @.@.+.' &.a.g.l.a.p.e.r.r.r.t.e.,.,.7.r.u.a.f.a.f.f.a.a.a.s.a.y.a.a.s.d.a.s.s.a.s.a.s.a.s.a.a.a.i.s.s.i.d.i.d.a.d.d.a.f.y.f.y.s.p.y.y.t.y.a.a.p.r.r.u.t.t.a.t.6.-.-.;.} | 9.a.9.6.9.0.r.i.a.d.a.a.a.y.y.a.k.6.[ &.6.e.r.r.r.r.r.p.r.r.t.r.u.r.u.u.u.u.r.e.3.3.3.:.3.-.| | | %.-.3.-.| +.@.>.e.t.a.s.a.t.t.9.e.y.a.y.e.u.u.t.t.e.u.t.u.r.t.r.r.r.p.p.p.7.h.f.p.t.k.p.;.[ H H H I I H S H I H I I ' ' { ....+...] ' W ` E ' ! ` ' ' ' ] ' ' Q ' ' Q ' ' ] { +.{ ..+.+.+.+.&.+.&.+.+.+.+.=.....+.@.....+...{ ..+.+...+.@.=.6.6.6.6.6.6.6.6.6.6.>.>.6.6.6.",
">.5.6.-.6.-.-.5.6.5.6.5.5.6.-.-.>.6.-.5.5.6.5.5.5.6.9.9.9.q.q.6.8.9.9.5.9.8.9.9.6.9.5.:.9.9.9.6.6.6.9.9.9.6.e.e.9.e.9.3.6.9.6.6.9.e.6.e.6.e.9.e.e.9.9.9.6.9.9.9.-.8.8.0.a.9.6.9.e.t.a.a.h.h.h.h.k.k.v.k.v.k.v.k.v.k.v.k.v.v.v.k.l.v.z.l.l.l.x.l.l.l.l.j.d.l.v.l.z.l.j.z.j.l.l.l.l.l.l.l.v.l.v.l.v.v.v.v.l.v.v.l.v.l.v.l.l.v.l.v.v.k.v.x.v.x.k.k.k.v.v.k.k.l.l.k.h.p.,.-.-.-.-.$.-.2.8.8.2.2.2.2.8.8.8.8.8.w.w.8.w.w.w.8.w.w.8.w.8.w.8.8.8.8.8.8.8.8.8.8.0.w.0.8.8.8.8.8.8.8.8.8.8.8.8.8.8.8.8.2.1.&.@.| X.+.@.&.+.' p.u.a.a.y.p.r.e.e.p.u.,.7.t.u.a.d.g.f.a.f.g.d.a.a.a.a.a.a.a.a.a.a.a.a.a.a.a.s.i.s.i.d.s.d.a.s.d.i.a.s.i.i.s.p.f.y.f.p.y.f.y.a.a.a.y.p.p.u.u.e.a.y.9.-.:.&.%.K =.e.s.a.t.t.a.0.e.s.d.s.a.d.d.t.r.a.e...;.f.e.r.p.p.a.r.r.r.r.u.u.u.r.p.u.p.y.r.r.r.0.3.3.3.&.=.&.| K _ &.-.+.+.{ ] ' ' +.9.t.a.a.y.9.e.e.a.a.u.p.u.u.u.t.t.e.r.p.p.y.p.a.a.y.h.7.h.p.;._ L H I H H H H I I H I I I I I I I ' ] +.+.&.+.] ] ' ' E ' ' ' ] ] ' ] ] ' [ Q ' ' ' ' ] ] { { ....+.+.&.=.@.@.&.&.+.........+.....{ +.+.@.+.+.+.=.>.-.6.7.t.6.6.-.-.6.-.-.6.-.=.-.6.",
"5.;.-.6.-.5.6.6.>.5.6.>.>.5.5.6.6.5.6.-.6.5.6.6.6.6.6.6.q.a.t.5.9.6.9.9.9.6.6.5.q.9.+. .-.9.9.9.9.9.9.9.9.9.6.9.9.9.e.e.9.e.e.9.>.6.e.6.e.9.e.9.6.9.9.6.>.5.>.5.-.-.3.e.0.6.>.9.e.p.a.f.h.h.h.h.k.k.v.v.v.v.v.v.k.v.v.v.v.k.k.v.l.l.l.l.l.z.l.l.z.j.j.l.l.x.l.l.v.l.v.l.v.z.v.l.v.l.v.v.j.z.l.l.l.l.l.l.z.v.j.z.l.v.x.l.v.l.v.l.k.k.k.v.v.l.k.k.v.k.k.k.k.k.x.l.a.t.6.>.5.-.-.5.8.2.8.8.2.2.2.2.2.$.2.1.8.w.w.w.8.w.8.8.w.8.8.8.8.8.8.8.8.8.8.8.8.0.w.8.8.8.0.8.9.8.8.8.8.8.8.w.9.8.8.8.2.8.1.2.@.1.@.| | +.@.*.9.@.v.x.x.a.l.t.r.r.p.p.p.t.t.a.a.a.a.a.a.a.a.f.d.s.a.d.s.a.a.y.s.y.a.a.s.y.y.a.r.d.d.a.a.i.a.a.a.a.s.a.d.d.i.d.s.p.y.p.f.a.y.f.a.a.a.a.a.a.a.p.y.w.9.6.6.-...' [ e.a.e.t.e.6.9.d.r.0.r.9.9.9.a.f.e.>.t.t.t.x.7.r.y.p.r.r.r.u.a.r.t.r.r.r.r.r.r.4.e.e.e.4.3.-.&.3.0.3.` K } *.=.+.....+...] [ +.9.y.f.a.e.e.y.a.r.u.u.e.e.e.t.u.t.a.p.a.a.f.p.r.7.k.p.;._ H H F F L _ H H H H H ' _ I I _ _ Q ' ....+.+.@.+.+.+.+.+.+.] ] ' ' ' ' ' Q ] ] [ ] ] ' ' ] {  .{ { ] ..+...+.&.+.@.=. .@.+.{ { @.=.+.{ +.=.=.&.=.:.5.6.-.-.-.6.5.6.t.5.-.-.6.6.6.-.6.",
"5.6.6.;.6.6.5.6.6.5.>.6.5.6.5.6.>.6.6.5.5.6.6.5.5.6.9.9.t.f.t.9.9.6.9.9.9.6.6.6.5.-.=.@.5.9.9.9.9.0.9.9.e.e.9.9.3.e.9.9.e.3.9.9.7.e.e.e.e.6.e.9.9.6.6.-.-.:.-.-.5.-.8.q.6.=.:.9.t.p.h.a.h.h.h.h.k.v.v.v.v.v.v.v.v.v.v.v.l.l.l.v.l.g.x.l.l.l.g.l.l.g.g.l.l.x.l.l.z.v.l.v.v.z.j.z.z.l.z.v.v.l.l.l.l.l.l.l.l.l.z.l.z.l.l.z.z.z.z.z.k.k.k.v.x.k.l.v.k.k.k.k.k.k.l.k.p.e.6.-.>.-.-.5.$.8.8.8.$.2.2.2.$.$.1.-.8.8.w.8.8.8.8.8.8.8.8.8.8.8.8.8.8.8.8.8.w.8.8.0.w.-.5.w.8.8.8.8.8.8.8.8.8.8.8.8.2.2.8.2.1.@.@.+.} | +.*.t...&.-.p.7.a.;.7.p.a.a.t.p.a.a.f.p.a.f.a.a.a.f.a.a.a.a.s.a.a.s.a.y.a.y.a.y.a.y.a.a.a.a.d.i.s.d.d.i.d.i.i.s.d.i.y.y.f.f.y.f.f.a.f.a.p.a.a.a.a.p.e.t.q.9.>.=.{ _ ' t.s.6.t.0.-.0.3.9.y.g.g.t.>.6.t.y.5.9.7.6.6.t.r.p.a.r.e.e.u.p.p.r.r.r.r.t.e.e.e.e.0.0.9.3.3.2.&.2.3.-.+.+.=.-.=.=.@.;.=.{ { ....=.e.a.y.e.e.r.r.t.u.e.e.e.7.u.t.p.a.p.p.a.a.a.k.p...L H H I L %.;.7.;.;.>.;.%.' ' ] ' ' ' ' ' +...+.+.@.+.@.+.=.@.+.....] ] ] Q ' Q ' ] ] ] ] [ ] { ....+....... .....+.+.+.+.=.+.......+.-.:.:.-.-.5.5.6.6.5.-.-.6.q.9.=.$.-.6.-.=.-.6.6.-.=.",
"-.-.5.5.-.5.6.-.5.>.6.5.6.6.-.>.5.6.9.6.6.9.9.9.6.6.5.6.9.s.s.t.9.8.8.6.>.5.5.>.+.>.9.9.8.9.6.q.e.e.e.e.9.9.9.>.0.e.e.0.0.e.0.e.>.9.6.e.e.e.e.9.6.6.5.:.-.-.-.-.8.-.9.0.:.@.6.9.p.f.d.h.a.a.h.p.k.v.v.v.v.v.v.v.v.v.v.v.v.v.l.j.l.x.l.x.x.g.l.g.g.f.g.g.l.g.g.l.l.l.l.l.l.l.v.v.j.v.v.j.l.l.z.v.z.l.z.l.l.l.l.l.z.l.l.l.j.j.j.j.k.k.k.k.x.k.k.l.k.k.k.l.k.k.k.p.e.9.6.-.-.5.$.5.-.8.-.2.2.$.*.1.1.8.-.$.$.8.8.8.8.8.8.8.8.8.8.8.8.8.8.8.O.8.8.8.8.-.1.8.8.#.X.8.8.$.$.8.2.2.$.2.8.8.8.8.2.2.8.w.2.2.+.} | } | } { &.&.{ E S e.a.7.p.a.a.t.p.f.a.p.a.k.a.a.a.y.a.a.s.y.s.a.a.a.a.a.a.y.a.y.a.y.a.s.a.a.s.a.a.a.a.i.s.a.s.d.i.d.s.f.y.t.t.y.p.y.f.a.f.a.a.a.p.i.i.e.a.a.e.=...' ' I 6.f.y.a.t.9.a.d.a.s.r.2.[ I G I :.9.6.6.#.6.s.p.p.y.r.e.t.u.u.y.p.u.u.r.r.e.e.r.r.e.4.4.e.4.3.3.3.2.3.9.2.2.-.9.-.=.+.+.{ +.&.{ { ..;.9.t.e.e.t.u.u.t.u.7.t.7.t.t.p.7.y.a.a.a.p.[ F H L S H ..7.7.p.7.a.a.7.=...' ..{ ] ' ' ] { +.+.+.+.+.@.&.@.@.+.#.#.+...+...+..... ... . ...+.@.=.+.@.+.#.+.+.#.@.&.=.=.=.:.] ' +.+.' { 5.6.6.6.5.-.:.@...=.-.9.t.t.9.6.5.6.5.=.@.5.5.5.=.",
"6.5.5.-.5.-.-.5.5.5.5.9.-.9.5.5.6.6.9.9.9.6.6.6.5.6.6.6.9.q.q.t.9.6.5.9.5.>.5.-.@.6.0.9.9.9.0.e.0.9.9.9.e.e.9.9.4.9.0.e.9.9.e.9.e.9.e.e.3.e.>.6.>.>.-.=.@.=.=.;.-.@.:.-.@.=.9.e.a.f.l.h.h.h.h.h.v.k.v.v.v.k.k.v.v.v.k.v.v.v.x.v.l.x.l.x.x.l.l.f.f.a.g.l.x.g.l.l.z.l.v.j.l.l.v.l.v.l.l.z.v.z.v.l.l.l.z.l.z.l.z.l.l.z.l.l.j.j.j.j.k.7.k.k.k.k.k.k.k.k.k.x.7.7.f.7.7.e.9.5.-.5.5.-.5.8.5.2.-.*.@.*.-.8.8.$.$.$.8.$.) 8.8.8.8.8.8.<.8.8.8.8.8.8.8.8.8.$.$.$.8.$.o.-.$.2.8.8.2.-.8.8.8.8.8.8.8.w.0.8.9.2.@.+.+.| } } ;.+.{ { ;.e.t.;.7.t.t.p.y.f.a.f.f.a.f.a.p.p.y.p.y.a.a.s.a.r.y.a.r.a.e.a.a.y.a.a.a.a.a.a.a.s.a.a.d.a.a.a.a.a.i.s.f.y.t.f.y.p.f.a.a.f.a.a.a.i.i.i.t.t.t.6.&.] { ' ' e.a.9.9.>.+.=.| W D h v D ] =.F Q 5.q.6.5.6.t.e.e.e.e.t.r.r.r.u.r.u.u.t.e.r.e.r.r.e.e.e.e.e.0.r.0.3.-.9.9.0.e.9.9.q.9.9.5.&...&...[ [ ..&.-.9.7.6.7.7.e.t.7.t.p.p.t.u.p.t.6.=.H _ _ I [ ;.,.u.7.h.p.p.p.a.7.6...' ' ' ] { ....+.| +.+.+.=.@.@.+.+.&.@.=.=.@.=.@.=.@.#.=.+.+.+.@.=.-.-.-.-.=.-.;.-.-.=.=.=.=.=.=.] ..@.+.' Q +.+.+.+.....] ' ' I I P F G ' #.5.5.6.6.5.5.6.6.6.",
"6.;.6.-.6.5.6.;.6.-.6.-.6.5.6.5.6.6.9.q.9.6.5.-.9.6.5.6.6.6.6.6.9.5.6.6.5.-.5.-.t.9.-.@.-.9.0.e.9.9.9.9.0.e.9.9.0.3.3.9.9.e.9.3.>.e.6.9.9.6.6.>.6.-.-.=.+...+.+.@.+.@.@.+.-.t.e.f.l.g.a.h.h.h.h.v.v.v.v.v.v.v.v.v.v.v.v.v.v.v.l.l.g.l.l.l.l.f.l.f.a.a.l.l.x.g.l.l.v.l.z.l.v.j.z.l.l.v.l.l.l.l.z.l.l.l.j.l.l.l.l.l.l.l.z.j.j.d.d.x.f.k.k.k.7.k.k.k.f.7.7.7.f.p.p.6.t.t.6.-.5.6.-.1.-.2.$.-.1.2.@.$.$.8.1.$.O.8.8.5.8.<.) 8.8.8.8.8.8.8.8.8.8.8.$.8.8.$.$.8.8.8.-.1.$.8.8.8.8.8.8.8.8.8.9.8.w.8.8.2.2.@.@.@.+.| | { { +.' %.r.>.y.e.6.>.t.f.p.p.a.p.f.f.f.p.t.t.y.a.a.a.a.a.y.r.r.t.t.y.y.y.y.a.s.y.d.r.d.a.a.s.d.i.s.d.i.s.d.i.d.y.f.p.t.y.y.p.p.t.p.k.p.i.i.a.d.a.t.-.+.....[ E H [ { ......' E D D H J E ' { +.t.I ..9.6.-.+.;.-.-.>.>.e.r.r.r.r.e.e.e.e.e.r.e.e.e.e.0.e.r.e.9.3.9.e.3.6.>.0.e.q.9.9.>.>.6.:...&.+.....' ` [ ..;.;.;.,.7.7.t.7.t.r.t.p.p.6.[ S I I H I ;.;.7.p.p.7.h.7.t.t.7.7...{ _ ' ] ....+.=.@.+.&.=.=.+.=.+.@.=.=.=.@.#.+.@.+.@.=.@.=.=.=.@.=.=.-.-.=.-.-.-.-.-.-.=.@.@.+.+.-.-.+.+.{ ' E ]  .+.+.+.+.$.-.=.-.#. .' ' E I Q @.5.-.=.5.5.=.",
"6.;.6.-.:.6.6.>.9.9.9.-.5.-.6.9.6.9.6.9.9.6.6.5.6.6.6.5.5.6.9.9.5.6.6.8.5.6.5.5.y.5.+.@.5.9.9.8.9.0.9.9.9.9.3.9.3.9.3.9.3.3.3.3.6.9.6.6.6.6.9.6.-.6.>.=.+.=.#.+.+.$.+.+.*.;.;.7.v.k.p.h.p.h.k.v.v.v.v.v.v.v.v.v.v.v.v.k.v.k.v.v.k.k.v.k.g.k.f.g.f.k.f.g.l.x.x.x.j.b.j.l.z.l.l.z.l.j.z.v.j.z.z.z.j.j.j.g.l.j.j.l.d.d.d.j.a.i.j.d.i.i.r.d.j.d.a.r.a.y.e.e.t.9.0.9.9.0.0.9.-.8.9.-.3.8.2.8.8.-.-.$.2.1.@.+.+.1.2.2.1.@.1.@.2.2.2.1.8.1.2.2.2.8.2.1.1.2.2.1.$.2.8.8.8.8.8.8.8.8.8.8.w.w.w.8.w.8.w.8.0.9.8.8.$.+.[ X.+.+.{ [ ] =.3.0.e.6.6.9.t.t.a.l.s.z.a.u.a.i.e.r.a.a.d.r.y.a.a.t.t.a.y.y.y.t.s.y.f.a.a.a.y.a.a.a.s.g.a.a.a.s.a.a.y.s.y.y.y.y.t.d.a.r.r.a.a.i.a.d.p.t.3.-.} G H v v 9 , b E K J W _ [ | | | | } +.+.+.E J +.3.-.+.>.&.=.=.-.r.y.e.t.y.r.r.e.u.e.e.e.e.7.e.e.9.e.>.e.t.e.e.r.e.r.e.e.e.t.e.7.6.6.6.&.&...&.=.=.=.+.....;.6.6.7.7.t.t.f.s.6.[ I I L [ ' L ' >.,.e.u.4.u.u.e.,.e.e.6.' E E { =.=.&.=.&.=.=.*.=.=.@.@.&.=.=.=.#.=.=.#.=.+.=.#.=.=.=.=.5.=.-.=.-.=.$.5.-.$.=.5.=.$.5.-.$.5.5.@.#.#...' Q ] ]  ...+.] Q E -.@.T W @.@.+.$.X.X.] ] ] ] ] ",
"..%.6.e.9.e.0.e.6.6.-.6.6.6.6.-.6.6.6.5.6.5.6.6.5.>.6.6.6.5.5.6.6.5.5.6.9.5.-.-.8.@...=.6.9.8.9.9.3.9.3.9.9.0.3.e.0.9.9.3.0.0.0.9.9.6.6.-.-.;.+.=.-.;.#.=.#.+. .X.$.@.+.:.,.,.u.v.k.k.h.v.k.k.v.v.k.v.v.v.v.v.k.v.k.v.v.v.v.v.v.v.k.v.k.l.l.l.f.f.k.l.a.k.l.l.l.b.j.z.l.l.v.v.l.l.v.v.j.z.j.j.j.l.d.d.j.d.s.d.d.d.d.s.i.i.i.4.d.r.r.r.d.d.d.d.s.a.t.e.0.0.0.9.0.0.0.0.8.9.3.8.2.8.2.3.2.2.2.-.-.$.$.@.1.1.*.@.1.@.1.@.1.1.2.1.2.2.2.2.2.2.1.2.1.*.1.*.2.1.8.2.8.w.w.8.8.8.8.8.w.8.8.8.w.w.8.8.8.8.0.8.9.-.@.+.X.] ] +.+.| | | [ +.:.9.t.t.e.t.f.i.d.4.i.d.j.r.3.r.r.e.a.s.d.e.9.a.w.y.w.q.s.t.s.s.a.a.a.s.a.a.s.a.a.s.a.a.f.f.a.a.a.a.y.s.a.r.a.4.r.a.a.s.i.i.i.3.2.| | K H H H +.} H v G ` X.+.` ` [ ] ` | | } +.-.+.W W ` X.8.-.=.3.:.*.6.9.e.e.e.e.e.e.e.e.u.e.7.e.e.4.e.e.e.e.e.e.e.r.e.e.e.r.t.t.7.e.e.6.>.6.>.>.6.6.9.6.6.6.6.;.6.;.6.7.7.7.p.7.=._ I I I ' L [ ..>.e.7.u.p.u.e.e.r.r.>.+.' ' { &.=.@.=.=.*.@.=.@.=.=.=.&.=.#.=.$.=.=.=.=.=.=.=.=.=.=.-.=.=.$.-.-.5.-.=.=.=.-.=.=.-.5.=.-.+.@.=.#.#.=.#.+... .] Q T Q E E E  . .' } @.+.@.} E G D D b D I ",
"_ ' e.p.y.e.9.0.6.9.-.5.-.:.@.+.@.-.5.6.5.5.-.6.5.5.6.9.6.9.9.6.q.6.6.6.6.6.5.=.5.#...-.q.8.q.9.3.9.3.3.8.3.3.3.3.3.9.9.0.3.3.3.+.#.=.=.;.-.:.;.;.-.=.@...#.+. . .@.+...=.3.u.h.v.h.v.k.v.k.k.v.k.k.v.k.v.k.v.k.v.v.v.v.v.v.v.k.v.k.k.v.l.l.k.l.l.k.l.l.k.l.l.k.b.j.j.z.l.l.z.l.j.z.z.j.j.j.j.j.d.d.d.a.d.i.r.i.a.i.r.r.4.s.4.4.4.r.e.r.r.r.a.y.0.e.0.9.9.0.0.0.9.q.0.9.8.2.3.2.9.2.8.3.3.2.-.$.2.@.@.2.1.1.1.@.1.@.1.@.1.2.2.2.2.8.2.2.8.2.8.2.@.1.1.2.2.2.2.2.8.8.8.w.0.8.8.8.8.8.8.8.8.0.0.8.0.8.9.2.2.-.@.| ] +.] { { | | | ..+.:.9.0.8.2.>.2.4.d.d.a.r.d.r.a.y.r.a.y.e.t.e.t.y.w.y.t.t.s.p.s.a.s.a.a.s.a.a.a.a.a.a.y.s.a.a.y.s.a.s.s.a.r.0.r.a.r.4.4.4.j.4.=.` _ K D D G E K } } E E } [ E ] [ ] ` [ } } +.=.@.@.| ` E E ' =.=.6.5.=.6.9.e.e.e.e.t.e.e.e.e.e.e.7.e.e.e.e.e.7.u.e.t.e.e.r.u.e.e.t.e.e.7.7.,.6.6.>.>.6.5.>.-.6.6.;.6.7.p.x.l.7.k.6.' I ..=.=...' ..;.6.e.e.e.u.,.>.4.9.>...' W | =.=.=.@.=.=.@.=.*.-.=.@.&.@.=.=.-.=.=.;.=.=.=.=.5.=.=.5.5.=.-.=.5.=.=.=.=.-.5.=.5.-.5.-.5.$.@.@.=.$.$.=.@.@.$.@. .' E Q ' E E W ' } +.+.} @.} J v D D h v b ",
"H E -.a.t.9.-.9.9.-.9.-.-.@.{  ...+.=.6.9.6.5.-.>.6.5.9.6.9.6.6.6.6.6.8.q.6.=...-.=.-.6.9.9.9.0.0.0.3.3.2.2.-.2.@.2.3.9.3.2.=.@.=.&.=.=...&.=.;.;.;.;.=.=...+.] ] +. ...@.>.p.k.v.h.k.k.v.k.k.v.v.v.k.v.k.v.v.k.k.v.k.v.k.v.k.v.k.k.v.k.l.j.l.l.l.h.g.l.l.l.l.l.j.b.j.j.l.l.j.l.j.j.j.j.j.j.j.j.a.a.r.s.4.s.i.4.r.4.r.r.i.i.4.a.4.r.r.r.e.e.e.e.e.0.9.0.q.9.e.0.0.q.0.9.8.3.8.2.8.3.3.8.9.2.8.-.2.1.@.+.@.@.@.*.@.@.@.1.2.2.2.1.2.2.2.1.2.2.2.2.-.$.1.2.8.8.1.$.8.1.8.8.8.8.w.w.8.w.w.8.8.8.8.8.8.0.9.2.2.-.-.} @.+.] [ } +.@.-.@.+.+.-.t.a.a.t.d.3.2.2.3.d.d.r.9.0.e.y.e.0.t.g.t.t.t.y.t.s.7.s.a.a.a.a.a.a.a.a.d.a.s.a.a.a.a.s.a.y.a.y.r.s.e.3.d.r.e.e.j.z.j.4.` D J D v H J W E W ` ] } } } [ | } [ | @.&.*.*.| | } | @.| E G =.+.;.=.:.e.e.e.7.e.e.e.e.4.e.e.7.e.e.4.e.e.7.e.e.e.e.e.e.u.e.e.u.e.t.e.e.t.e.e.e.6.e.6.6.6.6.6.6.6.;.=.....' ' ' ' ..' ' ;...] ..[ ..7.;.>.6.e.4.,.>.4.-...' [ ' +.:.=.&.=.=.@.=.=.=.@.=.=.=.@.@.=.=.=.=.=.=.=.-.=.-.-.=.=.-.=.=.-.=.$.-.-.-.-.$.5.-.5.-.5.-.5.-.5.5.@.@.$.@.+.@.=.-.@.+.+...X.] ] } +.+.+.| @.+.[ ] [ ] ` G H ",
"H H | 3.9.9.-.-.-.2.2.-.#.+.+.+... .+.=.5.0.2.2.9.6.9.9.9.6.6.6.5.6.6.q.q.6.+.{ -.-.9.9.t.9.9.9.4.9.2.2.2.*.$.*.@.2.3.9.3.*.@.=.=.=.@.=.=.=.:.>.-.-.=.#.| +.} ] +. ...-.,.,.p.v.v.k.k.v.v.k.v.v.v.k.k.v.k.v.v.k.l.v.k.k.v.k.v.l.x.k.l.l.v.h.l.k.j.j.l.l.l.l.l.l.z.z.j.j.z.j.j.z.v.j.j.h.a.j.i.h.4.d.4.i.i.4.a.4.r.r.r.r.r.r.4.e.3.3.e.0.9.9.0.0.0.0.0.0.0.0.e.0.0.0.q.0.8.8.2.2.2.2.9.2.9.2.2.-.2.@.@.@.@.<.@.1.@.1.1.1.1.2.2.2.8.$.8.2.2.8.2.8.2.2.2.2.8.8.8.$.1.1.-.$.8.8.9.8.8.0.0.8.8.8.8.8.8.9.8.$.$.3.-.+.| ] | +.+.| | | -.-.@.-.-.3.>.5.3.[ L [ [ 2.3.L | +.3.e.a.e.0.0.t.t.t.s.t.t.t.s.s.a.a.a.s.a.a.y.a.a.s.a.a.a.a.a.s.r.y.s.e.e.0.*.| [ | :.4.-.[ J K d v D D K H W +.} ` ] } ] } } ] | | &.-.2.*.@.} +.| } } =.+.` =...&.=.;.e.e.r.9.e.9.e.e.e.e.7.>.e.e.7.e.e.e.e.e.u.e.e.u.e.e.e.7.u.e.t.7.t.e.t.e.e.e.6.6.6.>.6.>.6.6.6.6.6.;.=.6...' ..6.6.6.t.;...] -.{ =.;.>.9.6.6.>.=.' ' +.{ @.=.@.@.=.=.+.@.&.@.=.*.-.-.-.=.-.$.=.=.=.=.=.=.$.=.=.5.=.=.$.5.5.=.-.5.=.-.=.=.-.5.-.5.-.-.=.=.$.-.=.=.5.=.$.#.=.5.5.5.-.-.-.@.+.| } } | +.@.| @.*.*.-.-.| K ",
"E D E | $.9.9.9.2.9.8.-.+. .+.@.#.+. .+.=.-.9.9.6.8.9.9.9.9.9.9.5.6.6.8.6.5.&.] 6.9.9.0.0.9.9.9.:.3.3.2.-.-.-.*.*.3.2.2.*.@.&.=...{ ..+.:.-.-.>.=.;.;.&.| } +.+...] #.y.p.u.k.k.k.v.v.v.v.k.k.v.v.v.v.k.v.k.v.v.l.l.l.v.k.v.h.j.k.v.l.l.l.l.v.k.l.l.j.k.j.l.l.l.j.b.z.j.j.j.j.j.j.j.h.h.h.i.h.i.4.4.s.4.s.4.4.a.r.r.r.e.4.3.3.:.2.:.2.3.3.8.0.0.0.9.9.0.e.9.0.q.0.0.0.0.9.9.3.9.3.2.3.2.8.3.9.2.2.2.2.2.2.2.1.@.@.$.+.$.<.1.1.@.-.5.8.2.5.-.8.8.8.2.8.8.2.2.2.2.2.-.$.-.$.-.2.2.8.8.8.8.8.2.-.2.2.2.-.$.-.2.2.@.{ +.+.@.@.{ | | -.-.2.2.@.} ] +.[ 1.4.4.2.[ 2.3.| [ ` =.e.s.y.9.q.t.w.t.f.q.t.t.y.a.y.s.a.a.y.a.y.y.y.a.y.a.a.y.s.0.y.y.0.e.0.| | | =.3.&.L H H H h D G K K J E ` ` ] ] } } ` W | | @.@.-.-.*.*.=.*.&.| ] +.+.E &.&.-.;.+.>.>.e.7.9.e.7.7.e.e.e.e.7.e.9.,.e.,.e.e.e.e.u.e.e.r.r.t.u.e.t.e.e.t.e.e.e.6.6.>.6.5.>.6.6.;.6.;.>.6.>...;.5.7.t.7.>.6.6.&.+...] ..@.:.e.-.=.@.+.' ' | =.=.=.=.=.=.=.=.=.@.=.=.-.-.-.-.=.=.$.5.#.5.5.#.=.5.5.=.=.$.=.5.$.-.5.$.$.-.5.$.-.=.-.$.=.=.$.=.=.5.=.=.-.=.-.=.#.@.-.=.-.5.5.5.+.+.+.} ' +.*.&.@.2.2.*.-.3.*.' ",
"] G K E X.8.9.8.9.8.2.-.+.X.X.+.#.+.X. .+.$.2.3.-.9.>.9.6.e.6.9.6.6.9.9.6.5.=.+.9.9.9.9.9.9.8.>.-.2.>.2.2.-.*.-.*.2.@.*.@.&.@.| +.....=.-.-.=.=.;.>.-.=.| } } +.....=.t.u.u.h.p.v.h.h.v.v.v.k.v.k.v.v.k.k.v.k.v.h.l.l.l.v.l.l.v.v.k.v.k.l.l.l.l.x.j.j.j.j.h.l.z.z.j.j.j.j.j.j.j.j.j.i.i.i.i.i.4.d.4.i.s.i.4.d.4.r.r.r.e.3.3.:.-.*.$.2.2.3.9.0.0.9.0.e.q.0.0.e.0.t.q.0.e.0.5.2.9.2.3.-.8.3.8.3.2.2.2.2.2.*.2.@.@.@.o.@.+.@.$.2.2.8.8.8.8.2.2.8.0.9.0.8.8.9.2.2.2.2.8.-.2.2.2.8.2.8.9.9.2.-.$.$.8.-.2.1.-.2.2.9.2.-.=.@.@.+.+.=.2.@.-.9.9.2.-.-.9.2.1.` L L [ <.2.=.} W ` =.e.a.y.t.q.w.t.t.t.t.q.y.a.a.a.a.y.a.t.a.a.y.y.a.a.t.a.s.4.y.y.9.r.e.| | ` ` K H D H H H b H ` E D E ` } } ] ] [ | +.+.+.&.=.*.-.2.3.3.0.3.2.2.&.+.| G +...:.=.=.6.6.e.e.6.e.e.e.e.e.e.e.e.e.e.e.e.e.e.e.e.t.e.e.u.u.e.e.e.e.e.t.e.t.t.t.e.r.e.7.9.6.7.6.>.>.>.6.6.6.6.7.7.6.6.6.6.7.t.6.-.#.' ....+.=.=.+.{ ..] ] X.+.-.@.@.=.=.=.@.-.=.=.*.-.-.-.=.-.=.#.=.=.$.=.#.=.=.#.$.=.=.=.$.=.-.=.=.-.5.=.5.-.-.=.=.5.5.$.-.=.5.-.-.-.-.@.$.=.-.-.=.@.=.5.5.-.=.+.+.+.] ] =.-.&.2.:.-.-.>.2.| ",
"+.E U G W -.2.-.2.-.$.@.+.@.+.+.X.+.@.+.+.@.=.3.9.5.6.-.6.>.3.>.6.6.9.5.6.>.:.-.9.9.9.3.2.-.3.5.3.2.3.3.3.-.*.&.*.*.*.*.2.-.| | { ] ] :.e.e.e.e.6.9.9.=.} { X.+.-...=.6.,.p.v.h.v.v.h.h.k.k.k.v.v.v.k.k.v.k.v.v.v.v.v.l.v.v.v.v.h.v.l.l.v.k.l.l.v.z.l.g.h.h.l.l.j.j.j.j.d.i.j.z.i.4.u.i.i.j.h.i.4.d.4.s.i.d.4.s.e.e.e.4.3.3.2.3.2.*.*.3.8.8.9.9.0.0.y.t.0.t.0.y.e.0.0.q.9.9.8.8.9.2.9.2.2.8.-.2.2.@.@.@.@.@.@.1.@.@.o.@.o.1.2.2.8.9.8.9.8.8.8.0.0.0.0.0.9.2.9.9.-.8.9.8.9.8.9.8.2.8.2.2.$.@.$.$.2.-.2.3.2.9.2.2.-.8.-.>.=.| +.-.8.8.2.8.2.-.+.+.^ [ W [ | 2.[ L | | ` ` | 2.9.9.t.q.t.t.t.t.q.s.y.y.y.s.a.s.a.t.y.y.s.a.y.s.s.y.s.4.r.w.9.r.r.@.[ _ H h D K K H K E E +.E D ` ] ] ` ] | @.X.+.@.=.-.*.*.-.3.e.s.e.3.e.r.-.&.=.+.+.[ +.=.-.e.r.>.9.e.e.e.e.e.7.e.e.e.,.e.e.7.e.,.e.e.e.e.r.e.e.e.t.e.7.t.7.e.e.t.9.e.6.e.6.6.6.e.6.6.6.6.6.6.6.-.7.7.7.7.6.7.t.6.5.5.=.I  .] ..] ' ]  ...]  .+.:.=.+.&.-.=.@.@.=.=.*.-.$.$.=.=.@.=.5.=.$.=.=.5.#.5.5.$.5.5.#.5.=.5.$.5.-.-.=.$.=.5.-.=.$.=.-.$.=.=.-.-.-.-.-.=.=.-.:.=.@.-.6.9.-.-.+.-.*.| ] | @.*.-.-.>.-.3.-.*.",
"1.[ K J Y [ [ <.+.+.@.+.X.X.+.} } } } @.@.+.+.1.*.=.*.3.3.3.3.3.>.0.:.2.s.4.2.*. .-.=.+.-.*.*.2.2.3.9.2.-.-.-.-.*.&.=.=.-.*.&.| ' =.3.0.e.e.y.a.4.3.4.0.<.` { @.=.+.6.t.6.7.k.a.l.h.k.v.v.v.v.k.v.v.k.k.h.v.l.v.h.l.l.v.v.z.v.l.j.b.v.z.j.z.z.l.l.x.v.x.a.a.a.d.j.j.4.d.4.4.4.4.z.4.4.4.4.d.4.g.d.4.i.s.r.r.r.r.0.4.4.0.e.0.3.3.2.2.3.8.2.2.9.8.0.0.9.0.0.0.e.w.0.0.t.0.9.8.9.-.-.8.2.>.8.-.2.-.-.2.-.$.=.$.@.$.@.$.$.$.2.8.8.8.8.9.8.5.9.8.w.t.w.w.w.y.e.0.0.0.9.3.2.2.9.8.9.8.9.-.2.8.2.-.8.-.2.*.$.2.2.9.9.2.3.2.3.-.*.@.&.-.2.2.3.2.3.1.%.| | [ <.1.[ 2.1.3.@.@.} L W *.e.9.q.t.t.t.w.w.t.t.y.a.y.y.s.a.a.t.s.a.y.y.y.a.y.e.a.s.s.r.0.0.3.| | H h b K K E ` E W _ ] E K ` ` } } } | @.&.*.*.2.*.*.2.0.0.r.r.0.e.e.0.3.2.&.&.+...&.;.>.6.>.4.e.9.e.e.7.e.e.e.e.7.e.e.7.e.e.e.,.7.e.e.e.e.t.e.e.9.e.e.t.7.e.e.t.7.7.6.>.>.7.6.6.6.9.9.6.6.6.>.9.9.6.9.9.6.6.9.t.5.@.+. . .] ] Q +.+.+.] ..@.=.$.=.=.=.=.$.=.-.=.=.=.$.-.-.5.=.$.=.=.5.#.5.=.5.5.5.#.#.=.5.=.5.-.5.=.5.=.5.=.=.5.-.-.5.5.-.5.-.-.5.-.-.-.-.=.-.=.=.-.=.-.-.6.-.-.-.3.-.] [ | | +.:.3.-.&.-.2.:.",
"1.<.W D J Y L <.@.@.@.X.} ` ! L W ! } X.$.@.+.| | @.@.2.3.0.3.3.-.0.5.t.*.K | @.| =.@.| @.*.2.0.9.3.-.3.0.e.2.@.3.2.*.@.=.-.2.2.e.e.r.0.9.3.3.9.4.3.2.4.| 1.| 1.+.=.>.9.e.r.p.k.j.j.k.k.k.k.v.v.v.v.v.v.v.l.h.u.h.a.j.h.a.h.h.j.b.l.u.d.l.z.x.l.l.h.g.a.d.a.0.3.i.d.4.4.i.i.z.4.4.4.z.d.4.4.d.4.i.s.s.4.r.e.r.4.4.0.4.4.0.e.e.3.3.2.0.0.9.9.9.9.0.9.9.0.9.9.9.9.0.0.0.9.8.9.9.8.8.-.3.8.8.9.2.2.2.2.2.@.@.@.$.$.@.1.1.2.2.8.8.8.8.8.8.q.9.q.w.w.y.y.t.t.t.t.e.e.9.9.9.0.0.0.0.0.0.8.2.2.-.2.8.8.2.$.-.2.8.9.9.8.2.3.2.-.-.*.-.-.3.2.3.2.%.2.1.[ 1.| %.1.2.1.2.[ 2.*.+.] [ 2.0.0.9.0.9.0.t.t.y.e.e.t.y.y.y.a.y.9.a.y.a.y.y.a.y.0.r.y.4.y.0.e.e.+.W K K K W ` ' ` W _ W ] E E ] ] [ ] [ +.@.=.@.*.&.*.2.0.r.s.r.9.0.0.e.r.r.0.3.&.{ ..=.:.>.9.e.6.6.e.7.e.e.e.e.e.e.e.e.e.e.e.e.e.7.e.e.e.e.e.e.e.t.t.t.t.e.t.e.e.e.6.6.7.7.9.e.6.9.6.6.6.6.9.6.-.=.;.;.6.t.t.9.q.6.-.+. .] ] ] ' ' X.+. . .+.@.-.-.=.$.-.=.$.$.-.-.$.5.-.$.=.$.$.#.5.=.$.#.=.=.#.=.$.=.5.#.5.5.=.5.-.5.-.=.-.=.$.=.$.$.@.=.=.=.@.5.-.6.6.6.8.-.5.-.-.-.-.=.=.=.-.9.-.-.2.+.b K -.@.-.-.*.-.-.:.*.",
"1.| <.J J K W [ ! } | +.+.+.} | } | X.} } X.+.} } | +.2.2.0.0.4.-.q.9.f.@.K 4.2.+.-.@.| | +.+.2.+.{ ` | 3.e.0.*.| } } | @.*.-.3.9.0.s.s.d.r.r.e.3.3.3.3.L ` +.2...9.0.9.a.u.7.r.j.j.v.j.h.h.h.k.k.k.k.k.j.l.j.j.h.l.l.l.l.v.b.n.j.b.n.n.z.a.d.g.d.a.e.e.0.t.e.t.4.4.4.4.4.4.j.4.4.4.4.4.d.4.4.d.4.s.4.i.e.0.0.4.4.0.3.0.e.e.e.3.9.0.9.3.9.2.2.9.9.9.0.0.0.q.0.0.8.8.9.2.-.2.8.2.-.9.3.2.3.8.9.9.3.2.2.@.+.@.$.-.2.2.2.8.8.8.w.w.q.0.q.q.8.q.q.y.y.0.0.e.y.y.y.p.e.e.e.e.0.e.t.y.y.0.8.9.2.-.8.-.2.2.2.2.2.8.9.9.2.3.3.2.2.-.3.2.2.3.3.2.2.2.2.1.2.2.3.2.2.2.[ 2.2.@.+.] W @.3.2.2.9.9.0.t.y.w.0.t.t.t.t.t.y.0.9.w.t.a.t.w.t.t.e.4.y.0.y.0.9.3.} b H W ` W W W W W ` ` } W K ] [ [ | X.| | +.@.@.2.3.0.y.s.r.9.3.0.0.e.s.s.r.3.&.=.=.-.-.9.9.6.6.e.9.e.>.e.e.e.7.e.e.e.7.e.e.e.e.e.7.4.e.e.t.e.e.e.q.e.e.e.6.e.e.6.6.>.>.6.7.6.e.9.6.6.6.9.9.6.;.+...=.>.6.6.6.9.=.@... .] ] ] ' ' X.+. . .#.=.5.=.$.5.=.-.=.$.5.-.$.=.-.=.5.-.=.=.=.=.$.=.$.5.#.=.=.5.-.5.5.5.5.$.=.$.-.5.5.5.-.5.=.-.=.=.5.=.5.-.-.-.-.5.-.-.=.6.5.-.-.5.-.-.-.2.+.-.-.9.E H } | @.| +.&.-.2.&.",
"` ` W K K D N b b D K W W } { } } X.+.` K W W ! } } | | &.2.4.4.0.y.-.@.W W 2.} } +.+.+.X.} { ` } [ ` _ W ` | | ` } [ | *.3.9.0.y.y.e.r.0.0.0.3.3.3.3.3.| } +.2.@.t.t.0.a.p.e.t.4.r.i.a.h.h.a.k.k.k.k.k.l.j.l.z.l.l.j.h.a.a.a.a.l.z.l.r.a.v.a.-.[ [ ] E E [ @.2.4.4.4.4.4.j.4.4.s.4.4.s.4.s.4.s.s.4.s.r.r.0.0.3.3.9.4.3.3.9.9.0.9.0.e.0.9.3.3.2.9.0.0.0.0.e.e.w.9.9.8.8.2.2.3.2.8.2.-.2.-.8.8.9.0.9.2.-.@.=.$.5.2.2.9.8.8.8.8.w.q.8.0.8.q.q.q.t.t.0.0.0.t.t.t.t.r.t.y.e.0.0.0.e.0.0.0.0.9.2.2.@.8.8.9.8.2.3.2.2.-.9.3.2.>.2.2.3.3.2.3.2.2.2.%.%.%.%.2.1.2.2.3.2.2.| } ` W | 2.3.8.-.5.9.0.t.e.0.t.t.0.9.w.t.0.3.9.t.t.e.0.w.0.t.0.s.y.0.9.-.@.E D K E E K E ` ] ] ] ` } ] E X.] +.+.@.+.+.@.@.*.2.3.8.9.3.3.3.3.e.e.3.e.e.e.e.3.>.6.6.9.9.9.9.e.6.e.e.7.e.7.e.e.7.e.e.e.e.e.7.e.7.e.e.e.e.7.e.e.e.6.6.9.6.6.6.e.6.6.>.6.,.>.e.7.9.6.9.9.6.5.=.@.+.....@.=.-.=.=.=.@.+..... .] ] ] X.] { ..@.-.=.-.=.$.-.=.$.=.-.5.=.$.-.=.$.=.$.=.#.=.=.=.=.=.=.=.5.=.5.=.=.=.5.5.-.5.-.-.-.=.@.=.$.-.-.-.-.5.-.5.5.$.5.6.5.5.-.=.$.-.$.@.+.#.+.+.X.@.} 9.E G D [ } [ ] } | | | ",
"<.[ } | <.K K K D b D b K D J K J D J L W J J L ` } o.} } +.2.2.-.-.+.E ` +.{ ` ^ ` ^ | @.+.} ` ` [ ' E G H K ` } ` ` | +.-.3.9.%.2.s.d.d.r.| L [ L K ` ` ^ ` } ^ [ [ [ W &.r.e.4.4.4.r.y.a.s.d.h.k.h.v.v.j.j.j.l.j.j.d.j.j.j.d.j.j.d.d.l.z.e.[ E ' | | { +.@.:.3.3.3.4.3.3.3.3.4.4.s.4.4.4.4.4.4.4.0.y.y.4.0.4.3.3.0.3.4.9.0.3.e.r.r.r.0.9.0.3.9.0.9.9.0.9.9.0.0.0.0.0.9.8.9.8.8.2.-.-.-.2.9.8.0.0.5.-.$.-.5.5.5.8.8.8.8.8.0.w.q.q.8.q.q.q.9.t.t.0.9.e.e.e.t.r.r.r.r.e.e.9.9.0.9.8.0.0.8.8.2.+.2.8.9.9.9.-.8.-.2.3.-.9.2.>.3.3.2.3.3.*.&.2.%.2.2.2.2.1.2.2.1.2.2.1.{ [ W } -.2.9.8.-.9.0.e.e.0.t.t.0.9.0.t.9.6.2.9.e.0.9.9.t.t.s.0.0.y.3.1.| K J ` W K K W ] W ] } } +.} W +.] +.-.>.-.-.3.9.9.-.2.*.*.-.3.3.0.0.0.e.4.3.4.e.r.e.9.9.6.>.9.9.e.e.>.e.e.7.e.>.e.e.e.e.e.e.,.e.e.e.e.e.e.e.>.e.6.6.6.6.6.6.6.>.>.7.6.>.6.e.e.7.6.>.9.9.6.:.=.+.+.+.....+.+.+.=.+.=.=.=.+...]  . . . .#...@.;.-.=.=.$.$.$.=.#.$.-.$.-.$.$.$.=.-.5.=.=.=.=.=.=.5.=.=.-.-.=.=.=.-.-.#.=.-.-.=.-.5.6.$.5.-.5.6.-.-.-.@.#.+.+.+.@.=.@.@.@.@.+.+.#.+.X.+.-.8.! +.U E E K E U H H K W _ ",
"K J J J K K J D ` ` K K D J J D b g a N J K W W W | +.| } | { }  .Q ' ! 1.2.! 2.<.} | [ } +.| ^ K K E E K K K K K K _ ` | | ` W L L K K K L K K K L D Y ` | Y ` | ^ } } _ &.r.4.a.r.r.4.0.a.a.d.v.k.h.h.h.a.j.v.l.d.h.a.a.d.j.j.d.a.s.a.r.:.| ` | { } } +.+.+.X.2.3.1.[ 1.[ 2.2.4.4.s.4.4.4.4.4.4.4.4.0.0.0.0.4.9.9.4.0.4.9.4.0.4.4.4.4.e.e.e.e.r.r.0.9.2.>.5.8.2.9.0.9.9.0.0.9.9.8.9.8.9.8.0.0.0.9.8.-.=.5.5.9.5.8.9.9.8.8.8.9.q.q.q.q.9.8.9.q.t.0.e.9.e.e.e.t.0.y.y.e.9.0.9.9.0.9.0.0.8.9.9.$.-.2.8.2.-.8.-.-.2.-.-.-.2.-.-.-.2.3.3.2.2.&.2.%.2.%.2.2.%.2.2.2.1.{ <.} W ` @.3.0.0.9.8.9.0.0.0.t.q.e.0.9.t.9.9.2.9.9.9.6.0.0.t.y.4.0.y.3.@.@.W E W W W W W ` W ] } } +.} W | } +.$.2.-.2.4.e.9.3.3.3.2.2.3.3.3.3.4.r.e.4.4.e.e.e.6.>.>.6.6.e.e.6.e.e.e.e.e.e.>.7.e.e.e.e.e.6.e.4.7.e.e.7.e.e.e.6.6.9.9.9.6.6.7.>.>.6.6.>.7.4.,.6.9.9.5.=.&.{ +.+.+.+...+.=.;.-.=.=.@.+. . ... .+.#.@.$.-.-.-.-.-.=.=.-.=.#.@.=.$.=.=.=.=.=.$.=.5.=.5.=.=.=.=.=.=.5.5.=.-.-.5.=.#.$.-.=.=.$.=.5.-.-.=.-.=.#.+...Q Q E Q '  . . ... . .+. ...+...+.o.+.] @.! E ' E E J H b D J K ",
"J J D N D J K J J K b D K J K L L J b h D J K W W } } } } X.} ] ] ! ] X.+.` W [ %.| 1.| } ` } W E K K J D D D v D J W | { ' K S L W K K K D K J D L D K D J D Y ` Y [ } { { | | +.%.+.=.-.9.r.d.v.v.h.7.>.;.;.:.v.v.z.h.u.u.p.j.d.&.K K ` ' K E } ] ] ] ] ] ] } 1.[ 2.[ [ 2.2.2.3.3.2.4.3.3.3.3.4.3.4.4.4.0.4.3.9.0.4.4.9.3.0.4.4.4.4.4.4.e.e.0.y.y.y.w.0.>.8.9.2.9.9.8.8.9.9.0.0.9.0.8.8.0.0.0.q.q.8.6.$.-.5.5.9.8.8.5.5.8.8.8.q.8.q.q.8.q.9.q.t.r.t.e.e.7.e.u.r.e.0.e.e.0.e.9.0.0.9.8.2.9.8.2.$.-.-.-.-.-.2.9.-.2.8.-.2.-.2.-.*.2.3.*.*.%.2.1.2.%.3.3.2.2.2.2.1.| | [ W W +.2.8.9.9.9.9.9.9.0.9.9.q.q.9.9.q.9.9.9.q.6.9.9.e.0.4.0.4.0.2.| | ` E E E E W W W W ] } [ +.} ` +.| +.@.=.-.3.0.e.0.0.e.0.4.0.3.3.3.2.3.e.e.e.4.3.4.9.6.>.>.6.9.e.6.3.7.7.e.e.,.4.4.e.e.7.7.,.e.7.e.e.e.,.,.,.4.,.>.6.9.9.6.6.6.5.6.;.>.;.6.>.e.,.,.9.6.>.=.+.+.+.=.+.@.&.+.=.;.-.-.=.=.=...{ ]  .@.@.=.-.5.=.-.-.5.-.$.$.-.$.#.#.=.5.$.$.$.#.=.=.-.-.-.-.-.5.=.5.=.5.-.5.;.5.5.;...-.=.+...] Q E E [ ' Q ' Q E E E ' Q ' ] ]  . .] Q Q ' ! Q ' Q ! W G G E ] W E J W ` ` E J G H J ",
"D D J D D b J K K K K D D K K L } | [ J h h b c K K L W } +.+.] +.] ] @.^ ` 1.` | <.1.1.| ^ ` K D H D D D D D H K H H K H E K H J J K K K K K K K L D D J ` J J K ` W W W K J L L ` ` [ [ ` ` | [ [ [ ;.[ H S f v S H H K _ &.e.K K K K K E E E D E ] ] W E E ] 2.3.[ 1.3.3.2.2.1.1.1.1.2.2.3.3.4.0.0.0.y.4.0.4.9.0.0.e.0.3.3.e.e.4.r.4.r.e.e.e.e.e.y.t.0.9.9.0.8.0.9.8.-.8.9.8.8.0.9.9.8.9.9.0.0.q.9.5.-.-.5.5.8.5.5.5.8.8.5.5.8.9.q.9.q.q.0.t.e.t.t.t.t.4.e.p.e.e.3.9.e.t.e.0.e.9.0.0.-.8.8.-.9.-.1.$.$.2.-.8.9.>.8.-.-.2.*.*.&.2.3.3.2.2.3.3.2.2.2.2.3.2.2.2.2.1.| <.W W +.9.-.8.8.9.9.9.9.9.9.9.t.9.6.9.9.9.q.9.0.9.9.9.0.0.0.0.0.0.*.] ] W ` E E E K W E W W } } +.{ W } } +.=.2.-.3.0.0.3.3.2.2.3.3.3.0.3.3.3.3.0.4.4.4.0.e.9.9.9.3.9.9.>.4.9.9.e.e.e.3.3.,.4.4.4.7.4.4.4.,.4.e.,.>.6.>.>.6.6.6.9.6.>.>.;.=.;.;.>.>.>.7.6.0.>.=.+...+.=.=.=.;.=.=.=.-.=...=.=.+.+. .] #.$.$.=.-.-.=.=.-.-.5.$.=.=.=.=.$.$.=.-.=.=.=.#.5.=.-.5.-.-.=.-.=.-.=.-.;.#.=.=...I G n v F P E I E E E E U I I E E E ] ]  .] ! Q '  .] ] ] ]  .]  .E U E E D G E E ] W W E K H D b ",
"K D J J D H J H G I U G G E Q ..+.+.+.] ! E J D H b D K ' } } [ X.} } | } W } *.*.*.+.| { L K K D K H S D D I G I F F I F I G I K K K K E E E ' ` ' H H H E [ ] W E K E K W K E E K E K K K E _ L L L L D L D D D D D D K L K b K U U K E J G G G D U [ ' E H E | 2.&.2.%.3.2.%.2.%.2.1.3.3.2.1.3.4.3.3.4.4.4.3.0.4.4.4.4.s.i.4.r.4.e.u.u.e.e.4.r.r.t.t.0.8.-.9.0.9.8.9.3.8.8.0.2.9.9.0.9.0.0.0.0.w.0.$.$.$.$.-.2.5.2.8.8.8.8.8.9.q.q.0.9.q.t.t.e.t.r.e.r.r.e.7.e.e.e.e.e.t.e.0.e.0.6.5.6.5.-.8.6.-.-.@.@.*.2.2.-.2.-.-.-.-.=.=.@.:.3.>.2.*.-.2.2.3.2.2.2.2.2.2.1.| 1.%.+.W } @.| 3.3.2.2.4.0.3.=.9.a.9.3.0.e.3.9.8.0.0.9.8.8.8.8.0.9.2.+.` W E E ` E E W W ] ] [ ` ] | ] ! [ } } | +.=.2.9.0.0.2.2.3.3.9.9.9.2.9.9.3.3.3.3.9.e.3.3.3.3.-.3.3.3.-.3.9.e.4.4.4.3.7.e.e.e.e.7.7.7.>.e.,.e.>.e.e.7.9.7.7.e.>.>.;.-.=.+.&.=.6.6.6.5.6.=...#.=.#.&.=.+.@.=.-.=.-.=.=.=.+... ...+.+.-.-.$.=.5.=.-.-.$.5.=.5.#.=.#.=.=.$.=.5.=.5.=.5.=.=.=.#.=.$.-.5.6.-.@.=.@.-.=.@.#.k k n G G I I U E E E E Q Q Q Q T ! ! ! ' Q Q  . . . . .' Q Q Q ! ! E E E E T E ] ] Q Q E I I I ",
"` ` L L L L E E I Q [ X.+.@.@.$...X.+.[ ' ] ` E E K G H K ` ` | | | | @.| ] ] +.2.[ J D J J J D h D K E E [ ' E ' I I I I F F I K K W L [ ] { +.&.=.=.@.+.+.+.+.=.+.| W _ K E W _ E E K K K E _ L L L L D D K D D L L K J S J D J U Y W E U G G J D D K E K K E ` { &.2.1.[ 2.3.2.3.2.2.1.2.3.3.1.4.4.4.4.4.4.3.s.0.4.4.4.4.4.4.r.e.4.e.e.>.,.e.r.e.t.e.0.6.8.0.0.9.9.8.2.9.9.9.9.9.8.9.0.9.9.9.2.5.8.-.$.-.5.-.8.$.$.8.8.8.8.8.w.0.q.q.9.9.9.9.e.t.e.r.e.r.e.,.e.e.e.e.e.e.e.9.t.9.9.9.9.9.9.-.8.-.-.=.@.-.-.2.2.-.8.-.-.-.-.$.=.-.-.2.2.2.3.2.3.2.2.1.2.1.2.1.2.1.1.2.@.} ] } @.} +.3.3.3.2.2.9.3.2.3.0.9.0.0.0.8.2.2.9.2.0.s.8.9.8.@.} ` E W ` W ` ` ` ' [ [ ] W ] } [ ` ! | [ } ` } @.2.9.2.0.3.3.2.3.2.9.9.3.3.3.3.3.2.3.3.2.3.3.-.-.3.3.>.3.9.9.3.3.4.3.>.>.7.>.7.>.>.>.6.7.6.>.6.6.6.6.e.6.e.e.>.6.>.6.;.;.=.-.-.6.>.6.;.5.@...#.=.+.#.=.-.=.@.#...=.=.#.@.+. ...] ] ..@.=.5.-.$.$.5.5.$.=.5.=.5.=.5.5.=.=.=.=.5.=.5.5.=...=.$.=.-.-.#...@.=.=.=.@... .' I T E U U P G P T Q Q T ! Q ' ! Q ' Q ' '  .] / / ' Q Q Q Q Q Q ! E Q T Q Q Q ' E E E E E Q Q E ",
"2.1.%.%.=.=.*.=.+.@.-.6.9.9.5.-.+.$.+.} } } } ` W W K G D H W } E W W W L K J J J D J D J D D b K _ | +.=.+.[ E F I Q I I Q  ...W W ` ` ] ..=.-.-.3.9.9.9.-.&.=.@.@.@.@.| | } [ ` ] ` _ E E W ` L L D D D L D D h h h S D L ` } U W W ! ! W E J J D v v D J K K L L ` | %.%.2.%.[ 2.%.3.1.[ 2.3.4.3.3.2.3.3.3.3.2.3.3.3.4.4.4.4.e.9.e.e.t.7.>.e.r.e.e.9.9.9.9.q.0.9.9.9.3.8.9.9.9.9.9.0.9.0.3.3.-.$.$.$.$.8.1.$.$.5.2.-.-.-.$.$.5.-.5.9.0.0.9.9.e.t.y.t.e.e.e.e.e.e.9.0.e.t.9.9.q.6.9.9.9.9.5.-.2.-.-.$.-.-.-.2.3.2.2.-.-.2.-.-.-.:.-.3.3.2.2.3.2.2.2.2.&.2.2.@.2.%.1.%.+.} W ` @.} [ 1.2.+.[ } ] E E | @.| } | +.@.-.0.0.0.8.2.8.2.@.+.] W W ` W ` W ` ` [ [ ] ! ` ` } ] ' ] } +.} [ X.=.2.2.=.2.3.9.9.9.9.2.3.-.-.3.2.3.-.2.>.3.3.>.-.-.-.3.>.>.3.-.-.2.2.2.&.>.7.6.6.6.6.6.e.>.6.>.6.,.6.e.6.>.7.7.7.e.6.6.6.>.>.-.6.-.5.;.5.=.#...=.#.&.#.=.=.=.@.@.#.#.=.=.+.{ ] ] ] ]  .=.$.=.$.=.$.=.-.=.5.=.=.=.=.=.#.=.5.=.=.5.=.=.=.#.=.+...#.=.=.=.#.=.=.@.+.+.{ ' E I P T I T Q ' ] E T E Q Q Q Q Q ' ' ! Q / ' ] ' Q ' Q Q Q Q T Q Q ] ' ! Q Q ' ] Q ] ] ..#.@.$.@.",
"3.2.3.2.2.-.-.-.-.5.5.5.5.5.-.5.-.8.-.@.| } } [ ` W E H m H J E E W W K J D J J b S b h h D L { *.-.*.2.-.-.@...5.' ' I I I I I ` ` [ } +.@.=.-.-.-.-.2.-.:.=.=.| | =.=.-.*.@.+.+.| } [ ] ` _ E L W K L D D K K D D b J K L ` W ! ! ! ! ! ! W E E J H D K E K H K J K L [ 1.%.2.2.2.[ 2.2.3.2.[ 1.3.3.3.1.3.3.3.1.2.2.2.4.4.4.4.3.9.9.e.e.e.e.e.t.e.6.e.6.8.6.0.8.9.3.3.9.9.9.0.9.9.2.9.0.0.3.2.-.8.2.$.-.$.2.-.-.1.-.2.8.5.8.-.-.+.@.6.t.q.q.q.e.e.r.e.e.t.u.e.e.e.e.e.e.9.e.e.9.9.9.9.9.6.9.6.-.-.$.-.-.2.2.-.2.3.2.2.2.$.-.2.5.-.>.-.>.>.2.2.2.2.2.2.2.2.-.@.1.1.1.| } ` } W ` } } +.[ } ` W [ } [ W E ` +.=.+.+.+.$.2.2.2.9.@.+.] ] ] W W ` W ' ] ] [ ] ] ' ` ! ! ] [ ! ` } ] ] ] ` } +.-.$.@.2.2.9.9.9.>.-.3.3.3.3.3.3.>.-.3.3.3.-.*.>.-.>.-.-.-.-.-.:.-.&...&.&.=.;.;.-.>.6.6.6.7.>.,.>.7.6.6.>.e.>.6.7.6.6.9.6.6.6.6.6.5...+.=.+.=...=.=.=.+.&.=.=.=.-.=.] ] ] ..] ] ..@.-.-.=.$.=.5.$.5.#.-.=.-.=.=.=.=.=.=.-.=.=.=.=...=.=.#.#.+.@.=.-.@.#... .] Q ' Q Q Q T T Q Q Q ! Q Q Q ' Q ]  .! ' / / ' ! ! Q Q ' / Q / '  .T 5.! ! ! ] / ]  . .]  . .@.=.@.-.-.",
"=.$.-.-.-.-.-.-.-.-.-.=.-.-.-.9.8.9.9.-.-.@.+.| } ] W E H J H G E W E K J J K J E W +.2.w.e.5.-.5.6.6.5.9.q.9.5.5.5.V k t x 5.5.+.&.=.=.=.=.-.=.-.=.=.@.=.=.@.;.-.@.+.+.+.+.@.$.@.@.+.+.| ] ` W ` ` W K K L W ` ` [ } ^ W K K W } ] ! ! ! W W ! ] } ' E ` } ` E J K K L K W } *.2.[ [ 1.[ 3.2.1.3.1.4.4.3.2.[ 1.2.2.%.1.2.3.4.3.9.9.-.-.-.6.e.t.r.e.e.t.9.9.6.8.3.9.9.9.0.0.0.r.0.0.9.0.0.0.3.2.2.3.2.$.$.-.2.2.-.2.2.2.2.8.8.$.5.-.@.9.e.9.9.9.t.e.t.e.e.t.r.t.t.e.e.t.t.9.t.9.9.9.9.6.6.9.9.9.8.-.-.2.2.2.-.-.2.-.2.2.-.2.-.-.6.6.-.9.3.3.2.3.2.2.2.2.-.2.$.@.%.2.@.| } ` W W J W } ] } } +.o.} | } ] W E ` ] | ] ] | @.-.3.2.+.} ] W ` W W _ ] [ ] ] ] | ] [ ] ` ' ] ' ] ` ] [ } [ W E [ -.0.-.-.2.-.3.2.9.9.-.3.3.3.3.-.3.-.3.>.-.-.*.:.:.2.>.3.-.-.:.3.2.&.{ { +.+.=.;.:.-.4.6.>.7.>.e.e.,.e.>.9.>.e.e.6.9.6.9.9.-.-.>.2.*...+.&.+...&.=.=.@.=.=.=.=.@.+.| ' ] ] ]  ...#.@.-.$.=.5.5.=.=.-.=.5.=.=.5.=.=.5.=.=.5.-.=.=.=.&.+.$.-.$.#. .] ] ] ' ! ' E E Q '  .Q Q ' ' Q Q T  . . . . .X. . ./ / ' / ' Q / Q / ' / ' V T 5.Q  . . . . . . . . ...#.@.$.@.$.#.",
"5.-.5.-.-.-.5.5.-.-.6.5.-.-.5.9.-.3.8.8.3.2.-.$.2.@.[ W E E E E K E U E L K J J +.+.=.-.2.>.8.6.-.5.9.9.t.a.y.t.5.5.5.' 5.5.5.5.-.-.-.-.6.5.-.$.-.-.-.-.-.@.=.$.$.-.@.@.@.@.@.-.@.@.@.@.@.+.} ` ^ [ [ <.[ [ <.| { } } [ } W W W W W W ! ! X.+.@.@.@.+.] ' } | ` ] L J K K K E ` [ [ 1.1.[ 1.1.3.3.4.4.1.2.2.2.[ %.| [ L { @.2.1.-.-.6.5.>.6.9.9.y.y.y.a.a.9.9.t.3.0.9.e.0.r.r.r.y.e.e.e.e.e.0.3.2.2.2.-.$.2.2.2.2.$.$.2.-.-.2.5.5.=.:.6.9.9.6.9.e.e.e.e.e.t.r.e.t.e.e.e.e.e.t.e.t.e.6.6.5.5.9.9.9.2.-.-.-.2.-.2.2.-.-.-.2.-.2.2.-.-.5.-.2.2.4.4.3.3.3.3.9.8.2.-.| | 1.| { W K J v h J W W Y ! } | W U ` ' E E ` E E ` | @.3.-.@.| } ] W E W E E { ] { } { | +.] ] W ` W W W W ' ] } @.} ` W X.+.*.2.2.9.2.3.3.2.*.-.2.3.3.3.3.3.>.2.3.-.:.2.3.-.3.>.2.*.-.*.*.| =.=.=.-.-.5.6.9.>.9.3.,.,.4.,.9.>.e.6.9.6.>.9.>.>.6.-.5.3.3.2.*...+.&.+.+.=.=.=.;.=.=.=...[ ' _ [ ' ]  ...@.$.=.=.$.$.-.=.=.5.-.-.;.=.5.=.=.;.=.=.=.=.=.=.;.#.=.=.@.+...] E U E E E E Q Q E Q E T I Q ] X. .5.5.+.+.X.X. . . . . . . . . . . . ./ '  ./ 5.V T Q  . . . . . . . .#.$.=.5.5.-.-.5.",
"$.5.$.5.5.$.-.-.5.-.6.9.5.>.>.-.-.9.8.3.8.9.9.2.9.-.@.+.} } } ] ] W W ` ` E K K +.2.0.t.9.-.-.-.6.0.0.t.t.t.q.q.6.6.6.6.5.5.5.5.-.-.-.6.-.-.=.;.5.=.-.-.-.$.-.$.$.-.2.8.3.2.$.$.-.@.@.@.=.@.+.} ` [ <.[ | <.1.<.2.} ^ [ X.} W J Y W ! ! o.$.$.2.@.@.@.+.] } } | @.L D J W W K J ` <.1.3.3.1.2.2.4.3.1.1.1.[ 1.<.` L L L L } } [  .#.-.-.-.>.6.>.r.r.p.p.y.e.9.e.e.3.0.4.4.e.r.e.s.r.e.0.e.e.0.4.-.2.2.$.-.-.-.2.-.-.2.$.-.1.8.-.-.=.5.9.9.0.t.0.e.t.e.t.t.u.e.e.e.e.e.e.e.9.9.e.0.9.6.6.>.6.5.9.2.2.-.-.-.-.-.-.@.*.-.2.-.2.-.-.-.-.-.-.2.2.4.4.4.4.3.2.9.0.9.5.1.@.@.@.} W W W W b h c J N J K ! G g d h b J E E E K K [ @.:.=.+.| ] W E _ W ` | } [ ] } +...| ] ! W W E ` E ` E ] { ] ! ` E E +.-.2.9.9.-.-.-.*.-.-.3.3.3.2.3.-.3.3.:.3.3.3.-.-.>.-.=.&.@.+.| +.+.@.@.@.=.-.-.>.6.>.7.3.4.3.4.9.6.6.2.6.9.6.>.9.9.6.6.-.9.*.| { &.@...+.=.:.=.@.+...[ E E K K ] ]  ...#.$.-.=.=.5.=.$.5.=.-.-.;.5.-.-.;.=.5.-.=.-.-.=.-.=.=.#.#. .Q U I I P I E E ' ! ' Q Q ' Q / / X.#.X. ./ X. .X. . . . . . . . . . .)  . .X. . .X.5.5.~ 5.X.X.#.X. .#.#.$.#.@.$.$.$.$.=.5.",
"5.5.-.5.5.-.5.-.-.-.-.-.-.6.6.-.-.2.9.-.-.9.3.2.2.2.*.*.=.@.+.+.+.W U E E K J K 8.9.9.6.8.-.9.q.6.0.t.q.0.q.t.q.7.6.6.6.6.6.5.s.-.-.-.-.5.6.5.-.5.-.$.-.-.-.-.-.2.-.2.-.2.-.2.-.$.@.@.@.@.@.@.+.[ <.[ [ | | | [ ^ W ` <.+.X.X.X.] X.+.$.$.-.$.$.$.-.2.-.@.| } +.+.W K K _ W K E K D h D D L L ` K L 1.1.1.[ L K b J ` ` ` ] [ ` ] ] ! E Q +.>.t.r.r.r.t.t.e.9.e.3.e.4.0.e.e.e.4.e.r.e.e.3.3.3.e.3.2.2.-.2.2.2.@.8.2.2.-.-.-.-.-.=.>.9.9.t.t.e.e.9.e.r.r.r.e.r.e.t.e.e.6.e.e.t.9.9.9.9.9.-.9.9.6.9.3.2.-.$.@.$.-.+.@.$.-.-.-.-.-.=.-.-.-.2.2.2.3.4.3.2.1.-.8.9.9.3.&.2.| } } @.2.0.! h g M J J W E } } ' W ] ` J K K E ` @.:.=.| | } ' ` E W ] | } } ' ] [ } ] ] } [ ] ` ` ! ` W } [ ] ] | @.-.-.+.@.-.@.-.$.3.9.>.2.2.3.>.>.2.>.*.3.2.2.3.2.3.2.2.3.3.-.*.*.*.=.+.#.#.+.=.-.8.9.9.3.>.>.3.3.3.3.9.3.9.>.5.-.9.9.9.0.2.-.8.9.2.} ..@.+...+.=.:.@...[ E E H H E _ .. . ...@.5.5.$.$.$.-.-.-.-.-.5.6.=.;.=.5.5.=.6.=.=.5.-.=.$.=.+.Q I G I U E U G ' Q ! ! E E E Q Q Q  ./ X.5.5.X. . . . .X.X. .X. . ./  . . . ./ 5. . . .A 5.5.5.$.$.#.#.#.$.$.$.#.5.$.5.=.$.-.5.",
"5.5.5.$.-.-.5.-.5.-.-.>.5.>.9.-.9.3.-.3.-.2.3.0.-.-.$.-.-.$.@.+.} ! E J E E T Q 9.9.9.5.8.9.9.8.5.5.9.q.7.s.q.q.q.q.7.q.x.5.5.5.t.q.q.6.5.5.5.5.-.5.5.8.9.5.9.8.-.2.$.2.8.8.8.0.8.-.-.$.@.+.o.+.<.1.2.1.{ { { } ] X.J G X.+.! o.$.$.$.$.$.$.$.$.2.$.@.$.2.$.+.X.+.@.' v K ] E K K E E G D v G E N K L ` K K K J D b D D K J K K  .] ] Q E ..>.6.t.e.y.9.a.y.e.9.9.0.3.0.e.e.r.s.0.r.e.3.3.3.4.3.-.-.8.-.-.$.-.-.2.2.-.$.$.2.2.-.-.-.9.9.0.e.t.t.t.0.e.t.y.e.9.r.9.t.e.r.e.-.e.9.e.9.9.t.9.-.-.5.-.-.-.-.@.@.@.=.+.+.@.*.-.-.$.2.-.-.-.-.-.-.9.9.9.9.-.=.+.+.=.-.6.5.=.#.$.-.-.$.@.-.$.+.T T Q ! ] } +.+.+.@.} K E ' | | [ W ` | } ] E W [ ] } ] } W ' } ] ` | } } [ ' W W ` W ' [ } +.+.@.=.-.2.*.@.$.*.2.@.-.2.3.2.3.3.*.2.3.-.-.-.2.-.-.2.3.0.-.3.3.*.+.+.*.*.+.-.+.] @.@.@.e.3.2.2.2.3.3.3.3.>.-.-.-.2.3.2.3.3.3.2.=.| 2.| [ ..+.&.+.+.&.@.| K K H K K K W } ] +.#.=.$.5.$.$.@.$.-.=.-.-.6.;.=.-.5.-.-.>.=.=.-.=.$.=.-.@.] E F G I T Q Q Q Q Q ! Q Q Q Q Q ! /  . . .X./ / X. . . . . . ./ /  .X.X.#. .X.#. .5.5.B A 5.5.5.~ ) 5.5./ 5.#.#.5.$.5.#.5.#.5.$.$.",
"$.-.5.5.5.5.5.5.9.6.6.6.6.6.6.3.>.-.-.8.3.2.-.9.8.-.2.8.2.2.$.+.} ' E E Q ' ..@.6.5.5.5.6.5.5.8.6.9.8.q.s.t.q.q.s.7.5.q.6.5.6.x.q.7.q.7.5.5.5.5.-.5.5.5.8.8.8.8.8.8.8.8.8.8.8.8.w.0.8.1.$.$.+.#.1.[ <.1.+.1.<.} E !  .Y m ! 8.5.8.8.2.8.8.$.$.O.X.2.2.@.@.$.-.} @.! m W E G b G G W -.2.-. .! E <.J b b M K M D G G J K K K J J m U +. .E ' =.9.y.e.f.e.y.e.e.r.y.e.e.e.a.d.r.0.e.r.r.3.3.2.*.+.2.9.9.2.-.-.2.-.2.-.-.2.-.-.-.-.-.9.9.t.t.9.9.e.9.9.e.e.e.e.e.t.9.r.>.e.e.>.e.6.6.9.6.6.6.-.6.9.8.2.8.-.@.+.@.@.@.=.-.@.@.-.=.+.@.@.*.=.-.2.-.9.-.6.5.:.;.=.=.=.-.=.@.+.#.=.$.$.$.@.X. .+.X.] Q W } } } } X.+.+.| | } | ] ] [ | +.[ ] [ +.+.+.+.| W ] [ W ] ] | | } ] ] ` W W ` } ] } +.=.2.2.2.2.2.-.2.-.-.$.-.2.-.3.3.-.-.3.-.=.3.&.| | 3.e.3.d.e.@.} } -.*.+. .X. .X.' b U 0.s.0.2.:.*.{ L K D G J ! } | } [ } +.@.*.| &.@.[ ] { { +.-.=.` D H b D G K K ] | +.=.$.-.#.5.$.$.$.5.5.-.-.;.=.>.;.6.-.=.&.+.#.+.@.-.5.$. .Q I Q P P T T '  .Q Q Q Q Q ! !  . . . ./ X.5.5.X. . . .#. .)  . . ./  .X.)  . . . .X.B 5.5.5.5.A 5.5.5.( 5.5.) 5.#.5.$.$.5.#.$.$.$.5.",
"$.5.-.5.-.8.5.6.6.-.-.-.-.-.-.5.-.-.3.3.2.>.2.-.9.8.2.9.2.-.$.+.] ] ' ! ]  .5.8.5.-.5.-.5.9.6.5.6.q.t.t.s.q.s.q.q.q.s.7.7.s.7.5.t.7.t.t.6.6.q.5.=.-.5.5.8.8.8.8.8.8.8.8.8.8.8.8.8.8.8.8.8.$.1.-.3.2.2.2.2.3.3.2.X.$.$.+.X.U ! 8.8.8.8.8.8.8.8.8.$.$.2.$.+.8.8.X.! G n ] J G E m } X.@.@.+.+.+.+.<.L L ` ` L D b K E ] +.*.*.2.2.+.E P I ] -.-.+.9.7.a.e.t.e.e.y.e.e.e.e.0.e.r.r.r.e.4.3.-.&.&.*.2.9.8.2.3.2.2.2.2.-.-.2.2.-.$.-.6.6.q.e.6.>.-.6.6.9.t.0.t.t.e.t.e.e.>.e.6.>.9.9.6.9.9.5.>.6.9.9.9.9.-.@.| | @.-.@.-.+.} } @.@.| =.=.=.=.-.-.9.5.5.6.6.5.-.-.;.=.@.=.#.@.#.=.=.=.-.@. .+.$.=.+.! } } ] _ ` ] [ } +.} [ ] ` ] [ } [ | | +.+.+.{  .| ] ` ] ] ` } } } { ] [ [ ' ] ] } | +.@.2.2.3.2.2.-.$.-.-.-.$.*.-.*.2.2.*.-.2.-.&.2.e.0.W a h +.@.*.&.| | @.@.|  . .! o.X.J v ' L J K W ` L J S D b G E ] ` ! ` W ] @.-.2.1.1.[ [ ] ] [ ` E K D G H H J ` [ | +.$.5.-.$.#.#.#.#.$.5.=.=.-.-.-.>.6.5.;.+.+.+.+.+.+.@.=...E m I T T Q Q ' / ' / Q ! ! ! ]  . .X.+.X.5./ 5./ X.X.5.X.X.X. . . ./ 5.X.X.#. .X. .#.#.~ 5.5.5.5.5.5.~ X.5.5.5.5.5.) #.5.5.#.5.5.$.5.$.",
"-.-.-.5.5.6.5.-.-.=.@.+.@.=.=.=.-.>.-.2.3.3.-.-.-.-.2.2.2.$.X.]  .]  .X.#.5.5.w.5.5.-.5.6.8.5.5.5.6.8.q.q.q.7.q.q.q.w.q.5.5.s.5.t.q.t.7.7.7.w.6.5.5.5.5.5.-.2.8.8.8.8.8.8.2.$.2.8.$.2.8.8.8.8.w.3.3.4.2.2.2.2.@.X.+. . .+.m l +.$.1.8.8.8.8.w.w.8.} } $.$.1.$.} E ! m E E J -.@.$.@.$.$.-.$.@.@.<.[ 1.` M < h <. .$.5.5.2.2.2.*.5.X.] Q ] +.:.=.&.&.p.e.a.y.t.e.0.9.9.9.0.e.0.0.r.9.-.2.*.&.*.3.-.2.8.3.2.8.9.2.-.-.-.2.2.-.-.9.9.9.9.9.6.>.-.;.-.6.e.9.6.e.q.e.6.e.>.>.e.>.6.9.6.9.9.>.5.9.-.-.-.2.2.-.@.+.@.$.@.@.[ W ` +.-.+.-.@.@.=.-.-.6.-.6.;.-.;.6.-.;.@.=.-.-.=.;.5.6.5.$.@.=.-.5.5.-.@.-.| W W ] W E K ` W W ` ] ] ] ` ] } +.+.+.+.+.+.+.] W ] W ] } ] | } } ] } } } | | X.@.*.2.3.-.-.$.@.*.$.-.@.*.@.=.@.*.2.*.-.-.-.3.2.@.=.*.| E h J } -.-.@.+.@.=.+.+. .] @.+.E G ` W W } | | } W W E E E ! L ! ` } } +.*.| +.{ } X.X.[ U b b D J J J E ` } @.2.*.=.-.=.@.#.#.#.5.$.$.-.5.5.;.>.>.;.-.=.@.#.+.#.+. .] ! T E U E T Q ] Q / / /  . . . . . .X. .X.X./ 5./ /  ./ X./ X.X./ ( / 5./ 5.) #.#.X.#.) ( 5.5.5.A ~ 5.A 5.5./ 5.#.) 5.) 5.) #.#.5.$.#.5.$.5.",
"-.5.6.5.6.-.5.-.5.-.$.=.-.-.-.-.>.>.-.:.3.3.8.2.2.2.-.8.-.$.X.] ]  . ...5.5.q.8.5.5.=.5.5.6.q.5.5.6.6.q.q.q.q.5.6.q.s.6.6.s.5.f.q.7.s.7.7.t.q.6.q.8.8.8.8.8.8.8.$.8.8.2.8.$.8.$.8.8.8.1.8.8.8.8.5.9.q.8.2.1.$.+.$. .+.#. .X.$.5.2.8.8.8.8.8.8.8.w.o.) 8.-.$.1.O.T T I ! 8./ 8.8.$.@.$.-.-.$.$.#.+.$.$.o.K J J 1.#.-.5.-.$.-.=.@.@.5.9.5.+.+.=.-.+.=.t.9.t.y.t.0.0.9.9.0.s.s.3.@.2.*.2.2.2.=.@.+.9.9.9.3.2.3.-.-.8.-.-.-.8.-.2.9.9.9.e.9.6.-.-.>.>.6.9.6.-.9.9.9.9.>.9.e.e.6.6.6.9.6.>.=.>.9.6.=.X.@.3.9.-.-.@.+.@.| ` ` } +.@.@.=.=.@.=.-.-.-.6.6.-.-.-.6.6.-.=.=.=.5.=.=.-.5.=.=.-.-.6.-.-.-.5.-.@.{ | +.} W E E W [ ] ] ] ] ` } | @.=.=.&.+.@.+.W W ' ' ] } +.} | ] | } } ] | } +.-.2.2.*.-.-.@.@.2.@.@.@.=.*.@.@.*.-.&.*.2.-.@.-.-.@.+.-.-.+.| | @.@.@.@.@.@.{ <.@.L ] +.+.! } ` ^ ` ! ^ ` ! [ ! W W ] ] } @.} _ } | } { } [ } ` J H J G N J K E ! { @.1.2.@.@.=.$.@.#.#.#.X.X.$.5.-.5.>.>.;.-.-.-.$.$.+.+.] ! E G P Y ! ! T / ! / '  . . . . .X. . .X. .X. . ./ X./ 5.T / / X./ / 5./ 5.) / / / / ~ X.X.5.) 5.5.5.5.5./ 5.5.5.5.) 5.) 5.#.5.5.O.O.#.5.5.#.5.",
">.5.5.6.>.8.-.6.5.5.-.5.-.5.-.5.-.3.>.-.2.3.9.3.9.2.2.2.2.$.X.]  .!  .#.5.q.q.5.-.5.5.5.5.5.7.8.6.q.q.q.q.q.q.7.q.q.5.s.6.5.5.f.t.7.s.7.q.q.q.5.6.8.8.8.8.8.8.8.1.8.8.1.8.8.8.$.8.$.1.5.8.8.8.8.w.q.8.w.9.0.2.+. . . .#.X.X.$.8.8.8.8.8.8.8.w.8.w.0.8.8.$.8.8.5.T / P n 5.$.w.8.-.-.#.X.+.+.-.$.+.#.$.0.4.1.+.| #.5.-.5.5.5.9.6.=.$.5.5.-.6.-.=.&.=.e.=.2.9.9.3.0.y.w.9.*.+.*.*.2.@.=.3.3.-.-.=.@.-.-.-.2.2.3.3.2.9.2.3.-.-.-.6.6.6.6.9.6.>.>.5.-.6.9.>.>.>.9.9.e.>.9.e.e.6.>.6.6.:.+...=.-.6.5.' [ ] | +.X.+.+.+.] } +.@.+.+.+.+.&.+.&.=.-.5.9.6.6.;.6.=.;.6.;.-.5.5.=.=.=.=.=.5.=.=.=.-.6.;.=.@.=.=.@.| [ ` ] W ` ] ] ] ` ] } | | | &.&.@.&.+.+.W ` W ] ] } ] +.} | } [ } ] ] [ +.-.2.2.2.$.2.-.2.2.-.@.+.&.2.@.@.-.-.*.-.2.-.2.-.&.=.&.@.@.*.-.&.@.&.@.*.&.+.} @.@.} } } @.@.W } } W ` { X.+.} } } } X.| } @.W L ` } | } [ ^ W E J J J D K K W W } +.| 2.2.@.$.-.-.$.#.X.#.X. .#.-.-.-.>.>.;.-.5.-.$.X.} ! Y U P V U T W ! ! Q ! Q /  .X. ./ X. .X.) X.X.X.X. ./ X.5./ 5.5.~ 5.5.5.) 5./ / 5./ / 5.5.5.X.) 5.~ 5.~ 5.5.5.5./ 5.5.5.) 5.#.#.5.#.#.5.5.#.5.5.$.",
"5.-.6.-.-.6.5.-.5.5.-.-.5.5.@.=.-.-.*.=.*.3.9.2.9.8.2.2.-.$.X.}  .'  . .#.5.6.5.5.5.5.5.5.=.6.q.q.q.q.q.q.q.q.q.q.q.6.5.s.s.6.7.f.6.7.f.q.t.t.8.5.5.5.$.8.8.8.1.8.8.8.2.1.$.5.8.$.1.5.8.8.8.8.8.5.-.5.9.9.w.-.+.+.8.5.5.w.@.] w.8.8.$.1.8.w.w.8.$.w.w.8.O.$.$.$.5.5.T x n X.w.w.5.-.5.5.8.9.5.$.5.$.$.$.8.w.2.2.6.5.5.5.=.$.#.#.5.-.5.-.@.=.6.>.{ &.9.{ ..+.@.@.3.0.0.-.] ` @.3.@.-.*.@.+.=.-.-.} +.@.=.=.-.-.-.@.2.3.-.-.-.2.-.-.>.>.>.-.-.>.>.6.6.9.6.5.-.6.6.6.:.3.>.>.-.&.9.>.:.@.@.=.=.:.-.' W K J E ` } +.} | +.+.@.@.+.+.+.@.@.+.+.+.-.6.6.;.6.6.;.6.6.5.-.5.5.=.-.5.-.6.6.=.-.=.-.6.-.=.+.*.-.| [ ` ` W W ! ' W W W ] } [ } | @.=.&.+.+.} ` W ] ] ] } ] ] { { ] } [ [ ] X.@.-.-.-.*.=.*.@.-.$.@.+.@.@.*.=.@.-.2.*.-.2.-.@.3.3.=.*.9.3.+.@.*.2.3.2.*.*.@.@.+.@.1.1.@.X.} } } } ! ^ ` } ^ } ^ ] } } } } } } K ! +.+.} [ ` E J J D b N W } ] } +.+.@.@.1.@.=.=.$.@.#.#.X.X.#.#.#.=.-.>.;.>.-.-.$.] W E G G P P Y T R ! R / ! Q /  . ./ X. . .X. . .) X. .X./ / T 5.5.5.5.5.5.5.5./ 5.5./ ~ 5.5.5./ 5.5.5.X.5.5.5.( 5.5./ T 5.5.5./ 5.) 5.O.#.$.5.#.O.5.$.5.",
";.-.-.=.-.-.-.5.>.5.6.8.5.$.@.#.@.=.&.+.*.2.2.-.8.-.-.$.@.@.X.]  . .Q Q  .$.5.5.$.5.5.=.5.5.8.q.w.q.q.q.q.q.q.q.q.q.q.q.6.6.s.5.7.f.6.7.q.t.t.5.6.5.5.5.8.8.8.8.8.8.8.5.1.8.1.8.8.8.8.8.2.8.$.$.5.5.8.9.5.8.8.-.$.8.w.-.+.5.w.$.8.8.-.$.8.8.8.8.8.w.w.8.8.8.8.$.w.8.8.s.T  .] #.8.8.8.5.5.5.5.5.5.8.8.8.8.3.2.3.5.=.#.5.5.5.$.5.5.-.$.-.=.-.=...] &.9.+.] ..+.+.-.-.@.@.-.-.=.+.} *.2.@.} ] ] [ [ +.@.+.| ] ] ] ] :.2.-.-.9.9.-.>.6.6.9.6.>.6.9.9.>.9.9.6.;.-.9.6.=.>.;.&.=.&.>.6.-.-.6.-.+.+.+.E U J E W ] } [ ` } X.] | @.=.+.+.@.=.@.....#.:.5.6.;.6.;.=.;.6.=.=.5.-.=.-.-.;.=.=.;.;.=.;.=.;.&.-.&.} ' ] [ E ` ` ] ] ] ] } [ } | @.-.*.-.@.+.+.` W ] W } } ] ] ] } } X.} +.X.-.-.2.2.2.$.@.+.+.@.+.} } @.@.=.=.@.$.-.-.*.2.-.9.-.=.2.2.+.@.2.2.*.=.=.*.*.2.*.*.1.@.@.{ } +.} | } } } { <.X.} } | X.+.+.+.@.@.@.` W | } ` ` W E G D J K W W ` } } X.X.} o.| @.#.#.#.+.#.X.#.#.#.+.#.;.=.;.>.5.-.#. .T U U U m U U Y W ! / / R ! ! Q / X./ X. .) X.#.X. .X. . .5./ / ~ 5./ / 5.) / 5.5./ 5.5.5./ 5.5.) 5.5./ 5.A 5.5.5./ A 5.T A / / 5.O.5.#.#.5.$.#.$.5.5.O.5.",
"5.5.-.-.5.6.5.$.-.6.-.5.5.;.5.6...$.-.5...+.$.=.2.2.+.@.2.@.X.}  . . ./ ' ..#.5.5.=.5.5.5.5.6.8.6.6.q.q.q.t.q.q.t.q.q.q.q.5.6.q.5.f.s.5.q.q.5.5.5.5.5.5.6.q.q.q.q.2.8.0.$.8.0.-.8.8.9.-.@.@.$.-.-.$.-.5.-.6.5.9.5.9.5.5.-.5.$.+.5.5.#.-.$.w.q.5.5.8.5.$.w.5.O.5.w.w.8.8.$.X.X.2.9.9.8.9.9.8.8.8.-.5.5.6.8.6.8.q.q.5.5.5.=.5.5.5.-.6.5.-.=.=.+.] K | =.@.{ +.-.2.-.2.-.$.-.$.-.$.+.2.} @.+.E } ! ' @.=. ...+.' ] E ..5.5.5.5.8.-.-.-.6.-.-.6.6.>.5.6.9.6.5.9.9.9.>...+.;.=.-.=...=.-.6.=.+.@.=.E U U U G E ! } } [ } +.+.@.@.@.+.@.+.} +.-.-.$.-.3.3.-.3.>.:.>.>.5.=.5.-.;.5.5.;.6.6.=.&.=.=.=.=.;.+.[ ] ' ] ` W J _ ` ' ] } ] ] +.| =.-.+.*.2.+.W +.` E ] ] X.} [ ^ ^ } } } | 2.1.2.2.*.=.-.=...@.+.+.....+.=.-.=.$.*.-.-.-.-.-.-.-.;.:.-.$.=.@.*.@.@.&.*.-.-.@.-.@.@.@.| | | } } | } | | @.@.@.@.+.+.+.%.1.1.%.<.` K J Y L J L E J G G K W ` ] +.o.+.X.X.X.o.+.X.o.@.@.$.#.+.#.$.5.=.@.5.....;.-.Q m V P P P T T ! ' Q Q / / Q / Q /  ./  . ./ X.X./ 5./ Q  . .A 5.) ~ 5.~ 5.5.) 5.5./ 5.5.5.5.5.T ) 5.) 5.5.~ 5.) 5.5.( / ~ / / 5./ 5.5./ 5.X.5.X.X.5.5.#.5.5.",
"5.5.=.=.-.5.6.6.5.-.5.5.6.5.6.-.5.5.6.6.$.-.-.-.+.@.} } 1.1.+.}  . . .' !  .#.$.5.5.5.5.5.5.5.t.q.q.q.6.q.q.t.q.w.q.t.s.q.q.q.q.f.5.f.7.7.7.6.5.5.5.5.6.6.5.5./ $.w.w.$.1.0.0.$.$.8.-.} } -.2.+.$.-.$.-.5.5.6.5.5.9.5.-.=.5.=... .6.-.8.-.5.8.9.8.8.#.X.5.$.O.w.8.8.5.5.2.X.+.2.2.8.8.8.3.2.3.9.6.6.9.6.8.q.5.6.8.6.=.#. .#.$.5.5.-.-.=.+.@.+.` H E ] ] ] | @.=.$.-.8.8.8.2.$.$.X.+.U W ] ! +.] ]  .=.@.-.8.-.8.' +.-.-.-.-.9.3.6.q.9.9.6.6.9.5.6.6.9.9.6.6.6.6.6.=.=.5.-.-.-.@.=.=.5.=...+...U P U Y Y W ! ] ! ! } +.+.| +.+.+.| @.+.@.-.-.-.0.2.-.3.3.:.3.>.>.;.=.=.;.;.=.;.-.;.-.=.=.=.=.+...+.+.} [ W ` _ W ` ] [ ] ` ] } [ { { *.-.@.-.3.@.@.3.} ] } W ] ] ^ } [ } [ 1.| <.2.&.&.2.-.@.+.=.=.+.+.@.=.=.=.=.@.-.-.-.*.2.-.>.-.-.>.:.2.*.@.*.2.2.*.-.-.-.;.-.-.*.=.=.&.@.+.+.+.+.+.*.*.@.@.*.-.*.&.&.%.%.%.%.1.<.L J J K J Y K K D G E W } } +.@.@.o.X.o.o.o.@.o.@.$.$.$.#.+.=.@.=.=.=.=...] T P m I T T P T T Q T T / Q Q / /  . . ./ 5. ./ / X. . ./ / X./ 5.~ 5.5./ 5./ 5.5./ 5.5.5.5.~ 5.5.5.5.5.5.) 5.5.O.#.5.) 5.5.5./ 5./ 5.) 5./ ) 5.5.5.5.#.#.5.5.#.",
"=.#.#.=.=.=.5.6.=.6.;.6.5.6.6.6.6.6.8.q.5.-.5.$.+.+.} ! | +.+.}  . .] Q ! ' ..5.#.5.5.=.#.5.5.8.q.q.5.5.6.q.q.q.q.t.q.q.q.6.6.6.s.7.5.5.7.7.6.5.5...Q Q '  ./  .! +.$.8.s.0.@.9.@.} ! E [ +.+.+.=.=.-.5.5.5.5.5.-.6.5.-.=.5.=.#.! 5.$.5.-.$.$.5.5.5.$.$.5.#.#.0.8.8.$.8.2.$.$.-.2.8.9.8.2.8.8.0.9.9.8.6.q.8.6.8.5.8.6.$...#.5.5.5.2.-.+.] @.$.[ b G H K W +.@.+.@.$.$.-.$.-.$.$.2.@.E W ! ] $.X.+.' +.=.@.-.$.9.0.9.9.5.-.5.2.-.6.6.6.-.-.-.5.6.-.9.6.-.-.6.6.5.6.=.=.5.>.5.6.-.=.=.-.5.+. .' I G U Y E W W ! ! ! ] } ] } | +.+.W +.*.+.` E ' $.-.3.-.:.:.>.:.3.-.5.-.;.5.5.;.-.;.-.=.=.;.@.+...' ' ] ` E ` W ` ] ` E ` ` ` [ [ | &.-.-.*.-.-.-.-.2.} W } ] } ! W } } ! o.1.1.} 2.*.*.2.-.=.#.@.=.=.=.-.-.-.=.=.-.*.*.*.2.2.-.-.>.;.-.-.$.-.@.-.@.*.*.@.=.=.=.=.-.@.*.*.*.=.@.&.&.@.*.@.&.@.@.*.*.*.2.&.&.1.%.1.1.L L K D D J L K K H H K ! } } $.$.@.X.X.+.o.+.$.@.$.@.@.+.@.+.@.#.5.-.+.-.=.P v m P T T Q I T ' /  ./ /  . ./ X.X.X.X.X./ X.X.X.X. ./ / / 5./ 5.5.5.A 5./ 5.) 5./ ~ 5.5.T 5.5.5.5.5.) 5.5.) 5.5.O.#.#.( / 5.5.5./ X.5./ 5.5.5.X.X.5.5.$.=.#.#.",
"....#.X...+.=.5.5.5.5.-.6.-.5.6.5.5.9.9.5.5.5.-.+.2.@.` ! } X.+. .Q Q Q Q / #.$.#.#.5.#.5...$.5.5.5.5.5.5.5.q.q.q.s.t.q.w.q.8.5.5.5.s.f.6.5.5.5.5.Q Q I I Q  .' X.E E $.8.W b ! -.+.X.+.@.@.@.-.@.-.-.-.-.-.5.-.5.5.5.-.5.6.5.-.@.9.+.8.w.0.-.8.5.5.5.$.8.5.$.8.8.8.-.$.8.-.$.2.2.2.2.9.3.8.9.8.9.8.q.q.q.9.q.q.5.5.5.=.#... ...-.8.-.+.} @.+.] D b v b W +.@.+.+.o.@.+.o.+.$.2.-.2.} ] ! W +.@.$. .$.-.+.=.-.9.5.5.-.-.-.-.2.3.6.6.6.6.6.5.6.6.5.6.9.5.6.6.6.-.6.5.;.6.5.>.6.5.5.=.-.5.@.' E P U U Y T R W ! } ! ! W ! ] } +.X.| @.2.$.} E E [ 3.-.>.-.-.>.>.-.-.-.-.-.;.;.;.6.>.;.;.=.=.#...{ ' ] W W E E _ E ' W ` } } } } | +.-.*.&.*.-.@.*.-.X.W ` ! ] ] } ^ ` ! } +.2.| { } 2.2.@.=.5.-.+.+.=.=.:.-.-.-.*.-.=.@.=.@.-.-.-.-.-.-.;.*.*.2.-.2.2.2.2.#.=.-.-.-.-.*.*.*.@.*.@.*.@.*.*.&.+.+.@.@.*.&.&.&.| %.1.1.[ ` Y Y K b K H J G K E ` ] ] @.$.$.+.X.o.o.@.$.$.@.$.@.$.@.@.=.=.=.....#. .n n P U E T Q / /  . ./ X.X. ./ / X.X.X. .X.X./ / X.X.5./  .5./ 5.A 5.5.5./ 5./ 5.5.5.~ 5.5.5.T 5.B 5.5.5.5.5.) 5.#.5.#.#.5.5.5./ 5.5.5./ 5.5./ 5.5.5.5.X.-.=.#.#.",
"....#.#... .=.6.6.5.6.5.5.-.6.-.6.-.6.8.5.8.5.@.+.2.@.} } o.} } Q Q Q ] ! Q  .+.#.#.#.=.$.@.$.-.5.=.5.5.5.#.5.6.5.7.q.5.8.q.t.8.5.5.5.5.5.5.5.' Q Q ' ]  . . .' +.E Y E W ! W b } -.2.@.@.-.$.+.@.5.$.5.5.5.5.-.2.-.1.$.1.4.3.2.5.6.] @.8.0.$.-.1.8.$.O.$.$.$.8.8.8.8.$.2.2.-.8.-.-.@.+.$.2.8.9.6.9.q.8.6.9.8.6.9.8.-.-.5.$.! X.-.-.2.@.] X.] E G b v b E } +.+.+.o.X.] ] X.$.-.$.-.-.$.X.} $.2.+.X.-.+.] -.8.9.-.-.-.-.*.*.3.3.0.9.6.9.6.-.-.-.6.6.-.6.>.6.-.>.-.-.-.6.6.-.5.6.5.-.=.-.@.Q H I I U U E ! ! ! ] ] ! ! W ] o.X.] +.o.} | =.+.E K 2.3.2.3.3.-.:.3.=.-.-.-.>.-.>.>.;.-.>.;.=.@.+. .+.} ` W ` ` E E ' W E ` } ] ] +.&.-.&.@.*.2.-.2.3.| ] ] ] ] ] } } ! } } @.2.-.2.] @.2.-.$.-.-.+.@.&.@.&.@.-.-.-.=.=.@.=.=.=.=.=.;.-.=.;.-.-.-.@.-.$.-.@.=.#.=.=.-.*.*.&.@.&.@.&.@.&.*.*.+.*.&.@.@.=.&.=.2.| | 1.L L L ` [ W J J H K K E W [ ] ] +.+.@.+.o.@.@.@.@.@.@.*.@.$.$.@.@.5. .E I ' P k U E T E T  . ./ X.X.X.#./  ./ 5.X.X. .#. .) X.X.5./ X.X.5.) 5.5./ 5.5.5.5.#.#.5.) 5.T 5.5.T 5.T V 5.5.V ) 5.) 5.=.$.$.$.$.$.$.#./ 5.X.X.5. .5.X.@.$.$.5.5.#.+. .",
" .#.=.#.#...$.5.5.;.5.6.-.5.=.5.5.5.5.5.#.-.-.+.X.@.o.} @.1.X.!  . . . .] ! ! ] ..#.=.5.-.@.=.-.#.#.#.#. . .' ..#.#.5.5.5.6.5.6.5.5.5.5.5.T '  .] ] Q E I I /  .] Y E W ] $.-.E J ! +.@.@.+.@.@.$.=.-.-.5.-.5.5.*.2.-.-.3.2.3.1.$.5.] } +.$.$.1.$.$.5.8.$.$.$.$.8.8.8.8.$.2.$.8.2.$.+.X.X.-.9.0.q.9.q.8.9.5.9.5.0.5. .X.9.8.$.5.$.$.$.@.! E U U J G J N U ` } $.+.X.} ] } } X.+.$.$.$.$.-.@.@.+.+.@.-.X.W | +.+.9.8.9.0.2.*.*.:.9.5.6.5.6.-.6.6.9.-.-.-.5.9.9.5.-.-.=.-.9.>.=.-.-.=.+.+.+.E G I m U Y W ^ ! ] ! ] ! ! ] X.+.X.] W ] } } | W E E -.-.-.2.2.3.3.-.-.=.=.5.>.>.;.-.;.>.;.-.-.=.-.=.[ W E K E W W E E K J K E [ X.+.*.=.*.&.=.-.2.2.9.} } ] W ] W ! } } } } $.@.$.2.} } +.-.8.+...@.@.+.+.@.=.=.*.=.&.@.&.@.@.=.=.=.-.6.>.-.5.-.@.@.} | X.| ....+.=.=.=.@.@.| &.| @.&.&.*.*.&.+.&.&.+.@.&.@.%.1.| | L L K J W K J K K K _ ` ] [ ] ] ] +.@.@.@.@.$.-.@.2.*.1.-.-.-.$.$.5.Q G P P n n P T T T  .) 5. .) X.#. .5./ X.X.#.) #.X.X.5.X. . ./ 5./ / 5.5./ 5.5.5./ ) #.X.#./ 5.5.5.5.5.5.Q 5.5.5.5.5.5.5.5.$.$.$.#.#.=.#.#.5./ 5./ ..) X./ #.#.$.@.#.#.+. .",
"..#.#.#.#...#.5.5.6.-.5.;.6.-.5.5.5.5.$.X.+.+.X.X.+.} } +.+.} ! #.#. . .] ! Q Q  . .$.5.5.$.$.-.#.#.] ] / I I ! Q ' '  .#...#.=.5.5.5.5.T T ' ' ' ' Q Q T I P P E G E ] X.] ! W ] ! } -.-.@.@.9.=.=.-.5.-.5.-.5.2.2.2.2.2.4.3.3.-.8.@.$.+.8.8.8.-.8.8.8.8.8.$.O.$.-.-.$.8.2.2.$.8.-.-.@.| +.2.9.9.8.5.9.6.9.8.5.$.$.Q E #.5.-.5.$.o.#.X.U b b G U E W E W ! } o.^ ] } ] ! ] ] ! X.X.X.X.X.} W G @.@.@.] ] } ` ] [ } +.=.2.*.2.3.9.9.9.-.:.@.-.9.0.9.6.5.6.>.-.>.-.-.=.=.6.-.+.....+. .] ] ' E W E U U ! } } ! T R ! ! !  .X./ W ! +.$.@.} W W | | @.@.*.-.-.=.-.=.=.-.>.-.>.:.-.6.>.>.6.>.-.-.=.E J K E E W W ` ` W K E W | +.@.| | 2.-.@.@.8.2.2.! ] } ! ] W } } } } } +.1.-.1.2.] ! -.-.o. .@.&.+.+.@.@.=.@.+.=.=.=.=.+.+.=.-.-.6.6.-.-.@.+.+.+.X.} +.+.@.+.=.&.@.@.@.| @.+.&.@.&.+.+.+.&.+.&.+.+.+.@.| | L <.K J M D D J b K W ` ` ] [ ] ' ] ] | @.-.@.*.-.-.*.2.*.1.-.@.$.=.=. .U P P V V P T T Q ]  .#. .5. .5.#.) X.X./  .X.#.#.) 5. .) 5./ 5.X.5./ 5.5./ 5.X.) 5.#.) X.X.5.5.~ T / 5.A 5.V / 5.5.5.5./ 5.@.$.=.$.=.@.#.#./ 5./ 5.5.5.X.5.#.#.#.#.+.#.+.X.",
"#...#...#...=.6.-.-.5.-.5.5.6.-.6.5.5.=.+.+.@.@.X.@.+.} } W ^ @./ X. .' Q Q ! U Q  .#.5.8.-.$.$.5. .Q '  .' / ' ' Q / 5.#.#. .#.5.5.5.T 5.I ' / X.] ] Q E T E P J W Y W X.} X.8.$.@.| } X.-.$.+.#.5.$.$.-.-.5.5.2.2.2.1.0.2.3.2.$.-.X.@.@.8.w.$.8.5.8.8.8.8.8.$.o.$.$.$.1.8.-.$.$.2.8.-.+.] X.@.@.=.-.5.5.5.8.8.-.t.@.Q #.8.-.$.$.o.o.} G g z G m G Y R W W ! } } } ! } ! } } X.@.X.@.X.X.X.W U U J J U } } E ] } ] | =.*.2.*.*.5.-.-.@.E G E | q.0.-.2.5.8.-.-.-.-.@.=.-.@.E ' ]  .] Q  .] Q +.E U U E ! ' ! ! Y W ^ } ! ! T Y +.+.} +.@.} [ } ` ] | | @.@.&.+.=.=.-.-.-.>.:.:.;.-.-.-.=.+...+.E W W _ W W E E W W U G J E E K U W &.2.| *.e.9.3.W } | W ] W } +.@.@.X.$.2.8.$.9.X.W } $.$.@.+.@.@.| @.=.@.+.+.=.=.*.=.+.&.=.6.=.;.6.;.+.] [ } | } ] ' ] ] ] ] +.| | | | | +.@.+.&.*.&.&.+.&.+.@.+.+.+.<.<.` K D K D D J b K ` ` ` ` ` W ` ` ] ` +.@.-.2.*.1.-.*.*.*.@.@.+.@.#.@.P m P n n P V ] ! /  ./  ./ )  .X. . ./ / 5./ X.#.#.5.X.5.X.X.5./ ) / 5.5./ 5.) 5.X.#.X.5.#.#./ 5.5.5.5.T V V / T V 5.5.5./ 5.#.#.5.=.$.$.$.$.5. .#.X./ X.5. .#.+.+.+. . .+.#.",
"#...#...#.#.5.6.5.5.=.5.5.6.6.5.5.-.=.#...#.#.#.@.+.} W W ! ^ } / / / ! ! / ]  .] ! X.$.8.8.$.+. . . .Q T Q Q Q ] Q  . .+.@.@.+.] ] ! ] } } ] ! ! ] X.X.] ! ! ! W ! X.X.X.] ! $.@.@.@.@.X.+.$.5.$.=.5.5.5.5.5.8.-.8.8.2.1.3.2.1.1.@.@.} +.1.2.1.8.8.8.8.8.8.8.<.o.o.$.$.$.1.$.$.$.2.2.+.+.} } @.$.@.-.5.@.2.9.2.2.8.8.-.o.X.@.5.8.O.X.Z ! d z m U U ! ! ( ! ! ( } X.] } ! ] } X.X.+.X.} X.+.! b G G J Y W } ^ W } ` } ] @.+.2.| ] ! E E E I I U ] -.8.8.@.+.+.$.+.-.+.X.[ ! ] ] ] } } X.} } } } E U U E R ! W Y ! Y P P U Y W / } +.@.+.} +.+.} @.+.} } | @.-.@.@.+.>.-.-.3.-.3.*.&.&.| | ' ! [ ] ` ! W W W E W E W ! E G D G G H H J J J W @.9.0.X.! } +.[ ! ! E +.$.@.$.8.8.$.+.1.@.! L 1.1.{ @.| } | @.@.@.| [ | =.&.&...=.;.[ 3.3.1.` ` <.L } J b b D K ` ^ +.+.+.@.+.+.@.| *.&.*.&.&.| | =.+.+.+. . .] E H D b b D D b D J H ` ` E [ [ E ] ` } &.-.-.@.=.@.2.@.@.} | X.} } Q P n n m P T ! Q ! !  .X.#.O.X.X.X.X.) X.X./ 5.$.$.@.#.#.#.#.#./ X.5./ 5./ 5.X.#.5.#.#.#.5.#.#.$.#.X.#.#.#.! E P F I 5.-.5.#...#.#.@.=.5.=.=.$.#.#.#.#.#.#.#.#.#.#.#. .]  . . .",
"#.#.#. .#...5.5.5.5.5.;.5.5.6.5.5.$.#...$.#.#.#.o.X.! W W ! X.^ X. . .X.X.! ] X.} ^ } +.$.$.+.}  .' ! Q Q ' Q Q T ! ! Q  . . .! ! ! ] } } ] } ^ ] ! ] } X.!  .! W ! R ] ! W ! $.O.@.@.X.+.+.@.-.5.$.$.5.5.5.$.5.5.8.8.8.3.3.4.3.| +.1.@.@.2.1.2.1.8.$.8.8.8.1.<.$.O.$.@.$.$.1.8.@.@.$.X.+.| } +.' ] -.0.2.2.2.2.@.2.8.0.8.$.+.o.o.#.o.X.X.m n Y Y W ! / ] ! ! ! ! } X.! } ! ] X.! X.+.X.X.X.E v b m J K K K K W W W } K W L } +.G G G U E U G U J U E E ] X. .'  ...` E W W ] ! ! ] ] ] X.X.X.X.E U U G U U U U T U Y T R W ! R ] X.+.X.+.} ] } ] } | } [ X.@.@.2.@.*.@.-.2.-.-.} ` K E E W ` ] ! W W W ` W W W E W ! E E U U G J J K K K E } +.0.@.] ] } W W ] Y +.$.+.+.$.$.$.2.2.1.} } } } ! } | +.} } @.&.2.} | | @.=.=.;.=.3.3.[ 2.1.` [ D } W J h b b Y [ } +.+.+.| } +.-.+.@.*.@.&.@.&.+.#...] ' E E J J K J J b b D J b H W K K W [ W ] ` ` | @.@.-.=.@.+.+.| } } { } } Q P n m P P ' / ' ! T  . .X.X.X.X.X.5./ / 5./ 5.#.#.#.#.X.#.#.X.5.X.X.X.X.5. .5.O.#.#.#.O.#.$.) #.+.#.#.+. . .Q Q I I T ]  ...-.@.#.#.@.@.=.$.$.O.#.#.o.#.X.+.#... .+.X.] ' ] ] ",
"#.#. ...#. .#.5.5.5.5.5.-.5.-.5.5.#.#.#.@.$.#...+.} ^ W ! ^ } } X.X.X.X.^ X.X.o.X.} } } X.+.] ] ' / ' / ! ! ] ! ! ]  .!  . ./ ! ] ] ] ] ] X.} } X.X.] X.( X.(  .] } ] R ! W ! +.$.@.@.+.X.+.@.@.#.=.5.$.5.5.$.5.0.2.8.9.1.1.2.[ 2.2.2.@.+.@.1.2.8.1.8.1.8.8.8.1.8.8.1.$.1.$.8.8.8.8.2.@.+.} } } +.+.-.w.2.2.8.9.-.1.8.8.8.-.$.@.] $.O.5.X.W b U !  .X. ./ ! ! / ! ! ! X.! ! X.X.X.X.X.} X.! U b v b J J N N U W R W ^ J J N K R m m G U U U G m b n z n U ! W Y  .] J U ! ] ] U U U U W ! ] ! ! T Y U Z V V U T Y Y W R / / ! ! X.] X.+.} ] ] ] W } } } X.] ] ] ! ! W K G E _ [ &.] K J E W ! ! ! ' ! ! W W W W W E ! W ! E U E K U E E E E K W +.} ! ` W W ` ] E +.@.@.$.2.$.$.1.*.2.@.1.@.@.o.! } @.@.| { [ L ..{ +.*.6.6.;.5.3.[ 3.3.1.L ` <.W ` Y N b D J K ! +.+.+.2.@.} +.@.-.-.@.=.-.*.@. .' E E E D H E K M D b b D J h D H b D m D G D K W W ` ] [ ] W L ` ! L K W ] ] Q V x n V T  .T / T / / ( #.X. .5./  .#./ 5. ./ #.#.#.#.#.#. .#. ./ 5.5./ 5.5. .O.#.#.#.#.5.#.5.X.#.#.#. . .] ] Q Q '  .] ' ] #.@.@.#.+.$.$.=.$.#.#.#.5.#.#.#.#. .#... .] ! ! ] ",
"..#... . ...#...=.5.-.5.5.=.=.5.5.#...#.#.#.#.+.@.X.W W ^ } X.} (  .(  .X.X.X.X.} } } } X.X.X.X./  ./  . . . . . .X.X.!  . . . .] X.X.X.X.] X.@.o.X.X.X.X.X.X.! X.o.X.] X.! } $.$.$.$.+.X.@.@.@.#.#.5.#.$.-.5.-.1.@.1.2.1.1.3.1.1.1.1.@.+.<.2.3.1.8.$.1.1.$.1.$.$.8.$.$.-.2.$.$.2.$.2.2.1.@.2.2.0.8.8.8.2.2.2.2.8.2.$.$.1.2.8.8.$.8.X.$.o.( m m X.^ ! ( ! ! ! ! } ! X.] X.} } X.+.X.^ X.X.} U b b b z m J K Y Y W W W U Y J Y J Y m m m U J m n m m n c n m U Z T W U E ! ! T b J m N Z U U U Z Z U T Y Y U U U R T T W ! ! / X.! ! ] X.+. .] } } ! ] ] +.X.] ! } } +.W J E ` @.-.| ` W W ! ] ! ! ! ! ' W ! ! W ! ! W ! ! ! E U E K E W E E U E K W W ] ] ] ! ] Q ] '  .-.8.5.$.@.@.@.1.2.<.2.2.| +.} | +.@.@.*.+.+.=.:.;.=.=.;.3.4.1.3.3.1.K <.Y Y ` Y M M D N n ] o.+.+.} } -.+.@.@.| | *.=.} Q E E U U G J U L D b b h h K K b v D J G H G G J J H J J J J H J J K J K W W K P n k n P T ' T T ! !  . . .X.X.X. .)  .X.X.5./ #.#.#. .#.#.#.#.X.5. .X.5.5.X. .#.5.$.#.o.X.X.X.#.#.#.+. .' Q ] Q Q Q 5.#. .]  . ...#.@.-.$.$.#.#.#.$.$.#.5.#.#.#. .X. .] ] Q Q ",
" ...#. ..... .#.#...5.5.5.-.5.=.=.=.#.#.#.#. . .@.^ W W ^ } } } } ^ } ^ X.X.X.X.X.} } } } X.} X.X. .]  . . .X.X. .X.]  .] }  .] } X.X.} } } } +.@.o.o.X.X.} ^ ! X.o.] !  .] X.+.@.$.@.X.+.$.@.X.#.=.$.#.#.5.5.$.2.$.2.1.} 2.4.<.J L ! @.<.&.1.1.$.$.1.$.$.1.$.1.O.5.O.8.$.8.1.$.2.$.2.2.2.@.3.0.8.2.2.2.9.2.1.2.$.2.2.2.8.2.2.1.$.$.o.X.@.^ U W ^ X.^ ! ! ! ! ! ! X.]  .] X.X.X.X.} X.X.X.E n g b h l h N U J J Y W R Y A Y Z Z A m n m N N m c c c m x z c c c c J N U U N N b m m N Z Z U V B V Z A T Y U Z Z U Z U U U U T W ] ] ! X.X.] ] } W W ! ] ] X.] ! ! } } U m J U ` } W W W ! ] R ! ] ! ! ! ] W W ! ! ! W W ! ! E Y W E U E E E U E J ` ] ] W ` ] ! W ! E ! X.+.+.1.1.o.+.@.o.} o.1.<.[ ^ | 1.| | 1.=.+.@.;.-.-.6.6.4.%.%.4.3.4.L L D <.<.D h b b D J m w d ! -.X.] } X.} W ` | +.[ m I I U E W E U b b J b g h h h d h b D v v D b D D D D D b D J H J D J J E K N V k V P I T / / Q Q  .X. . .X.) #. . . .X.X.O.#.#.X.#.#...X.#.X. ...#.#. .)  . .#.#.#.#.X.X.#.X.#.+.X. . .] ! ]  . ./  . .#.X.X. . . .$.$.#.X.#.#.#.$.#.#.#.X.+. .X.+.X. .] ' ] ",
" . . .#. .#. . .#...5.5.5.5.5.5.$.#.#..... . .X.} ! W ^ ^ } } X.X.( } } X.X.X.} } } o.} } } } } X.( X. ./  .( ] /  .X./ (  .^ ( ! } } } ^ ^ X.o.+.o.o.X.^ ^ ! X.]  .X.X.o.o.o.O.$.$.@.o.@.$.o.X.#.5.5.#.#.=.5.$.2.2.2.@.` ^ <.Y J J J W } o.| o.1.1.8.1.8.1.8.1.8.8.1.$.$.-.1.2.8.1.2.2.} ] @.X.8.8.2.2.8.8.1.2.1.2.8.2.2.1.$.1.$.1.$.X.X.G J } ! ! } X. .! ! ! ! ! ! ( X. .X.X.X.X.X.W b l z n M b N b c D N J N R R Y c c Z A m c N A Z Z c c x z y y z m c z l m z m n l c m c c c m m Z Z Z Z V V V U T T U A U T R T Y Y E ! ! ] } } ] ] ! ! ] X.X. .! ! ] o.} ^ U K Y K J U W W W R ! ^ ! ! ! ! ] ] ! ! ! ' W W W T W E Y W U E E E U E E E W W W E W ! [ '  .] Q W W } 2.1.+.( } } R ^ } <.} L ^ <.| } { &.+...=.6.6.;.6.%.3.%.3.3.4.u D D D e u g r g u 6 z l w l z b W U K J D D J E J G G m b G E E G J K h o   , M h g l v b b v v D h b b b b b D J b b b b N J m v x x m P P T Q / / /  ./ )  ...X. .X.) #.#.#.#.$.#.#.#...#. .#...#.#.#. .X.5.#.' Q  . .X.#.+.#.#. . .! ] ] ] ] ! ' Q  . . . . .X. .#.+.#.+.#.#.5.#.#.$.#.#.#.X. .+.+.X... . .] ] ",
" . . ...#. ... ... .#.#.=.5.5.5.5.#.#.#.#.#.#. .] ! ! } } } } ( ( } X.o.o.X.o.^ ^ o.+.} } } X.X.X.X.X.(  .( X. .X.o.X.X. .X.X.! } } } ^ } } X.X.o.o.$.o.X.} ( X. .o.X.X.@.$.+.$.@.$.@.o.#.$.$. .' #.5.#.$.$.$.@.X.} } } W L Y W W J J J ! ` ( X.$.$.1.8.8.8.8.8.8.8.$.$.8.8.8.8.$.X.O.$.} ! +.} 2.9.8.2.2.2.2.0.8.8.8.1.$.$.2.2.8.$.$.@.} l l W } ^ X.! ] / ] ! ! ! ! / ! } ( ] } ] Y n g g b U b J J N N N N Y Z R R R c N c c Z M N C Z c c u i u y y u c c u z c y z z r c N u z c c c c B V Z A A V A U T R U T ! / ] E Y U W ' ] ! ! ! ! ! ] ! ] } X.] ! ! ^ ! ! J N K J G W W ^ W W ! ! ! ! ! ! ! ! ! ! W ! W W E E Y Y E W E W W W W E W W E E E W W ] ] ]  .] ! W E ] @.<.X.( X.} } } o.2.| L K K [ 2.3.&...+.;.;.6.=.;.%.:.;.4.1.D h u u h u D u u g u l c n z w w g h g g g d a d h h G P G G G J G b g h h h a h h d 5 w w g G m v b b b S b J D J D b b b v b G b b k k V I P P Q Q Q /  .X. .) X.X.X.) O.#.$.#.#.#.X...#.#.#.#.#.#.#.#.#...#.#. ./ T ' X.X.X.#.#.+.] ! Q ] ' ] ' ! Q Q  . . . . . .#.#.#.X. .X.#.#.#.#.#.O.X.X. . . .X. .X. .]  . .",
" . . . .#... .#... . .#...#.#.$.5.=.#.+.#.@.#. .} ^ } X.X.^ ^ } X.( ^ } } o.X.} X.@.o.X.} } o.+.!  .X.X.X.X.X.X.X.X.X. .( ! X. .X.} X.X.} X.X.X.} o.$.o.X.^ ( X.X.o.X.o.+.#.o.+.o.$.+.+.$.-.+.] P  . .5.$.5.$.@.$.} ^ X.<.J J Y Y J J W R ! } } o.O.1.1.1.1.<.8.O.8.8.8.8.$.$.$.2.X.$.-.} ! ] W E -.8.2.0.8.2.2.2.-.1.2.1.2.2.1.8.2.$.1.o.m w J ! ! ! ] ( ]  .! ] ! ] ! ! W W E Y E m z n b m m b J J b N N N N U R C R C Y i u c c c c c i z c c x z y y u z c c z y z c y z y z z c c c c B A B V A T A Z Z A Z U R W W Y Y W E ! ! W W ! ] } W G b Y X.o.] U Y ! ^ U m N J W ! ! W W R ! ! ! W ! ! ! ! W W ! W W R Y E W E W U E ! ] ] ' W ! ! E W ' ] ' W ] ' ! W ' } ! W ! | X.} X.o.o.X.X.` <.1.L D J b h ' ..:.6.;.=.=.;.:.:.%.[ 3.e L D M D D J K D N L W Y U m z m N b b v l v b g b b U P J U J v v v D g g J K K W ! +.@.X.@.8.+.K J J b J J J J D b b J G b b b m G V n P T T Q Q / Q Q  .X.X./ / 5.X.#.X.O.#.#.#.X.#.#.#.X.#...#. .#.#.#. .#.#.#.Q /  .$.#.#.#.+. .! ] Q Q ! W ! W  ./ / ' /  . . . . . . . ./  . .X. . . . .!  .]  . . . . . . . .",
"X. . .#.o.+.X.X.] X.] X.X.X.+.+.$.#.#.#. .#... . .X. .X.} } X.@.X.X.X.o.X.X.X.X. .X. . .X. .X. .#.X.X. .+. .#.#. . .X. . .X. . .} X.X.X.X.X.X. .] O.#.#.X.#.O. .X.+.#.X.#.#.@.#.#.+.X.#.@.@.#.X.J Y } o.X.+.$.O.X.X.( X.R N Z U J J J J Y !  .! ! o.$.$.$.O.8.8.2.2.2.1.2.| } 0.2.1.@.1.} ] ! ! b W 0.3.2.1.3.1.2.2.2.0.2.1.1.2.$.<.2.<.! ~ > > ! ^ ^ W X.T  .Q ' '  .] ] ' T P ! G c n n c c m J N J N N J N N Y J N J N N c c z c c c c c z u B z y y y u z z l l u z z l u u l z c c z B Z T Z U A A Z Y R U A R R R R A R R U U Y W ` } } K K W J b K X.} b U W T U G m I E ! Q Q ! E Q ! E ! E ! ! W ! ! ! U J U W ! E E E E Q ]  .] Q T I T Q Q ' Q ' ] ! ] ! ] ! ] ] } } } X.o.+.X.X.@.$.} +.+.} d d w & v H a f >.>.-.>.L H b h h M J J U W Y K N N N J W Y J N b c c N m J U m b m J J G J U K b h g < b D K <.[ W K ~ @.o.} K ^ } ^ R } R K J K J J J b D J J m b b U D U W ! ] ] ! ! ! !  .o.X.X.X.$.X.o.+.O.+.O.X.#.#.#.+.#.#.+.#.#.+.X.#.#.#.#.X.X.5.X.X.+.#.+.] T ! ! ' ] ! ` ] ! ! ] X.X.] } X.X.X.X.X.X.X./ ! X. . .X. . . .X.X.X. . . . . . . .",
" . . . .X.X.X.X.o.X.X.X.X.X.o.o. . . ... . . . . . . .+.+.} X.X.X.X.X.X.X. .X.#.X.X.X.X.#. . .#.X. .#.#.#.#.#.X. .X. .X. .X. . .X.X. . .X. . . .X.X.X.#.#.#.X. . . .X. . .X.+. .#.#.#.#.#.#.#.+.} ^ W W Y ~ ^ X.o.( ( ( R Z A R ^ ^ W N m Y ! ! ! W ! X.$.8.8.O.1.2.2.2.2.X.K 2.2.X.L J D J K ! J J R @.3.2.w.3.2.2.2.2.2.2.2.2.1.2.1.) W ^ M A Y ( ! !  .'  .' ' Q  .' T Q Q  .V v l z m n c N N J N J J N J J N N J J N J N N c c c z u c c c c z u y y l u y y z y l u z l z z z l x y c N U Z A U Z Z U R R R R R R U Y U R Y W Y K Y W W J J W J c N J b z m J P P P U T W E ! ! E ! Q E W ! ! ! ! ! ! E E E U U E E E U U U Q Q ]  .Q ' Q E Q Q ' ' ! ' ' ' ] ] ` ] ! ! ] +.} } @.$.@.} W -.+.U f X O 5 O 9 K D d a *.u.H S D b b h h b M U Y Y Y Y K Y W W Y Y W Y K K J J J U J J c c m J K K U K D h D D K ` ` ` K W [ ! @.X.! R K K } W K Y J W R W Y K U K J m b b J G U U W ! ] ' ] ] ! ! X.$.+.O.+./ X.X.X.o.X.X.X.#.#.#.#.+.X.#.X.#.#. .X.X.X.#.X.O.#.@.$.#.o.] ! W ! ! ] W ! ] ! W ! ! ! ! ! ] ! X.] } X.X.] ( X./  . ./  . . . .X. . . . . .!  .",
"/  . . .} } X.X.] X.] } !  .!  . . .]  .]  . . .] X. .X.X.} +.X. .X.X.X.X.#.+.X.#.X.X.X. .#.X.#. .X.+.#.#.#.X.+.X. . .X. .X.X. .X.X.X.X.X.X. .X.X. . .+.#.X. . .!  .X.X. . . . .X.X.X.+.#.X.X.X.+.} } ! Y Y Y J ! ( ( R R A U R Y W J M l m W / R R ! ! ( 5.O.$.1.2.2.1.2.X.W } +.K J M h N J J N g w N ^ 1.2.2.1.8.8.2.2.2.2.2.2.2.1.^ <.~ A ~ c ^ R !  .] ' '  .Q ' ' ] Q Q / l g g z c c N Z N J N J J J N J N N J N N J J N Z N c c c z u z u z y u y u y y y l y z z y z z z c u y u z c m Z A Y Z Z A U R Z A A Z C Z Z A Y W W Y U K Y N Y J N b b c J J J m b G I T T ! Q Q Q Q E Q ' W E T T T W W U U J U E E U U J U P Q  .] ' / ' Q Q Q Q Q ' Q ! ' ! ] ] ] ! ] ! ' @.@.X.$.$.o.X.] E b v U $.8./ 1 m g @ G 9 p D H S K K K K M K J Y Y ! R Y Y W W W W R ^ ~ W Y J Y U U Y J J N J K J J J b b h h ` L Y L Y L ^ [ W } } ^ R K K R W J J W W ^ W W W E U G n v n U U U Y E ! ] ] ! ! ! W ] X.$.o.X.! ! X.X.X.X.X. .+.#.+.+. .#.#.+.X. . . .X.#.X.#. .o.X.X./ W W E ] ! ] ! ! ` ! ' ! ! W ! W ! ! ! ] ! !  . . .! ] !  . .! !  . . . . ./ /  .Q ! ] ",
"X.(  . .} X.! ! ! ! ! ] ^ } !  . . . . . . . . . . .X.+.X.} } } X. .X.X.X.X.X.X.X.#.#. .X.X. . . .X.X.X.#.X.X. .#.X. .X.X.X./ ] } ]  .X.+.X.+.X.X. .] X.#.+. .! !  . . . . .X. . .X.X.X. . .#.#.$.$.1.2.X.} W Y R ( R R A Z A Z J J c b m U ! !  .X.X./ ! ! ) $.+.@.1.@.@.o.! } W J J J J J J b h K h h N } +.2.2.2.2.8.2.2.1.8.<.1.O.( <.M u M c ( R ^ !  .' '  .Q T  . .T G n l r r l n m N m N N N N N N J N J N N J J N N N C Z N c u u y y t y z y z y y y l y y y y l y z t u z z c c c c c Z A T A Z Z C c c c m c Z c m J U R Y R Y J N b c b m M b J W Y U P m P E T E ! Q ! Q ! Q ! ! W E Y R R W Y U J J J U E U I b P Q ! Q ! ] Q E Q ' ' '  .' ] Q ` ! ! ! ] ! W W X.+.@.$.@.} W ! U m Y U o.O.X.x b 1.l d d H J v D K K J K W W Y ! ! R W K U K Y W ! ! W W W R W W E U W W W K Y K J J J b h < g K ` ` Y W ` ^ ~ ! } ! W ` ^ ~ Y W Y Y W W W W W U J m b z n U T W T U U E W ! W R ! W ! / $.+.X.! ! ] X.X.X.X.#. . . . .#.X.+.#.+.#.#.#.#.#.#.#.#.#.O./ W R W ! ! ! ! ! W ! ` ! ! W W ! ! ! ! ! W Y R W X.] X.! /  . .! !  .!  ./  .!  .Q  .! T ",
"] ! ] ] X.X.] W ! ! ! ! X.X.X.X./  .] ] ]  .] } } X.X.+.X.X.} } X.X.X.X.X.X.+.o.O.+.+.X.X.X.X.X.X.+.X.+.X.o.o.o.#.X. .X.o. .} X.! ! X.+.+.X.X.+.] X.X.X.X.@.} ! W X.X.X./ X.(  .X.X.X.o.X.X.$.-.<.1.1.$.^ ! ^ ! X.^ R Z c c c N U N m N E R W U W X.X.X.T U W X.} o.$.X.o.+.W W J M b b z N J b M K J M z J ! 1.w.1.2.w.8.<.$.8.<.<.<.<.<.u , u z Y R ! Q  .'  .' T Q ] ! m j w g g u l z b N J N N N J N J J J N J N J N N D N Z N M c c c u z z t y y y z z y u y l y y l u z z y z c c c c c c B U A Z Z c c c c c c C Z Z Z N N J U Y R Y N c m z c c m m B Y U m U V U U Y W W W T W W W ! R R T T W R Y U J U U U T E b z v F I Q ! ] ! Q ] ]  .] ] ' Q ] ! ' ] [ ] ] ] ] ! ! ] X.} U v w O l ! X./ ! X./ N $.R U X.Y U W E U K U R ! ! K ! ! ! ! R E T ! X.] ! W W W W ! U E W W ! ! Q U K J J b g a h N K Y W ` ` <.K K ! ^ U U ! ! W Y W Y Y W W R W R E J m v n J W / R U U m J U J J W ! R T ! X.O.@.( ] /  .X. .X.X.X.X.+.X.X. . . . .#.#.#.+.+.X. .X.( W R R T W W W W W ! W W W ! W W R W ! ] W E E U Y Q }  .! !  . . .! /  ./ Q !  . .Q ! / Q Q ",
"W W T !  .X.X.} X.X.X.X.X.] } ]  . . ./  .] ( } X.X.X.+.X.X.} X.X.X.X.! ^ X.O.+.O.X.O.+.#.o.O.X.X.X.o.o.+.@.$.$.#.X.X.X.o.] } ! ! W X.+.#. . .X.} X.+.X.+.$.+.! ! ! ] X. .X.X.! ] ^ ! ! ! ] o.$.+.@.$.o.W Y Y U ^ ! Z c z u c m U m n N W } R U T W ! X.( ! ! ! W W ( } ^ ^ J N N h h b z b b M b N b N h l M W R Y Y ^ ! N J Y Y M A <.<.u > u u N R ! Q  .' ..Q Q ] Q P j j v z l z b M N N M J N N N J N N J N N J N N N N N m c m N c N n c z c z y y y y u y l y y y l z u z z y l z z m n B Z Z B c B C B c B c B B B C M Z N N N N N N N c c m z c m n z m m m m m U U E W Q ! ! ! ! ! ! ! R U U Z U m m m J J m m b v j l j n U ! Q ' Q  . .X.X. .] ] ] ] ] ] } } +.X.X.} ! W U b l g g ! ( O.o.O.o.) / 8 z W R ! U T U U W ! ! ^ R R ^ T ! ! ! Y Y E E Y W ! ! W ! ! ! U ! ! ! ! ! E m K b h g g h K ` K ` ^ W Y ~ Y Y W W W U ! E Y W Y W Y W W W W R W J b l c U R R Y U J m m J G b G U U V U R  .o.X.X.o.X.( X.X.O.#.X.#.X. .Q T T Q ] ] ] Q T E E T U U T W ! W T ! ^ ! ! ! W W W W W W W W E Y U W Y E ! ! } X.}  .!  .Q !  . . .] ! ! / ! Q ! Q ",
"Y E E E Y !  .o.X.X.X. .X.] ! ! X. . . . .X.X.X.X.X.+.o.o.X.X.X.X.o.X.W ! X.o.X.X.O.O.O.O.X.O.X.o.o.X.o.o.o.o.@.O./ ! / / ! E W ! E W } +.X. .X.] X.X.@.@.@.o.X.X.( / ! ( o.o. .R } ^ ! ! ( X.o.$.$.2.2.o.^ ! U Y N c c z u z m b m m U W R ! T U Y T  . .! T R W Y W Y N J c b z h M N b b c b N b b N M l N Y Y J J R ! ! W Y Y A A <.<.A e u u r R ! ]  . .] ] ] Q P l j x m b c N M J M J N N J N N N N J N N N J N N J N N c N N Z N m N m c n c c l y y l y l u l u y z l y z u y y z c m C B B c B Z C Z Z B c c c i c B N M c c c M N N c N c c c m B c z x z n m Z V U Y U R W W W U U U Z Z B m m m n m m m b l z z v G k n E  .Q ]  . ... ... .]  . .} | } +.X.+.+.X.+.} ! J v v J ! X.X.X.o.( / R o.8 @ T X.( m Y U J U W ! Y K J W T ! ! T U P P U U U W ! ] ! ! ! Y E E ! E G G b c b h h h J J ` W W ` Y Y Y Y W Y W Y E W W Y ! W Y W W ^ ^ W } U G b l m R Y U U U U U J m m G m b b m n n U W ! ! X.X.X.X.o.X.X.X.X./ T U P I P E E E U I P I T Y T W ! ! R R ! ! W Y U N J J U U U U U U E Y W W E W ! ! ! ! ! ]  .]  . ./ ! / ] ! Q Q Q Q T ",
"Y T W Y U U ! +.X.} } X.X.X./ X. . . . ./ X.X.X.+.X.o.@.+.} X.o.X.X.} W W ^ o.X.X.X.X.X.X.O.X.X.#.O.+.o.X.X.o.}  .W U W T U U N U n n U ] X.} } X.} o.$.$.o.X.@.! ! ! / X.$.$.#.X.X.X.X.X.X.o.X.<.@.<.1.@.o.~ U c l z m m z z z z m E W R ! W ! Y U Y Y U m U T ^ Y R N l z z m N z b M l u N b b l N l l z Y N J Y Y Y ^ O.@.^ ~ ~ ~ <.~ <.e u y 6 R  .!  .+.]  .T V l j l x v N J J J J J N M N b N J N J N J N J N N b N b N N N m c c N m N B Z Z m z l z y z y z y z l y z y z z z z u z c c C c B A C C c c C B c c c B c z c M N c c c N c c c c z z z c c c c c m m m n Z Z U U U U J N m V V m m m Z Z U U U z g z P Y Q m n P ] Q !  . . . .{  . . ...} | X.| } X.X.+.X.] E W ] ] X.@.o.X.Y / / X./ $.c 3 U R R W Y Y Y E Y W W Y J Y ! ! ! W E U U E E E W W ! ! } ! Y I b b v l v b b h h D K J J J K Y Y W Y Y Y ~ W W U Y ! ! W W W W W W W W W R G b v m W ( ! W U U R E U J U G U G m m b c b J m U R ! X.X. .( /  . .' P I P Q T E E U P G E T U U Z Z U V U Y m m m n n n m J v b n v b m G Y ! W W W E E Q ! T ] / /  . . .Q / ' ] ! Q T U I ",
"U U E U U U W ! ] X.X.X.X.X.} ] } } X.} X.X.X.X.| <.[ <.| <.[ <.} } } ! R ! } o.X.X.o.o.} X.o.} X.X.o.o.W Y J N J N N c u g r g l l v b J } o.^ +.} } ^ } X.^ ^ ! R X.( X.X.o.o.X.X.X.X.X.^ ~ ^ } ^ o.X.^ ^ } U m N Z Y z z l y m T ! W T W W T Y Y W T U V m b m c z z z c N N Y N N N c c c M M l M b g 0 r N W J R Y N ^ <.^ ~ ^ ~ ) ) ~ M u u e u J } ^ ] X.T U l w r n U Y U J Z U J N N J N N J N Z m N N N N N N N J U Z N N N N N N N N N N N N N c z l y y y z l z y y y z z u y y c c B c Z C C A C Z c B B C C i i c c c c M c c u x x i x B c i c u c c z z z z c c c N U Z m N m m m N B m U Z Z m n l 8 w n U T T ] b l E } W W } X.X.} ] } } +.+.| +.X.X.+.+.+.X.X.! E ! X.] ! X.X.] W ] ] ! @.X.b z b U ! ^ W W E W W T Q ! Q ! ] T ! E E E P E E E I U G v v G n v v v v v b D D 0 v K H G U G Y Y Y W Y Y Y W ! W E ! ! W W ! W Y U W W U c 0 b 0 9 U o.@.( X.R ( W R Y ! Q E U U W U m b b m b N U J U U W E P I U E U I U T E T Q E E P I I Y m c n n m z l z z l n m G n b d l b b v v b b U E W E E W ! E Q ! ]  .X. . . . ./ ] T E P U T ",
"U E U U U U W W ] X.} X.X.} X.X.} ^ ! X.} X.X.X.<.[ <.| <.} ^ <.) } ^ ! ! R ^ } o.X.X.^ ^ X.o.X.o.R Y U J c m N r 0 0 0 w g u z l g l r r g b b r r l b U } } @.8.o.X.$.1.$.o.o.^ ^ ^ ( X.^ ^ } ^ ^ o.o.} ^ ^ Y N N Y U z y z z U T R T U R W W Q T T R E Y U P c c c b N J Z Y Y J N N J J N N N b z c M l 0 r J M Y R Y ! } U <.~ Y ~ ~ ~ M u u g g N G J m m v j t t n N Y U N U N N M J J M N N Z Z N N N m N N N N N N Z N N N N N N N N N Z Z N N m m c z z z l y y y z z l z z l l z c c c c C Z Z Z Z c c C c c c c c c i c c c c u u u u u i x c c c B c z u z z u z c z c m m m N J N V A T T U U V c z z z z m U W W W J b J ] ^ } ] ] ] +.X.+.+.+.} } X.+.| X.} } W E W ! X.X.X.X.@.+.+.} X.} ] +.] > g D J J E W W ! ! T E Q ! E G m I E U n v v n g 5 O - 5 w q q v k v l l s q 5 9 & f E J U E U Y K Y K J Y K R ! E W ! X.] ! ] U E W J b b h v w w l b z w l U ! ! ! W Y E ! ] ! W ! W W E J m l v v v b J U W T T T P I I U E P U P F n n m m j z n c l g w t l b Y m r 0 w g l v b v l v b b G U U U E E W E T T ! ! Q Q Q Q / Q Q T I P I U ",
"U E E U U U E W X.X.X.X.] X.] X.} } } ^ ( X.( X.[ <.| <.` ^ ~ ` ^ } ( ) } ^ } } o.! ! X.} X.^ R W U N Y J A N g r e r 0 0 r r g g r r 0 6 5 8 w 6 g J c r w z W 8.O.X.o.o.o.X.o.^ } ^ ^ X.X.^ ^ ^ ! X.O.} ~ R U m m A R c r z N W W R ! ! ! ! ! ! W W W ! T Y U N N N N J U N Y N U Y Y W R J J K N M z b c 8 8 z u J J N Y Y c ^ ~ M N R ~ M M u u z g g N N h t w j m Y Y U Z N N N N J N M A N N N N U N N N N N N J N N N N N N J N N Z N N U N N N N N N N c z z y y z z z u z z z z c c m Z C Z C C C B B c C B m B i c c z u i z c u u c u u i x c c c c i x z u z c c c c z z c M Z U Z Y Y Y U Z U m n z n U W W W ! } ! E U J E } } ] } } } +.X.X.} +.} +.} } } X.} ! E ] o.+.+.X.X.+.o.$.+.+.} ] } E   $ , 0 9 g v m l j k n G G v q q q s q 5 1 & % + @ & 5 q s w w 5 9 q q w q 9 9 f d b E G G E G Y Y ` ^ ! L R R Q E U E J b b v b D b h d 0 d l d v b m l 0 0 r 7 y m ! ! W E U K W W W ! ] W K G G b b h g v b b G E E E T U m P I G n n l v x n c c n m m m b b z d 9 5 w l J v b v v v b b b b G m G U W W E E Q ! Q T Q E Q T U P P P P U U ",
"E U U E J U U E ! ] ^ X.X.] X.^ ^ } ^ } ] X.X.X.} } <.^ <.W ` Y ^ ^ } } } ^ ( ( o.X.o.X.X.} ^ Y N Y ~ Y N Z m r r l m c u r r M l e 0 r w r g 8 l r g r w r 6 6 ( O.<.O.) o.o.O.^ ^ ( ^ R ( ^ R ^ ! ^ O.o.^ Z N z m N ^ c l r m Y R ! X.X.X./ / ! ! R T ! T E Y U J U U J U J N U J J W Y Y Y W Y N N g z z g z h u b M b m N z N N M M N J b M , u z h z b J M n l z U Y U N U J J N N M J J N m N N N N N N N N N N N N N N N N N N N J Z U Z N Z N N N N N N m c c z z z c c x c c c c c m m Z Z A Z Z Z B m m B B C c c m c c c u c i c c c x x i x c i c u c z i z c c c B N N c c N Z Y Y Y Y U V N m n z m U W ! ! ! ! ! ] } W G m W } ] ] } ] ] ] | } +.| +.} ] W ] ] ] ] X.} ] X.@.$.+.+.$.$.$.+.+.+.K d > $ > > O O 5 & @ @ 5 q q 1 - - % & % 1 5 5 - k D G G D F v f s f f d k n D G H D K J D G U m J J J J K J J J E E G G G G G G l d 0 0 d d s a d d d g l d 6 > 5 q l G E E W ' } W W E E J G m G b b G b l v D k n m I E ] Q P P P P m n l l x m n c n b b z l w 6 5 w z G G b b b b b b G m D v v b G U W ! E T Q Q Q E T Q Q I T E P I P U U ",
"U U U U E U U E ! ! ] X.X.X. .! ^ ^ ^ ! ^ } } ` } ^ <.[ [ ^ ^ L } ^ ^ ! ^ ] ^ ^ } ^ ^ ^ Y Y W Y Y J A m r z c z c U R Y N M r r r r r r y g y r r 6 6 5 8 l 8 r c ! o.o.o.O.o.R R ^ ^ ! ~ ^ ^ ^ ( R ! o.o.( U c r c c ^ g l w m U U ! X.o./ ! ! X.R W W E W R T J J J J Y J U U Y J U Y Y J Y J J J N g g b g b g g u u u h b l g m z m N N u h u u h u b u u h z y l m U Z U U U N N J N N J N N N N N N Z N N Z N N N N m N N N N N N J N J Z N J Z U N N m m c m m c c N m N c c c c c c N Z C A Z Z Z Z c Z N C m Z m M c c c c c c u c c c c c c c c u z c i c i c c c c c c m c c N N Y A U U U U J m z d U W W W ! W W W } ^ W J J J L W } } } } +.} } } } | ] W U E E Q } ] ] ! } +.$.X.@.$.$.$.+.X.} D g & O , g g 0 d j d q 1 1 & - 2 $ - - & o - d v n n v v S F F k f w p 5 9 9 w f d h v D D I G n G b v h g b H J H G G v v v v S f w 0 s h h d p a a 0 9 9 0 0 0 r 0 a b b b D D G D b h v l h l d f h d a , 0 g k k f d l b G G P P P m n l x x m U U m l 0 5 5 w d h l l v g g v b n G G J G b b b b b G E Q E E E T E T E T T T E E T U U P T ",
"U E E U J U U U Y W ! X.^ ] ] ( } W ^ } ^ ` <.<.^ <.<.^ ^ <.^ <.} ) ^ ^ ^ ! ^ ! W ^ o.o.^ ~ ^ R Y r r c M z N Y ^ ~ ! R R N g 6 8 8 y u r r y l u z M z e r z A z N Y N R o.X.Y R R Y ~ R R ^ X.R ( ^ ! o.o.R N z c g K 6 y w b T ! /  .X.! ! ! ! ! / ! W ! W W W Y Y U J U J Y J Y J J Y J Y J N b N l b c r g z g h g g z l z l m m U N m r r u g u M b h u h l l z Z Y U Z U Y Y A J J N N N N m N N N N N Z Z N N N N N m m N m D N N N J J m J Z J U N m m m c N N N Z Z N Z N Z N N N N N Z Z Z Z Z M Z c c Z N M m M N M c c c c c c c c c c c c c c m c i c c c i c c M c M N N c N Z N U N m l l l v z ! W W ! ! ! } } ! ] W E J J J J W W ] } | } ` E E ] } ` W Q ! ! ! X.X.X.] X.+.o.o.O.X.o.! E J d & > a b K ] W J P U I G f q 2 - o % # # # q v F F G P D F G F v s p 9 q p p s s 0 a q d f v z k v v l d h g b H K E E H v h v v f f d f d a a d d d a 0 0 0 0 0 > , 0 d h 0 9 5 , 0 d g h h h h b v h g a 9 a g f d p q s d d j m G G V V V U T U G b g 0 9 6 0 v l l g 0 0 h v v v b b D m b v b n v v b U E U ! Q ! T U E I T E T P P P E P I ",
"U U K U J U U I U E E ! ! ! ^ } } ^ ` ^ } ^ <.[ <.[ [ ^ ^ ^ ^ ) ^ ^ ! ^ ^ ^ ^ ^ ^ ~ } o.@.} ^ J c u c N Y J Y R Y Y A Y R R M M 6 8 r r e y M M Z c M c N A c c c z r u N ~ ( ^ ( R Z W ( ^ ^ ^ ! o.R R ^ ( ! Y c b l z 8 r y z W / X.( ! X.( ! ^ X./ ! ! ! ! R } ^ W Y Y J J J Y J U J J W J J J N b l b N g z b b z z M h h z l G b U J N r g < , u b M b b M c m Z A Y Y Z N N N N J N N N N N N N N N Z N N N Z Z N M N M m N m m N N N J N N N N J J N N c N m N N Z N N N Z Z N N N Z M m Z N c Z c N M N m M m N M m m M c c c c c c c c c c c c c c m B B B c c C c M c M N C C C Z N N m z g 0 w l n m W ! ! ] ] } } } ] ^ W K b b b b J J J W ! ` W J U E W ' ' ] ! E E E W ] ] } X.X.^ ( ! ! U l h 9 g H W ] [ o.} E I P T E F f 2 % % # # $ s F G F F G I F k q q 9 5 - 1 q p w s s f d q 5 9 5 5 w 5 q q p a p p , , 9 p p p f f f f f d d p p d d a a a d g a 5 & d 0 0 , , a d d d d h g d a 0 a = > > $ & > 9 0 d s f h f s 0 w j l m V V V V V l 8 @ O > 0 w w q w d l v h d w l l v v b b b v b D v v b I E E ! ! ' ! Q E Q T T E U P U I U P ",
"E U U U U U J U U U Y W ! ! ! X.^ ^ ^ ^ ^ } ^ ^ [ <.^ Y K J J N J K Y W ! ^ ! ^ K z w g u c c r z J R Y N R ~ Y Y Y R U K M J J 8 8 8 6 8 c N c N N Z N c z 6 3 4 3 6 r z c Y ~ O.R Z ~ ( ^ ~ ~ ! o.R N U ! R R m z m g z d z j Y / o.] ! /  .! ! ! / / ! W ! / ! ^ W W Y Y J J J J N Y J J J J J N J J J N b J N J b h b N h N l m b G N D g g u g u b M J Y N Z U Z U U U A Z N N N N N J J A c c N N J Z Z Z N Z N N B m N m N b N N N N N N J J N N N N N N N m M N N N N N Z N Z c N m Z c m c m N c c m m c c N c m m c m c B m m c n m m c c m c c m m c B c c C c C c C N C N N Z Z c r 8 d d g l b G b U W ! ! ! W W ! W ] U z g g h d D b v D J K E W ` W E U E E E D b l l D Q X.X.X.! / ! ] m w d 0 h G E ! [ ] W W I G G F v f - . o # % 9 v G H n G F v v P I I U v v s s f k k d p d s d s q - q q q q 9 , & - = % - - p f v f p f f a a f h a d h h g h d d d g , 0 d a 0 9 p , - > $ O O $ $ @ $ & , > & , , - - - - 5 5 % - 9 1 w n n j w 1 : & > 5 5 0 0 d d d f h d d d d h d h v v v b G b b b b v b m E T E Q Q T T Q Q Q T I E P E T P U ",
"U G T P I P P P U U U U E Y U N Y Y U Y U Y E ! ! ! E m b b J J m J G c v h h g w 0 0 0 0 0 g l N J J N N N J K J N J J J R J g 0 6 7 8 8 8 w z y 8 w 8 w 6 5 : 3 3 6 6 8 r z c J J Y J R ~ ~ ~ / W W R U m U R R n m n r g l n U R X.^ ! ! ! ! ] ! ! ! ! ! ! ( ^ ^ W R W Y J N Y N N J J Y Y J J J J K J J J J J N N J h z z b b b b N N b h g g r g M W R Y Y J Y N N Y J J N J J N J N J N N U Z J N U N N N N J N N N N J N N J N N J J N J M J N J N N N N m B m N m m m c m m m c m m c m m c m m c m n c c c n n m c c n x x m n c n c x m x j t t l m U m B c c c c c c Z m c c l r w r g g g l m J m b m b m J W ! ! E U D v l l v k w - 1 - & w v H D v d p q 5 9 9 5 9 q 5 - q v W =.=.=.[ v q 1 1 - 0 H H J K K D L K K D D h , $ o & O O 9 k z n m J U R ! ! ! ! ! ! ! W J m v l d 1 q w s d s q q 5 q q 5 5 1 1 5 # $ - 9 d p a f a d d d a a d p s s s s q s j k p 2 q p , < 9 p 0 q q q 5 5 1 & & & & - p a > # o % # & + o & - 1 & 1 1 @ @ + o 1 2 2 q s s s p p p p s s s d a v h h g g g l b l b b b b m U W ! Q E P P T Q T Q I P P P T P P ",
"U U P I U T P E I U E Y E J U K Y Y Y R T R Y Y E E E G D G J D G b v h g 0 0 0 0 w g d d 0 0 9 w h b h b b b g z h h r 0 g r 0 w 8 7 8 6 6 8 8 y t w w y c c m m l w 6 0 r c Z N c M N ~ o.^ ~ ( R ! ! W Z V Y U m U n w 8 r m N U ! ! / ! ! ] ! ] ! ! ! ! ! R ^ W ^ W Y Y Y J J N N N N Y J Y J N M J J M J N K N N b b b J N b b b b b b u r g 0 g b J W J Y N N N Y Y N Y Y N N N N N N N N N N N N N N N J N J N N J N c N M b N M M N M N N N N J N N N N Z Z Z m Z m m m B m m B n c m c c c c n z c c z c n c c b c c c V m x x l x n x l x V T U V m x V m c c n N m N l l w w y w w w 8 h b U E K m m g d d g b U J m b v d q 9 5 & @ o & s j k l q & 5 9 p s d p 9 1 k f f p - & , 9 = # - ; - * % 9 > 9 & , D K K K [ L h , $ O $ > & 1 w l m U T W Y Y W W W W ! ! ! W Y U U U n t d a q 9 w w s 0 q q 5 - - % 5 5 % O # 5 9 p p p p p a a p p 9 9 2 2 2 q 2 2 2 q f q 2 2 p 9 , 9 9 w w w w w w q 5 & 1 5 9 5 - o . o o % & & & 5 & @ 1 1 X + @ 1 - - 2 p s s f d q q p s d d d d 0 0 a d h h h l v l g g g b G U T Q T T T Q Q T T T P P P I P P ",
"P P E T T P U E m U W W U J U Y T U U U R Y Y U G J m b b b b h g g 8 0 0 0 w w w d 0 0 0 9 0 d g l b J D N M b b l g g r , u u z y w e t z m U R T m c c z c n l l l l z z z z M z u u N Y R ^ R / W ( O.! U U R U Z z 8 6 8 N Z U R / ! ! ! ! ! ] ( } ! ! ! X.^ ^ ^ ! Y Y J J Y N N N N Y J Y J N J J J J J J J J K b z J J J J N b b b b h g g , g b J R Y K N N N J J A J J N N N N N J N N J J N N N N N N N b b N M b N N M N N J J N N N b b M N b N N N Z Z Z m c c c c m c m c c c c c c n c z z c c b m c m n c n m m n n n V V V m m V V V n m V V U m n z l z l w w l w w w w w g h m U ! W J l w 0 w w w l n m b l w w w w k j k l l l v d d k v k f f f l v G E ' I G D v d p 9 q 9 - - 5 5 - - 9 - - & o > 0 9 a < , > $ , , > $ & 0 n U U R Y Y ! ! ! W Y W ! ^ ^ ^ ^ } X.^ U x 9 5 5 w k v w 5 q 6 5 1 & 1 5 9 p 5 5 q d p w s q a p a p 9 - - p 2 2 q j 2 s 2 9 9 - 9 - , 9 q d y l l v z l d k j d f f f f d s s q 5 + o O O 1 1 : + + : @ o % % % 9 s s w q 2 2 5 p s d d s d d d g h v v l l v l g l v G U I T Q I Q Q Q Q I I I P P P P I ",
"E P P P P E P U G U R R U U W W U U U Y W W U G n n v v v l h d 0 9 9 0 0 g h g h g g d 0 w g l z b N N N J J b l g r g h r g h y w w z n V R R T U U Z m m c c z w 8 0 8 y l z z M z e r u N Y ( ( R R o.( W R R U c 8 8 8 0 m T Y R ! W T E E ] ! ! ! / / ( ! ^ ! ^ ~ Y Y Y Y J Y J J J J A N J Y J R Y J J J J J Y m b N W J Y J J J M J N b u g r l J W W W J N N Y Y J N N N J J N J N J J U Z J A J J N N N N N N J N N J b b b M N b M M M N N b M N M N m m m c c c c x x c c x c x z c n c n c m n c m c m m m m N m m V V P m m l l w w w t l l l y w y y g z c x l g l l g l l l m J E U E m g 0 0 w 6 9 w d g g d w j j l n n m V P m U G m m G U U n G G I H G S v v v v k d q % o 1 9 > & > w d w 5 w w 5 $ o o $ $ $ $ # # o o > h m ! R ! W Y V U N N N m m m U m m b m N N x 1 9 w f G E E G v G b n k w 5 & o 9 5 - - 5 , q s 9 p q q p q 9 5 2 1 2 1 1 1 1 % % 5 p s p d v U m n x x n x l j l l l z v v v b 0 f v D v d 5 & X + X + : q w & + o & % 1 9 - & % 1 - - q p a a h d d a d g g h h g v g g b b U P P I T Q Q Q Q Q T T P P P P P ",
"P T P E P U E T Y E W W W Y W W U U Y ! ! W J z b b z l v h d 0 0 0 9 0 w f d l g l b b h g d r h g g g h u g g g 0 r g g w w 8 w l x Z U U Z c c m m Z V m Z m V c w 8 6 0 r r w z z z u t u c Y ~ R R R R R ) R A c 8 8 8 3 e m m V U R Y R ! ! W W ! ] / ! W ! ~ ! ! W Y Y Y Y Y Y J Y J J Y J Y Y Y J Y N N N J U N b J U U Y Y K Y K J N N b g g g m J Y Y R K N J J Y N N J N N N N J N N N N N N J J N N N c b b c c m m J N M N b z z z z b c c b b c N c n c c n c c n x c c n c n m n m m n n n m m m c m m N m m c x l w q 5 : 5 6 6 7 w z n n z r w w l l l z v z l w b m J J G J U E b d w 5 9 w g l z v v b m U Y P U T P P U U P G P G G G P b n b n S v k f q 1 5 1 - & 1 1 5 1 & 9 w d n U U b n l j d s 5 % o , , $ $ o X & a J W ! ! W R Z x z b c z z z z z z n m n V n x j j k l m U T ' ! T Q E I n k q 5 q 5 5 q - 1 5 s 0 q q 5 5 - 5 9 2 2 2 2 1 1 - 1 - 5 q w j n U T U N n c m b n x l l t d w y l y m b h w g v J W U T  .T m b z y 1 @ @ @ & & O O 1 & @ & > > , , a a d d d d a g g h h g g g b b V I P P T Q ! Q Q Q T P I P P P ",
"I P P P E P T I ! W W W W W Y Y R U Z m V m b l b l h h h w 0 0 9 0 0 g l z v v g l l v l g g g r r r 0 0 0 > > 0 w g r w w g n m Z N U U P m N Z m m m m c n m n n m m m z r 6 e r e r u u c c M Y ~ R A A R R R A C z e 8 4 8 t y z V T E ! ] ! ! ! ! ^ } ! ! Y ! ! W Y Y U Y Y K Y Y R Y Y J N J J J J K J M N J U J z m U N Y J Y Y R J N M h u g r g z c b N c c N J J Y U J Y J J J N J N N Y J K N N b z g r r r a w r g w w w 0 w 0 w w l l b b b c b b m n m m m m m m n m m m N N m m m m m m m m N m n m m m n z l l w l y y z m m U P V m n m m J U b m n l g w g g n n b b g g g b n w 6 5 6 w g g n b U Y E E U E U V T P P V V G m z j w w j j d j 9 5 - 1 5 5 5 , 1 1 5 d v G G U m U ! ^ R U U U n j j s q 1 o . . o $ - , g G W W W R U U m z z m m m n m b c z z m z n V V n t j d w k x G G P G G P P P P F v f l d s s s d d s s q 9 q q p 1 q f j f q 5 1 d w w w z Z U U m m m m m B P m m m z z z l y u g l l z b z l l l m E ! W ! } ! U U V m N N m m 5 5 5 1 > > > > > , a g g a d d g g h h d f v b F V I P I T ' Q Q Q Q I T P P P ",
"T I P P E E T E ! ! R ! W W W Y ! U x l l z b b l g g 0 0 9 5 0 w w g l b n m G b l l l l v z v g g g z u 0 e r 6 0 r g r z b U U N n c c z c m m m m n m m m V m m m P N m c c c r r r y u c c z N ~ R M A R R R A R B e e 4 7 4 7 z U W ! W R ] ] ] ! ! W W R U W W W Y E E Y Y J R W Y Y Y J Y J N J J J K N N J J J c b U U J Y J Y J J N b z z u g w g l l l g g z N N J N J J J N m J m m J b b c z z g g 0 w 0 0 0 r w r l z b b M N b b z b N N J J J J m m m N N m N m m U m U m m m m N m b m m b m m n m v z z z l l y z x m m m z z n n m V m J N m Z G m b m G m J b g d 0 5 5 0 w 6 5 6 w l m J U Y R ! R W Y m m m x l j j q q q 9 q q 0 q q 5 1 & 5 - 1 5 1 - & s v D E E I n l U m m U U m m V P l j w 5 & % o = > $ o - w G E ( ! W ! Y U N b z n m m m n z z m m m m V V V n w j j k v n z v m G n n n n n n v v v k h f w s f d d d d f f d v n F P I P m n Y P m m U R R Z m m c N m N N Z m M c c c c i i r r w r r r l z z z c m Y ~ ~ A R U U A U U U Z g g w w 0 0 9 , > > > , , , , , a a g g h d h g n m P P P I P T T Q Q T T P T I ",
"P T T I U T T Q R W W W W ! W R V m n n b n n m l l g 8 0 5 9 0 l z b m b n b m J N J J K N b l z u z g r 0 0 g r g g b b U Y U m m Z Z m c c c c c m m c m m m m m m m c m b N c c c r 8 8 8 u M M ~ ~ M A ) ~ ( A A c 7 e 4 4 3 8 z T R W T W W ! ] ! Y G U U U U Y U Y Y Y Y Y Y Y J J J J W J Y Y J J R R J J N N J c m G U J J Y Y J N b M g b z g r r g r u g r l b b z z N b b M b z z l g g r a r g r r r r r r g g z b b N N N b b l g w g b c b N N N U m P m N J J m V m U m Z m m m n c l z z l z z n x z z l z z v n m n n n n z n Z U m Z N J N N J m G P J m v g 9 5 0 w h d 0 9 r l b N J U Y ! W U n l w j l j j j s d w d w q 5 q q q - - 1 5 & 5 - , q k G E E E I G D m G I b N U N m U U b l q 5 q - - - * $ , > > 0 U ] ! ! R U U P n z c n m N J m m m m m m m m n V n x j j j j l n n l v l v v n m V G n v k v n n z d w d j k z n v n v k v n G U E U U T U Z m Z B Z z c m m N c c c C N c c B C C C N c z l r r r r r 8 r z r z N N N Z Z A A Z U J m n b z z g g 0 a , , > > > > > , , 0 d w d d h l m F V V P P P I Q Q Q Q T T Q ",
"I T Q T E Q E Q T ! W ! ! ^ W K G z z n v z b v h l b b b b b m J n m U Y U U U U Y U P N m U m b b u r t w w z z n U U U U m n c c n m c n c m m m c c m c x x m n m n V m V m B m m B z 8 8 c M N N A e 8 A A ) ( C e 8 4 e 8 t 8 l V E Y J U U J n l r d l b m Y E Y Y E E R Y E Y U U U Y W Y Y U Y U U U J m U U U P m U U Y Y K Y J b b z m m b z z l l r g g g g l g g w l w w w w w w w r r r g w j w l v l d l n m m m m m m G m G G m l w 0 w g g b m b m m n n m m m n z l w w w w w d r l v n v z n m n n m m b z z z z z z b b g z N N N N N J J Y m m m J J m l d d 0 0 0 0 d h l U U U U Y U b v m z w q 7 6 6 6 9 5 5 - 9 5 - q 5 2 - - & & - 9 - q l b U E E E I G F G G F G D J J b N n l w 9 w s w 9 , - p - $ , , > W W W ^ ! U m n n m n m n c m m m V x m x x x x x x x t w k l n m m n n v n v n n n m m F m m n n n n n d l j j j j x b v v n l k l m U U T R U A A C c z c c N M M M M N M M M C M M M c M M c c z u y r y y y z i u c c c c Z M M Z Z U U N m m b g d 0 , , 0 , > > , 9 > , 0 g g d a l l n n n m m G 5.V P Q Q / Q T ",
"! T T I T Q T Q ' ! W W W W J N n l z v z v z z l z l l l b D m m m m U E Y E T Y R W Y U G m b b z g g t w t x m U U Z V m m x z c c m m c c c n c n m m n x z x x x V n B m m m c c m c w 8 y z M M ~ B y ( A A A i i e e i y 4 7 y B U Y U Y v z h w d g g l G E T E Y U U U U G U Y Y U U P Y J Y J U U U Y U U U U Y E Y Y J N N N N N N b b n n n n n m m c b z g r w w 8 w w 8 0 w w l l l l l l z z z z n z z n m m n b b D m m m G m m K N z g w 6 9 0 l b b z z z l l z l l l l l z z m m m n z l l n z l v m n z l l m n m m c c z g u b b J J N b c m D b n b v g w : > > 6 d l b m l l l d w w w 6 5 5 5 5 5 5 1 @ - - - 9 9 5 - - - 2 - p d f f f n I I G P I G U n n n m G G m b b b h g w w w d 0 0 q q 9 < p p , > < b Y ! ! R m m m c m m J m B m V m m n n c x x x x x B x t x z n n m m n n n n n n k x n j l v n n n m n n m n n v j j l n b F F v l j z n m m Z V B C M c c c M M J M M N M M z z i M i i M N M c c c c z c c c z c c c z c M m B Z N N Z Z Z Z N J m l r > > > 0 a 0 0 9 9 > , 0 g g h g q d l x n b b m k t n n P I I P ",
"T T I P U T T U ! W W W Y U J J v z z l h l v g b l g g b b G J m m Z R W T Y T Y T W U U m m m m l r r t 7 w m U U Z m m m x m n n c m n c c n c m c c c c x l l j x x m x x c c c c m c u w 8 e i M A B u ~ A A A A R A y i y t e w y l t w l d w d d d g g g m U ! T Y E U U E Y U E E T T Y U U J U U J U Y Y Y U Y E ! T Y K J b b b z v g l l z l l l l g w g r g w w w 0 w w d j l n m G W E U J m n l l l d l b P G G b G U G m G U U G b l h 0 : O : 5 w w 0 0 w g l l d g l l l l l l d z n z l z l z l j l w y w j l m N J N c z g r g z N J J J N N U b n y 8 0 > @ 5 0 0 9 0 w g 0 9 6 w 8 w 6 w w w w y l t w 8 q w s p d s p p p f d a f S D D S n G G v l l v v G b D G G n v v w w 9 > - & 5 q 5 5 - 9 , p p < < > < } W ! W K m m m m N m G G P V m V x B m c x x V x x x x x G m n n m n n n n n l n v l x j x n n n F V P P m m m n x l l n z n b v l l l n c m B B B c M c M c N M M M M M M M M u i M M M M M M N M N M c M M c M c c c c C B Z M C Z N N Z U Z U J U N m b h 0 0 0 d w d 0 9 9 9 , > > 9 q q w j v n n n x n x F P T T Q ",
"] ' Q T Q Q ' ] E U U Y Y Y K U m b z h w l z d h l l b m J U U E T T W R U U U U E U U Z U m m m l w 8 t 7 8 V T Z U m V c m m n m m c c c x c c m n m m m c z x x n n c m x x x c m B c c y 8 e u e u e e B i ~ ~ A A A y e e e 8 7 4 5 3 9 w g d g g g g d w z G E E Y U U I U U U U E U I P J G G N G m G J G G G I U E U U b u a r w d d w l l h f d w 0 0 g b b b z l h r j l n m n m J U U J m b n v d w w w w l b m P P b G G U G G G D b b b l g h b J G m z l l h d w w g d y g h g d w r l w w w w 6 6 6 8 w w w l c z m N m b z g u g u l u r 8 0 8 8 w w w w 8 w w 0 g r 0 g v l d n m m m U Z V m m n x z z l j j s w 9 p 9 p q s d d p f f h f d k v v l k k v n G m n n v j q s , 9 0 9 5 5 5 w f d f f f d d d < > g W W R A N m Z U Z J m m m P V V m V V n x x V x x V V V n V m m m n n x l t j l j l x n n x j n l n m m n n n m n n n n n k v n n n n n m n B Z c m B M N M M M M M M M M M M M u i M M M c M c M M c M M c c N c M c M N B m c Z C c N Z Z U Z Z N Y U U Y J l g w 0 w w g g g 0 0 5 9 0 q q q d l n n n P n n n V F P T ",
"I T Q Q Q I T Q Y G J P J m N b m b v g w l l r l v b Z U J E Y W T R U U V Z Z U U A V U Z U U m y 8 8 t 3 e V Z V m m m c c c c c n c z z z z n c m m m n x n x n n B B n x x z x B m c c c u i u y y y e i y C i e y y 8 y i y e 7 7 6 3 5 6 0 g g g g d w d w l m V G m G m b I U U P m x l b G D G m b n n n b D P G m D G l d s q 9 5 5 > 5 q q 0 w 9 q 9 l n G P m P m G n m n G b n m m v c n n m G b m l d t j l l n n G G I U G I m n l l d s w d l v b b m n l d 0 5 5 5 5 5 5 6 9 6 5 6 5 > 3 6 5 5 5 6 w w w w w w N N M b r 0 6 6 8 w g z c m U W W R R Z m z z z b N J N M L Y Y R ! R / ! T m z c c z z n m B b l s w q 9 q 5 q 5 5 q q s d d s d d f d d d k l k k d w q 5 5 2 > , q w w w q w w d w d d w a 9 0 > 0 h Y N N m B V Z Z V P P P V V n V B n x x x x B V x V V V V G V n n n x j w t t t l x x x m n x x k B V V m n m n x l x v n b b v z v b c c m N c c M c c c M M M M M M z M M i M M i M M c B c c c C c c c c c c m B c V B m B B B Z m Z V U m m V V B V N N U m m b l h 9 0 0 d 0 9 0 w 9 9 w w d z l v n b n n n P P P ",
"n V P P P V P T E U m G m z g g d w w 0 0 w h w z m E W Y U U P Y U Z U Z U Y R T U U Z m Z Z Z m c 8 q 7 7 t V P B V B V x c x n n c c z z l z m c m c m V m n x x n n m n V n x m V m B c c c c c c c B i t y 8 e 4 y y e t i B B x t w 5 O @ > 9 0 0 0 0 0 w q t l v n n n n m n n j w 9 9 q 5 5 , 9 5 1 & - @ - 5 - 1 1 , q f h l d 0 q q 0 5 6 9 d l k l l l n n x v b G m l v l j l v n m P G G m m G G m l w q q q q q w z n n n n n v l d d w w d l v b l l l h w 6 0 w r d d r d l b b n n m m b n z l 9 w w w w w j l g h b M N J W ! } ( ( } ! W Y Y x m m Z U U G U ^ ( ^ W W ~ ` ` ! R R R W T U m U Z B U W / R W E U G m n j w w 5 0 s j d s w 9 5 q q w w 9 q q 5 5 5 5 5 1 5 q 0 0 q d k l x j m m m m m m b b d 9 9 d J N m N m B m m m V P P n n V V V V B t x x x x x V x V m V m V m V x l j j l x l l x l j t t w t d j x V V m B n x x x n n v z l z z m m N Z c c N N M M M M M M M M M i M M M M M M M C C B B C c c C c B Z m c c m c m V m c m V m B B P Z Z Z V x l 6 0 g r d l g w 0 w w 0 0 > > > 6 6 6 9 w w l v b m b b n P P P ",
"V V P I P P P I U m b b b h w r 0 > 5 w w d v l m U E E Y U J P V V B Z U T R T T Y U m V U V V Z c t 8 w 7 t V V V V m x c x x m m c c z z x c n m c c c V n B x x n n n B x V m x c m m c c Z c c C c B x t z e t t c B B B t x i x i z r 0 > > > 9 9 0 9 9 9 q q w s j l v l j w 5 1 @ @ 5 5 5 q 9 9 q 9 5 q 5 5 q q q q 5 q 5 5 q a w d h v d f v n D D b G I m n l j j j w w w w w d j l j l j j t w q 7 q q 5 9 9 5 q q w 9 0 q 9 5 p q q q q q 9 w j v n E G b v d w d l g d d g l l v x U U U m z w 5 5 w w l l z U ! o.o.@.o.o.( } ^ ^ ^ ! ^ ! R ! Y N R R ! ! R R Y U J R R R Y J W ^ ! ! R W R X./ ! Y T R ! / ( / ! / ! ! R V V x l k j l t w w 6 5 t q q w j w w d q 9 q s q 9 w d b n c m V V V B c c c m N N m c b , d m U N N C B c c n n F V n V V V V V V n x x x x x x x V x m V n V n n m n B n V n n n x x V V n m m V V P n B n n V n n m n b b b n n m N m N N m N Z Z M M M M M M M M M M M M M M M M M C B c B c B C B V c c m m c c m c m m V V m V V V V V V Z V c y z z z l z n m m N b b h g 0 6 > 6 9 9 6 0 w s l n v n z v k k n ",
"k k x n V m n P b v l v l w 0 0 6 5 w l z v n b U U U U Y U U U U Z G Z U U U U U U Z V V P V n V m t 8 7 t x V Z V V m V x B n m c n n n z c c n x x x m m V n V n V n B c m x B x c m B c c c M c c u u B i B B B B c i i B B B B x B c z r w 6 0 6 0 0 6 > @ 1 5 5 7 j j v z j j j l l l j w q 9 9 q q 9 p s d q 9 5 9 9 5 - 9 9 q 5 5 - , 5 9 9 s f l j d d 9 q q q q w d q q q 7 q q 5 @ @ @ @ @ @ 1 1 7 w 6 5 7 w w w w t d s w w w d v z d d w 9 5 9 w d w 8 w n m J m m U J G N P G G G m m z d 5 5 w m Z W / / ! / / ! ^ ) } ) } ^ ^ ^ ^ R W ~ ^ ^ ^ R / R R T T U U Z J J W W M b M J R ! U m V m U Y W W R W W R / X./ / / / / ! T ! Y Z n n c n c v v j d w d w 7 w q w d l l l n m n m m m m c m V B m c n m J m m m > w ! m n Z N m c x x m P P n V n x x V V V B x x V x x x x n n m n n m V m V n m n V V m V n n x m n B n B k P V B c x V n n m m m m n m m m m N c N Z Z Z c b M M M M M M M M M M M N A M M c B B c B c c m c c c B c m V n B n m m m V m V m V B c m V m c z z z z c m m v c z l z l g g g 9 w w q 6 9 w d l z v n n n n m ",
"x l n n v v v v v g g h g w 6 6 8 8 6 6 n n c Z m Z Z U Z Z m m V n m V V P P V m m P P P V m V m B c 8 8 r n Z Z Z Z m B c c m c c c V n B n n V n z l x m m n m m c b m c b N c m c c c z m m Z N M N c c c c c x B B c c i c c c B c m c c c c n z z g g r g 6 5 5 q d n n b P G m G G G G G G b b v l k d d w d t j w j j j d d d 0 0 5 > > > > > > , 0 a g 0 0 9 0 0 0 0 0 0 9 > : 8 w l y r r w 8 l n m m c m m U U Y U U Y U J n v l w 8 g r r l b m J m Z V V P T T P P T P V V V G m x g 8 : : 8 m Y ! o.R ! ( ( ( ( ( R ^ R J J W ~ ` ~ W J Y W <.J K ~ Y Y W Y W W R R Y Y J b u J Y J Y Y m N N Z c N N N c c N c N B U R ( ^ ^ R ( ^ R U N c m N U m b n j d t y w d w t l x m m m m Z Z m m N N N c b c N J b m b b @ z n P V V m m m m b m D J m n V V n V V n V x x n x t t x x m n c n b m m m m m n m m m m m n B n n x n V x n V n V n n P V V B m V m V B B V V m B m Z Z Z M M M C C c N C Z B B Z Z B B V c V x c c x c c V n x c m x m c c m m m x m n m m B P V m m c m m m N N N m m b z b b c b z z v z k w w q q q w w s d d d k l f ",
"j j k k v k k l h l g g r 8 6 5 5 6 8 w V V m U m B Z Z Z Z Z V m V V n V V P P V V P V V P P n m c i 8 6 w c N U N c c c c B c c m c c B n B m V V m V m m m m c c c c c c c c b m c c z z c m c c m N N c c c B B c i i c B B B B B B M c c c c m m c z z l l n v z b J U U J U m J m m U U N U P P m n n c n n z c n x x x z z b b b v l g g 0 0 w 0 w 0 < , a 0 d d d a a a > , 0 g n U T R U U U J U R W Z J U U U Y U Y R W W Y Y Y R W ! Y U U U Y Y Y U A T ~ ! ~ T P P V V P P n n k w O > r m W ( X.^ Y A m Z U R ! R R W ^ R Y Y Y Y ^ ~ <.W <.J <.Y ` ~ Y ~ W ~ R Y Y Y ~ W K M K ~ R Y Y N c N N N Y Y N N N c N m Z m m N N C Y R ^ ^ ^ ~ R Y Y Y m m x l l w w w y j w 8 8 w l w m N U Z N Z c c z c c b b N b m b 6 l Z P m P G P m m b m m G m n V V V x V x V V n V V j x V V n v z n b m m m m m m m m m m m V n x V n V n V V n V n V x n V m B B m m m m B m Z Z U U B c c i c c c c C c m B B V Z Z m B V V c n B n x V x n c V x x m n m m m c m c c c c c m V m N m m B c c c N N c m c c c b z z v z z n n l j w q q 6 q q s w d d d d ",
"j d d d d d f d h d d r r 8 8 6 w t y l B c x c Z m Z Z Z V m V V n n V V P V V V P V V m V V n Z C c 8 6 8 z U U N m c m Z B m m x V c x B V V m U U Z m c c m c m c c b b c c c b b z z z c c c c N Z N M m m c c y y e t i x C Z Z Z C Z B c N M c c z z y y z z m m U U U P U N m J U m m U P P P G G m m m m m m m m c c x z g z z z v v l b h b h g g e 0 0 0 0 d a d d a g b N J Z m Z U U Y Y Y Y Y U U Y Y U Y Y Y W W Y Y Y Y U R R R Y U Y U Y Y Z Z V V V V B x n V V P m v w 5 & o g J ^ X.} ! ! ! T U Z U Y A T R R W ^ ^ R ~ ~ R ~ <.J ~ M <.M L ^ W ~ W W R Y Y Y Y Y W A M Y Y R ~ ^ W U U Y R ~ W W R J N Z U N N c N m N N N Z Z R R ! R Y Z T T U P m m m m l z z t w w w z l m N Z M m c m c c c b m b n n x t l U G m P P m m m m N D m J m V B m V V V V V x V V x t x V m n x n m m m m n m m c m c m m x V V n V n V B V n V V V n V n m m m m c c m m m Z U T U A N m C Z C B C C Z B c B A T Z B n V B B B n V B n B B x n x B n B n m B c m n c m m N m m m N m N m c M c b c N m N b N b l z z z n b n n v j d q q s w q w w w s s ",
"j d d d s w s w 0 0 w w r g r r y t y z m c m Z Z V Z m m V Z Z x m m m V V m m V V V V V V V m Z c z 8 5 8 z N N m m c c N B c B B c V V x V x m V Z U m x x m m m c c c c c b b c c c c c m N c m c N N m B Z A Z A A T T T A c B C B Z m B c c c c z c z r 8 d z m U U Y U Y G J m n m G m N m m m J m Z Z m m V B m m c c c b z z b v z z l b z b c b h u h w w w d g d a g g b n n n B U R U Y Y Y Z U U Y U U U U Y Y T T T R R R R R T Z N N Z C Z A U Z V V V V B V V V m x q @ & w m T W ^ } ^ ! Y ! ! ^ W ! R R R R R ~ ~ R W W ^ ^ R W W ~ W Y K A <.~ W Y Y ~ Y R W Y Y R R Y J Y J Y Y ~ ~ R Y Y ! R R R R R R R R Y Z N Z N N m N m N N c N C N N V A Z Z U Z Z m l z z l y j y w 8 g m m Z c c N c c N c m c n c x j t U V m P m U Z G N m m N m m V m V V x V n x x V n j t x x m c c n m m m m m V m m m m m m V x n B n B n x n V V n n V V x m m x c m m m m Z m N m Z Z U Y R C Z Z A A Z B B V Z Z V m B B n x V n x x V n n V V V V V x V m m m c V m V V Z Z m m m Z m m b c c c c c N m c c z z z l v z x l z n n l j j d l f d d l d h ",
"j j j j j s q q 0 w w w g z r r y y x m m B V Z Z m V Z V N B V n m V m P V V V m V V m m V B V B c l 8 6 6 d n b m m N m n m m m B V n B V V B x V V V m m x m m m c m n c c c c c c c b m m m N c m m B m Z Z B B m B A A V V B B B V B c c V B B x B c c y w l x m U U U U U Z m m b m m m m U Z m Z m Z N N Z Z N M B c B c z b c c z v x z l l z v z b z b b b b l l g d w m b n z z c m m N Z Y Y T Z U U m N N Z Z U A A Z U A T A Z Z B V B B B m Z c m m m V m m x l w & 1 5 d n I E E U U J U W X.R Y R ! W ! ! R R R W ~ R W R ~ ~ R <.Y <.Y Y J Y Y R R ~ ~ R R R R ~ Y Y ~ Y Y J A R R ~ ^ ^ R R R R Y Y Y R R R R R Y c c c m N A U Z N m N N m c V V Z V U Z U Z n n n z j j w w 8 w z m m m m c c m m c m x n n n n q V V P P V P U U V N N N J V m m V c V m m T x x V x x x x m m c m m m Z m c V c m m c m m x V n B x V n V V V V n V x V x m m m m m m m m n m c c n m U Z C C c C Z C B B Z B V m V B x x n B V x m B n V m V V V V V V m m c m m N m Z N N m m m Z Z Z m N m c c n c n c b z z v v z z l l l x x n n n n l z v z l l j v ",
"k n n n n j k t l g l z z l y r l y c P m m m m Z Z m m m Z Z m V V V V m V V P V m V V V n B x x z l t 8 w w l z n G N m m c B x B B B n B x B V B V n m B m V m m Z m m m m m b c m m c m m N N m m B m m B Z Z Z B Z Z Z C B C Z B B B B B B B c B x c c u u y z n m m m m m U U N m m m m N m m m c M m c N m c N c c B c m z z x x z z l z z z z z z h z z n b b b b b l v w d w g z n c c z m U Y R U Z Z Z U U Y R U U U Z Z m m c c m m m m V c N c m Z V m l w q w 5 & j w w s l G H G J U W W E Y Y U ( ! W R W T W / R ^ ~ R ~ ^ R R A Y J Y Y <.Y Y R R Y Y Y Y Y R Y Y Y Y Y ~ <.Y Y Y U Y R R R ( R Y Z Y U Z Z Z U Z N c N m N Z Z Z N N N C N N T A A A R R U U Y Z m z l z l w g h l m m m m N N m m m m c m m m x q n P P U V U U Z Z N N Z Z V V B m V c V m V x x V B V V B m c c m B m m B m c c V m m c B V x B n B n V n x x V V n V V x m m m m m m m m m m n m n m n c c c i c m B m c Z B V c x B V x n n n m B n n V V m V V V n x V m m c m m m m m m B m m Z N m m N m m b z c c m z b b z z z l l l j t j l x n n n n n n v n v n ",
"n n n n n n v z v z z z c c c c t e x B B V U B m B m Z m N m V V P V m n m n m m m m n n x j j y w 8 w 8 w 6 0 w l b m V m m V B B x B V V B V V V m V m V V m m c m m m m m c m m m m n n m m m c m Z m m m Z Z Z V B B Z Z Z B V B B B B B B c B x B B c B x y x m N U U Y Y U U m m V m N m Z c c c c c c c c c c c c c c c c m m c c x m m b c z n z b b z l b b n b b b m N m n z l y 8 w z z m U R U U Y Y T Y U U U U T R Y V m n x m c n c z z x c c m T I m d w j l f d d k v v F v v d b J m v l m U Y U T W W Y E Y W R R Y Y R Y Y M K <.J Y M Y <.W ~ R R Y Y R R ~ Y W ~ K Y <.Y Z U J N Y ! R Y ^ Y Y Y U N m U M N Z Y U Z Z Z Z N N M N Z Z N A V Z Z Z Z N U m m m z l l l g g d h z n m m m c m m c n m m m n j j j m P I P V V U V Z Z Z Z V V V V m V V V V x x V x n V V B c Z B B V m B c m c V c B m m x V n n n V m m V V V V V B x V m m m m c m m m m m m m N m c z c c c B c B B B V V B m V n V n V n B n m m V V V V V n V V V m m m m c n c m m m m U N N m N Z J N m m n m m n m n b z n b z v l x j l j l x l n n n c n n x n ",
"n k v k l l v v l l z n c N N J Z z c V m B U m Z m V B Z V Z m P P V n x l z n n m m n k x t t t 6 : @ 1 @ & > & 5 d z m m V m n B B n B x V x x V V V m V m V m c m m Z m m m c m m m m c c m m m m m V m V B m m V Z V V V V B B B B B B V V B B B B B c B c z c n m Z Z Z Z Z Z m N m N m m M m C M M c Z c M B c C C c C c c c c z z x l z l l l b z z b z n b n m D m b m J J U N N m m m l t y c m m U T Y Y Z Z Z V Z V Z V m n x l l j 9 6 5 5 & & 5 5 5 d d d q q p 9 q q q - 1 2 9 9 9 5 5 5 5 w q 5 w k m U E U U G J N M z M J J J M A Y W Y <.Y J R R ^ ^ ~ ~ ^ ^ ~ ~ ^ Y A Y A N ^ ( X.^ R ( ^ Y ^ R U Y Y Z U Y Z Z Z U Z Z Y R R R Z N N Z N N Z Z V Z Z Z U Z m U U D v l h d h s w g c n m N m m n c c m n n k s k 2 n F m P P P Z V V Z B Z V V m V V B V U V x V V V B V V Z B Z Z Z Z Z V B B m m N m m m V B V V B V V V V V x V x x x x c n c n c n c m c c m c c n m c c c c c c x n c m V U V n B V n V m F V P P P P P m V V x x V n c m n N m N m N m Z U V m U m U G m N m m m m b m b b b v n b b n x x x x x n n n n n n x n n n ",
"n j q d j j l x l r z m N z z c U Z m N m N N N U m m U V m m Z U G n n v n n n z n n l l l w w 1 @ @ 5 w j k l q + 2 w n l m n V V x V V P P V n V V n n B V n P P V m n l x n z n x x z x x x c m P V V m m m n V n V V V V V A V B V V A V V V V V V V V B t y z c m V m m Z Z Z U Z Z m m V Z Z B m B Z c c B m c m M m c Z B n z x c x x m n n n z v n m m m b b l r d g w l l z m m U J m m m m n n x l j l x x V n x x l l v l s w 9 w f d d a p - - 5 q 5 & 5 5 q 1 9 9 s a p p 9 p q q 0 0 q 9 w 9 q 9 5 w 9 w b b v U U U U U U T U U K N J R Y Y Z R W R ( ^ ( ^ ^ W W ~ ~ W Z Y R ! ^ ^ } ! R W R / Y U U Z U G U Z V V m m U ! R ! U A Z Z m U Z Z N N N N m N N U J J H J G D h h w q q s l v b m B n n n n x n v k F k f d n n V n m V V P V Z V J N N m m m m m V m V m V m N m Z Z Z Z B Z Z V m N m m m m n N Z J m V Z V V P V V V x x n V V c N N N c c c Z m B m c n c c c c c m c c c c c V P P m m P P P m P G b P P m m m V V V m m P m N b J b N m N m J N J m N m J N Z m G V G m n v b b D b G b v b n m G b n v v c z n m m n n n v ",
"k s d t d q q q g g l n m z z b n m m U N N N J U Z b m m m c n b b n n n n z l P n d 6 1 5 9 q n x n n n G D v q # 1 5 j d m m n V P V V V n x P P I P P P P I m m G P P m n n n m b m m G m m m m F m m m m P V n V n m m m V x x n V V Z V V V V n V V V V V l z z m U Z N U U U U U Z Z m m c c c c c c m C B m B m N N m m U V V V m n x v n c z f j w t d 0 0 0 5 5 0 8 0 5 6 w w l v m U n n m V T T T T U m t q w w q 7 1 5 5 p 0 p q p 9 q a f d p , - - - - 5 9 p 9 q > - 9 9 p p d d l d w q 6 q w d s f 9 5 s q > d P U U U m G U Y Y J J J Y J U W ! Q ! X.X.} ! Y ! ! ^ ^ ~ ! ! R E Y U J m m m U U U U Y U U U m N U Y Y T T Y m m Z U U Y m m n N N N N N N m m W W J J m b g g p 5 - 5 w v n v n x x n n x j j 2 2 2 2 2 2 s j l l x n m V V V b J N N Z U Z U U Z N U N N J N V B B V G Z N Z m m N N J N U U m V m m m G V V V V n B x k x x c M m N N m Z Z m c m m c c z z z x c n b n m m n m P V P P P P G G v d d 9 5 5 q k n n m m P P N N N J J J J J J J U J U J J J P G G G G b n G b n m F n v v v j l n n n n n n m b n v v v n m ",
"j s j k w 5 1 5 r 8 w r g r r g l l z m m J } 1.W Y P U J n l g v v b G b v v d 1 - + & 5 q v D m m F G m F F v j 2 1 1 1 5 j j x n n F n n j k q q j d d s q q w d w j v v k k v v k j j f j f v v l j j j j j x n n x x n V V x x n V P T U P P P V V V V V V t w w l x m m Z Z U G V m m m m c B V B m m Z Z B V V V Z V m m U P G P U P G m j w q q 9 9 5 5 9 9 9 , 5 0 6 5 w w l g w g z b U P U P V n l l n j w q t l j j f d d d f f p - p a p a p p p p p 9 9 9 - - & & 5 9 q p p p q f 5 q s f d j d w d f q p v s 9 a j m P U U U E P J J J J U Y W ! ../ I I Y U U J K c w 5 > > q 9 w l l l l g w w g l l z n b b z l v v z l z x l b z z l v n n c N N J M n b b b w d 0 , , 9 , 9 p , - 5 q l n l x k k k j k k q 2 2 2 1 1 1 2 j k j j l x m m V N N N N m J N N b m m m m G b N U U m U m N m m J J J J J J G G G P P I I P P P j x j k j v l v b z z z c n m m Z Z m m m c b z z z l w w w q q j n F F F P m n k d q q 5 & $ & j n P G m P m G J K K J G b b l v z v l l h g g s w s q 1 & & - - & & & * & o o 2 q w d h d d d d f v n F n n v ",
"f f s s 5 5 1 5 > : > 6 6 > > 6 5 5 > @ @ > d c W Y U U U m b v q q a d s q - & + o & q k k v H v n m F F S v v F s 2 2 & 5 9 5 1 1 + 1 + 1 + + @ 1 1 1 2 1 2 1 1 & 1 - 1 q q d f d d d s q s p s d j d j q q 9 7 q q q q t w q 1 q j j j j j j T T P U P P T P m x l l z n P U N U Y Y U J m P c Z U Z Z Z Z Z T T T I U Y Y U P n n v l j s q w q q q w q p q 0 a 0 0 0 w g w g v n b h g h h v v l v k j d q q j j k j j j j f d w s f f f d d p < , ; < p f - 9 9 q s s d l S D G G H H I E E E ! E E D l s d d q q s q 5 p q w d n P I n k b J K J U E W ] P V k 2 9 0 0 0 g 0 5 9 0 0 q q 9 w d l g d d d w d d h l v v b b b n l l v b D v v l v z b b b b b g g w 0 d g v l g 0 0 0 , a - 9 5 - 9 d k d t k s 2 2 2 1 & 2 2 % 2 1 % 2 j l j l j k l n m b J J J m G m G G U Z G N J N J m m m b m n n v b N b D b G G J b G m v d q q 2 2 j s j l v n m l z g z z b c n n n b n z z z g n n v l g d j k j k n n n k k s q 5 - 5 5 - 5 v k j l l n F P P b h b b b v v h D v v l h d g d d d s 5 & # + + # & & % % % % % % % - , - 5 - - o 1 d v b n k s ",
"s p p 5 1 O 1 1 6 > > 6 > > > > 5 > 6 9 8 > > 0 9 5 5 5 9 9 5 5 , , - & & & O o & $ 1 f h f f v k n n v k k f j k 2 2 2 2 k k 2 2 2 1 1 1 # # # * 2 2 2 2 2 2 s 1 2 1 - 1 2 s f q s d d s f d f q q d s d s s q 9 9 9 9 q 5 2 1 1 9 9 q p q q s 9 q s n I T  . .Y b z l l z z b c m Y U P m m V V P x V m n m x V V n V n n n n v j q q s q q 1 f s p p q p q 2 > , 9 0 0 f g l d l v l d h h f q q q d w j k j d j j j j j n m v v k f s d d p p p p 2 < p < p s d d h v D E E ' ] ] ' E I E E E I E T Q '  ...' E G k f 5 q f s q - - 5 s q 5 & - 1 1 1 1 9 9 2 2 2 2 2 2 * ; $ & $ & - 2 2 2 q q 5 > 5 5 s f f l v l f h l d v v n n v n z l l v v v v v f d r 0 , > > > 0 < 0 0 9 9 9 9 9 0 9 p 9 1 - 1 q d k k 2 2 . * 2 . 2 # * 2 1 % 1 2 d k v v j j l v N J b b b J b J m m m G N D N N b b b b b b D b D b f a 0 a s d q q q 1 2 # % & q 2 p s k k n S h z b b h z h h b b b b b b h b l h l h d d d j d k j f s p q 1 - ; - - , - p S v v f f v n n k h h h g h h h h 9 , > & O $ O @ - - % % o # # o # # # # # # # * = % % % % $ $ $ $ & , p s q p q ",
"p p - - 1 - O 1 > , 6 > 6 , > > O @ O > , , , 0 9 9 > > 5 5 , , 9 - & % $ & % % o # # 9 p f f v j j f d f d d s 2 2 1 f x k j k k 2 1 . . # # % * * % % 2 - ; 2 - 1 q p p p p d s s d s f s s s k f s p 2 q 9 9 2 q q q q s q p s s j s s s s d j d j j q q 9 9 l w w j l z d w w l b G V V I U T P x x t d q q 2 q 2 2 1 2 2 2 2 2 1 q s s f k f f f f d p s p h S b b G U W W U J b h d f d d j j d d s w d w t s j n P I I I I U I n v s p q p 2 p p p < p - - - - & - - q q - 5 q f k n F I m n k d d j k v n F F k q - - - 1 p 1 * # + # % % - 2 2 - - * * * 2 2 2 * * 2 2 9 , - % * * % 2 9 9 > & & & - 5 - q f d d v k f f j l h k k k l k l d s q 5 5 1 , , , , , 0 , , , , , , , 9 0 a p 2 - * % % 5 d 2 2 2 2 * 2 * 2 2 * . 2 % # % 2 & 2 f k k j d d 0 0 g g h b b N b b b b b c h b b m b b b b v D b h , , $ o $ # # # % * 1 2 2 2 % % 2 2 2 p p p < < < 0 , , < < d d a h f a f a f l f f d d f s s d s 2 2 2 - * 2 2 9 - p - p f F v v k k d 9 & > > $ $ O o O O & & $ $ $ $ > = & % % * * - - % * * # # * = = = = $ $ $ $ = % = = = - & - - - - ",
"s p p 2 5 & 1 & > > > > , , > > 9 > > > > > > 9 0 9 , , > > > $ & $ o # # $ # $ % $ % - - 5 p q q q q s s f d s 2 . 1 k k k 2 F k 2 # # * # % * % % # * * # * * * - - - 2 - 2 1 f f f f f f s s d s p 2 2 p q q 5 2 2 2 2 5 2 s 2 s p d s s s s q 2 p s j s w j w 6 0 d l l l g w d z l x n V V V n x 1 7 1 7 1 q j k s 1 1 1 1 2 2 1 2 2 2 2 s k S F S S f f k h g d d g l b b E U G h a d f s s q s q s d d d s d k k F n j j q j j j s q q q p 2 9 - 9 2 , p p p 9 q 5 d f s q 5 - & & @ o + & & & 1 1 1 1 9 2 q s f p 2 1 - # - 9 - & * & * * - 2 = * - - % 2 2 2 2 % % 2 2 * 2 p s S 2 p p d a d d s q 5 - - q s s s l v f v v k h v v b b k d w 5 5 5 5 9 , , < r d a 0 a d d a 0 , , 9 9 p - - 1 1 % * 1 * 2 * . * * * * 2 * 2 % % # & % % & 1 q q 5 5 5 > > > > 0 0 d g g g h g g h g g h h g g d a s d > $ # # # $ = = - % * * # . . . % % % % % % % % = , = , > $ $ = $ $ = = $ = $ $ o o O & - - 5 9 2 2 2 2 % 1 - - = < < p < , 9 p - , 1 5 2 5 & O $ $ > > > , , < , , > , = , - , - - - = * = = * * * * = * * = = = = = = = = = = $ - - - - = % & ",
"S s 9 - 1 5 & 5 : > 6 > > 6 , , > > = > , > , , > > > , , > & & % % $ $ $ $ $ # # $ - - - - * % % # - - 2 p 1 * 1 . 1 n k k 2 F 2 2 . # % # * * # * * * * * * * % # o # % * * - * - 2 2 p s p f 2 p p k k v F S k k f p q 2 p s s s s f k f f d p p q q 2 9 2 2 0 5 > 5 5 5 5 w 8 6 & O + + + + . 1 1 1 1 2 q q q k n j q 2 1 - 1 - 2 2 2 - p s p f f s 2 - ; p , , > & > > 9 0 0 d s 5 1 p s d q 2 q q q s q q j j j p q q s j 5 7 q 9 q 1 1 q 1 - - 2 - 9 - - 1 5 - - 1 9 5 - % O X o o & & @ % + + + % @ & * & % % % o * - % * - * # % * - % * - - - % - - 2 * 2 2 2 2 2 2 2 2 s 2 p 2 2 p p f d d s s s w 9 d l d 5 & - 2 9 , q q q f s 5 O & - & - - - , - , , , < , < < , , , a a s v H I ` F S I G s - - 2 2 * 2 2 * * * * 2 . . # % % # 2 & # o % & & & : > > > > > > > > : O > O : > > O @ $ $ > & > , $ $ $ $ $ $ # o * # % % * * - % - * % % - * % - = = $ $ = = = $ $ $ = $ $ $ # # $ # & & & & # # # - - % % % % - = < p ; p 9 = & % - 1 - + O O & $ , , , < < < , , < < , p < , - 2 q p 2 - - 2 - = ; = - - - ; ; < ; ; - ; = = $ $ $ = = - - , p "
};
