/* XPM */
static char *_6eefb727acc4cbabccc2df555cb25a9B6PpbrBMV1HWvban[] = {
/* columns rows colors chars-per-pixel */
"500 500 256 2 ",
"   c #0C1609",
".  c #16170B",
"X  c #171A16",
"o  c #0D110D",
"O  c #231D15",
"+  c #261A0B",
"@  c #17250B",
"#  c #1A2618",
"$  c #192F13",
"%  c #26271A",
"&  c #352A1A",
"*  c #26361A",
"=  c #2E3114",
"-  c #1D2623",
";  c #1D3224",
":  c #272A25",
">  c #332D24",
",  c #293627",
"<  c #363729",
"1  c #2C3734",
"2  c #383B35",
"3  c #292E31",
"4  c #1A1E21",
"5  c #453A29",
"6  c #433D33",
"7  c #513D29",
"8  c #44331C",
"9  c #31451A",
"0  c #36462A",
"q  c #394637",
"w  c #3C5437",
"e  c #324929",
"r  c #3D6038",
"t  c #47472C",
"y  c #44443B",
"u  c #484738",
"i  c #554A39",
"p  c #475639",
"a  c #575739",
"s  c #4C502C",
"d  c #66553A",
"f  c #526639",
"g  c #65653C",
"h  c #6B723A",
"j  c #45521B",
"k  c #3C4644",
"l  c #3D5343",
"z  c #3B6541",
"x  c #484B45",
"c  c #534D43",
"v  c #4A5647",
"b  c #575648",
"n  c #585B54",
"m  c #4B5654",
"M  c #655A49",
"N  c #635D53",
"B  c #745C47",
"V  c #4C6447",
"C  c #576749",
"Z  c #5A6657",
"A  c #5A7351",
"S  c #686748",
"D  c #76664A",
"F  c #67764A",
"G  c #77764B",
"H  c #686658",
"J  c #736C5C",
"K  c #776A56",
"L  c #677759",
"P  c #797758",
"I  c #5A6965",
"U  c #686B64",
"Y  c #746E62",
"T  c #6A7766",
"R  c #7B7464",
"E  c #787768",
"W  c #787B75",
"Q  c #6A7675",
"!  c #585E61",
"~  c #393E41",
"^  c #86765A",
"/  c #8B7155",
"(  c #837C6B",
")  c #877A66",
"_  c #957D64",
"`  c #847E72",
"'  c #8A776A",
"]  c #9D795E",
"[  c #82613E",
"{  c #788558",
"}  c #6F8756",
"|  c #6C8466",
" . c #788768",
".. c #7A9468",
"X. c #7A8676",
"o. c #7B9275",
"O. c #7DA172",
"+. c #73833E",
"@. c #848454",
"#. c #88885A",
"$. c #888A54",
"%. c #898768",
"&. c #96866A",
"*. c #879669",
"=. c #959569",
"-. c #8B8473",
";. c #888778",
":. c #938C7B",
">. c #978A76",
",. c #879778",
"<. c #999679",
"1. c #A48D74",
"2. c #A6967A",
"3. c #AD9173",
"4. c #8BA478",
"5. c #97A679",
"6. c #93AB70",
"7. c #A4A47B",
"8. c #AAB279",
"9. c #95A05A",
"0. c #B5BF7B",
"q. c #767E81",
"w. c #7A8785",
"e. c #888B85",
"r. c #958E82",
"t. c #8A9687",
"y. c #9B9483",
"u. c #989888",
"i. c #989B95",
"p. c #8A9595",
"a. c #A39B85",
"s. c #A49C8B",
"d. c #A89A86",
"f. c #B49D84",
"g. c #A49E93",
"h. c #B19E90",
"j. c #98A788",
"k. c #9AA697",
"l. c #96AF8A",
"z. c #A4A384",
"x. c #A5A28B",
"c. c #ABA48C",
"v. c #ACAB8C",
"b. c #A9A985",
"n. c #B6A68A",
"m. c #A7B789",
"M. c #B2B38B",
"N. c #ABA493",
"B. c #ADAA93",
"V. c #A7A799",
"C. c #B2AC94",
"Z. c #B3AD9A",
"A. c #B9AA95",
"S. c #A8B698",
"D. c #B5B395",
"F. c #B9B496",
"G. c #B5B39B",
"H. c #BAB59C",
"J. c #BCB99D",
"K. c #B5BA9A",
"L. c #9BA5A5",
"P. c #9BADAC",
"I. c #A8ABA6",
"U. c #B4ADA2",
"Y. c #ABB5A7",
"T. c #B4B3A3",
"R. c #BBB6A2",
"E. c #BDBBA3",
"W. c #BDBDAA",
"Q. c #B5B7A9",
"!. c #ACB4B5",
"~. c #B8BBB5",
"^. c #A7ADB2",
"/. c #979DA2",
"(. c #C4A98B",
"). c #C4AD94",
"_. c #C3B49C",
"`. c #C6B79A",
"'. c #D1B898",
"]. c #C1BCA4",
"[. c #CBBCA3",
"{. c #C2BDAA",
"}. c #C7B9A7",
"|. c #C4BDB3",
" X c #D3BDA4",
".X c #C29E81",
"XX c #B7C799",
"oX c #AFC591",
"OX c #BEC1AB",
"+X c #B8C7A7",
"@X c #BBC5B7",
"#X c #B4CCA9",
"$X c #B6DBAC",
"%X c #C7D196",
"&X c #C3C2AC",
"*X c #CBC3AC",
"=X c #C6C5A8",
"-X c #D3C4AB",
";X c #D7C6AA",
":X c #C4C4B3",
">X c #CBC4B3",
",X c #CBCAB5",
"<X c #C3C4BB",
"1X c #CCCBBB",
"2X c #C7C9B8",
"3X c #D3CAB4",
"4X c #DBCCB4",
"5X c #D3CCBB",
"6X c #D6C9B7",
"7X c #C9D5B8",
"8X c #DBD2BD",
"9X c #D5D4BA",
"0X c #C8D6AA",
"qX c #E4D4BB",
"wX c #E2CDB2",
"eX c #D4E4B4",
"rX c #DFEAAD",
"tX c #B4BDC3",
"yX c #BBC6C8",
"uX c #C8CBC5",
"iX c #D4CEC3",
"pX c #CCD4C7",
"aX c #D4D3C4",
"sX c #DBD4C3",
"dX c #D3D4CB",
"fX c #DCDBCC",
"gX c #D9D9C7",
"hX c #CAD5D5",
"jX c #DBDCD3",
"kX c #D6DAD6",
"lX c #C6CED2",
"zX c #E3DCCB",
"xX c #E5D9C5",
"cX c #E3DED2",
"vX c #E0CEC0",
"bX c #DCE3D8",
"nX c #D7E4C8",
"mX c #E8E3CC",
"MX c #E4E2D4",
"NX c #EBE4D3",
"BX c #E3E4DB",
"VX c #ECEADC",
"CX c #EAE8D8",
"ZX c #F3ECDB",
"AX c #F2E9D5",
"SX c #F6F2DD",
"DX c #EFECD0",
"FX c #DAE4E7",
"GX c #E8EAE5",
"HX c #ECF3E8",
"JX c #F8F6E7",
"KX c #F8FAF5",
"LX c #EEF0EC",
"PX c #CFDCE3",
"IX c #C1BFC0",
"UX c #817F80",
/* pixels */
"G.G.D.C.D.G.H.H.H.H.H.H.G.G.G.G.E.E.E.E.E.E.R.R.H.R.E.E.E.E.R.R.H.H.H.R.R.R.R.E.E.].].].].].].].E.E.E.E.E.E.E.E.R.R.R.R.R.R.H.H.H.H.H.H.H.H.E.E.E.E.E.].].].E.E.J.J.E.E.E.E.E.J.E.E.E.E.J.J.J.J.J.J.J.J.J.J.J.J.J.J.E.].E.E.E.E.J.J.].].].].].].].].J.J.J.J.J.J.J.J.J.H.H.H.H.H.F.D.G.H.H.H.J.J.J.J.J.J.J.E.J.H.H.J.J.J.F.F.D.D.M.F.J.J.J.J.`.`.`.`.J.J.J.`.J.J.H.H.H.H.H.J.J.J.H.H.H.J.H.H.H.H.F.F.F.F.H.H.H.H.J.J.J.J.E.E.E.J.H.H.H.H.D.D.D.D.D.D.D.D.F.F.H.H.H.H.H.H.H.F.F.F.F.F.F.F.F.F.D.D.D.D.D.F.F.D.C.v.v.v.v.b.b.M.b.7.7.b.M.M.M.b.v.v.v.C.D.D.C.C.C.C.C.C.C.C.C.C.C.D.C.D.D.C.C.D.D.F.F.F.H.H.H.J.J.H.J.H.H.H.J.J.J.].J.J.J.H.H.H.D.D.D.D.F.F.H.H.H.H.F.C.v.v.C.C.v.v.b.v.v.v.C.D.D.D.H.H.H.J.J.J.J.J.H.H.H.H.H.H.J.J.J.H.H.H.H.H.H.H.H.H.H.J.J.J.J.J.H.H.H.H.H.H.H.H.H.H.J.H.F.F.F.H.H.F.F.F.H.H.H.H.H.H.H.H.J.J.H.H.H.H.H.H.H.H.E.E.].].].].].].].].].].].].].].].].].].].{.].{.].].].].J.H.H.H.H.E.H.H.E.E.E.E.E.E.E.E.E.E.E.E.E.E.E.E.E.E.E.E.E.E.{.&X&X].E.&X&X&X&X&XOXE.OXOXOXE.E.E.E.E.W.E.E.E.K.K.H.H.E.E.E.E.E.H.G.G.",
"G.G.G.G.G.H.H.H.H.H.H.H.H.H.H.H.E.E.E.E.E.E.E.E.R.E.E.E.E.E.R.H.H.H.H.R.R.R.E.E.E.].].].].].].].E.E.E.E.E.E.E.E.E.E.E.R.E.R.R.H.H.H.H.H.H.H.E.E.E.E.E.].].].E.E.H.J.J.E.E.E.E.J.E.E.E.E.J.J.J.J.J.J.J.J.J.J.J.J.J.J.E.].].].].].].].].].].].].].].].J.J.J.J.J.J.J.H.H.J.J.J.J.H.H.H.H.H.H.H.H.J.J.J.J.J.J.J.J.H.H.J.J.J.F.F.F.D.D.F.J.J.J.J.`.`.`.`.`.J.J.J.J.J.J.J.J.J.J.J.J.J.J.J.J.J.J.H.H.H.F.F.F.F.H.H.H.H.H.J.J.J.E.E.E.J.H.H.H.H.G.D.D.D.D.F.F.D.F.F.H.H.H.H.H.H.F.F.F.F.F.F.F.F.F.F.D.D.D.D.D.F.F.D.C.v.v.v.b.b.b.M.v.b.b.M.M.n.b.7.b.v.v.v.C.D.C.C.C.C.C.C.C.D.C.C.C.D.D.F.F.F.F.F.F.F.F.H.H.H.H.J.J.H.J.H.H.H.J.J.J.E.J.J.H.H.H.H.D.D.D.D.F.F.F.F.F.F.D.v.b.b.v.v.v.v.v.v.v.C.D.D.F.H.H.H.H.J.J.J.J.J.H.H.H.H.H.H.H.H.J.J.H.H.H.H.H.H.H.H.H.J.J.J.J.J.H.H.H.H.H.H.H.H.F.H.H.H.F.F.H.H.H.H.F.F.H.H.H.H.H.H.H.H.H.H.H.H.H.H.H.H.H.H.J.E.].].].].].].].].].].].].].].{.{.].].].{.].{.].].].].J.J.H.H.E.E.E.E.E.E.E.E.E.E.E.E.E.E.E.E.E.E.E.E.E.E.E.E.E.E.E.{.&X{.].&X&X&X&X&XOXE.E.E.OXE.E.E.E.E.W.E.E.E.E.K.T.T.T.E.E.E.E.H.G.G.",
"H.G.G.G.H.H.E.E.J.J.J.J.E.E.E.].E.E.E.E.E.E.E.E.E.E.E.E.E.E.R.R.H.H.H.R.R.R.E.E.E.E.].].].].].].E.E.E.].E.E.E.E.E.E.E.E.E.E.R.R.H.H.H.H.H.H.E.E.J.E.E.E.].E.E.J.H.H.H.J.J.E.E.E.E.E.E.E.J.J.J.J.J.J.J.J.J.J.J.J.J.J.E.].].].].].].].].J.J.].].].].].J.J.J.J.J.J.J.H.H.J.J.J.F.D.D.H.H.H.H.H.H.J.J.J.J.J.J.J.J.H.H.J.J.J.J.F.F.F.F.F.F.J.J.J.J.`.J.E.].E.J.J.J.J.J.J.J.J.J.J.J.J.J.J.J.J.J.J.H.H.H.H.H.H.H.H.H.H.H.J.J.J.E.E.E.E.H.H.H.H.H.G.D.D.D.H.H.F.F.F.H.H.H.H.H.H.H.H.F.F.F.F.F.F.F.F.F.D.D.F.D.D.D.C.v.v.v.M.M.M.v.C.v.b.b.b.b.b.z.z.v.C.D.D.F.F.F.D.D.D.D.C.D.D.D.D.C.D.D.D.D.D.D.D.F.F.H.H.H.H.H.J.J.H.J.H.H.H.H.H.J.J.J.H.H.H.H.G.D.D.D.D.F.F.D.D.D.D.H.D.v.v.v.v.C.C.D.D.D.D.F.H.H.H.H.H.H.J.J.J.J.J.H.H.H.H.H.J.J.J.J.J.J.H.H.H.H.H.J.J.J.J.J.J.J.J.H.H.H.H.H.H.H.H.F.F.H.H.H.H.H.J.J.H.H.H.H.H.H.H.H.H.H.H.H.H.H.H.H.H.H.H.H.H.H.E.E.].].E.E.].].].].].].].].].{.{.].].E.E.].].].].E.J.J.J.E.E.E.E.E.E.E.E.E.E.E.E.E.E.E.E.E.E.E.E.E.E.E.E.E.E.E.E.E.].{.{.{.{.E.E.&XE.].E.E.E.E.E.E.E.E.E.W.E.E.E.E.E.E.T.E.E.E.E.E.T.K.H.",
"H.H.H.H.E.E.E.].E.E.E.E.E.].].].E.E.E.E.E.E.E.E.E.E.E.E.E.E.R.R.R.R.R.R.R.E.E.E.E.E.E.E.].].].].E.E.].].].].E.E.].].E.E.E.E.E.R.H.H.H.H.H.H.E.E.J.J.E.E.].].E.J.H.H.H.H.J.E.E.E.E.E.E.E.J.J.J.J.J.J.J.J.J.J.J.J.J.J.E.].].].].].].].].].].].].].].].J.J.J.J.J.H.J.H.H.J.J.J.H.F.F.H.H.H.H.H.J.J.J.J.J.J.J.J.J.H.H.J.J.J.J.J.F.F.J.F.F.F.H.J.J.J.E.E.E.E.J.J.J.E.J.J.J.J.J.J.J.J.J.J.J.J.J.H.H.H.H.H.H.H.H.H.H.H.H.J.J.J.J.E.E.E.H.H.H.H.H.H.H.F.H.H.H.F.F.H.H.H.H.H.H.H.H.F.F.F.F.F.F.F.F.F.F.F.D.F.F.D.D.C.v.v.M.v.v.C.C.v.v.b.z.7.z.b.v.D.F.F.F.F.F.F.F.F.D.D.D.D.D.D.D.C.C.D.C.C.C.C.D.D.F.F.H.H.H.H.H.J.J.J.J.H.H.H.H.H.H.J.H.H.H.G.G.G.D.D.F.F.H.H.F.F.D.D.J.H.D.C.C.D.D.F.F.F.F.F.H.H.J.J.H.H.J.J.J.J.J.J.J.J.J.J.J.J.J.J.J.J.J.J.J.J.J.J.J.J.J.J.J.J.J.J.H.H.H.H.H.H.H.H.F.H.H.H.H.J.J.J.J.J.H.H.H.H.H.H.H.H.H.H.H.H.H.H.H.H.H.H.H.H.J.E.E.].].E.E.].].].].].].].].].{.{.].E.E.E.E.E.E.E.J.J.J.J.E.E.E.E.E.E.E.E.E.E.E.E.E.E.E.E.E.E.E.E.E.E.E.E.E.E.E.E.E.E.].].].E.E.E.&XE.].E.E.E.E.E.E.E.E.E.W.W.E.E.E.E.E.E.E.E.E.H.E.E.E.E.",
"H.H.J.E.E.].].].].].E.E.E.E.].].E.E.E.].{.E.E.E.E.E.E.E.E.E.E.E.R.R.R.R.E.E.E.E.].].E.E.E.].].].].].].].].].].].].].E.E.E.E.E.R.J.J.J.J.J.J.J.J.J.E.E.E.E.E.J.J.J.J.H.H.J.E.E.E.E.E.E.E.J.J.J.J.J.J.J.J.J.J.J.J.J.J.J.].].].].].].].].].].].].].].].J.J.J.J.J.J.H.H.J.J.J.J.`.`.J.J.H.H.H.H.H.J.J.E.J.J.J.J.J.H.H.J.J.J.J.J.J.J.J.J.F.F.H.J.J.J.].E.E.J.`.`.`.E.J.J.J.J.J.H.H.J.J.J.H.H.J.J.H.H.H.H.H.H.H.H.H.H.H.H.J.J.J.J.J.J.H.H.H.H.F.F.H.H.F.H.H.F.F.H.F.H.H.H.H.H.H.H.H.H.F.F.F.F.F.F.F.F.F.D.F.D.D.C.v.v.v.v.v.v.v.v.C.F.D.C.v.D.F.H.H.F.D.D.D.F.F.F.F.F.D.D.D.C.v.v.C.C.C.D.D.D.D.D.F.F.F.H.H.H.H.J.J.J.J.H.H.H.H.H.H.H.H.H.H.G.D.H.F.F.H.H.H.H.H.H.F.F.F.F.D.D.D.D.D.F.F.F.H.H.H.H.J.J.H.H.J.J.J.J.J.J.J.J.J.J.J.J.J.E.J.J.J.J.J.J.J.J.J.J.J.J.J.J.J.J.J.J.J.H.H.H.H.H.H.J.J.J.J.J.J.J.J.J.J.J.H.H.H.H.H.H.H.H.H.H.H.H.H.H.H.H.H.J.E.E.].].].].E.].].E.].].].].].E.].].].].R.R.E.E.].].J.J.E.E.E.].E.E.E.E.E.E.E.E.E.E.E.E.E.E.E.E.E.E.E.E.E.E.E.E.E.E.E.E.E.E.E.E.E.E.OXOXOXE.E.E.E.OXE.E.E.E.E.E.E.E.E.E.E.E.E.E.E.E.E.W.W.E.",
"E.E.E.E.].].].].].].].].E.E.E.].E.E.E.E.{.{.E.E.E.E.E.E.E.E.E.E.R.R.R.R.E.E.E.E.E.E.E.E.E.E.].].].].].].].].].].].].E.E.E.E.E.R.E.J.J.J.E.E.J.H.E.E.E.E.E.E.E.J.J.J.J.J.E.E.E.E.E.E.E.E.J.J.J.J.J.J.J.J.J.J.J.J.J.J.J.].].J.].].].].].].].].].].].].J.J.J.J.J.J.J.J.J.H.H.J.J.].J.H.H.H.H.H.J.J.J.E.].J.J.J.J.H.J.J.J.J.J.J.J.J.J.J.H.F.H.J.J.J.].E.J.J.`.`.`.J.J.J.J.J.J.F.H.H.J.J.H.H.H.H.H.H.H.H.H.H.H.H.H.H.H.H.J.J.J.J.J.J.H.H.H.H.F.H.H.H.F.H.F.F.F.H.H.H.H.H.H.H.H.H.H.H.F.F.F.F.F.F.F.F.F.D.D.D.D.D.C.C.D.C.v.C.C.C.D.F.F.H.F.F.F.D.D.F.F.F.F.F.F.F.F.D.D.D.D.v.v.v.C.C.C.C.C.C.C.D.D.D.D.F.H.H.H.J.J.J.J.J.H.J.J.H.H.J.H.H.H.H.H.H.F.H.H.H.H.H.H.H.H.H.F.F.F.H.F.F.F.F.H.H.H.H.H.H.H.J.H.J.J.J.J.J.J.J.H.H.J.J.J.J.J.J.J.J.J.J.J.J.J.J.J.J.J.J.J.J.J.J.E.E.J.J.H.H.H.H.J.J.J.J.J.J.H.F.H.H.J.J.H.H.H.H.H.H.H.H.H.H.H.H.H.H.H.H.J.E.E.].].{.].].E.].].E.].].].].].].].].].E.R.R.R.E.E.E.E.J.E.E.E.E.E.E.E.E.E.E.E.E.E.E.E.E.E.E.E.E.E.E.E.E.E.E.E.E.E.E.E.E.E.E.E.E.E.OXOXOXOXE.E.E.E.OXOXE.E.E.E.E.E.E.E.E.E.E.E.E.E.E.W.E.E.E.",
"E.E.E.E.E.E.E.E.{.{.E.E.E.E.E.E.E.].{.{.{.{.].].E.E.E.E.E.E.E.E.R.E.E.R.E.].E.E.E.E.E.E.E.E.].].].].].].].].].].].E.E.E.E.E.E.R.E.E.J.E.E.E.J.H.J.J.E.E.E.E.E.J.J.J.J.J.E.E.E.E.E.E.J.E.J.J.J.J.J.J.J.J.J.J.J.J.J.J.J.].].J.].].].].].].].].].].].].J.J.J.J.J.J.J.J.J.J.H.H.H.H.F.F.H.H.H.H.J.J.J.E.E.J.J.J.J.H.J.J.J.J.J.J.J.J.J.J.J.J.J.J.J.J.E.J.J.J.J.J.J.J.J.J.J.J.J.F.H.H.J.H.H.H.H.H.H.J.H.H.H.H.H.H.H.H.H.H.J.J.J.J.J.J.H.H.F.F.F.H.H.H.F.H.F.F.F.H.H.H.H.H.H.H.H.H.H.H.F.F.F.F.F.F.F.F.F.F.D.F.F.F.D.D.D.D.F.H.F.D.D.F.D.F.F.F.D.D.F.H.H.H.H.H.F.F.D.D.D.D.v.v.v.v.C.C.v.v.C.v.v.v.C.C.D.F.H.H.H.J.J.H.J.J.J.J.J.J.J.J.J.H.H.H.H.H.H.H.H.H.H.H.H.H.H.H.H.H.H.H.H.H.H.H.H.H.H.H.H.J.J.J.J.J.J.J.J.J.J.H.H.H.H.H.J.J.J.J.J.J.J.J.J.J.J.J.J.J.J.J.J.J.J.J.E.E.J.J.H.H.H.H.H.H.H.H.H.H.H.F.H.H.H.J.H.H.H.H.H.H.H.H.H.H.H.H.H.H.H.H.J.E.E.E.].].].E.E.].].E.].].].].].].E.E.E.E.E.E.E.E.E.E.E.E.E.E.E.].E.E.E.E.E.E.E.E.E.E.E.E.E.E.E.E.E.E.E.E.E.E.E.].E.E.E.E.E.{.E.E.E.E.OXOXOXE.E.E.E.OXOXE.E.E.E.E.W.E.E.E.E.E.E.E.E.W.W.E.E.E.",
"E.E.E.E.E.E.E.E.&X{.].].].].{.{.E.{.{.{.{.{.].].E.E.].].E.E.E.E.R.E.R.R.E.].].E.E.E.E.E.E.E.].].].].].].].].].].E.E.E.E.E.E.R.R.E.E.J.E.E.E.J.H.J.J.J.E.E.E.E.E.J.J.J.E.E.E.E.E.E.J.J.E.J.J.J.J.J.J.J.J.J.J.J.J.J.J.J.].].].].].].J.J.J.J.].].].].].J.J.J.J.`.`.J.J.J.J.J.J.H.D.D.H.H.H.H.H.J.J.J.].E.J.J.J.J.H.J.J.J.J.J.J.J.J.J.J.J.J.J.J.J.J.J.J.J.J.H.H.H.H.J.J.J.J.J.F.F.J.J.H.H.H.H.J.J.J.H.H.H.H.H.H.H.H.H.H.J.J.J.J.J.J.H.H.F.F.F.H.F.F.F.H.F.D.D.F.H.H.H.H.H.H.H.H.H.H.F.F.F.F.F.F.F.F.F.D.D.F.F.F.F.D.D.D.D.F.F.D.F.H.H.H.H.H.H.H.H.H.F.F.F.F.F.F.F.D.F.D.v.v.c.v.C.C.D.D.D.D.C.C.D.D.D.F.H.H.H.J.J.H.E.J.J.J.J.J.J.J.J.J.J.J.J.H.H.H.F.H.H.H.H.H.H.H.H.F.D.D.D.F.H.H.H.H.H.H.J.J.J.J.J.J.J.J.J.J.J.H.J.J.J.J.J.J.J.J.J.J.J.J.J.J.J.J.J.J.J.J.J.J.J.E.E.E.J.J.H.H.H.H.F.F.F.H.F.F.F.D.F.F.H.J.H.H.H.J.J.H.H.H.H.H.H.H.H.H.H.H.J.J.E.E.].].E.E.E.E.].E.E.].].].].E.E.E.E.E.E.R.E.E.E.E.E.E.E.E.E.].E.E.E.E.E.E.E.E.E.E.E.E.E.E.E.E.E.E.E.E.E.E.E.].E.E.E.E.E.&X&XE.E.E.E.E.OXE.E.E.E.OX&XE.E.W.E.E.W.E.E.E.E.E.E.E.E.E.E.E.E.E.",
"E.E.E.E.E.E.E.E.E.E.E.E.E.E.E.E.{.].E.E.E.E.].].].].E.E.E.E.E.E.E.R.E.].].].E.E.E.R.R.R.E.E.E.].].].].].E.E.R.R.R.E.E.E.E.E.E.E.E.J.J.E.E.E.J.J.H.J.E.E.E.E.E.E.E.E.E.E.E.E.E.E.E.E.E.J.J.J.J.J.J.J.J.J.J.J.J.E.E.].].].].].].].].].J.J.J.].].].].].`.J.J.J.J.J.J.J.J.J.J.H.D.D.D.D.H.H.H.H.J.J.].].].].E.J.J.].H.H.H.J.J.J.J.J.J.J.H.H.J.J.J.J.J.J.J.J.H.H.D.F.F.J.J.H.H.H.H.J.H.E.H.*X,X>X=X*X].=XH.H.F.J.J.H.J.J.J.J.J.J.J.J.H.H.F.F.F.H.H.H.H.H.F.F.F.F.F.H.H.D.D.F.H.H.H.H.F.H.J.F.D.D.F.F.F.D.F.H.D.D.F.H.F.F.D.D.D.F.F.F.F.F.F.F.F.F.F.F.F.H.H.F.F.C.C.D.D.D.C.v.v.v.C.D.F.F.F.F.F.F.F.F.F.H.J.J.J.J.J.J.J.J.J.J.J.J.J.J.J.J.H.H.H.H.J.J.J.J.H.H.F.H.H.H.H.H.H.H.F.H.H.H.F.F.H.H.J.J.J.J.J.J.J.J.J.J.J.J.J.J.J.J.J.J.J.J.J.J.J.J.J.J.J.J.J.J.J.H.J.J.E.J.E.J.J.E.J.J.H.H.H.H.H.H.F.F.F.H.J.J.J.H.H.J.J.H.J.H.H.H.H.H.H.H.H.H.H.H.J.E.E.E.E.E.E.].].].].E.R.E.].].E.E.E.E.E.J.H.J.E.E.E.E.E.E.E.E.E.E.E.E.E.E.E.E.E.E.E.E.E.E.E.E.E.E.E.E.E.E.E.E.E.E.E.E.E.E.E.{.{.E.E.E.E.E.E.E.E.E.E.E.E.E.E.E.E.E.E.E.E.E.E.E.E.E.E.E.E.E.E.E.",
"E.E.E.E.E.E.E.E.E.E.E.E.E.E.E.E.{.{.].E.E.E.E.E.E.E.E.E.E.E.E.E.R.R.R.E.].].E.E.E.R.E.E.E.E.E.].].].].].E.E.R.R.E.E.E.E.E.E.R.R.J.H.H.E.E.E.J.J.H.J.E.E.E.E.E.E.E.E.E.E.E.E.E.E.E.E.J.J.J.J.J.J.J.J.J.J.J.J.J.E.J.].].].].].].].].].].].].].].].].].`.J.J.J.J.J.J.J.J.J.J.H.F.F.F.F.H.H.H.J.J.J.].].].E.J.J.J._.H.H.H.J.J.J.J.J.J.J.J.J.J.J.J.J.J.J.E.J.H.H.F.H.F.F.F.F.J.J.J.H.H.J.E.,X=X>X=X=X].=XH.J.H.F.F.H.J.J.J.J.J.J.J.J.H.H.H.H.F.H.F.H.H.H.F.F.F.F.H.H.H.D.D.F.H.H.H.H.D.D.D.H.F.H.D.D.F.F.F.F.D.F.F.F.F.F.D.D.D.F.F.F.F.F.F.F.F.F.F.F.F.F.F.F.D.C.C.D.F.F.C.C.C.C.D.F.F.F.F.F.F.F.F.F.F.H.H.J.J.J.J.J.J.J.J.J.J.J.J.J.J.J.H.H.H.H.H.J.H.H.H.H.H.H.H.H.H.H.H.H.H.H.F.F.F.H.H.H.J.J.J.J.J.J.J.J.J.H.H.H.J.J.J.J.J.J.J.J.J.H.H.J.J.J.J.J.H.J.J.J.J.J.J.H.H.H.H.H.H.H.H.H.H.H.H.H.F.F.H.H.H.H.H.H.H.J.J.H.J.H.H.H.H.H.H.H.H.H.H.H.H.E.E.E.E.E.E.].].].].E.R.E.].].E.E.E.E.J.H.H.H.R.R.E.E.E.E.E.E.E.E.E.E.E.E.E.E.E.E.E.E.E.E.E.E.E.E.E.E.E.E.E.E.E.E.E.E.E.E.E.E.E.E.E.E.E.E.E.E.E.E.E.E.E.E.E.E.E.E.E.E.W.E.E.E.E.E.E.E.E.E.E.E.",
"W.W.W.W.W.W.E.W.W.W.W.W.W.W.W.W.{.{.{.{.E.E.E.E.E.E.E.E.E.E.E.E.R.R.R.E.E.E.E.R.E.E.E.E.E.E.E.E.E.E.].E.E.E.R.R.E.E.E.E.E.R.R.R.H.H.H.J.E.J.J.E.J.E.J.J.J.E.E.E.E.E.E.E.E.E.E.E.E.J.J.J.J.J.J.J.J.J.J.J.J.J.J.J.E.].].].].].].J.].].].].].].].].].].].J.J.J.J.H.H.J.J.J.H.H.H.H.H.H.H.H.J.J.J.J.J.].E.E.J.J.J.J.J.H.H.J.J.J.J.J.J.J.J.J.J.J.E.E.E.E.].E.J.H.H.H.H.H.F.F.J.J.E.].,X>X>XE.D.J.H.].].E.D.H.H.H.F.J.J.J.J.J.J.J.J.J.H.H.F.F.F.F.F.F.F.F.F.F.F.H.H.H.H.F.F.H.H.H.H.H.J.J.H.J.D.D.G.H.F.F.F.F.F.F.H.F.F.F.F.D.D.F.F.F.F.F.F.F.F.F.F.F.D.D.F.F.D.D.D.D.F.D.F.D.D.D.C.G.D.F.F.F.F.F.F.F.F.F.H.H.J.J.J.J.J.J.J.J.J.J.J.J.J.J.H.H.H.H.H.H.H.H.H.H.H.H.F.F.H.F.H.H.H.H.H.F.H.H.H.H.J.J.J.J.H.H.H.H.H.H.H.H.J.J.J.J.J.J.J.J.E.J.J.J.J.J.J.J.H.J.J.J.J.J.J.J.H.H.H.H.H.H.H.H.H.H.H.H.H.H.H.H.H.H.H.H.H.J.J.J.J.J.H.H.R.R.R.R.H.H.H.H.R.R.E.E.E.E.E.].].].].E.E.E.].].E.E.E.J.H.H.H.H.R.R.E.E.E.E.E.E.E.E.E.E.E.E.E.E.E.E.E.E.E.E.E.E.E.E.E.E.E.E.E.E.E.E.E.E.E.E.E.E.E.E.E.E.OXOXE.E.E.E.E.E.E.E.E.E.E.E.E.E.W.E.E.E.E.E.E.E.E.E.E.E.",
"W.W.W.W.W.W.E.W.W.W.W.W.W.W.W.W.{.{.&X{.E.E.E.E.E.E.E.E.E.E.E.E.E.E.E.E.E.].E.R.E.E.R.R.E.E.E.E.E.E.E.E.E.E.R.R.E.E.R.E.E.R.R.R.H.H.H.E.E.E.E.E.E.E.J.J.J.J.J.E.E.E.E.E.E.E.E.J.E.J.J.J.J.J.H.H.J.J.J.].J.J.J.J.E.].].].].].].J.].].].].].].].].].].].`.J.J.J.H.F.H.J.J.H.H.H.J.H.H.H.H.J.J.J.J.J.J.E.E.J.J.J.J.J.J.H.J.J.J.J.H.J.J.E.].].J.E.E.E.].].J.J.J.J.H.J.J.J.J.E.J.=X,X3X].*XH.G.v.H.D.=XE.D.D.H.H.H.J.J.J.J.J.J.H.H.H.H.F.F.F.F.F.F.F.F.F.F.F.H.H.H.H.H.H.H.H.H.H.H.H.D.D.J.J.J.H.&X,XF.F.F.F.D.F.H.D.F.F.F.F.F.F.F.F.F.F.F.H.F.F.H.F.C.D.D.D.D.D.D.D.D.F.F.F.D.D.C.C.D.F.F.F.F.F.F.F.F.F.H.H.J.J.J.J.J.J.J.J.J.J.J.H.J.H.H.H.H.H.H.H.J.J.J.H.H.F.H.H.H.H.F.F.F.H.H.J.H.H.H.H.H.J.J.J.H.H.H.H.H.H.H.H.J.J.J.J.J.J.J.J.J.J.J.H.H.H.H.H.H.J.J.J.J.J.J.J.E.E.J.H.H.H.H.H.H.H.H.H.H.H.H.H.J.J.J.H.H.J.J.J.E.J.J.J.R.R.R.R.R.R.R.R.R.E.E.E.E.E.E.].].].].E.E.E.].].E.E.E.J.H.H.H.H.R.E.E.E.E.E.E.E.E.E.E.E.E.E.E.E.E.E.E.E.E.E.E.E.E.E.E.E.E.E.E.E.E.E.E.E.E.E.E.E.E.E.E.E.E.E.E.E.E.E.E.E.E.E.E.E.E.E.E.E.W.W.E.E.E.E.E.E.E.E.E.E.",
"W.W.W.W.E.W.E.W.W.W.W.E.W.W.W.W.].E.E.].E.E.E.E.E.E.E.E.E.E.E.E.E.E.R.R.E.].].E.E.R.R.R.R.E.E.E.E.R.R.E.E.E.E.R.R.R.R.R.E.E.E.E.J.H.J.E.E.E.E.].E.E.E.E.J.E.E.E.E.E.E.E.E.E.J.J.E.E.J.J.J.H.H.H.J.J.E.E.J.J.J.J.J.E.].].].].].].].E.E.E.E.E.].].].].].`.`.J.J.H.H.H.J.H.F.F.H.H.H.F.H.H.J.E.E.J.J.J.J.J.E.J.E.J.J.J.J.J.J.J.H.H.J.J.].].].].].].].].].].E.J.J.J.J.`.].].E.J.=X5X9Xy.=XH.D.H.C.H.=X=X].H.H.H.H.H.J.J.J.J.J.H.H.F.F.F.F.F.F.F.F.F.F.F.H.H.H.H.H.H.H.H.H.F.H.H.H.H.E.H.].&X,X].{.H.F.F.F.F.F.F.F.D.D.D.F.F.F.F.F.F.F.F.F.F.F.F.F.F.D.D.D.D.D.D.D.D.D.D.D.D.D.D.C.C.D.F.F.F.F.F.F.F.F.H.H.H.J.J.J.J.J.J.J.J.J.J.H.H.H.H.H.H.H.H.H.H.H.H.J.J.H.H.H.J.J.J.J.H.H.H.H.J.H.H.H.H.H.H.J.J.H.H.H.H.J.J.J.J.J.J.J.J.J.J.J.J.H.J.J.J.J.H.J.J.J.H.H.H.J.J.J.J.E.E.J.J.E.E.J.J.J.J.J.J.J.H.H.H.J.J.H.H.H.J.J.J.E.E.E.E.R.E.E.E.E.R.R.R.R.E.E.E.E.E.E.].].].].E.E.E.E.].].E.J.J.H.H.H.H.R.E.E.E.E.E.E.E.E.E.E.E.E.E.E.E.E.E.E.E.E.E.E.E.E.E.E.E.E.E.E.E.E.E.E.E.E.E.E.E.E.E.E.E.E.E.E.E.E.E.E.E.E.E.E.E.E.E.E.E.E.E.E.W.E.W.E.E.E.E.E.E.",
"OXOXOXOXOXOXW.W.W.W.W.E.W.W.W.W.].].E.E.E.E.E.E.E.E.E.E.E.E.E.E.R.R.H.H.R.E.E.E.R.R.R.R.R.E.E.].E.R.E.E.E.E.E.E.R.R.H.R.E.E.E.E.J.J.J.E.E.E.E.].E.E.E.E.E.J.E.E.E.E.E.E.E.E.J.J.E.E.J.J.J.H.H.H.J.J.J.J.J.J.J.J.J.].E.].].].].].].`.J.J.E.E.].].].].].J.`.E.J.J.H.J.J.H.F.F.F.F.F.H.H.J.J.J.E.J.J.J.J.J.E.E.E.J.J.J.J.H.H.H.H.H.J.J.].].].].].].].].].].].].].J.`.J.J.J.].].=X3XB.E.D.H.F.C.H.H.J.=X>XJ.H.H.H.H.J.J.J.J.J.H.H.F.F.H.F.F.F.F.F.F.F.F.F.F.H.H.F.H.F.H.F.F.H.J.E.].J.G.E.=X9X,X,X=XJ.F.F.H.F.F.F.D.D.D.F.F.F.F.F.F.F.F.F.F.F.F.F.F.D.D.D.D.D.D.D.D.F.D.D.D.F.F.F.D.D.F.F.F.F.F.F.F.F.F.H.H.J.J.J.J.J.J.J.J.J.H.H.H.H.H.H.H.H.H.H.H.F.H.J.J.H.H.F.F.F.H.H.J.J.H.H.H.H.H.H.H.H.H.H.H.H.H.H.H.J.J.J.J.J.J.J.J.J.J.J.J.J.J.J.J.J.H.H.H.H.H.H.J.J.J.J.J.E.E.E.E.E.E.J.J.J.J.J.J.J.J.H.H.H.H.H.H.H.J.E.J.E.E.E.E.E.E.E.E.E.E.E.E.E.E.E.E.E.E.E.].].].].E.E.E.E.].].E.J.J.H.H.H.H.R.E.E.E.E.E.E.E.E.E.E.E.E.E.E.E.E.E.E.E.E.E.E.E.E.E.E.E.E.E.E.E.E.E.E.E.E.E.E.E.E.E.E.E.E.E.E.E.E.E.E.E.E.E.E.E.E.E.E.E.E.E.E.E.W.E.E.E.E.E.E.E.",
"W.W.OXOXOXOXOXOXW.W.E.E.W.W.W.W.].E.E.E.E.E.E.E.E.E.E.E.E.E.E.E.H.R.H.G.H.E.E.E.R.R.R.R.R.E.E.E.E.E.E.E.E.E.E.E.R.R.H.R.R.R.E.R.J.J.J.E.E.E.E.].E.E.E.E.E.E.E.E.E.E.E.E.E.J.J.J.J.J.J.J.J.J.H.H.J.J.J.J.J.J.J.J.J.E.J.].].J.J.J.J.J.J.J.J.].].E.].].`.`.E.E.J.J.J.J.J.J.H.F.F.F.H.J.J.J.J.J.J.J.J.J.J.E.].E.E.H.J.J.J.H.F.H.H.J.J.J.].].].E.].].].].].].].].J.J.J.J.J.J.].].].*X>.*XD.G.H.F.F.F.D.].>XJ.H.H.H.J.J.J.J.J.J.J.J.H.H.H.F.F.F.F.F.F.F.F.F.F.F.F.F.F.F.F.F.F.H.J.].=X,X&X*X,X*X{.:X,X=XJ.F.H.F.F.F.D.D.F.F.F.F.D.D.D.D.D.D.D.D.D.D.D.D.D.D.F.F.F.F.F.F.F.D.D.F.F.F.F.D.F.F.F.F.F.F.F.H.H.H.J.J.J.J.J.J.J.J.J.H.H.H.J.H.H.H.H.H.H.H.H.H.H.J.H.H.H.H.J.J.H.H.H.H.J.J.H.J.J.J.H.H.H.H.H.F.F.H.H.H.J.H.J.J.J.J.J.J.J.J.J.H.H.H.H.J.J.H.H.H.H.H.H.H.H.J.].=X*X>X=X].J.J.J.J.J.J.J.J.J.H.H.F.F.H.H.J.J.J.J.J.J.R.R.E.E.E.E.E.E.].].E.E.E.E.E.].E.].].].].].E.E.E.].].E.J.H.G.G.G.H.H.J.E.E.R.E.E.E.E.E.E.E.E.E.E.E.E.E.E.E.E.E.E.E.E.E.E.E.E.E.E.E.E.E.E.E.E.E.E.E.E.E.E.E.W.W.E.E.E.E.E.E.E.E.E.E.E.E.E.E.E.E.E.E.E.E.E.E.OXE.E.E.",
"W.W.W.OXOXOXOXOXW.W.E.E.W.W.W.W.E.E.E.E.R.R.R.R.H.R.R.E.E.R.R.H.H.H.H.G.H.E.E.E.R.R.R.R.R.J.E.E.E.E.E.E.E.E.E.E.E.H.H.H.R.E.R.J.J.H.H.J.E.J.E.E.E.E.E.E.E.E.E.E.E.E.E.E.E.J.J.J.J.J.J.J.J.J.J.J.J.J.J.H.H.H.J.J.J.E.J.J.J.J.J.J.J.J.].].].].E.E.].].`.`.E.].].J.J.J.J.J.J.H.F.D.J.J.J.].E.J.J.J.J.J.J.E.E.E.E.H.J.J.J.H.F.F.H.J.J.J.].].E.E.].].E.E.E.E.J.J.J.J.J.J.J.J.E.E.E.{.c.E.H.H.C.F.J.D.H.].*XH.H.H.H.H.J.J.J.J.J.J.J.J.J.J.J.F.F.F.F.F.H.F.F.F.F.F.D.D.H.H.H.H.H.E.=X*X9X9X,X,XH.E.{.5X>X`.F.F.H.F.F.D.D.F.F.F.F.F.F.F.D.D.C.C.C.C.C.C.D.D.D.F.F.F.F.F.F.F.D.D.D.G.F.F.D.G.F.D.F.F.F.H.H.H.J.J.J.H.J.J.J.J.J.H.H.H.J.J.H.H.H.H.H.H.F.H.J.J.H.H.H.E.=X>X=X=XJ.H.H.J.H.F.J.J.J.H.H.H.H.H.F.F.F.H.H.H.J.J.J.J.J.J.H.H.J.H.J.H.H.E.=X*X=X=XJ.J.H.H.H.H.].>X9XsXgX5X=XE.J.].J.J.J.J.J.J.H.H.H.H.H.J.J.J.J.J.J.J.R.E.E.E.R.R.E.E.].E.E.R.E.E.E.E.E.].].].].E.E.E.E.E.].E.H.H.D.D.G.G.H.H.J.E.R.E.E.E.E.E.E.E.E.E.E.E.E.E.E.E.E.E.E.E.E.E.E.E.E.E.E.E.E.E.E.E.E.E.E.E.E.E.E.E.W.W.E.E.E.E.E.E.E.E.E.E.E.E.E.E.E.E.E.E.E.E.E.E.OXE.E.E.",
"W.W.W.W.W.W.W.W.W.W.W.W.E.W.E.W.E.E.E.R.R.R.R.E.E.E.E.E.E.E.R.R.E.R.R.R.E.E.E.E.J.J.E.E.].J.E.J.E.J.J.J.J.J.J.J.J.J.J.J.J.J.H.H.J.J.J.E.E.E.J.J.J.E.E.E.E.E.J.J.R.R.E.E.J.J.H.H.J.J.J.J.J.J.J.J.H.H.J.J.J.J.J.J.].].].].].J.J.J.E.].J.J.].].].].].].`.J.J.J.`.J.J.J.H.H.J.J.H.H.J.J.J.J.J.J.H.H.J.J.J.J.J.J.H.H.H.H.J.J.J.H.H.J.J.J.J._.].].].].].].].].].].J.J.`.`.].E.E.E.E.&XB.&XH.H.D.F.H.J.H.=X=XH.H.H.H.J.J.J.J.H.H.J.J.J.J.H.J.J.H.F.F.F.H.F.F.F.F.H.H.H.H.J.J.H.G.E.,XG.B.H.C.,XG.E.H.3X=XJ.D.F.H.F.F.F.D.F.F.F.F.F.A.C.C.C.C.C.A.C.M.F.D.D.D.D.D.F.G.G.F.D.H.D.H.D.H.G.D.H.D.G.J.H.R.R.G.].H.J.H.H.].D.J.F.J.`.J.J.J.H.J.J.H.J.J.F.F.J.H.J.J.H.].,X,X,X>X=XJ.J.J.H.J.J.H.J.J.J.J.J.H.H.H.H.D.H.J.J.J.J.H.J.J.H.H.H.H.H.H.G.H.&X,X9X9X5X{.Q.E.E.H.E.,XgXzXfXzXsX*XE.H.E.J.J.].J.J.H.H.H.H.H.H.J.E.E.E.E.H.H.H.H.E.E.E.H.H.H.E.E.E.E.E.E.E.E.E.].].].E.R.E.E.].].].E.H.G.C.D.H.H.H.H.H.H.E.H.E.E.E.E.E.E.E.E.E.E.E.E.E.E.E.E.E.E.E.E.E.E.E.E.E.E.E.E.E.E.E.E.E.E.E.E.Q.E.E.E.E.E.E.E.E.E.E.E.E.E.E.E.E.E.OXE.E.E.E.E.E.E.E.E.OXOX",
"W.W.W.W.W.W.W.W.W.W.W.W.E.W.E.E.E.E.E.E.R.E.E.E.E.E.E.E.E.E.R.R.E.E.E.E.E.E.E.E.J.J.E.E.].J.J.J.E.J.J.J.J.J.J.H.H.H.H.J.J.H.H.H.H.H.H.J.E.E.E.E.J.E.E.E.E.E.J.J.E.E.E.E.E.J.J.J.J.J.J.J.J.J.J.J.J.J.J.J.J.J.J.J.].].].].].J.J.J.E.].E.].].].].].].].`.J.J.`.].J.J.J.J.J.J.J.J.H.J.J.J.J.`.J.J.J.J.J.J.J.J.J.H.H.H.J.J.J.J.J.J.J.J.J.J.J.].].].].].].].].J.E.J.J.`._.E.E.&X,X1X,Xx.:X*X=XH.H.F.F.H.=X].H.H.H.H.J.J.J.J.H.H.H.H.J.H.H.H.H.H.F.D.F.H.F.F.F.F.H.H.H.H.H.F.H.J.E.=XB.&X,X&X].H.H.F.H.J.H.D.F.F.F.F.F.F.D.H.C.C.A.A.H.F.C.D.C.A.D.n.M.D.D.D.F.D.D.G.H.D.F.H.H.G.G.G.G.G.C.H.,X9X9XW.R.R.].>X3X&XE.K.K.H.J.J.F.H.H.H.H.H.J.H.H.H.H.H.H.H.H.H.H.&X&X*X>X].].J.J.J.J.J.H.H.J.J.J.H.H.H.F.D.D.H.H.H.`.`.F.J.J.J.J.H.H.H.H.K.D.H.&X9XaXgXgX1X:XR.E.].].5XgXmXNXmXgX>XE.H.H.J.J.J.J.J.H.H.H.H.H.H.J.E.E.E.H.H.H.H.H.E.E.E.E.H.H.E.E.E.E.E.E.E.E.E.].E.E.E.R.E.E.E.E.E.E.H.D.C.D.D.G.H.H.H.H.H.H.H.H.E.E.E.E.E.E.E.E.E.E.E.E.E.E.E.E.E.E.E.E.E.E.E.E.E.E.E.E.Q.E.Q.E.E.E.Q.Q.E.W.W.E.E.E.E.E.E.E.E.E.E.E.E.E.OXOXE.E.E.E.OXOXE.E.E.E.",
"W.W.W.W.W.W.E.E.W.W.E.E.E.E.E.E.E.E.E.E.E.E.E.E.E.E.E.E.E.E.E.R.E.E.].].].].E.E.E.J.E.E.].J.J.J.].J.J.J.J.J.H.H.H.H.H.H.H.H.H.J.H.H.H.J.E.E.E.E.E.E.E.E.E.E.E.J.E.E.E.E.E.E.J.J.J.J.J.J.J.J.J.J.J.J.J.E.E.E.E.E.].].].].J.J.J.J.].E.E.].J.].].].].].].J.J.`.`.J.J.J.J.J.J.J.J.H.J.J.J.J.J.J.J.E.E.E.J.J.J.J.J.J.H.J.J.J.J.J.J.J.E.E.J.E.].E.E.E.J.J.J.J.].].].].J.J.E.].,X9X*XB.u.*X,X,XJ.F.D.D.H.E.J.G.H.H.H.J.J.J.H.H.H.H.H.H.H.H.H.H.H.F.F.F.H.F.D.D.F.F.H.F.F.H.H.H.G.G.=X&X].,X=XG.H.D.H.F.D.D.F.H.F.F.F.F.D.H.D.H.H.C.F.v.v.C.C.v.C.D.D.D.D.D.D.D.D.D.H.H.F.H.D.D.D.&X&X&XK.H.H.,X9X,XaX,X].*X&X,X,X,X=XK.G.J.`.J.J.J.J.J.H.H.H.H.H.E.].E.E.&XE.E.&X,X&X&XE.H.H.H.J.J.J.H.H.H.H.H.H.F.D.D.G.E.H.H.D.H.F.J.J.J.J.J.J.J.J.H.H.H.].,X9XgXgXgXgX,XE.G.G.H.].&XsXfXfXaX,X].E.E.E.E.J.J.J.H.H.H.H.H.J.J.E.E.H.H.H.H.H.H.E.E.E.E.H.H.E.E.E.E.E.E.E.E.E.E.E.E.E.E.E.E.E.R.J.J.F.C.D.D.D.D.H.J.H.H.H.H.H.H.E.E.E.E.E.E.E.E.E.E.E.E.E.E.E.E.E.E.E.E.Q.E.E.E.E.E.E.E.Q.R.E.E.E.E.Q.Q.E.E.W.E.E.E.E.E.E.E.E.E.E.E.E.E.OXOXE.E.E.E.E.OXE.E.E.E.",
"E.E.W.W.W.W.W.W.E.E.E.W.E.E.E.E.E.E.E.E.E.E.E.E.E.E.E.E.E.E.E.E.E.E.{.{.].].E.E.J.J.E.].].J.J.J.].J.J.J.J.H.H.H.H.H.J.J.J.J.J.J.J.J.J.J.E.E.E.E.E.E.E.E.E.E.E.E.E.E.E.E.].].].].J.J.J.J.J.J.J.J.J.J.E.].].].].].].].].J.J.J.].].].].].E.J.].].].J.].`.J.J.`.`.J.J.J.J.J.J.H.H.H.H.H.J.J.J.J.J.J.].E.E.J.J.J.J.J.J.J.J.J.J.J.J.E.E.J.J.E.E.E.E.J.J.J.J.J.].].].].].].E.E.&X,X&XH.x.{.&X=XH.D.D.F.G.H.H.G.H.H.H.J.J.H.H.H.H.H.H.H.H.H.H.J.H.F.F.F.H.F.D.D.F.F.F.F.F.F.D.F.H.D.H.R.H.=X].H.F.F.F.H.F.F.H.H.F.F.F.F.D.D.].=X,X3XE.H.v.C.C.D.v.M.C.M.D.D.D.D.D.F.G.D.F.D.D.J.H.H.OX=X=XJ.,X,X9X9X1X5XE.9X&X&XOX+X,XK.&X=X,X=X`.H.H.G.H.H.H.H.J.=X,X,X,X9X&XE.&X&XE.E.E.H.E.H.J.J.J.J.H.H.H.H.F.F.D.D.E.H.G.E.J.E.H.H.H.J.H.J.J.H.H.J.H.E.,XgXgXgXzXmXsX&X=XD.D.J.D.E.&X:X,X,X*X].E.E.E.E.J.J.J.J.J.J.J.J.J.E.E.J.H.H.H.H.H.E.E.E.E.E.H.H.E.E.E.E.E.E.E.R.E.E.E.E.E.E.Q.Q.R.R.J.H.F.C.D.C.D.D.H.H.H.H.H.H.H.H.H.H.E.E.E.E.E.E.E.E.E.E.E.E.E.E.E.E.E.E.E.E.W.E.W.E.E.Q.R.R.E.E.E.E.Q.Q.E.E.W.W.E.E.E.E.E.E.E.E.E.E.E.E.E.E.E.E.E.E.E.E.E.E.E.E.",
"W.W.W.W.W.W.W.W.W.W.W.W.W.W.W.W.E.E.E.E.E.E.E.E.E.E.E.E.E.E.E.E.E.].{.{.].E.E.E.J.J.E.E.E.J.J.J.J.J.J.J.J.H.H.H.H.J.J.J.J.J.J.J.E.E.E.E.E.E.E.E.E.J.E.E.E.E.].].E.E.E.E.].].].].J.J.J.J.J.J.J.J.J.J.J.J.].].].].].].].].].].].].].].].].].].].].E.].`.J.J.J.J.J.J.J.J.J.J.J.J.J.H.J.J.J.J.J.J.J.].J.J.J.J.J.J.J.J.J.J.J.J.J.E.E.].].].].J.J.J.J.J.J.E.E.J.J.].].J.].].E.E.&X,X,XW.*X].E.H.D.D.D.D.H.H.H.H.H.H.J.H.H.H.H.H.H.J.J.J.J.J.J.H.F.F.H.H.F.D.D.F.F.F.F.F.F.F.F.H.G.G.G.H.=XJ.F.F.J.F.F.H.H.H.H.F.F.F.F.D.J.E.,X9X3X3X=X=X=X=X=X=XF.F.M.D.D.D.D.D.D.D.G.F.D.D.D.].,X,X=X=XXXv.OXnXaX9X1XOX1XOX:X:X,X9X&X7X,X9X9XH.G.E.H.H.G.G.H.E.,X9XgXgXgX,X,X&XT.W.,X9X,X,XH.G.G.H.J.H.H.H.H.F.F.F.F.E.H.R.E.D.H.E.H.E.E.J.J.J.J.E.].{.,X8X9X,X,X3X9X,XJ.&XD.D.J.D.J.E.W.&X,X5X*X].E.E.E.E.E.E.E.E.R.J.J.E.E.J.J.H.H.E.E.E.E.H.H.E.E.H.H.E.E.E.E.E.E.R.R.E.E.].].].E.E.Q.R.R.H.H.F.C.C.C.D.D.H.H.H.H.H.H.H.H.H.H.E.E.E.E.E.E.E.E.E.E.E.E.E.E.E.E.E.E.E.E.E.E.E.E.Q.Q.R.R.R.R.E.Q.E.E.E.E.E.W.E.E.E.E.E.E.E.E.E.E.E.E.E.E.E.E.E.E.E.E.E.E.E.E.",
"W.W.W.W.W.W.W.W.W.W.W.W.W.W.W.W.E.E.E.E.E.E.E.E.E.E.E.E.E.E.E.E.E.{.{.{.].E.E.E.E.J.E.E.E.J.J.J.J.J.J.J.J.J.H.H.J.J.J.J.J.J.J.J.E.E.E.E.E.E.E.E.J.J.E.E.E.E.].].E.E.E.E.].].].].J.J.J.J.J.J.J.J.J.J.J.J.].E.].].J.].].].].].].].].].].].].].].].E.].J.J.J.J.].J.J.J._.J.J.J.J.J.J.J.J.J.J.`.E.E.].J.J.J.J.J.J.J.J.J.J.J.J.J.].].J.J.J.].J.J.].].].].].].].J.].E.J.J.].].E.E.E.W.,X&XE.E.J.H.D.F.D.D.H.H.H.H.H.J.H.H.H.H.H.J.J.J.J.H.H.H.H.F.D.H.H.F.D.D.F.F.F.F.F.J.F.F.D.G.H.].H.=X].D.F.H.H.D.H.F.F.F.F.H.F.F.D.D.=X,X,X9X,X9X9X0X,X9X9X,X=XF.D.D.D.D.D.D.G.H.D.F.H.D.=X,XJ.5.=XK.P K.9X:X9X,XOXOXOXQ.:XgXaX2X1X,X1X,XH.H.=X=X&XH.G.H.E.,X9XgXgX1XQ.&X9X9X9X9X9X,X9XE.&XE.J.H.J.J.H.H.H.H.H.H.G.=X&X&X,X:XOXOXE.E.E.H.H.E.].].3X,X>X].H.J.E.H.E.H.H.D.D.D.D.H.E.E.&X9X9X,X].E.E.E.E.E.E.E.R.R.J.J.J.E.E.E.H.H.E.E.E.E.H.H.E.E.H.H.E.E.E.E.E.E.E.R.E.E.].].].E.E.E.E.R.H.H.F.C.C.C.D.G.H.H.H.G.H.H.H.H.K.K.E.E.E.E.E.E.E.E.E.E.E.E.E.E.E.E.E.E.E.E.Q.Q.E.R.R.R.R.R.E.E.Q.Q.E.E.E.W.E.E.E.E.E.E.E.E.E.E.E.E.E.E.E.E.E.E.E.E.E.E.E.E.E.E.",
"W.W.E.E.E.E.E.E.W.W.W.W.E.E.W.W.E.E.E.E.E.E.E.E.E.E.E.E.E.E.E.E.{.{.].].].E.E.E.E.J.E.E.E.E.J.J.E.E.J.J.J.J.J.J.E.E.E.E.E.J.E.E.J.E.J.J.J.E.E.E.E.E.E.E.E.E.E.].E.E.E.E.].].E.E.E.E.J.J.J.J.J.J.J.J.J.J.J.J.].].J.].].].].].].].].].].].].].].].].].J.J.J.`.].].J.J.`.`.J.J.J.J.J.J.J.J.`.`.].].].].J.J.J.J.J.J.J.J.J.J.E.E.].].].J.J.J.J.J.].].].].].].J.J.J.E.].J.H.J.E.].E.E.,XE.E.H.J.J.H.H.D.D.D.D.D.F.H.H.H.H.H.H.H.H.J.J.H.H.H.H.H.H.H.H.H.F.D.D.F.F.F.F.F.F.D.F.H.J.C.C.E.=X&XH.H.D.H.H.F.F.F.F.F.H.F.F.v.D.J.=X,X,X9XxX,X,X=X3X3X3X3X_.F.F.F.D.F.F.D.H.J.D.D.J.].&X,X7X=Xm.*.+X9X0X:X7XOX&X7XT.Q.2X2X:X7X9X1X&XH.E.&X=X=XJ.H.H.E.,X9X5XW.1X&X&X:X,XgXgXmX9X5XH.H.H.H.H.J.J.H.H.H.H.H.H.E.G.j.u.OX7X7X7X,X,X:X&X&X,X3X,X*X].J.H.H.].].H.D.H.D.D.H.H.E.E.E.E.E.*X,X=XE.J.E.R.E.R.E.E.E.E.J.J.E.E.E.E.E.E.H.E.H.H.H.H.E.E.H.H.E.E.E.E.E.E.E.E.E.E.].].E.R.E.E.E.R.J.J.F.C.C.C.D.D.G.H.G.G.K.H.H.K.H.H.R.E.H.H.E.E.R.E.E.E.E.E.E.E.E.E.E.E.E.E.R.H.H.H.H.H.R.E.E.E.E.E.W.E.E.E.E.E.E.E.E.E.E.E.E.E.E.E.E.E.E.E.E.E.E.E.E.E.E.E.OXE.",
"W.W.E.E.E.E.E.E.W.W.W.E.E.E.W.W.E.E.E.E.E.E.E.E.E.E.E.E.E.E.E.E.].E.E.E.E.E.E.R.E.J.E.E.E.E.J.J.E.E.J.H.J.E.E.E.E.E.].E.E.J.J.E.J.H.H.H.J.J.E.E.E.E.E.E.E.E.E.E.E.E.E.E.E.E.E.E.].E.J.J.J.J.J.J.J.J.J.J.J.J.].].J.].].].].].].].].].].].].].].].].].J.J.J.J.].].J.`.`.`.J.J.J.J.J.J.J.J.`.`.].].].].J.J.J.J.J.E.].].J.E.E.E.E.].].E.E.J.J.J.].].].].].].J.J.J.J.J.].].].E.E.E.E.>X].E.E.J.E.J.H.D.D.D.D.D.H.H.F.J.H.H.H.H.H.H.H.H.H.H.J.H.H.H.J.H.F.D.D.F.F.F.F.F.F.F.J.D.H.H.=XG.D.B.H.H.G.G.J.H.H.J.H.F.H.F.F.J.D.D.H.H.J.=X3X=X=X=X=X`.=X4X].F.D.F.F.F.F.G.H.D.H.D.D.H.,X:XOX<.P  .m.+Xv.+XOX1X:X7XOX7XOX2XOX:X7X:XR.E.=X=X=X=X`.H.H.E.,X9X*X1XaX,X,X,X=X,X,X&X&X9X=X,X,X=XH.J.J.H.H.H.H.J.H.OX<.x.T.Q.OXgXOX+X+XT.G.T.&X&X].E.J.J.E.H.H.H.H.H.D.D.G.H.E.E.E.E.E.E.E.E.H.E.E.E.R.R.E.E.E.E.E.J.J.E.E.E.E.E.E.H.H.H.H.H.H.E.E.H.H.E.E.E.E.E.E.E.E.E.E.E.].E.R.E.E.E.R.J.J.F.C.C.C.D.D.G.H.G.G.K.K.H.G.H.H.R.E.H.H.R.R.R.E.E.E.E.E.E.E.E.E.E.E.E.R.R.H.H.H.H.H.R.E.E.E.E.E.E.E.E.E.E.E.E.E.E.E.E.E.E.E.E.E.E.E.OXOXOXE.E.E.E.E.E.E.E.E.",
"E.E.E.E.E.E.E.E.W.W.W.W.E.E.E.E.E.E.E.E.E.E.E.E.{.E.E.E.E.E.E.E.].E.E.E.E.E.E.E.E.J.J.J.J.H.J.E.E.J.H.H.H.J.E.E.E.E.J.J.J.J.J.J.E.E.E.J.H.J.E.E.E.E.J.E.E.E.E.].].].].].].].E.E.].E.J.J.J.J.].].].J.J.J.J.J.E.J.].].].].].].].].].].J.J.].].].].].].`.`.`.`.J.J.J.J.J.J.J.J.J.J.J.J.J.J.J.J.].].J.J.J.E.].].J.J.].].J.J.J._.].].J.J.J.J.].].].].].E.E.E.`.`._.J.J.J.].].].].E.E.*XE.J.E.J.J.`.J.F.D.C.D.D.D.H.J.H.H.H.H.H.H.H.H.H.J.J.H.H.J.].=XH.F.D.F.F.F.F.H.D.F.J.G.H.G.E.x.u.x.<.W.OX&XE.=X,XH.H._.F.H.D.H.F.H.D.F.D.J.=XH.v.v._.-X].].*XH.D.D.H.D.H.H.H.G.D.J.].&X,XOXB.G.=XS.K.x.*.S.7XOX&X&X1XOX:X7X7X7X7X1X1X&XE.,X=X,X].J.H.G.E.H.&X,XaX,X,X*X*X&XE.].*X*X].>X*X*X,XE.E.H.H.G.H.D.E.OX:X .x.2X@X7X2XS.j.,.,.u.j.:XE.H.J.J.H.F.H.J.J.F.H.D.G.E.,X9X*XE.E.E.E.E.H.E.E.E.E.].].E.E.E.E.E.J.E.E.J.J.J.H.H.H.E.H.H.E.E.E.E.E.E.E.H.H.H.R.E.E.E.E.E.E.E.R.R.Q.E.R.H.H.H.H.D.D.D.D.D.H.H.H.G.G.G.G.H.H.H.H.H.H.H.R.E.E.E.E.E.E.E.E.E.E.E.E.E.E.H.H.H.H.H.H.H.E.E.E.E.E.E.E.W.E.E.E.E.E.E.E.E.E.E.E.E.W.W.W.E.E.E.E.E.E.E.E.E.E.E.E.E.",
"E.E.E.E.E.E.E.E.W.W.W.W.E.E.E.E.E.E.E.E.E.E.E.E.{.E.E.E.E.E.E.E.].E.E.E.E.E.E.E.E.E.J.J.J.H.J.E.E.J.H.H.J.E.E.E.E.E.E.J.J.J.J.J.E.E.E.J.H.J.E.E.E.E.E.E.E.E.E.E.].].].].].E.E.E.].].J.J.J.J.].].].].].].].].].].J.J.J.J.E.E.J.J.].J.].].].].].E.].].`.`.`.`.J.J.`.`.J.J.J.J.J.J.J.J.J.J.J.J.].].J.J.J.E.].E.J.J.E.].J.J.J.J.].J.E.].J.J.].].].].].E.E.E.J.`.`.J.J.J.].].].].E.E.*XE.E.J.J.J.`.J.H.D.C.C.D.D.F.H.H.F.D.H.H.H.H.J.H.H.H.H.J.].].J.H.D.D.F.F.F.F.F.H.H.J.H.G.G.E.:.j.;.u.j.E.B.W.B.=XE.J.H.C.H.F.D.D.H.D.D.F.D._.A.v.v.v.F.].=X_.D.D.C.J.H.G.H.D.J.J.=XE.9X,XW.K.0X,X,.<.K.j.,.j.j.R.:XOXOX2XQ.+X,XOX7X:X,X9X9X&XH.H.H.H.J.E.H.E.E.,X5XE.G.=X*XH.E.].R.5X*XE.E.E.&XE.H.H.G.J.,X9X,X2Xt.S.S.2X+Xk.X.T u.,.S.E.:XW.G.D.F.F.F.F.D.D.H.H.D.,X,X*X:X5XW.E.E.E.H.H.H.E.E.].*X,X*X].E.E.R.J.E.E.E.E.E.H.E.H.E.E.H.H.H.E.E.E.E.E.H.H.E.E.E.E.E.E.E.E.E.E.R.E.E.R.R.J.J.H.F.D.F.G.G.H.J.H.G.G.G.H.K.H.H.H.H.H.H.R.E.E.E.E.E.E.E.E.E.E.E.E.E.E.H.G.G.G.G.H.H.E.E.E.E.E.E.E.W.E.E.E.E.E.E.E.E.E.E.E.E.W.W.W.W.E.E.E.E.E.E.E.E.E.E.E.OX",
"E.E.E.E.E.E.E.E.E.E.E.E.E.E.E.E.E.E.E.E.E.E.E.E.{.E.E.E.E.E.E.E.].E.E.E.E.E.E.E.E.E.J.E.J.J.J.E.E.J.J.J.J.E.E.E.E.E.E.J.E.E.J.J.J.J.J.J.J.J.J.E.E.E.E.E.E.E.E.E.].E.E.E.E.E.E.J.].].].].J.J.E.].E.E.].].].].].].E.E.J.E.J.J.J.J.J.J.].].].].J.J.E.J.J.J.`.J.J.J.J.J.J.J.J.J.J.J.J.J.J.J.J.J.E.E.J.J.].].].].J.J.E.E.E.J.].].E.E.].].].].].].].].]._.E.E.J.E.E.J.E.E.E.E.].].].E.*X].J.J.J.J.J.J.H.D.C.C.D.D.F.H.`.J.H.H.J.H.H.H.J.H.H.J.].=XJ.G.D.D.D.F.H.F.F.F.D.D.G.H.H.H.&X-.%.;.G.R.x.j.j.E.,X&XH.H.F.H.D.J.`.`.=XM.v.-Xv.C.b.v.c.v.F.D.C.C.C.G.J.H.H.E.G.G.E.,X9X,XG.G.G.9Xm.m.m.,X7X,. .x.&XW.&X,XS.S.+XQ.+X,X,XOX&X:X,XW.E.H.H.H.H.G.&X,X9X,XE.E.E.3X=XE.H.E.E.,XG.E.E.,X:XK.E.&X:X9X9X9X2X,.t.l.#X,. .T ,.S.S.t.j.j.E.OXJ.F.F.F.F.D.D.H.G.].E.R.gXzXaX{.E.E.E.E.E.E.E.E.].3XsX3X{.E.E.E.E.E.E.E.E.E.E.E.E.E.H.H.H.H.E.E.E.E.E.E.E.E.E.E.E.E.E.E.E.E.E.E.Q.E.R.R.E.E.J.H.F.H.H.H.H.J.H.H.K.H.K.H.K.H.H.R.H.R.E.E.R.E.E.E.E.E.E.E.E.E.E.E.E.R.G.G.C.G.G.H.H.H.E.E.E.E.E.E.W.W.E.E.E.E.E.E.E.E.E.E.E.E.E.E.E.E.E.E.E.E.E.E.E.E.E.E.",
"E.E.E.E.E.E.E.E.E.E.E.E.E.E.E.E.E.E.E.E.E.E.E.{.{.E.E.E.E.E.E.E.].E.E.E.E.E.E.E.].E.E.E.J.E.E.E.E.E.J.J.E.E.E.E.E.E.E.E.E.J.J.J.J.J.J.J.H.J.E.E.E.E.E.E.E.E.E.E.E.].E.E.E.E.E.E.].].].E.J.J.E.].E.E.E.].].].].].].].].].E.J.J.J.J.J.J.J.].].E.J.].].J.J.J.J.J.J.J.J.H.H.H.J.J.H.H.J.J.J.J.J.E.].].J.].].].].J.J.E.].].].].].].].].].].].].].].].].`.E.E.E.E.E.E.E.E.E.E.].].].E.=X].J.J.J.J.J.J.H.D.C.D.D.F.H.H.`.`.J.H.H.J.H.H.H.H.J.].].J.H.H.D.D.D.F.H.F.F.F.H.G.H.H.G.H.E.:.s.G.&XOXx.&Xj.T.&X&XH.H.F.F.F.=X`.D.J.=XJ.=Xv.v.v.v.v.v.v.C.F.H.H.=X>X9X,XH.H.E.,XG.:X7X&X+X+X0XK.9X+X0XS.x.S.u.:XOX&X0XK.XXS.S.+XK.7X,X&X1X9X&XH.E.E.E.&X,X,XK.E.G.,X,XH.,X=XJ.R.,X>X5X&XT.E.,X:X,X7X7XnXnX9X7X+XK.#X#X+X+X7X2XK.k.Q.S.j.j. .J.F.F.D.D.D.D.G.G.E.,XG.B.W.sX5XW.E.E.E.E.E.E.E.E.&X9XsX3X{.E.E.E.E.E.E.E.E.E.H.E.E.E.E.E.H.H.H.H.H.H.E.E.H.E.E.E.E.E.E.E.E.E.E.E.E.Q.E.E.E.E.J.J.H.H.H.H.J.J.J.H.H.K.K.K.H.H.H.R.R.R.E.E.R.E.E.E.E.E.R.E.E.E.E.E.E.E.H.G.D.G.G.H.H.H.H.H.H.H.E.E.E.W.W.W.E.E.E.E.E.E.E.W.E.E.E.E.E.E.E.E.W.W.E.E.E.E.E.E.",
"E.E.E.E.E.E.E.E.E.E.E.E.E.{.].].E.E.E.E.E.E.{.{.{.E.E.E.E.E.E.E.].E.E.E.E.].].].E.E.E.E.E.E.E.E.R.E.E.E.E.E.E.E.E.E.E.E.R.R.R.R.H.J.J.H.H.J.J.E.E.E.E.E.E.E.E.E.E.E.E.E.E.]._._.J.J.J.E.E.J.].].].].].].].J.J.J.].].].].].J.J.J.J.J.J.J.J.E.].].&X].`.`.J.J.J.J.J.J.H.H.H.H.H.J.H.H.H.J.J.J.J.J.J.].].].E.E.J.J.J.J.E.].E.J.J.J.J.J.E.].].].].].].J.J.J.E.E.E.E.J.E.E.E.].].].E.=X=X].J.J.J.J.J.J.D.D.D.D.F.H.H.H.].].J.H.J.J.H.H.H.E.].].J.H.G.D.D.D.F.H.F.F.F.H.F.J.H.F.H.H.x.G.E.H.E.OX:.&XB.B.].E.H.D.F.F.=Xz.v.D.0Xv.=XK.`.=XJ.M.v.D.H.H.G.].*X,X,X,X,X&XOXOXS.B.+XK.+X7Xj.7X0Xz.+X0X=XK.u.OX,X=X+Xm.5.m.+X+XS.=X0X&X1X5X:XW.{.&X:XE.G.OX7X7X&XK.G.,X9X&XH.E.*X&X&X,X,X+X+X+X2X#X0XnXpX2X+XnX$X$X$X$XMXJXSXJXnXS.+X=XXX*.,.K.K.K.K.K.D.K.E.E.1X&X&XG.,X,XE.E.E.E.E.E.E.E.E.,X9X9X,X].E.J.H.E.E.E.E.J.J.H.E.E.H.H.H.H.H.H.H.H.H.E.E.E.E.E.E.E.E.E.E.E.E.E.E.E.E.R.R.E.E.J.J.H.H.H.H.J.J.H.H.H.H.H.K.H.G.H.H.E.E.E.E.E.E.E.E.E.E.H.H.R.E.E.E.E.E.H.G.G.G.G.H.H.H.H.H.H.H.H.H.E.E.E.W.E.E.E.E.E.W.E.E.E.E.E.E.E.E.E.E.E.W.W.W.E.E.E.E.",
"E.E.E.E.E.E.E.E.E.E.E.{.].].{.{.E.E.E.E.].].{.{.{.].E.E.E.E.E.E.].E.E.E.E.].].].E.E.E.E.E.E.E.E.R.E.E.E.E.E.E.E.E.E.E.E.E.R.R.R.J.J.J.J.H.J.J.E.E.E.E.E.E.E.E.E.E.E.E.E.E.].].].J.J.J.].].].].].].].].].].].J.J.].].].].].J.J.J.J.J.J.H.J.J.].].&X&X].].`.`.J.J.J.J.J.H.H.J.J.J.J.J.H.J.J.J.E.J.J.E.].].].].J.J.J.J.J.J.J.E.J.J.J.J.E.E.].].].].].J.J.J.E.E.E.E.J.J.E.E.].].].E.=X=X].J.J.J.J.J.J.F.D.D.D.D.F.H.H.=X=XE.H.J.J.H.H.].].J.E.=X].D.D.D.D.D.H.F.F.F.D.F.H.D.F.H.H.E.{.H.H.G.&XOXy.&XH.{.H.H.G.H.H.XXv.D.XXm.{ M.XX0X0X3X=XM.D.D.B.E.,X,X9X:X,X7X+XG.j.7X=XS.K.9X7XD.XXK.+X0X9X0X9X7XG.J.S.m.XX+Xm.XXj.oXXXS.T.:X2XQ.:XG.G.aXVXnX+XD.D.0X=XOX9X&X,XK.E.,X&X:XE.:X+X+X#X+XS.#X7X$X#X$XoX$XeX#X#XnXSXJXnXDX+X<.,.z.K.0X=XJ.K.XX=XH.H.E.,XgX,X&X5X,XE.E.E.E.E.E.E.E.E.E.,X,X>X].E.E.E.J.J.J.E.J.E.H.H.H.H.H.H.H.H.H.H.H.H.H.E.E.E.E.E.E.E.E.E.E.E.E.E.E.E.E.E.R.E.J.J.J.H.H.H.J.J.J.H.H.H.H.K.K.H.G.H.R.E.E.E.E.E.R.E.E.E.H.H.H.R.R.R.R.H.H.H.G.D.G.G.G.H.H.H.H.H.H.H.E.E.E.E.E.E.E.E.E.E.W.E.E.E.E.E.E.E.E.E.E.W.E.E.E.E.E.E.E.",
"{.{.{.{.].].].{.E.{.{.{.{.{.{.{.{.{.{.{.].].].E.{.E.E.E.E.E.E.E.].E.E.E.E.E.].E.E.E.E.J.E.E.E.E.E.E.E.E.E.E.E.E.E.E.E.E.E.E.E.R.J.E.E.J.J.J.E.].E.E.E.E.E.E.E.J.E.E.E.E.E.E.].].J.J.J.].].].].].].].].].].].].].].].].].].J.J.J.E.J.J.H.J.J.J.].&X].].`.`.J.J.J.`.J.J.J.J.J.J.J.J.J.J.J.`.`.J.J.J.J.].].].].].].J.J.J.J.E.].].].J.J.J.J.].].].].].E.J.E.].E._._.J.J.E.E.].].]._.].=X].J.J.J.J.J.J.F.D.D.D.D.F.H.J.=X=X=XJ.H.H.H.].].].].].=X].D.D.D.D.F.F.F.F.F.F.H.F.F.F.D.D.H.H.H.H.H.D.H.&Xu.{.{.G.H.H.G.K.XX5.<.<.{ ..5.eXeX=X9X3XK.D.G.H.,X9X9XfXMXnXT.Q.+X*.,X=Xv.0XnXm.0X=Xb.0XeX9X9XmXeX,Xx.m.j.m.0Xm.m.oX0XXXm.Q.aXgX2Xu.:XaXnXDXmX,XS.j.D.XXK.&XE.7XT.OXW.OX:X+X7XgX@XK.S.S.l.S.#X#X#X#XeX7XXX$X0X7X7X+X+X=X+XL %.0X7X0X9X9X9X9X,X,X>X9X5X1XW.{.H.H.H.E.E.E.E.E.E.E.E.].].E.E.E.E.E.J.J.J.J.J.H.H.H.H.H.H.H.H.H.H.E.E.H.H.E.E.E.E.E.E.R.E.E.E.E.E.E.E.E.E.E.E.J.J.J.J.J.H.H.J.E.J.H.H.H.H.K.K.H.G.H.R.E.E.E.E.E.E.R.E.E.H.R.R.E.E.R.H.H.H.H.G.G.G.G.G.H.H.H.H.H.H.H.E.E.E.E.E.E.E.E.E.E.E.E.E.E.E.E.E.E.E.E.E.E.E.E.E.E.E.E.E.",
"{.W.{.W.].E.].{.].{.{.{.{.{.{.{.&X{.{.{.].].E.E.{.E.E.E.E.E.E.E.].E.E.E.E.E.E.E.E.E.E.J.E.].E.E.E.R.E.E.E.R.E.E.E.E.E.E.E.E.E.E.E.E.E.J.J.J.E.].E.E.E.E.E.E.E.J.R.E.E.E.E.E.J.J.J.J.J.].].].].].J.J.].].].].].].].].].].].].].].E.J.J.J.J.H.J.J.E.].].].J.J.J.J.`.`.`.].].J.J.J.J.J.J.`.`.`.J.J.J.J.J.].E.].].].].].].].].].].].J.J.J.J.].].].].].E.E.E.].].`._.J.J.E.E.].].]._.].=X].J.E.E.J.J.H.H.D.D.D.G.H.J.H.].=X=X].H.H.J.].E.].=X=XE.G.D.D.D.D.D.F.F.F.F.F.F.C.F.F.D.H.D.D.H.G.G.E.&XOXV.B.E.R.H.G.G.K.K.5.,...*. .XXXXXX0X0X0X=XK.+X:X:X1XaXOX:X9XK.gX+Xm.9X,Xx.+Xv.%.+X=X7.%X%XK.=X0X7Xv.%.{ 4.m.oX*.m.m.m.XX+X+X+XQ.:XV.7XgX9X9XnX7X0X+XD.=XXX=XOX=XT.+XB.:X7Xx.7XS.l.l.,.S.l.S.S.+X$X$X7XoXS.+XoXS.j.,.K.OX+X=X*.D.+Xm.9XmX9X=X,X1X1XW.:X9XE.R.H.H.E.E.E.E.E.E.E.W.W.E.E.E.E.E.E.E.E.J.H.J.J.H.H.H.H.H.H.H.H.H.E.E.E.H.E.E.E.E.E.E.E.R.R.E.E.E.E.E.E.E.E.E.E.J.J.E.J.J.H.H.J.E.E.H.H.H.H.G.K.H.G.H.H.E.E.E.E.H.H.E.R.E.E.E.E.E.E.R.H.H.H.H.D.C.G.H.G.H.H.H.H.H.H.H.E.E.E.E.E.E.E.E.E.E.E.E.E.E.E.E.E.E.E.E.E.E.E.E.E.OXE.E.E.",
"E.E.E.E.E.E.E.E.E.E.E.E.].{.{.{.].OX&X{.{.].E.E.E.E.E.E.E.E.].].].].].E.E.E.E.E.J.J.J.E.].].].E.E.].].E.J.J.E.].E.E.E.E.J.J.J.E.E.E.E.E.E.E.J.J.E.E.J.J.J.H.H.J.E.E.J.J.J.E.E.E.E.E.E.].].].].E.].].E.].].].].].].].].].].].].].].E.E.E.J.H.J.J.E.].J.].J.J.&XH.J.J.].].].J.].E.].].J.J.J.J.E.E.E.E.J.J.J.].`.`.J.].].J.E.=X*X,X*XE.].E.E.E.E.E.E.E.J.J._._._.].J.E.E.E.E.E.J.].].=X].].E.E.&XB.E.E.Z.H.C.D.J.H.D.J.H.J.`.H.H.H.&X&X=X&XE.H.H.D.D.D.D.H.H.D.G.F.F.M.F.F.F.F.F.D.H.D.H.&XT.j. .u.V.V.OXT.T.S.OX,.+X7XaXV. .+XXXK.%XXX0X0X+Xj.j.V.OXQ.S.7XnX=X9X0XK.eXK.K.1XW.+X0Xm.XXoXoX8.oXXXM.b.b.*.*.*.5.4.m.m.5.5.XXK.+XK.OXV.2XnX7X&XnX7X:XJ.j.K.M.XXXXK.0X,Xj.0X0X,.S.*. . .V V }  .oXeX#XXX$X$Xm.oXoX#X,.,.0X+XK.K.<.j.m.5.XX0X0X0X=X:XOXB.G.1XE.H.E.R.W.W.Q.OX:X9X:X5XW.Q.W.E.J.E.E.H.W.Q.E.E.E.H.H.H.H.J.H.E.H.G.R.E.E.E.W.E.E.E.E.E.E.E.E.E.E.E.E.E.E.E.E.E.E.E.E.E.E.J.J.J.E.E.E.E.H.H.H.H.H.G.G.H.H.H.E.E.E.E.H.H.H.H.H.R.R.R.R.H.H.E.H.G.C.D.D.G.G.G.G.H.H.H.H.R.R.E.E.E.E.E.E.E.E.E.E.E.E.E.E.E.E.E.E.E.E.E.E.E.E.E.E.E.E.",
"E.E.E.E.E.E.E.E.E.E.E.E.].{.{.{.].&X&X&X&X].E.E.E.E.E.E.E.E.].].].].E.E.E.E.E.E.J.E.J.E.E.].].E.E.].].E.E.E.E.].E.E.E.J.J.H.J.E.E.E.E.E.E.E.J.J.E.E.J.J.H.H.H.J.E.J.J.J.E.E.E.E.E.E.E.E.E.E.].].].].].].].].].].].].].].].].`.].].E.E.E.E.H.J.J.J.E.].H.].].H.=X=X=XH.E.=XE.R.].]._.J.J.J.J.E.J.E.E.J.J.J.].`.`._.=XJ.H.].=X=X,X3X].E.E.&X,X&X&XE.E.E.].].`.`.E.E.E.E.E.].].].J.].*X].J.H.&Xc.y.u.W.R.C.G.D.G.].=X=XH.J.=XJ.H.H.,X&X&XE.H.H.H.H.H.D.D.G.H.H.H.F.F.F.M.F.F.F.F.D.H.G.E.u. .X.T X.@XV.u.W.OXOXV.k.nXVXnXV.,.j.+X=XXXM.0XeXS.j.S.7XOXOX+X=XOXOXmX7X=XXX+XS.1XG.&XnXM.6.8.%X%X8.M.b.m.XXm.*.*.m.j.m.m.m.v.XXE.OX7X2Xj.S.+Xj.S.2XnXaX+XK.%XXXXX5.5.7X0X5.m.S.L ,.,.C A C 0 L o.l.#X#X0XoXm.l.+XeXS.,.v.=XK.+X5.5.l.XXm.%XXXK.=X0X=X+XE.OX7X&XE.E.E.W.W.2X2X:X9X&X:X2XW.W.E.OX=X&XW.Q.Q.Q.E.E.H.E.H.H.J.H.J.H.E.E.E.E.E.E.E.E.E.E.E.E.E.E.E.E.E.E.E.E.E.E.E.E.R.R.E.E.J.J.J.E.E.E.E.H.H.H.H.H.G.G.H.H.H.H.H.H.H.H.H.H.H.E.R.R.R.E.H.H.H.G.G.G.G.G.G.G.G.G.H.H.H.H.E.E.E.E.E.E.E.E.E.E.E.E.E.E.E.E.E.E.E.E.E.E.E.E.E.E.E.E.E.E.",
"E.E.E.E.E.E.E.E.E.E.E.E.].{.{.{.].&X&X&X&X&XE.E.].].E.E.E.E.].E.].].E.E.E.E.E.E.E.E.E.E.E.E.E.E.J.E.].].].].E.].E.E.J.J.H.H.H.H.J.J.J.E.E.E.H.H.J.J.H.H.H.H.J.J.J.J.J.J.J.J.J.J.J.J.J.J.J.E.].].].].].].].].].].].].].J._.].E.E.].E.].].J.J.J.J.=XH.E.H.H.=X=XJ.D.=X=XH.J.].E.E.]._.J.J.J.J.J.J.E.E.J.E.].]._._.].H.&X=XH.].,X{.*XE.].,X&X&XE.&X&XE.E.E.].E.J.J.].E.E.E.J.E.E.J.].].].E.E.].E :.-.R.G.B.G.D.C.].].=X*X].D.E.*XE.&X&X&XR.H.H.C.H.H.H.H.H.H.H.H.H.F.G.H.H.H.H.G.G.G.H.E.,. . . .S.2X2XY.u.Q.S.u.Y.HXnX@X,.;.+XnXeX9XK.D.K.K.v.,.j.S.+X+X+XOX=X7XK.OX7X,XOXV.u.7X=X0X7.M.rXeX6.7.8.m.m.5.*.j.l.m.+X7XV.+XaXgXaX+XT T t.j.*.+XQ.7XDX0XD.XX%XM.=.5.K.+X+X0X0XS.#XeX0XS.C L L j.#XS.oX7XS.m.oXeX0Xj.j.E.7X&XOXS.5.5.m.oX%XM.7.=XK.v.+X7X,X9XOXH.H.E.Q.@X1X&X,X,XG.,X:X1X9X7X=XE.&X,XT.E.E.E.E.H.H.H.H.J.E.H.H.E.E.E.Q.E.E.Q.R.E.E.E.E.E.E.E.E.E.E.E.E.E.E.E.E.E.E.E.E.J.J.J.J.E.E.E.H.H.H.H.H.K.G.G.H.G.G.H.H.H.H.H.H.E.E.E.E.E.E.E.E.H.G.G.G.G.G.G.G.G.H.H.H.H.H.E.E.R.E.E.E.E.E.E.E.E.E.E.E.E.E.E.E.E.E.E.E.E.E.E.E.E.E.E.E.",
"E.E.E.E.E.E.E.E.E.E.E.E.].{.{.{.].&X&X&X&X&X].].&X&X].E.E.E.].].].].E.E.E.E.E.E.E.E.E.E.E.H.H.H.H.J.E.E.].].E.].E.J.E.J.H.H.H.H.H.H.J.J.E.J.H.H.H.H.H.H.J.J.J.J.J.J.J.J.J.J.J.J.J.E.].].].].].J.].].].].].].].].].].].J.J.J.E.E.`.J.`.].E.J.J.J.E.E.E.&XJ.=X<.<.m.v.=XOXJ.].].J._._.J.J.`.J.E.J.J.E.E.E.J.J._._.].E.J.E.H.H.&X,X*X&X&X&XE.&X&XE.&X&XE.E.E.E.].].E.E.E.].J.E.].].=XH.&X&XE.&XJ x.J.].G.C.v.C.D.H.E.=X{.{.*X&X{.&XQ.W.&XR.G.E.R.E.J.].].J.H.F.H.J.R.R.R.H.H.G.G.R.Q.Q.W.X. .X.,.7XpXuX1Xt.;.V.X.@XbXpX@X .j.7X+X7XB.<.<.z.,XE.u.E.K.XXK.K.D.K.OXOX9X7X1X:XB.u.mX=X0X7.m.DXXX8.6.=.5.8.,.*.m.j.S.7XCXT.k.pX7XS.X. .,. .P  .S.S.S.nXeX0X0XXX6.6.m.XX+X7XnX7X0X0X0X7X7X#Xj.p +XnXS.+XS.m.0X7XXXK.7X7X&X,XE.K.=X5.XXm.oX%XM.b.=X7XE.0X7X=X=XJ.H.H.&X&XiX7X7X7X7X2X,XaXaX1X,X7X=XE.:XE.E.E.E.E.H.H.H.H.H.].E.H.E.H.H.E.E.Q.W.E.E.R.E.E.E.E.E.E.E.E.R.E.E.E.E.E.E.E.E.E.J.J.E.J.E.E.J.H.H.H.H.H.K.K.G.G.G.G.G.G.H.H.H.R.E.E.E.E.E.E.E.E.H.H.G.G.G.G.G.G.G.G.H.H.H.H.R.R.R.E.E.E.E.E.E.E.E.E.E.E.E.E.E.E.E.E.E.E.E.E.E.E.].E.E.E.",
"E.E.E.E.E.E.E.E.].E.E.].].{.].].].&X].&X&X&X{.].&X&X].].E.E.].].].].].E.E.E.E.E.E.E.E.E.J.H.G.G.H.H.J.J.J.J.E.J.J.J.J.J.J.J.J.H.J.J.J.E.E.E.H.H.H.H.H.E.E.E.J.H.J.J.J.J.J.J.J.J.J.`.].].].].`.J.].].].].].].].].].J.J.J.J.J.E.J.`.`.`.`.].J.J.E.&X&XE.OX+X*.<.5.*.,.=XOXJ.H.H.].J.J.J.J.`.`.J.J.J.J.J.J.J.J.J.J.H.=X=XE.E.E.E.OXE.E.,X:XW.G.OX5X,X&X].E.E.].=X=X].].].].].].J.J.E.].E.&XQ.&X:.&XJ.D.C.H.C.D.H.H.H.E.,X>XE.&XR.r.W W V.:X*X{.].].].].`.J.H.H.J.E.:X<X:XW.@X@X:X1X1X:X:X .H L ,.@X<XdX~.jXi.T X.Q.pXpX7X .,. .F {  .u.=Xb.,.*.j.v.z.*.%.*.*.E.MXSXaXOXOX,Xu.,.9XK.B.b.<.=X%XXX*.{ =.8.5.5.XXK.#XpXVXQ.t.@XQ.Z  .t. .L F  .,.,.,.nXmX9XoX6.m.m.m.0X9X7XnX7X+X0XoXl.7XDXeX4.#XnXS.Y.+XS.#X#XS.7X9X1X1X>X:XH.&XOXz.D.K.8.b.=XE.W.OX:XOXOXJ.H.E.E.,X:X2X+X2X9X:X:X7X:X1X&X:XmXnX7X9XE.E.H.H.H.H.H.E.E.E.E.H.].=X&XE.E.E.W.,X1X,X{.E.H.E.Q.R.R.R.R.R.R.E.E.E.E.R.R.J.J.J.E.E.J.E.J.H.H.H.K.H.H.H.H.H.H.G.G.G.G.H.H.R.R.E.E.E.E.E.E.E.E.H.H.G.H.G.G.G.G.H.G.H.H.H.H.R.E.E.E.E.E.E.E.E.E.E.E.E.].{.E.E.E.E.E.E.E.E.E.E.E.].].E.E.",
"E.E.E.E.E.E.E.E.E.E.E.E.].].].].E.E.{.{.&X&X{.{.&X&X].].E.E.].].].].].E.E.E.E.E.H.H.E.E.J.H.G.H.H.H.H.H.J.J.E.J.].J.J.J.J.E.E.J.E.J.E.E.E.E.J.H.H.H.H.E.E.E.J.H.J.J.H.J.J._.`.`.`.`.J.J.J.J.`.].].].J.].].].].].J.J.J.J.J.J.J.J.`._.J.].`.E.E.E.=X<.j.v.+X{ ,.<.%.<.,XE.=X=XE.H.E.J.J.`.`.`.J.E.J.J.J.J.J.J.J.J.=XH.E.=X&XE.T.W.E.&X1XOX&X:X:X&X,X&X].E.E.&X=X,X*X=XE.J.].=X].].E.].].].*XZ.Q.&XG.H.H.H.C.D.C.G.E.&X:X:X:XQ.i.u.;.Z.W.W.&X{.R.G.].J.F.F.H.J.J.E.2XaXpXpXdXkXjXbXhXpXdXV.X.Z ,.dXdXkXQ.pXdXt.W e.Q.k.k.Z L | F { *.D.mXOX .*.5.D.J.5.L S <.VXKXgXV.2X7X7X%.,.0X+X=X,Xv.%.m.m.*.} 6.<.5.m.0X7XnXbXbX2Xk.@XT v T X.o.,. . .*.,.t.DX7XK.m.m.%XoXoX7X:X:X7X+X,.S.+XXX4.oX7XoXl.j.T j.j.L o.;.V.nX7X,XaX{.R.{.E.&X,XXXM.0XXXH.OXG.OXOXE.K.H.H.E.&X:X&X2X2X7X2X,X7XS.1X:XOX+X=X,X7X5XH.H.H.H.H.H.H.E.E.E.E.H.&X9X,X,X&X,X1X1X5X,X*X{.{.E.Q.R.R.R.R.R.R.E.E.E.E.R.R.J.J.J.E.E.E.J.H.H.H.H.K.H.E.H.H.H.K.G.G.G.G.H.H.R.R.R.R.E.E.E.E.E.E.E.H.H.G.G.G.G.G.H.H.H.H.H.H.E.E.E.E.E.E.E.E.E.E.E.].{.&X&X&X{.E.E.E.E.E.E.E.E.E.].].E.E.",
"E.E.E.E.E.E.E.E.E.E.E.E.].].{.{.E.E.].{.&X&X{.{.].{.].E.E.E.].].E.E._.].J.J.J.J.H.H.J.J.J.G.G.H.H.H.H.H.J.J.E.J.J.J.J.J.E.].E.E.E.E.E.E.E.E.E.H.H.H.H.H.E.E.E.J.J.J.J.J.J.J.J.J.J.J.J.J.J.J.`.].].].J.].].].].].E.E.J.J.E.E.E.E.].J.J.].].].E.E.&Xx.P j.m.*.,.,.j.j.m.S.E.OX&XE.].J.`.`.J.E.E.J.J._.J.J.J.J.E.E.E.=XB.y.B.&X&XW.&X,X,X&X&XE.&X,X,X&XE.E.E.].=X=X*X*X].].=X=X].=X].E.].].B.x.&XQ.E.].H.G.B.G.E.,X&XW.&XW.&X2XQ.V.t.@X:X:X,XZ.s.E.].H.G.G.H.J.].&X:XiXpXpXkXbXbXbXkXkXkXbXpXk.Y.HXuX@XhXhXuXpXt.Z I.@XX.q Z | f L  .*.+X,.P +Xb.=X7X+X*.%.S.gX7Xj.;.V.gX+X,.m.7X9XmXnX&X*.5.,.6.*.5.=.b.K.7XnXnXpXpX@Xt.V.H  .A A C L ,.,. . .Q.nX+XoXXXXXXXm.0X0X+XK.:X+XL F 4.oX*.l.l. .L C p C Z H j.,.j.7XgX:X,X{.W.E.{.H.E.K.=XK.OXE.&XV.:XT.W.W.W.E.E.&X&XW.1X7X7X7X:X,XW.:XW.W.OX:X,X=XE.H.K.H.E.E.E.T.E.E.E.E.H.,X9X7X9X,X,X2X,XaX5X,XE.R.Q.Q.E.R.H.R.R.R.E.E.E.E.R.R.J.J.J.E.E.E.J.H.H.H.H.K.K.E.H.H.H.K.G.G.G.G.H.R.R.R.H.R.R.R.E.E.H.H.H.H.H.G.G.G.G.G.G.G.H.H.H.H.R.R.E.E.E.E.E.E.E.E.E.{.{.&X&X&X{.].E.E.E.E.E.E.].].E.E.E.E.",
"E.E.E.E.E.E.E.E.E.E.E.E.].{.{.{.E.E.E.].&X&X&X{.].].E.E.E.E.].E.J.J._._.J.J.H.H.J.J.J.E.J.G.G.H.H.H.G.H.H.J.E.J.J.J.J.J.J.E.E.J.E.J.J.H.H.H.H.H.H.H.H.H.H.E.E.E.J.J.J.J.J.J.J.J.H.H.J.J.J.J.`.`.].].].].].].].].].].J.J.E.E.].].].J.E.E.].E.E.E.&X7X7X7Xj. .,.,.,.j.,.,.E u.:X&XE.].].E.E.].E.E.J._.J.J.J.H.H.E.=Xy.;.u.B.G.W.OXE.,X&XE.E.:X&X&X>X=XE.E.E.].].].].,X,X=X=XC.y.y.{.&XE.&XJ G.W.OX*X].H.H.G.H.H.W.W.&X2X&XOXQ.V.V.:.:X2XOXR.Z.{.{.{.R.H.H.H.R.W.2X2XpX<X@XhXFXFXFXFXFXlXbXFXbXBXpXhXkXuX@XQ.@X~.W X.@XW b X.A C { *.{ P P ,.7X7X9X,X,X9XnXK.X.o.X.,.@X7XK.%.m.9X9XDXnXB.K.nX0X*.=.5.5.XX9XgXnXgXpXdX@X;.Y.C C C L A L  .L | L Q.#Xj.0XeX%Xm.F m.=XH.R.&X+Xj.f w 5.4.4...C p V V p  .#Xk.o.<.<.+X9X2XW.W.R.E.E.K.=XOX=XW.T.:XT.i.@X&XOXE.T.T.&X:X:X2XOX7X9X,X9XOXW.Q.W.E.K.H.H.H.E.E.E.E.E.E.E.E.E.E.E.E.,X=X=X9X9X9X,XR.{.W.>XW.W.E.E.E.R.H.R.R.R.E.E.E.E.E.R.E.J.E.E.E.E.E.H.H.H.H.K.K.E.H.H.H.K.G.G.G.H.R.R.R.R.H.H.R.R.R.E.H.H.H.H.H.G.G.G.G.G.G.G.G.G.H.H.H.H.E.E.E.E.E.E.E.E.E.E.].{.&X{.].E.E.E.E.E.].E.].].E.E.E.E.",
"E.E.E.E.E.E.E.E.E.E.E.E.].{.{.{.E.E.E.E.{.{.{.{.E.&XE.E.E.E.J.H.J.H.H.D.D.D.H.J.C.F.].v.>.<.H.H.J.J.H.J.H.H.J.].J.J.E.J.J.E.J.J.E.E.J.H.H.H.H.E.H.H.H.H.H.H.E.E.E.E.J.J.J.J.J.J.J.J.H.J.J.].].J.E.E.E.E.E.E.E.J.J.E.E.E.E.E.E.E.E.&XE.E.{.&X*X2X7X7X7X7X .S.pXS.j.S.,.S.2X2XZ.5X9X,X>X>X*X].E.R.H.].].].H.H.H.E.,X .P C :.W.G.&X,X,X&XE.{.{.E.*X].].E.].E.E.=XE.].E.*X,X>X*X*Xy.S x.E.&XH G.:X:XW.{.*XQ.Z.*XE.:XW.2XOXOXOXE.;.;.%.&X,XV.:.{.E.E.Q.&XR.Q.:X:XW.<X@XY.t.p.L.^.lXPXPXPXPXFXbXFXbXbXbXyX@X@XQ.Y.t.t.U t.T q p C L F F { { *...=XDX+X2XnX7XS.o.| j.j.X.+XK...L j.nXVXJXOXT.7XmX9X .,.<.K.nXnXMXbXdXQ.uXV.u.W , q p L L L  .| L H S.2X,.+X0Xm.m.{  .+XW.W.:X,.4. .0 A l.l.4.L C v p k.nX7X,.Y.t.+X7X7X7X@X&XE.E.,X,X,XK.OX:XW.:XQ.u.E V.j.OX&X&X&X&XQ.2X,.B.+XE.:XT.:XQ.W.H.E.K.E.E.E.E.&X:X,X,X&XW.T.K.E.E.7X,X9XmX,X&XW.:X:X>X*X*X{.E.E.E.E.R.R.R.E.E.E.E.E.E.E.J.J.J.E.E.E.J.H.H.H.H.H.H.E.H.H.H.G.G.G.G.H.H.E.H.H.H.H.H.H.E.E.H.H.H.H.G.G.G.G.G.G.G.G.G.H.H.H.R.R.E.E.E.E.E.E.E.E.E.E.{.&X&X{.E.E.E.E.].{.E.E.E.E.E.E.E.E.",
"E.E.E.E.E.E.E.E.E.E.E.E.].].{.{.E.E.E.E.E.E.E.E.E.{.E.E.E.E.E.J.E.=XJ.J.].=X].].=XD.<.%.<.<.<.C.H.J.H.H.H.D.H.J.J.J.E.J.J.E.J.J.J.J.H.H.H.J.E.E.H.H.H.H.H.H.J.E.J.J.J.E.].].E.J.J.E.E.J.J.].].].E.E.E.E.E.J.J.J.J.E.E.E.E.E.E.&XE.OX*X>X1X5XaX1XK.j.,.S.L 7XHXHXHXnXbXHXHX:XV.MXNXfXgXgXsX9X,X*X].H.J.J.E.E.G.E.,X,XE.B.OX:X,X,X,X&X&X].].&X>X*X*X{.E.=X*X].=XE.E.W.E.:X{.&X5X,X&X<.E H 0 T 2XT.B.&X&X&X&X:XG.OXOXu.S.OX:Xj.%.<.E.2Xx.<.Q.E.W.G.W.W.W.@XW.:XY.u.e.p.P.lXPXyXyX^.tXPXlXhXkXbXbXpX@X@X@XL.S.t.| T e.Z Z q p { { F $.6.5.5.} *.S.Q.aXj.,.A C L L L  .K.S.5.j.K.SXSXgXK.gXnXgXgX .%.&XmXMXNXBXbXkXdXuXW ;.I.;.0 % p L *.,.A v ,.,.2X2XS.{ F +XK.C V.:XW.V.%. .| w w ..l.S.l.j.,. .@X@XY.l.7X..l.+XS.:X1XOXQ.,XOXK.7X0XK.S.:X:X2XT. .S.S.D.K.0X+X+X+XOXS.E.S.S.:XOX:XOXW.H.W.E.K.W.W.&X&XOXG.:X,X,XT.W.K.E.9X,XgX=XE.W.Q.W.W.{.{.*X{.E.E.E.Q.R.R.R.R.E.E.E.E.E.E.J.J.J.E.E.E.E.E.E.E.H.H.H.H.H.H.G.G.G.G.H.H.H.E.E.H.R.R.H.H.R.R.H.H.H.H.G.G.G.G.G.G.G.H.H.H.H.H.R.E.R.E.E.E.E.E.E.E.E.E.E.{.{.{.E.E.E.E.{.{.E.E.E.E.E.E.E.E.",
"E.E.E.E.E.E.E.E.E.E.E.E.].].].E.E.E.E.E.E.E.E.E.E.E.E.E.E.E.E.J.J.J.C.H.J.C.a.b.%.) =.<.<.<.z.b.D.F.F.H.H.D.H.H.H.J.J.J.J.J.J.J.J.H.H.H.H.H.J.E.H.H.H.H.H.H.H.J.E.E.E.E.H.H.E.].H.E.E.E.E.E.E.E.E.E.].].&X&X&X&X&X&X].].{.W.&X:X1X7XgXMXcXMXMX7X,.,.t.S. .+XpXCXHXHXVXHXpXk.2XVXJXZXNXmXNXNXgX5XE.J.=XH.H.E.&X&XW.B.OX:X,X&X&X>XH.&XW.&XE.:X5X,X5X9X,X*X*X&X,X,X*X,X&X&X5X&XQ.,XfX1XfX:Xy.T T.OXu.V.G.2XW.OXT.:X,X .B.,XB.S.x.,.7X+XL :.:X:X:X:XW.@X<XQ.k.t.k.~.lXlXhXPXPXPXFXPXtXlXGXHXHXdXS.j.p.w.k.t.k.o.Z T o.w H L p { L 5.oXoXoXoX4.,.| t.t.C  .T A A L A L S.m. . .+XSXDXS.v.2XS.u.S.;.B.MXVXVXHXGXhX<X~.I.i.i.Q.VXu.0 < 0 p p L +XOXH S.7X7X .S m.0XL ;.Q.OX .L L ,.V V l.l.S.l.o.t.o.t.k.o.+X#Xo.o.j.S.j.OXOX:X:X0X7X7XK.D.S.0XS.7X7X .XXK.<.b.XX,X+X:XOX+XOX+X0X7XaXQ.:X2X&X+X+X:X,X2X2XgX:Xu.+X7X7X:XK.K.H.&X&X,XE.,XW.E.Q.E.W.*X&X*XE.E.E.Q.E.E.R.R.E.E.E.E.E.E.E.E.R.E.E.E.E.E.E.E.E.H.H.H.H.K.G.G.G.G.H.H.R.R.R.R.R.R.R.R.R.H.H.H.H.G.G.G.G.G.G.G.H.H.H.H.H.H.H.R.H.R.E.E.E.E.E.E.E.E.E.E.E.E.E.E.E.E.].].E.E.E.E.E.E.E.E.",
"E.E.E.E.E.E.E.E.E.E.E.E.].].].E.E.E.E.E.E.E.E.E.E.E.E.E.E.E.J.C.v.a.<.>.>.) P P %.<.b.b.b.b.z.z.C.D.D.H.H.D.F.D.F.H.H.J.J.J.J.H.J.J.H.H.H.H.H.H.H.H.H.H.J.E.E.E.H.H.E.E.E.E.E.E.E.E.].].&X3XgXgXgXzXmXmXmXmXNXNXmXmXmXNXNXmXmXNXMXbXCXHXVXVXMXQ.,.j.,.j.L L @XJXVXHXHXHXBXdXBXjXCXNXCXCXMX9X5XgX&XE.H.&XE.E.OXL E ;.;.j.,XE.E.,Xx.,XW.&X:X5XgXgXgXfXaX,X9XmXfX5X7XiX1X7XgXaXQ.S.1XgXaXgXMXOX,.gXV.u.S.gXV.S.OXV.7Xu.;.+X,.S.<.,.+X,.x.u.7XaX:XW.W.W.k.W t.yXGXGXFXyXPXFXyXhXFXFXPXhXFXGXGX@Xk.k.t.o.S.t.A A Z T X.w L X.0 C { m.m.m.m.m.}  .| L ,.C C v v V V C L j.,.|  .,.7X:Xj.0X:Xu.%.B.Q.ZXGXVXHXGXGXuXQ.I.W jXdXi.bXbX;.< p @ p S.nXk.v u.u.2X+XC C t.b b E x.T v 0 L o.O.4.l.oXt. .,.j.S.S.,.$X#Xl.,. .S.k.Q.T.2XS.+X+XXXK.XXK.m.,.m.0X{ ..b.m.oXm.K.7X0X+XS.+XS.+X@X2XV.Y.@X2X+X,X7XaXOXT.2X:X,.x.K.,X7X+XK.E.E.E.E.&XE.Q.E.R.W.Q.&X{.E.E.E.E.E.E.E.R.R.E.E.E.E.E.E.E.E.E.E.E.E.J.E.E.E.E.H.H.H.G.G.G.G.H.H.H.H.R.R.E.E.R.R.R.R.R.R.H.H.H.H.H.H.H.G.G.H.H.H.H.H.H.H.H.H.R.E.E.E.E.E.E.E.E.E.E.E.E.E.E.E.E.].].].E.E.E.E.E.E.E.E.",
"E.E.E.E.E.E.E.E.E.E.E.].].].].E.].E.E.E.E.E.E.E.E.E.E.E.E.E.H.x.<.=.%.P %.%.<.%.v.F.b.<.v.v.2.b.D.F.D.H.H.D.D.C.D.D.F.H.J.J.J.J.J.J.H.H.H.H.H.H.H.H.H.E.E.].E.E.].E.R.E.W.&X&X].>X9XgXmXNXZXZXZXVXZXSXSXSXJXJXJXJXSXSXJXJXJXVXCXbXbXBXGXVXJXbXj.,.,.L o.A  .@XpXHXHXHXHXHXBXjXbXCXMXNXVXmX&XW.5X1XE.&XH.&X&Xy.T E E y.E.=X&X=XE.R.W.:X:XaXgXdXjXbXMXBXMXfXaXpXfXbX<XpX@XW.7XCXaXS.OX:XQ.S.gXu.S.S.x.j.7XV.X.7XT.j.,.L OX,.j. .,.K.;.+X,.aX1XgXiXI.T T !.BXKXFXPXlXyXPXPXyXPXFXPXFXkXFXbXdXY.k.t.| Y.pXyXT Z v Z v q v L L *.m.oXoXoX6.F f C p A | p  .,. . .p p V C C L C  .,.S.S.K.u.E.7X2X+XnXBXdXBXbXdX@XY.X.u.GXbXu.V.i.X.E ,. . .o.V.OXZ j.H ,.7XL * 0 q , q v v L T A ,.l.l.l.l. .o.l.S.l.t.Y.7X#XO.L V o.S.Y.@X7Xu.S.S.5.,.m.m.,. .*.+X4.*.5.5.5.4.,.9XS.C ,.#Xm.S.Y.Y.k.@XpXpX7X7X7X7X@Xj.Q.OXk.S.v.v.0X+X=X&XE.OXH.E.R.E.Q.E.E.R.W.Q.R.E.E.E.E.E.E.E.E.E.E.E.E.E.E.E.E.E.E.J.J.J.J.J.E.E.K.K.H.G.G.G.H.G.G.H.H.H.R.R.E.H.H.E.E.E.E.H.H.H.H.H.H.H.H.G.H.H.H.H.H.H.H.R.H.E.E.E.E.E.E.E.].E.E.E.E.E.E.].{.{.{.&X].E.E.E.{.E.E.E.E.",
"E.E.E.E.E.E.E.E.E.E.E.E.].].].E.E.E.E.E.E.E.E.E.E.E.E.E.H.E.H.x.<.%.<.>.<.b.D.b.2.z.b.z.z.z.v.v.D.H.D.D.D.D.F.D.D.D.D.H.H.H.J.J.H.H.H.H.H.H.H.H.H.H.E.E.E.J.H.H.R.Q.&X,X9XgXmXNXNXCXCXNXNXZXJXJXJXJXJXJXJXJXJXSXSXSXSXJXJXJXCXMXbXbXbXBXGXKXCXj. . .} ..| ,. .H k.VXHXnXGXjXbXgXbXMXMXfXaX1X1X1X1XgXE.OX7Xj.E L %.W.:X&X=XJ.E.&X,Xu.1XaXfXjXdXBXBXGXVXjXbXbXpXW.I.k.Y.2X1X2XgXaX2XQ.V.V.:XBXV.T Q.S.T T.Q.H 2XOXu.S. . .F L  .;.t.,.V. .2X1XW.u.H e.@X@XbXbXPXhXhXyXhXPXyXPXFXFXFXFXFXHXkXk.j.| X.@XnXS.Z V v | T X.j.l. .,.$XoXoX6...} F f f p e V l.S.K.j.q 0 q p p C C C T  . .,.,.S.+XE.j.S.OXV.<XW.S.Q.X.v Q.2XS.;.;.E L Z T | L C C t.C Q X.0  .| e V v * , q 0 C | L j.#Xt.A A V o.l.l.o.o.Y.#Xt.| A w L o.,.pXnXS.S.#X,.{ 5.4.5.}  .,.*...5.m.4.5.0X+XC V  .#XS.S.#X#Xk.+X@XnXnXbXVXVXbXbXpXpX7X+Xj.v.K.7X7X,X,X:X&XH.*XE.Q.E.E.R.Q.E.E.E.E.E.E.E.E.E.E.E.E.E.E.E.E.E.E.E.E.E.J.H.J.H.H.H.K.H.H.G.G.H.H.G.G.H.H.H.R.H.E.H.R.E.E.E.E.H.E.H.H.H.H.H.H.H.H.H.H.H.H.E.E.E.R.R.R.R.E.E.E.E.E.{.].E.E.E.E.E.{.{.{.{.].E.E.E.{.E.E.E.E.",
"E.E.E.E.E.E.E.E.E.E.E.E.].].].E.E.E.E.E.E.E.E.E.E.E.E.E.H.E.E.C.<.=.=.a.a.2.a.z.v.F.D.v.v.v.z.2.C.D.D.D.D.D.H.H.D.D.D.F.H.H.H.J.H.H.H.H.H.H.H.H.H.E.E.H.H.E.].{.,X9XzXNXMXmXmXmXmXNXCXNXmXCXSXJXJXJXJXSXSXSXSXSXSXSXJXSXVXCXcXfXjXbXbXBXGXGXVX+XL ,.#X$X..v v m w pXBXdXjXbXjXaXgXCXSXMXgXMXCXfXaXgX9X7XB.x.W.V.,XQ.&XE.E.=X].=X@X;.Y.jXbXBXBXHXKXHXHXbXbXbXdXpX@Xk.X.V.u.V.OXnX2XOXQ.V.Q.7XgXj.S.7XF ;.pX,.T S.T.V.,.L p A V.L Z t.7Xt.OX<XE v X.Q.uXY.bXHXhXlXyXyXlXlXhXPXFXFXFXGXlXkX@XX.t.T t.k.Y.A w T p.t.| k.j.l. .4.XXoX5.*.m.oXm.4.A A e w L 4...C p p w e 0 V V C v C C C T ,.,.u.j.j.S.S.Y.k.V.j.C L j.,.j.V.E H H p 0 V A C p v p 0 C p p V e e m v e e , V L o.k.t.v V p e | oXj.| t.Y.Y.A L A V L | C k.7XS.t.0Xl.4.,.} 4.| ,.,.*.l.j.l...o.nXS.v L p ,.S.#X$X#Xk.#X@XpXnXnXnXGXGXbXbXbXVXnXS.+X7X9X7X+X7X9XaX,XQ.E.E.E.E.E.R.E.E.E.E.E.E.E.E.E.E.E.E.E.E.E.E.E.E.J.J.E.J.J.H.H.H.H.K.H.H.G.G.G.G.G.G.H.H.R.R.R.R.E.E.E.E.E.R.H.H.E.H.H.E.H.H.H.H.H.H.H.H.E.E.E.E.R.R.R.R.E.E.E.E.&X{.E.E.E.E.E.E.{.{.{.E.E.E.].E.E.E.E.E.",
"E.E.E.E.E.E.E.E.E.E.E.E.].].].E.E.E.E.E.E.E.E.E.E.E.E.=XE.H.].H.<.<.<.z.2.z.z.D.D.v.v.v.v.b.2.2.v.D.D.F.D.D.H.F.D.D.D.F.F.F.F.H.J.J.H.H.H.H.H.H.H.R.R.R.E.=X5XgXzXzXzXzXmXNXmXzXmXCXCXNXzXNXSXJXVXSXSXZXZXSXSXZXZXSXJXVXMXfXgXdXkXbXBXLXBXfXVXVXS.l.oXXXC p T 1 | j.p C j.7XpXaXfXgXgXnXnXaXOXk.x.T.S.,.;.2XMX+XS.2XOX&X:XE.*XW.@Xi.t.BXbXHXGXbXGXHXkXk.i.@XpX@Xt.k.jXbXV. .j.t.u.+XnXQ.S.t.OXk.,.S. . .j.K.b j.OX .C C p V ,.b u  .t.;.;.U n W Y.@X@XkXbXFX!.@XyXyXlXyXFXPXFXFXkXbX!.t.w.i.@X@X@X@Xo.V T j.k.o.I k.k.l.j.l.#X5.4.l.m.m.oXXX} p F C f p e 0 C p 0 p v A C C L L u p b C L ,.j.<.t.t.j.S. .0 V C L F  .*.u p t < p V p C C v v w w p v e , , e , e q q q  .#X#XX.p w V w T o.A | Y.pX#XL L | A p T C  .,.T A OXnXXX,.,.,. .T ,.t.j.L j.+Xt.T T Z A p ,.$X7XS.k.#XY.t.j.j.t.l.@XHXHXHXHXVX@XS.eXnXXX7Xj.x.9X1X,X1XW.E.E.E.E.E.E.E.E.E.E.E.E.Q.E.E.E.E.E.E.E.E.E.E.J.J.E.E.E.J.H.H.H.H.H.H.G.G.G.G.H.H.H.H.E.E.E.E.E.E.E.E.R.R.H.H.H.H.H.E.E.H.H.H.H.H.R.H.E.E.E.R.E.E.E.E.E.E.{.&X&X{.E.E.E.E.E.E.E.{.E.E.E.E.E.].E.E.E.E.",
"E.E.E.E.E.E.].].E.E.E.E.E.E.E.E.E.E.E.E.E.E.E.E.].].J.J._.F.C.D.<.<.>.<.a.b.v.C.v.b.b.c.b.z.<.<.a.v.D.C.C.D.H.H.D.F.H.F.D.F.F.F.J.J.H.H.H.H.G.G.H.H.R.G.,XgXgXmXmXxXxXzXzXzXmXNXmXNXmXNXCXNXZXJXVXJXZXVXJXJXVXCXZXJXCXfXaXcXcXjXGXLXLXLXHXbXVXpX .| L A v p v A oXL A L T +XnX7XaXnXbXnXnXpXo.Z T  . . .E.nX,.L T X.S.:X2X@X:X:XI.k.U Q.KXHXHXGXbXt.X.t.e.#XY.e.Z p.@XbXbXY.t.| p  .S.j.Q.j.t.,.L ..,. . .,. .C S.,. .P C p C v 0 v k.u.H u Z t.@X@X@XpXk.X.k.P.yX@XyXhXlXlXlXkXkXFXI.t.pXHXbX~.uXpXt.L t.Y.k.v , T t.,.l.t.l...l.4.5.5.l.l.*.f f f e 9 w C A T L v p p p C  .,. .L C p p C P ,.,.X.t.C q 0 p C F f F P p t 0 0 p 0 p  .k.o.q q q 0 v p < q q , , # , , t.t.#X .A A p w v w w o.k.k.#Xt.o.l.V w T T o. .t.;. .@X@Xj.j.k.,.T o.t.o.t.T.S. .L A L V V C o.l.,.@X@XpXj.o.,.| t.t.pXHXHXbX2Xl.#XnXnXXXXX0X5.+X9XaX1XQ.E.E.E.R.E.E.E.E.E.Q.E.E.Q.Q.Q.E.H.E.E.E.E.H.H.H.H.H.H.H.H.H.H.E.H.H.H.H.G.G.H.R.E.E.E.E.R.R.E.H.H.R.R.E.E.H.H.H.R.R.R.R.E.E.H.R.R.E.E.E.E.R.R.E.E.E.E.E.E.E.E.E.E.E.E.E.E.W.W.W.W.W.W.W.W.W.W.W.W.W.W.",
"E.E.E.E.E.E.].].].].E.E.E.E.E.E.E.E.E.E.E.E.E.E.E.].J.J._.H.C.v.a.<.<.>.b.z.C.v.v.b.z.b.b.z.a.a.a.z.b.v.D.D.D.D.F.F.F.D.D.F.H.H.H.H.H.H.H.H.H.G.H.H.R.:XfXCXmXmXmXzXNXAXNXNXmXzXxXNXmXNXCXCXJXJXJXHXVXJXJXZXVXVXCXCXMXiXfXfXMXGXLXbXkXdXdXBXpX,. . .L L o.L Z #X4.A A A A S.nX2XHXaXk.j.@XnX+XT p L T j.7X;.C L  .L t.@X@Xt.T U m L.k.Z k.bXGXKXk.U X.j.t.T X.Z n Z Z ;.S.o.| A  .| 0 A j.v.<.L a C L L ,.,.{ p L P C C * 0 t 0 < q T  ., q X.Y.@XI.^.!.I Z X.p.k.L.L.~.yXlX!.yXkXbXL.k.yXI.U 2 v k.T T X.t.Z w q , A o.,.A | ,.oX4.*.m.S.m.S.} f F C p e 0 L Q.@Xk.C p p L | j.m.j.L L  .C H Z L p q * p L ;.*.F F L  .p * * 0 0 0 V ,.V.,.q , p : : q q 0 q q * , < L  .A 7X .e v v q q q Z k.Y.k.k.@X| w v A  .A C Z @XpXX.S.@XQ.k. . .t.t. .X.S.Q.T C L V A Z | A C A Y.pX@XpX2Xo.L l.l.l.pXbXnX#Xl.#XeXeXeXeXm.XXXXXX7XnX1X&XW.E.E.E.E.{.E.E.E.E.E.Q.Q.Q.E.E.H.H.E.E.E.E.H.E.H.H.H.H.H.H.H.H.H.H.H.H.G.H.H.R.E.E.E.R.R.R.R.H.H.E.E.E.E.R.H.H.R.E.R.E.Q.Q.R.R.R.R.Q.E.E.E.R.E.E.E.E.E.H.H.H.E.E.E.E.E.E.W.W.W.W.W.W.W.W.W.W.W.W.W.W.",
"E.E.E.E.E.E.E.E.{.{.{.{.E.E.E.E.E.E.E.E.E.E.E.E.].].J.D.F.H.F.D.v.z.b.<.C.b.D.v.v.b.b.b.b.b.z.z.<.<.a.b.D.H.F.C.D.D.D.D.F.H.H.F.H.H.H.H.H.H.H.H.H.R.E.5XgXfXgXmXMXNXCXAXNXmXzXzXNXCXNXVXVXbXfXfXgX2XW.:XuXBXVXgXQ.iXjXdXdXdXdXGXGX@XI.k.k.@XY.o. .,. . .nX7Xo.S.A z V A L l.nXnX7Xj.T T k.nXbX@X,.L ,.+Xj.L  .,.T X.OX2Xk.E T W X.kXbXi.I I X.k.e.T n T T ,.Z w T e.X.T Z L C A ..A p L  .,. .C p t C L C <.S t t b C b 0 t p t , 0 q 0 q v k.Q.@XI.i.i.v v w.w.X.p.k.P.lXI.m w.lXyX!.L.Z 2 v y q m C v , * e v C e e V | p f 4.*.5.XXoXm.+X0X4.} ..} A V f ..nXnXpXj.p p f L  . .{ C F  .C v 0 * , p p n Z H b C P *.%.t @ * 0 t C C T j. .< u v 0 , w p q u q # , q L b p k. .w L X.T v e I k.@XyX@XyXp.Z o.T A A | | Y.bXQ.Q.Q.Y.k.o.| t.,.L u.S.T T Z C C V V v X.T C Y.pXY.7XpXS.Z | t.S.yXpX@Xk.,.XX0X+XXXXXm.,.XXK.2XnXgXOXE.E.E.E.E.E.R.R.E.E.E.E.E.Q.E.E.E.E.E.E.E.E.H.E.E.E.H.H.H.H.H.H.H.H.H.G.G.H.H.E.E.E.E.E.E.R.E.H.H.E.E.E.E.E.H.R.E.E.E.E.Q.Q.R.R.R.E.E.E.E.E.E.E.E.E.E.E.H.H.E.E.E.E.E.E.E.W.W.OXOXW.W.E.E.W.E.W.W.W.W.",
"].E.E.E.E.E.E.E.{.{.{.{.E.E.E.E.E.E.E.E.E.E.E.E.=X].J.F.J.F.v.z.z.b.b.a.v.C.v.b.c.c.v.v.c.b.z.z.<.<.<.<.z.D.H.F.F.F.F.D.D.D.F.D.D.H.H.J.H.H.H.H.H.E.&X9XgXaXfXNXMXmXMXmXzXzXzXcXCXVXMXaXW.i.i.Y.Q.:X<XW.Q.:X<XI.~.dXjXjXdXBXjXBXhXuX!.L.i.t.| A A L L A #XbXl.A | A t.Y.l.S.bXnXj.T ,.,.k.@X+X@XY.t.t.j.T T  .L T Q.nXQ.X.U Z U @XKXkXhXkXL.e.e.w.e.X.e.k.T v w X.V.Q. .L v p V e A *.L 0 < , u p t t b t F H u u < u p u 0 C v u * < C n p ,.e.k.X.T T Z m Q o.k.k.I.yX!.Z q Q i.L.I.p.x X % # , * , q 9 e l.7X7XXXA 9 w f C .. .l.XX+XS.4.4...*.*.} } } A } +X$Xj.C C p f C L C p a p a a p , , 1 v q 1 q b p F L  .;.T Z u p C Z H L T Z u v Z v q q 1 , < < , % < < , C L T v T ,.X.Z , l Z X.L.@XpX@X,.o.V C T o.T ;.7X@X@X@Xk.X.X.T T X.L ,.X.Z Z t.X.T A X.v o.T w X.t.t.k.Y.Y.j.| X.#XpX#Xj.l.l.j.S.+X+X+X0X,.S.Q.2XbXbX1XOXQ.E.Q.E.E.R.H.E.E.H.H.H.E.E.E.E.E.E.E.E.E.E.E.E.H.H.H.H.E.H.H.H.H.H.G.G.H.H.E.E.E.E.E.E.E.E.H.H.R.E.Q.E.E.H.H.R.R.R.R.R.R.R.R.R.E.E.E.E.E.E.E.E.E.E.E.E.E.E.E.E.E.E.E.E.W.W.OXOXW.W.W.W.E.E.E.E.W.W.",
"].].E.E.E.E.E.E.E.E.E.E.E.E.E.E.E.E.E.E.E.E.E.E.H.J.J.].].D.a.>.%.<.a.z.b.C.b.v.b.b.b.c.b.b.z.z.a.z.a.<.<.z.C.D.F.H.H.F.D.D.F.F.D.H.H.J.H.F.H.J.E.E.,XsXmXgXmXgXzXfXfXzXcXMXMXjXMXdX~.V.i.k.I.Y.~.@X~.Q.V.i.I.<XjXdXjXpXdXbXGXBXpXuXY.L.k.o.|  .A A  .o.l.nX7XA o.| o.k.k.j.Y.V.b b T H Z H Z Z L H T T  . .Z v X.pX2XX.Z m Z t.kXKX@Xt.pX@XQ.^.X.W U X.W v q T I.k.,.X.,.Z C C V F C p < O = < * , 0 < u t p u u u * * u 0 < t p u % 0 q y E k.t.U x v Z n X.k.k.k.k.i.m # x , x n x q 2 , < < q q A C * F #XoXl.$X..C m.l.f } m.K.*. .p t * 0 } 4.} A } ..A A C f V F F f f e C f p p C A  .L : < q 1 , < y y q p Z H Y T U ;.,.L L H v v Z H H n n n v u u Z n y q q q Z H C C  .t.X.v , p v # v Z L U T j.V w C A L  .k.k.Y.pXk.X.X.Z V U Z X.W T Q ;.t.I v Z T S.k.q | T L T T | Y.Y.Y.bX#XS.S.pX+X,.S.+Xm.0X0Xk.+XQ.@XbXBXdX2XW.Q.Q.R.W.E.E.E.J.H.H.H.H.E.E.E.E.E.E.E.E.E.E.E.E.E.E.E.R.R.H.H.H.H.H.H.H.R.E.E.E.E.E.E.E.E.E.E.E.E.E.E.E.H.H.H.R.H.H.H.H.H.E.E.E.E.E.E.E.E.E.E.E.E.E.E.E.E.E.E.E.].&X&X{.{.OXOX&X&X{.W.W.W.{.W.W.W.",
"].].E.E.E.E.E.].E.E.E.E.E.E.E.E.E.E.E.E.E.E.E.E.H.E.].F.c.<.>.>.%.<.b.v.C.C.v.v.c.c.c.b.b.b.z.z.c.b.b.a.<.>.<.2.a.c.C.F.H.H.H.F.D.F.H.H.H.F.H.J.H.Q.sXsXzXsXzXaXfXgXgXgXfXcXMXjXdXY.i.k.k.i.I.yX@X@XQ.I.Y.V.I.<XdX<X~.<XuXdXGXBX~.~.~.@Xt.Z A | o.| ,.,.T ,.k.V w v q w Z Z X.u.W t.V.S.I.Y.Y.Q.Q.V.@X<X@XQ.Y.k. .k.~.k.k.Q t.@Xi.k.W v U m Z m x x v q q p q W t.T v H T L v p | L p u < < b Z c q p < t p & < % < & * < c u u q * % * u 2 H i.t.T W T U W Z X.;.t.u.W 2 2 Z Z v H T T n b b u Z #XnX#X,.C 4.l.l...4.XX0XXX5.F C F p @ p +X{ @ 0 f f A } F C A A f p f p e s p p C C C  .,.j.,.: 1 , q Z Z b b y v y u b Z U W X. .E W ;.W X.t.t.X.X.;.k.V.V.Y.W.k.E ;.t.j.S.,.,.X. .t.X.X.t.e.W X.W T H T j.L v v L T H H ;.X.X.Q | | T U T X.X.e.n m X.Z Q W Z Z X.w.v t.t.Z q Q Z I @XyX~.t.OX7XpX+XS.$XK.S.#X#X7XpXpXdXdXbXBXjXuX:X@XW.Q.R.R.H.H.H.H.E.E.E.E.E.E.E.E.E.E.E.E.E.E.E.E.E.R.R.H.H.H.H.G.H.H.R.H.E.E.E.E.E.E.E.E.E.E.E.E.E.R.H.H.H.H.H.G.G.G.H.R.R.E.E.E.E.E.E.E.E.E.E.E.E.E.E.E.E.E.{.OX&X{.{.OXOX&X&X{.{.W.W.{.{.W.W.",
"].E.E.E.E.{.].].E.E.E.E.].].E.E.E.E.E.E.E.E.E.E.].].G.a.>.%.<.a.a.z.v.v.C.v.v.b.v.v.c.b.b.b.b.b.z.z.z.z.<.=.%.>.<.2.b.C.D.F.H.F.D.D.F.H.F.F.H.J.H.R.gXgXgXgXmXmXgXaXaXaXaXgXjXfX<XI.V.I.Y.yXuX@XlX~.I.i.I.I.Q.uXdXuXI.I.Q.uXGXGX~.I.k.w.V e v L L Z L | A | Y.S.Y.#X@XnXbXGXLXBXbXdXjXbXVXJXGXJXJXJXJXKXGXHXHXBXjXX.m Z e.X.X.e.p.Y.I.~.~.Y.@XpX~.uXY.k.k.X.U T T Z U H  .;.L b b H H T ;.V.T.U.T.Q.iX@XT.r.E H Z H H H Y ;.r.t.V.V.V.k.V.k.k.Y.V.k.V.I.u.;.T X.V.V.@X~.~.pXOXv.*.,.X.;.Y H P H L 7X$Xl.5.4.*.5.oX..6.oXm.6.oX4.s * 9 * ..7X,.* f f p p f f f F C C A L C f s p s f  .*.S.S.,. ., q x m Z U H T T X.W E ;.e.e.e.e.;.e.t.u.t.u.u.V.Y.Q.Q.:X<XT.V.U.W.W.@XOXQ.OXOX1XV.V.2X1X2XpXdXuXkXjXbX<XgXpXpXpX@XQ.V.k.e.t.X.T T X.X.w.e.w.t.t.t.X.e.t.e.t.i.i.X.Z m v I T Q l Q X.I p.i.Q I T j.pX@XS.+XY.S.j.S.@X@XyXyXlXpXkXkXpXuX1X:X~.W.W.Q.E.R.E.E.E.E.E.E.E.E.E.E.H.H.H.H.H.H.E.E.H.H.H.H.H.H.G.G.H.H.R.R.E.E.E.E.R.R.E.E.E.E.R.R.H.H.H.H.H.G.G.Z.G.G.H.R.E.E.E.E.E.E.E.E.E.E.E.E.E.E.E.E.{.{.OX&XW.W.OXOX&X&XW.W.W.W.{.{.W.W.",
"].].E.E.E.].].].E.E.{.{.E.].E.E.E.E.E.E.E.E.E.E.H.C.y.>.<.c.C.C.v.c.v.C.v.C.C.v.v.v.v.v.v.C.v.v.v.v.v.c.b.z.a.a.z.z.a.z.b.C.F.H.F.D.F.F.F.F.F.H.J.H.sXgXsXgXgX9X9X5X5X5X5XaXdXdXiXY.Y.~.~.~.@XlX!.W x x n n U p.<XuXI.i.i.i.uXpXw.Z T i.t.Z e , e , v t.@XdXbXGXKXKXHXKXGXKXKXGXbXkXbXGXHXKXHXHXJXJXBXpX@XQ.i.W ;.t.W U e.Q.Y.~.Y.~.<XuX@X@XkXkXdXpXkXbXdXhXuXjXjXfXGXbXbXBXjXpXW.t.i.:X:X1XBXMXGXGXHXVXHXbXQ.V.V.i.r.k.u.r.;.;.;.;.e.u.W.iX|.:X@XdXbXbXMXfX1X:X:X<XdXkXdXy.P F S S H :.;.E  .C +X$X+X$XoXoXoXm...} oXoXoXm.oX#XF f A * V +XC $ 0 9 0 w f f } *.L L } } C f F } F 0 C *.j. .p , q 2 x Z U W W W W X.e.X.e.e.W e.i.t.e.X.W E ;.e.Y.jXbXpX@XV.V.i.V.V.Q.T.T.@XT.Q.W.i.V.2XaXiXuX<XuXuXdXpXdXdXbXBXbXGXGXHXHXGXBXBXGXbXbXbXbXbXHXBXGXGXKXLXLXGXGXLXkXY.p.p.i.k.!.lX~.!.yX@X@XuX!.i.k.U Q.bXY.u.Y.@XV.Y.k.k.i.e.!.^.L.Y.Y.Q.<XuXpXjXiX2X|.W.R.Q.Q.Q.E.E.E.E.E.E.E.E.H.H.H.H.H.H.H.H.H.G.H.H.G.G.H.H.R.E.E.E.E.E.E.R.E.E.E.E.R.R.H.H.H.H.H.G.G.Z.G.G.H.H.E.E.E.E.E.E.E.E.E.E.E.E.E.E.E.E.E.{.OXOXW.W.W.W.W.W.W.W.W.W.{.W.W.W.",
"E.E.].].].E.E.E.{.{.].].E.E.E.E.E.E.].E.E.E.E.E.z.%.%.a.v.C.F.C.C.v.v.v.C.C.C.v.v.v.v.v.D.H.J.J.J.H.F.F.C.v.v.v.v.c.b.b.v.v.C.F.F.F.D.D.F.J.J.J.G.E.gX,X5XsX,XgX,X1X,X,X1XaX:XiXuX@XY.Y.!.~.@X!.n : U i.e.n x 2 x n W i.p.W W e.e.!.kXBXhXpXX.Z Z T I.kXHXBXdXdXbXbXGXbXGXLXLXBXdXcXGXGXJXHXMXVXJXGXbXBXjXpX<XQ.<XjXBXBXjXpX~.@X<XQ.kXQ.~.i.I.hXkXQ.<XkXBXBXGXbXpX2X@X2X1XW.Y.W.@X<XjXjXjXGXcXGXLXkXdXjXiXT.V.U.u.r.i.U.~.|.|.<XQ.U.g.u.i.U.U.Q.<XiXfXdX<XuXcXVXW.` ;.i.H S =XoX%X%X=.P  .S a j.eXl.$XeX0XoXoXXXoX} oXXX5.oXoXm.L XX7XoXF e $ * p 4.XXXX+XC 0 F L | A p 9 p ,.,.,.F w 0 0 < 0 v Z Z Z T W w.e.X.W W W e.e.e.i.e.r.` Y U W W W W I.iXdX<XT.V.V.V.T.Q.U.U.T.T.U.V.e.;.V.pX<XW.|.uXdXdX<X<X~.~.dXdXdXdXBXBXbXBXGXGXHXHXGXHXHXGXHXLXLXLXKXKXLXkXhXuXe.I p.yX@X^.yXyXyX!.~.yXyXlXIX!.yXi.W GXGXbXHXJXHXGXbXhXyXL.U I q.p./.yX!.^.uXKXLXGXMXcXdX<XW.W.E.E.E.R.E.E.J.J.H.H.H.H.H.H.H.H.H.G.G.G.H.H.R.R.E.E.E.E.E.E.E.R.R.E.E.E.H.H.H.H.H.H.G.G.G.G.G.G.G.H.R.E.E.E.E.R.E.E.E.E.E.E.E.E.E.E.E.].E.&XW.W.W.W.W.W.W.W.W.W.W.W.W.W.",
"E.E.].E.].E.E.].{.{.].E.E.E.E.E.OXE.E.E.E.].H.C.<.y.z.C.C.C.D.H.H.D.C.v.v.v.v.v.v.v.C.D.H.H.J.J.J.J.J.J.J.H.H.J.H.F.F.D.C.C.D.D.F.F.D.D.D.F.J.J.J.H.gXsXsX*XD.H.&X:X,X&X,X1X@X:X<XQ.Y.I.^.^.I.p.3 W kXKXGXkXjXdXI.i.e.e.i.~.dXGXLXLXGXpX!.!.Y.@X~.uXkX@XI.g.i.e.i.~.uXpXjXcXcXjXiXdXcXBXCXMXfXfXBXGXGXGXcXcXGXVXcXVXGXBXGXGXBXGXJXBXQ.n i.u.;.i.uXjXGXdXiX~.Q.~.Q.~.@X1XiX2XiXjXBXbXBXBXBXGXjXkXkXdXuX~.T.Q.T.V.V.g.U.~.uXjXfXiXuXuX|.U.V.V.V.V.U.Q.U.Z.V.U.cXVX5XV.;.i.V.C m.%XoXXXm.{ P a F XXXXl.4.oXXX0XoXoXoXh f 6.l.oXoXC w oXoX#X$XF * p S.0XXX=X7X+Xp $ 0 9 w C A C C ,.l.4.C 0 q p v C E X.;.t.t.e.p.i.e.e.W e.i.V.V.i.e.;.W ` W W W ;.i.Q.Q.Y.U.V.V.V.i.V.V.V.V.V.i.e.E H Y e.g.g.U.dXdXdXBXGXkXBXBXbXjXjXBXjXdXjXBXbXpXpXuXpXhXbXLXGXLXGXdXuX~.I.^.!.^.p.w.w.L.!.!.~.!.~.yXyXlXkXkX~.~.p.U lXkXGXGXFXGXbXGXbXbXFXlXp.n m p.^.^.kXKXKXKXKXKXLXLXGXdXW.W.Q.Q.E.].H.H.H.H.H.H.H.H.H.H.H.H.H.G.H.H.H.E.E.E.E.E.E.E.E.E.R.R.E.E.H.G.G.G.G.H.H.G.G.G.G.G.G.G.G.H.H.H.E.E.E.E.E.E.E.E.E.E.E.E.E.E.].OX&XW.W.W.W.W.W.W.W.{.W.W.W.W.W.",
"].].E.E.E.E.E.].{.{.E.E.E.E.E.E.E.E.E.E.].E.D.c.<.C.H.D.F.D.D._.J.H.D.C.v.v.v.v.v.C.F.J.J.J.J.J.J.H.H.J.J.J.J.J.H.H.H.F.D.v.v.v.D.F.F.F.D.F.H.H.H.H.xXzXzX].G.C.H.&X,X:X7X2X:X1X1X~.Y.k.I.~.pXe.2 e.uXLXLXLXLXLXGXLXLXLXLXLXGXBXBXkXkXkXdX~.Y.k.~.e.n U r.g.I.U.~.~.I.g.<XGXcXiXfXjXjXiXiXcXBXBXjXdXaXdXiX1XdXcXcXfXdX1XiXiXiXaXaXiX;.< y Y <X~.Y u.~.~.Y.Y.~.uXjXjXdXiXuXdXjXjXiXjXBXjXkXuXuXdXjXdXuXQ.U.~.<XQ.V.U.W.Q.V.i.r.e.e.u.g.U.U.~.|.|.>XiXiXsXiX>XxXsX5XZXiX:X5Xz.{ M.M.7.7.=.P a F { F F 9 f oXoXoXoXoX..} } } A } e * 4.7XoXeXoXF *.0XeX7X=XXX0Xm.t q w L ..l.m.C 0 L ,.{ 0 p  .;.X.,.t.t.k.Q.!.^.I.I.I.I.I.Q.I.Q.U.I.I.i.p.e.p.i.i.i.V.i.V.V.V.I.I.V.V.i.k.U.T.T.V.V.V.u.Y n H ;.V.~.~.Q.dXGXkXdXpXuX<X~.~.I.I.Q.I.p.e.e.e.w.i.uXhX~.!.I.^.I.L.I.I.L.^.^.L.e.p.L.!.~.~.tXIXuX~.yXIXU Q L.GXGXLXGXkXbXkXkXbXLXFXhXFX^.m I i.tXKXKXKXLXKXKXKXKXKXLXBX2XW.H.Q.W.E.E.E.H.H.H.H.H.H.H.G.G.G.H.H.H.E.E.E.E.E.E.E.E.E.R.R.H.R.R.H.G.G.G.G.G.G.G.G.G.G.G.G.G.G.G.G.G.H.R.E.E.E.E.E.E.E.E.E.E.E.E.].OXE.{.W.W.W.W.W.W.W.{.{.W.W.{.{.",
"].].E.E.E.E.].].E.E.E.E.E.E.E.E.E.E.E.E.E.H.C.c.a.D.H.D.H.J.F.H.H.H.H.F.D.D.D.D.D.F.H.H.H.J.J.`.`._.J.J.J.H.H.H.H.H.J.H.F.v.v.v.v.M.D.F.F.F.H.H.H.].zXxX5XG.&X&Xv.B.,X,XOXOX1X1X~.k.i.I.I.L.~.e.n n W i.^.^.!.uXdXkXjXBXGXBXBXBXcXdXuXdX<XI.i.t.W c 2 e.~.~.|.|.Z.U.|.|.U.u.iXfXiXiXfXcXcXcXcXMXMXMXcXcXcXcXcXsXiXiXsXiXiX1X5X5X1XiX:Xu.u.<X|.|.V.i.Q.<X<XuXiX<X<XdXjXdXiXjXBXBXBXGXGXGXGXcXGXGXcX|.Q.~.~.~.Q.Y.;.E H H W u.U.|.|.1X1XuXiXiXiX5X1X|.>X>X5XiX6X6X5XsXfX<XS.D.M.=.8.=.=.%.a g F s f } f s oXXXoXoXXX..m.#X4.A 9 w p A $X$XoXoXoXoXoXXX7X7XDXnXnXp * V o.j.S.m.L 9 f F F p C L ,.k.,.t.;.i.I.I.!.L.i.I.I.Q.Q.Q.~.~.U.~.<X~.~.~.Q.I.V.i.i.V.I.Y.Q.Q.T.Y.I.Y.T.T.~.:XT.W.aX<Xu.E Y H n U V.pXuX~.I.I.I.Y.Y.I.I.I.I.V.V.p.e.X.T W i.L.I././.I.I.I.I.I./.^.yXyX^.L.e.p.^.!.yXyXuXlXi.e.^.yXLXGXGXFXFXGXkXGXGXkXhXlXPXFXLXL.I p.tXKXKXLXLXLXLXKXKXLXGXLXBXgX2XW.Q.Q.E.E.E.H.H.H.H.H.H.G.G.G.H.H.E.E.E.E.E.E.E.E.E.E.E.R.H.R.H.H.G.G.G.G.G.G.G.G.H.H.G.G.H.G.G.Z.Z.G.G.H.E.E.E.E.E.E.E.E.E.E.E.E.E.E.{.{.W.W.W.W.W.{.{.{.W.{.{.{.",
"E.E.E.E.E.E.E.E.E.E.E.E.E.E.E.E.H.E.E.E.H.D.C.v.b.C.D.D.H.J.H.D.F.H.H.H.H.H.H.J.H.H.H.H.H.J.J.`._.J.H.J.J.J.J.J.J.J.J.J.H.C.v.v.v.v.v.v.D.F.H.D.H.].xXzX3XC.,XsX=Xx.OXgX&X2X2XI.i.e.e.X.e.^.^.U , U i.V.I.g.u.i.e.` ;.u.V.V.V.U.U.g.e.W W W ;.e.i.n b u.g.~.|.U.U.W.|.{.U.-.` Z.dXBXjXiXfXcXMXZXVXCXzXfXzXBXCXzXfXsXzXxX5X1X>X>X>X|.{.aXiXfX:XQ.jXjXfXiXdXjXdXiXdXjXMXMXMXVXVXcXVXVXGXGXcXcXGXkX~.I.~.uX|.u.E H n E g.|.iXdXiXuX>X>X1XiXdXdXsXsXiX|.1X6XvXzX8X6X>X}.|.:XG.,.=X5.=.=.<.<.a 0 a C F C f f *.oXl.XXXX} } l.l.oXV e 9 } $XXXm.6.oXm.0X0X=X+X7X+X,., q q  .k.S.,.p  .,.L F a F S  .u.H v H X.u.I.~.I.I.I.U.Q.Y.I.U.U.Y.~.~.Y.Y.~.Q.I.V.i.u.i.V.V.V.i.Y.Q.I.Y.Y.Y.T.Q.Y.I.~.<X~.pXjX<XQ.H H Q.uX~.!.<XQ.Q.~.Q.I.Q.Q.^.I.Y.I.p.e.e./.I.I.I.I.I.^.~.~.~.lX^.I.yXyXlXlX^.p.i./.L.L.W 3 e.lX^.~.uXkXGXFXGXGXPXGXGXkXhXFXhXlX!.I /.!.GXLXGXLXLXLXLXKXGXGXLXLXHXVXdX@XQ.W.W.E.H.H.H.E.E.H.H.G.G.H.H.E.E.E.E.E.E.E.E.E.E.E.E.R.R.R.H.H.H.H.H.G.G.H.H.H.H.H.G.G.G.G.G.G.G.G.H.E.E.E.E.Q.E.Q.Q.E.E.E.E.OXE.W.{.W.W.W.W.W.W.W.W.W.W.W.W.",
"E.E.E.E.].E.E.E.E.E.E.E.E.E.E.E.E.E.E.H.H.D.B.b.b.v.H.J.F.F.J.F.H.H.H.D.F.H.J.J.J.J.H.H.J.J.J.J.H.F.F.F.H.H.H.H.H.H.H.H.H.F.C.C.v.v.v.v.v.D.H.H.D.E.5XzX9X*X9XsX9XOX,XgX1XOXk.u.Y.I.k.k.e.e.!.U n uXGXGXjXdXuXpX~.V.e.E Y Y Y E -.-.u.u.U.U.V.V.U.H b b R s.s.g.V.g.U.g.N.Q.E 6 Y V.W.1XcXfX|.R.2XaXdXfXsXiXsXsXzX5X6X|.R.}.}.}.{.{.R.>X|.W.|.iX|.uXuX<X<XiXaXcXfXjXMXMXdX<XuXjXfX<XQ.Q.~.|.uXQ.I.g.g.e.` W ;.r.I.Q.|.~.|.1XiXdXiXiXiXiXdXiXiXiXsXsX5XiXsX6X6X|. X|.6XzX>Xy.,. .y.<.y.:.t S P C L L L C p ,.XX#X .p e 4.#Xj.A p p } $XoXoX6.6.oXXXeX0XS.p , * , 0 0 w L C 0 C  .*.*.%.f f L ,.j.H < n U W p.i.I.~.~.uXiXuX<X<X<X|.~.T.Y.Y.I.i.e.;.e.e.i.V.Y.T.U.~.~.~.~.~.<X~.T.I.i.e.i.~.<X~.I.Q.U < U ;.W e.e.e.e.p.i.I.I.I.I.Q.Q.I.i.i.i./.L.I.I.I.I.I.I.i.i.I.i.i.i././.p.p./.L./.U 1 4 X 2 n U e.e.p.I.L.~.lXlXkXkXFXkXkXkXFXp.x e.^.kXGXKXLXLXLXLXLXLXKXKXKXKXKXHXfX2X{.Q.Q.E.E.H.E.H.H.H.G.G.H.H.H.E.E.E.E.E.E.R.E.E.E.E.R.E.R.H.H.R.H.H.G.G.G.G.G.G.G.G.G.G.G.G.G.G.G.H.R.E.E.E.E.Q.Q.Q.E.E.E.E.OXOXW.W.W.W.W.W.W.W.W.W.W.W.W.W.",
"E.E.E.E.E.E.E.E.E.E.E.{.E.E.E.E.E.J.H.H.H.D.v.z.z.v.H.J.D.D.F.H.H.H.F.D.F.H.J.J.J.J.J.J.J.J.J.J.J.J.H.J.J.J.J.J.J.H.J.J.J.H.H.H.H.D.v.b.v.C.D.H.C.{.5XmXsXsX9X,X9X7X,XT.Q.V.t.Y.I.i.k.~.i.W ^.Z e.dXpX<X|.~.I.Q.~.~.|.<X1X1X2X:X1X>XdXgX|.i.V.Z.Q.-.N u R y.` -.-.N.Z.:.r.-.r.6 J W E ` ;.-.-.r.Z.:X1X{.Z.E.,X6X1X>X>X|.|.6X6XsX5X|.{.>X>X:X|.5X>X|.:XiXdXcXcXZXBXcXfXfXfXiXiXdX<X>X~.U.i.e.;.` Y ` r.u.U.U.Q.U.W.|.|.|.>XiXiXdXzXdXiX1XiX5XsXsX5X5X5X5X8X6X>X}.A._.N.N.Z.x.T.V.Q.Z.U.B.b P E C  .L C C p p A L C C 9 9 C f { .. .*.m.oXm.9.m.XX%X0X0X9X| 0 0 * , q 0 p 0 p *. .5.*.{ p p { j.j.T % , 1 x m m x U U W u.V.~.<X<XdXuX<X<X<X~.V.u.i.V.I.I.I.~.<X~.~.<XuXuXuX<X<X@X~.Q.t.e.V.~.~.I.i.;.I.dXuX~.I.I.I.I.!.|.pXuX~.V.V.I.^.^.I.L.k.^.L./.i.i./.i.e.e.i.i.i.I.I.i.I.I.I.i.I./././.p.UXe.UXUXe.U m x m U U w.p.p.i.I.!.L.m k t.^.kXkXkXGXKXKXKXKXKXKXKXKXKXKXKXGXjX1XW.Q.Q.E.E.E.R.R.R.H.H.H.H.H.H.E.E.E.R.R.R.E.E.E.H.H.R.R.R.H.R.H.H.G.G.G.G.G.G.G.G.G.G.G.H.G.G.G.H.H.E.E.H.R.E.Q.Q.E.E.E.E.E.OXW.W.W.W.W.W.{.{.W.W.W.W.W.W.",
"E.E.E.E.E.E.E.E.E.E.E.{.{.E.E.E.J.H.H.H.H.D.v.x.z.v.D.D.F.F.F.F.D.D.D.F.H.J.J.J.J.J.J.J.J.J.J.J.J.J.H.H.J.J.J.J.J.J.J.J.F.F.F.H.J.J.D.v.b.v.C.C.G.*XsXJXzXgX9XgX9Xj. .C  .u.t.V.Y.L.!.~.Y.e.p.n I.uXpX<XuXdXuX|.<X<X~.V.u.u.V.R.{.5X5X|.r.r.W.W.>Xr.N c M H R -.s.g.y.-.:.}.U.;.fXVXgX|.|.5XcXzXMXgX,X>X5X5X5X6X6X6XsX6X1X|.}.}.E.R.E.>XR.|.|.>XcXcXcXBXcXcXzXcXcXfX2XQ.|.:X:X2X1X<XQ.I.V.i.i.U.U.U.~.Q.~.Z.U.|.|.|.|.1XsXiX>X5XQ.Q.|.1XzXcXNXNXAXxXsX6X*X}.N.a.d.}.>X,XR.V.Q.U.y.r.` N i b H H b T t.t.X.b , L | L 0 0 V ..| } } { oX0X8...oXm.%X+X+X7Xt.p T T Z v q C C v  .,.m.,. .t @ < C v < , n U U U W W T U Y Y Y E W ` ;.u.V.V.V.i.i.u.e.e.W W e.i.I.V.I.I.i.V.I.I.~.<X<XpXuX~.I.u.i.i.i.V.I.<XuXkXjXdXkXjXjXBXBXkXuX~.kXkXdXuXyXyX~.!.uX~.~.~.IX!.I.^.IXyXlXlXlXuXhXhXuXuXkXhXkXLXLXbXGXGXGXGXkXuX~.e.U x x x k x 2 3 : X x L.!.bXkXhXkXGXLXLXKXKXKXKXKXKXKXLXGXHXGXgXW.Q.E.R.R.H.H.H.H.H.H.H.H.H.E.E.E.E.E.E.E.E.R.R.H.R.R.R.H.R.H.H.H.H.H.H.G.G.G.G.H.H.H.H.G.G.G.G.H.H.H.H.R.E.E.E.E.E.E.E.E.OXW.W.OXOX&X&X&X&X&X&XW.W.W.W.",
"E.E.E.E.E.].].].].].E.E.E.H.H.H.H.H.H.F.H.G.C.v.b.b.v.C.C.D.H.J.F.F.F.F.H.J.J.J.J.J.J.J.J.J.J.J.J.J.J.J.J.J.J.J.J.J.J.J.J.H.H.H.J.F.F.D.c.a.z.B.G.{.zXMXiX5XgX9Xm.{ ,.5.j.,.i.Y.Q.k.k.Q.~.i.U x E Y.Q.V.e.W ` ` E E y.g.g.N.U.|.5X1X|.{.N.Z.Z.>X1Xr.Y N b b Y :.y.r.g.s.Z.W.y.{.NXVXCXVXzXZXNXzX5X5X6X6X6X6X>X|.>XiX6X}.}.R.{.|.5XiXiXsXzXcXzX5X|.|.R.Z.U.{.|.Q.}.R.Z.W.:XiXdXfXfXpX<XuX~.V.i.i.g.I.g.g.I.U.|.>XiXiXfX>XW.W.U.|.dXcXBXCXVXVXNXgX5X>XR.Z.H.R.}.}.8X-X>XxXN.H ' :.y.a.a.a.H < b c Z I.I.Y.k.t.L p  .o.q q t.j.|  ...} oXm...*.6...0X$X$XnX,.p T Y.e.x q w v v C  .,.j.j.t . * < % : x x U X.i.k.i.u.u.u.u.u.u.u.u.k.u.u.i.V.V.V.e.e.e.e.e.e.i.I.Q.I.Q.~.~.~.<XiXdXBXLXLXBX|.V.I.I.i.i.I.uXkXbXdXkXBXjXjXBXBXjXdXdXhXuXuXyXyXuXuXuXuXuXyXIX~.^.I.I.^.IXuXuXlXhXkXkXkXkXIXi.~.uXbXbXLXKXKXLXGXdXkXdXuX~.I.p.i.i.p.U 1 # Z i.L.kXkXkXbXbXGXGXGXLXLXGXLXKXHXKXKXGXLXVXdX@XR.W.E.E.G.H.E.E.E.E.E.E.E.E.E.E.Q.Q.E.R.R.R.R.R.R.R.R.H.H.H.H.H.H.G.G.G.G.G.G.H.H.H.H.H.H.H.H.E.E.E.R.R.E.E.E.E.E.E.W.W.&X&XW.&X&X&X{.{.{.{.{.W.W.W.",
"H.E.E.E.E.E.E.E.E.E.E.H.H.G.G.D.H.H.F.D.D.D.C.C.v.b.z.b.C.D.H.H.H.H.H.H.H.J.J.J.J.J.J.J.J.J.J.J.J.J.J.J.J.J.J.J.J.J.J.J.J.H.H.J.J.F.H.F.C.c.z.z.C.E.aXMXfXgXaX9Xj.*.m.S.K.j.@XyXI.k.V.I.Y.k.I x @XLXjX<X|.U.V.Q.|.Q.Q.|.>X|.|.1X5XsX5X5X{.R.g.y.Q.a.` J b b Y ;.` N.g.B.R.` Y aXVXcXfXsXzXzXzXvX5X>X>X6XvXsXiXsXsX6X6X6X5XiXsXxX6X|.Q.Z.V.Z.Z.N.V.R.W.{.|.1XiX1X{.|.iXfXdXfXjXjXjXdXdXdX<X<XuXuX~.g.i.i.~.iXaXsXiX>X>X>XiXzXcXcXcXcXcXfXiX1X:XT.T.E.E.R.}.|.>X6X*X*X>XN.a.}.|.H.}.A.N.N.<.J Y ;.k.k.k.I.X.X. .v p C 0 0 Z | A C 9 ..m.6...4.l.p ..#X@X#Xk.Z | t.Q m q k q , , q T ;.,.p v Z T U U U U w.t.i.V.Y.Q.Q.~.W.W.:X:X<X1X2X:XW.~.uXuXQ.;.;.e.u.i.V.I.I.I.I.I.~.uXdXjXjXjXBXGXcXuXQ.Q.I.I.I.@XjXkXdXdXkXdXkXkXkXdXdXdXkXhXpXhXkXkXjXFXFXGXkXkXkXkXkXkXFXkXFXGXGXFXGXGXLXLXkXp.Q e.W i.LXLXGXkXGXLXBXdXpXuXdXuXuXkXjXjXhXL.x x e.L.hXlXhXbXGXGXGXGXGXLXLXHXLXKXKXKXHXGXGXbXiXW.Q.H.H.E.J.H.E.E.E.E.E.E.E.E.E.Q.Q.Q.R.T.E.R.R.E.R.R.R.H.H.H.H.H.H.G.G.G.G.H.H.H.H.H.H.H.H.H.R.E.R.R.E.Q.E.H.E.W.E.W.W.&X&X&X&X&X&X{.W.{.{.E.E.E.E.",
"H.H.H.E.J.H.H.H.H.G.G.G.G.G.G.D.D.H.F.D.D.C.C.C.v.b.z.v.D.J.J.J.J.J.J.H.J.J.J.J.J.J.J.J.J.J.J.J.J._._.`.J.J.J.J.J.J.J.J.J.J.J.J.J.J.J.H.C.v.z.2.a.B.{.MXCXMXmXMXS.*.S.XX+Xk.Y.~.Q.k.V.Y.~.I.Q x Q.BXjXdXuX1XiX2XW.Q.Z.U.Q.U.W.W.5X,X{.1XsX>XR.a.}.R.g.Y H Y Y H :.s.-.J J y.iXSXfXsXsX,XzXsXsXsX6X6X8XsXxXxXsX>XzX6X|.|.}.Z.g.y.a.a.g.V.Z.R.{.{.U.|.>XiXiX>X>X1XfXzXBXzXzXMXBXjXdXuXI.i.i.r.i.I.I.U.U.~.iXuXiX|.|.iXsXcXcXiXiX5X|.|.<X<X<X1X1X1XaXaXsXsX5X6X|.>X{.}.{.:.` }.U.a.a.<.a.a.s.y.u.Z.i.t.t.Z 1 Z t. .p 0 w v v V p e 9 ..XX*...oX .9 q L T C H U I Z U Q U U n q , , , , u b X.X.;.e.e.W W p.i.V.I.~.|.<X<XuXiXiXdXdXdXfXgXiXuXiXiXW.V.U.~.~.<XuXuX|.~.<XuXpXjXBXBXBXcXjXjXdX~.I.I.I.^.~.dXjXcXkXpXdXdXdXdXdXdXdXkXjXFXFXGXkXuX~.!.!.~.!.!.!.^./.I.!.lXhXkXkXkXkXkXkXGXuXn 2 x x x kXLXGXkXjXjXdXkXbXGXGXGXGXjXuXuXhXlXI m i.L.hXlXhXbXGXBXbXBXGXGXGXLXGXLXKXKXKXLXGXBXfX:XW.Q.E.].J.E.E.E.E.E.E.E.E.E.E.E.E.E.R.R.R.R.R.R.E.E.R.H.H.H.H.H.H.G.G.G.G.H.H.G.H.H.H.H.G.H.R.R.H.R.E.E.E.H.E.W.E.E.E.W.&XW.W.{.W.W.W.E.E.E.E.E.E.",
"E.E.E.E.H.H.G.D.G.G.G.G.G.G.G.D.D.H.H.H.H.D.v.b.b.z.b.C.J.J.J.H.J.J.J.H.H.J.J.H.J.J.J.J.J.J.J.J.J._.`.`.J.J.J.].J.J.J.J.J.J.J.J.H.`.J.H.F.C.v.b.z.c.E.MXMXMXgXgX2Xj.*.,.v.X.Y.Y.Q.S.Y.Q.I.L.w.1 n I.V.i.I.U.U.V.U.W.{.W.Q.Q.R.Z.s.y.r.g.R.U.}.Q.Z.Z.g.-.Y Y N c ( ` ;.y.Z.,X|.U.N.U.U.Z.Z.Z.N.Z.N.g.h.N.A.A.H.}.R.h.h.A.}.{.|.{.>X|.{.U.V.V.Z.Z.5XfXcXCXCXcXcXcXcXfXcXdXcXfXuX<XU.I.g.I.i.W e.e.I.Q.|.~.uXuX<XdXiXsXiX5X>X>XsXfXiXcXGXGXGXCXcXfX>X{.{.{.|.}.R.R.H.R.}.R.U.}.{.R.-.J y.:.:.s.V.U.Y.T.V.v q q T  .C u b o.T v C e w ,.m. .5.5.f C T t.X.T T X.X.Q Q w.w.w.T I Z v < : y ;.I.V.V.I.i.p.i.i.i.I.I.U.Q.|.|.2X<X<XaXdXuXiXdXfXgXdXdXuXQ.~.~.Q.~.~.~.U.I.~.~.<X<XuXdXjXjXjXcXjX~.I.I.I.I.@XpXuXkXdXdXuX~.~.^.I.I.Q.~.~.~.!.L.i.i.!.yXlXkXhXlXlXuXIXIXuXkXkXkXPXFXkXhXpXhXuXU : : : ! IXkXkXkXdXpXpXdXkXkXuXuXkX~.I.L.L.i.m n p.p.yXlXhXpXbXBXBXGXGXbXkXbXGXGXLXHXHXKXBXjXdX1XW.W.R.E.E.E.E.E.E.E.E.E.E.E.E.E.R.R.H.R.H.E.E.E.E.E.E.H.H.H.H.H.H.G.G.G.G.H.H.G.H.H.H.H.G.H.H.R.H.H.H.R.R.H.E.E.E.E.E.W.{.W.W.W.W.W.W.E.E.E.E.E.E.",
"J.J.J.J.H.H.G.D.F.D.D.D.D.D.D.D.F.H.H.H.J.D.b.z.a.z.v.D.H.H.F.F.H.J.J.H.H.J.J.J.J.J.J.J._.J.J.J.J.J.`.`.J.J.J.`.J.J.J.J.J.J.J.J.H.H.J.H.H.H.F.M.7.z.H.MXMXMXMXgXVXnX+XXX:X,.V.I.Q.S.S.Q.k.p.q.3 2 V.<X~.~.~.~.Q.V.s.g.y.-.:.;.( :.` ( ( ` :.:.r.s.g.Z.Z.Z.Z.V.U.Z.g.V.s.y.V.B.s.N.N.h.Z.s.a.a.h.h.N.}. X>X}.}.}.}.}.}.|.}.R.U.N.a.N.}.>X6XsXzXsXzXZXVXcXfXfXdX1XuX<X<XQ.U.V.e.Q p.i.e.e.!.Q.I.i.I.Q.uXuXdXuX<XuX~.~.|.|.uXcXVXZXGXHXGXMXMXcXiX>XiXsX5X|.>X5X6X>X{.{.}.1X|.R.R.g.H u -.y.s.g.B.T.W.:XV.b b b ,.j.,.;.T t.k.q * v p F ,...4.L H ,.k.Q.V.V.I.I.i.i.e.p.i.p.t.t.X.W n n n e.t.k.I.I.~.~.uXuX<XdXdXdXfXcXjXcXcXcXBXMXVXBXMXVXMXjXjXjXjXpXiXdXfXfXfXcXcXkXuX<X~.~.~.~.<XuXkXkXuXQ.I.I.I.~.dXdXuX~.uXI.i.I.I.^.!.!.I.I.p.i.!.uXkXkXlXuXlXlXhXkXPXkXlXlXhXkXkXkXkXkXkXkXGXkXI.x : U ~.LXGXLXGXGXBXjXkXkXdXuX~.<X~.@X~.I.L.! m w.X.!.lXyXpXbXGXBXbXbXbXGXGXGXbXGXLXHXGXhX~.pXfX:XW.Q.R.W.E.E.E.E.E.E.E.E.E.E.R.H.H.H.H.H.R.E.E.E.E.E.E.H.H.H.H.H.G.G.G.G.H.H.G.H.H.H.G.G.G.G.H.H.H.G.H.H.H.H.E.E.E.E.W.W.W.W.W.W.E.E.{.{.{.{.].].",
"H.H.J.J.J.H.H.G.D.D.D.D.D.F.H.H.H.H.D.F.J.D.b.2.a.b.D.H.H.H.H.H.F.H.J.H.H.J.J.J.J.J.J.J.J.J.J.J.J.J.J.J.J.J.J.J.J.J.J.H.J.J.J.J.H.H.H.F.H.F.D.M.D.v.R.fXzXMXCXfXfXgX9X9XnXj.u.Q.T.V.k.V.k.L.e.x o c ;.i.u.r.i.g.g.:.r.y.y.g.Z.U.>XW.U.U.N.V.s.N.V.g.g.g.N.Z.N.V.V.R.>XsXfXsXcXNXSXNXNXNXxXvX6X X|.|.}._.A.h.d.>.:.d.h.A.A.U.}.}.6XxXNXNXcXcXcXsX1XiX5X|.Q.U.Q.U.I.V.I.i.e.i.i.W m Q i.i.p.e.i.~.I.~.uXuX~.|.uX~.uXuXdXfXcXcXuXQ.Q.Q.I.I.|.iX>X{.U.R.Z.h.h.N.Z.A.}.R.N.A.U.U.U.y.) H y.H.{.R.U.E.E.R.u.c > Z S.B.j.&Xj.E t.Z * p v q p 0 0 | u.u.p.I.~.I.Q.I.p.!.!.^.!.^.!.!.i.e.W W U U w.p.i.I.!.Q.~.~.~.uX|.~.~.|.|.>XuXuXiXdXfXfXfXfXfXdXfXfXiX<X|.uXpXdXjXfXcXjXuX~.~.~.~.~.I.U.~.~.^.Q.I.I.~.uXuX~.Q.I.I.I.I.I.I.I.I.!.^.I.!.^.!.!.!.^.!.tXIXlXhXhXlX~.!.!.~.yXyXIX!.~.yXuXuX~.dXuXI.uXkXdXkXkXkXGXbXdXdXdXjXjXdXdXjXGXdX~.lXQ k Z m p.^.^.@XpXkXjXjXbXBXGXkXhXbXGXHXbX~.I.I.jXJXfX2X:XW.R.Q.Q.E.E.E.E.Q.E.E.E.R.H.H.H.H.H.R.E.E.E.E.E.H.H.H.H.H.H.G.G.G.G.H.H.H.H.H.H.G.G.G.G.G.H.H.H.H.H.H.H.E.E.E.E.W.W.W.W.E.E.E.E.{.{.].].].].",
"F.H.H.H.J.H.H.H.D.C.C.C.D.F.H.H.H.F.D.D.J.F.b.2.b.C.H.H.H.J.J.J.H.J.J.J.J.J.J.J.J.J.J.J.J.J.J.J.J.J.J.J.J.J.J.J.J.J.J.J.H.J.J.J.H.H.J.H.R.H.H.H.H.G.W.fXcXMXGXVXMXmXnXmXeX<.,.S.,.,.,. .X.t.w.2 > V.jXuX~.~.U.U.g.y.r.y.r.-.` :.s.g.g.Z.g.s.s.Z.|.R.}.|.|.|.>XsXsXfXfXsXiXiXvX6X>X X}._.A.A.h.d.1.>.>.2.d.h.A.}. X6X8X8X6X6X6X6X}.6XvX5X>X|.{.U.Z.g.Z.Q.Q.Q.U.V.i.i.V.^.I.I.I.I.p.2 m /.I.i./.I.uXuXuXp.i.~.uXjXfXjXjXuXQ.g.g.g.Q.~.U.Z.U.U.g.y.s.g.N.A.A.A.A.}.|.}.A.s.s.N.g.y.g.s.N.H.}.}.{.{.{.{.>XR.y.Z.E.u.:.<.s.` H E L v 0 q * q p H T t.I.~.~.~.~.I.L.p.i.e.p.p.p.p.e.w.W e.p.i.!.~.~.uXdXdXpXkXBXGXcXjXcXjXjXjXdXdXdXfXiXdXdXdXdXuXuX<X<X<X|.<XiXcXBXcXGXGXjXdXuXuX~.I.I.I.I.I.I.I.i.I.~.~.~.I.I.I.i.I.I.L.i.i./.L.i.p.p.e.e.e.e.e.e.e.p./.^.yXuXtX!.!.^.!.!.~.!.~.~.uXdXuXuXkXkXhXKXLXFXjXkXBXBXdXuXuXQ.I.i.t.p.i.i.i.I.I k n k I p.L.L.Y.~.iXkXjXkXpXjXkXdX~.I.u.X.t.T.HXKXHXcXgXiX,XW.W.E.Q.Q.E.E.E.Q.Q.R.R.H.H.H.H.R.R.R.R.R.R.H.H.H.H.H.H.G.G.G.G.G.G.G.G.G.G.G.D.D.D.D.G.H.H.H.G.H.H.H.E.E.].E.E.E.E.E.Q.E.E.].].].].].].",
"H.H.H.H.H.H.H.H.H.F.D.C.C.D.D.D.D.D.D.F.J.H.b.2.b.C.F.F.F.J.J.F.H.J.J.J.J.J.J.J.J.J.J.J.J.J.J.J.J.J.J.J.J.J.J.J.J.J.J.J.H.J.J.J.F.H.H.R.E.{.*X>X,XaXjXJXHXjXBXVXJXMXDX0Xm...C  .S.5.4.l.X.T X.m X n u.V.g.g.e.E ( E J Y ( R R -.-.:.-.r.s.B.N.y.s.s.g.s.y.Z.U.Z.B.g.B.B.Z.g.s.y.d.d.d.d.d.d.f.A.A._.}.}. X6X4XvX6X6X}._.A.A.n.h.N.R.|.|.R.U.U.Z.Q.Q.Q.Q.Z.g.` c U I.^.I.I.i.i.I.I.n 3 e.IXI.I.uXIX~.i.e.!.uX|.pXuX|.U.~.|.Q.~.U.U.Q.U.Z.V.V.g.h.U.}.}.}.}.A.h.h.A.h.h.h.h.A.Z.Z.H.Z.Z.}.}.R.}.U.}.,X5X>X>X>XR.E.u.:.y.E < b E p q , v E u.u.u.I.<XuXdXdXuXdXuXuX~.^.I.e.U m k 2 2 ! p.I.!.!.!.!.~.uXpXkXjXjXBXGXGXBXGXGXGXGXGXLXBXGXBXGXHXGXBXBXBXjXdXdXjXcXcXjX~.U.~.dXkXuX~.~.~.Y.I.I.I.i.p.I.~.^.!.I.r.i.p.p.I.^.~.~.~.~.!.!.!.~.IX~.!.~.~.!.I.p.e.p./.L.^.!.!.!.!.~.~.~.~.~.uXuXuXuXdXuXI.I.I.I.I.i.i.V.I.I.~.U.V.W n x n n m 1 x I k m w.I.Y.Y.Y.Q.~.@X@X~.u.i.e.X.;.e.i.Q.<XJXVXJXVXMXVXVXNXfX5X:XW.Q.Q.E.W.Q.Q.E.R.H.H.H.R.H.H.H.H.H.H.H.H.H.H.H.G.G.G.G.G.G.G.G.G.G.D.D.B.v.B.D.H.H.H.G.H.H.H.E.E.E.E.Q.E.E.Q.E.E.E.].E.].].].E.",
"H.H.J.J.H.H.F.F.F.F.F.D.D.D.D.D.H.D.D.F.F.D.v.b.v.C.C.D.J.J.J.H.J.J.J.J.H.J.J.J.`.`.J.J.J.J.J.J.H.J.J.J.J.J.J.J.J.J.H.F.H.H.J.J.F.D.R.{.dXjXGXGXGXGXLXKXKXJXHXKXJX+X4.{ } F F m.XX*.*.m.,.C T Z #   2 V.i.i.;.Y ` V.y.` y.y.s.s.-.-.( E ` -.-.:.:.y.y.:.:.s.s.y.r.y.y.g.g.U.U.d.A. X}. X).). X[. X)._. X X[.A._._.A.A.}._.}.6X6X}.{.R.H.>X|.W.Z.U.U.I.u.;.N < 2 n i.^.!.!.~.!.I.I.x m ^.~.~.~.~.!.I.W n N H r.i.Q.|.Q.U.Q.|.V.g.g.U.Z.g.B.N.N.}.}.|.6X|.}. X6X8X6X}.}.}.}.H.g.A.H.F.H.A.N.H.|.}.}.{.{.|.|.:XQ.x.S s.W.y.< p H J H p C A L C Z ;.p.u.g.Y.I.^.~.yX~.~.~.uXuXuX^.e.x : 2 W i.i.i.k.I.Y.Q.!.Q.~.~.Q.Q.~.~.Q.Q.~.~.~.<XuX<XdXhXkXkXdXBXGXjXjXcXKXLXGXjXuXI.e.e.I.~.~.~.uX~.!.I.i.p.I.^.I.p.i.i.i.i.I.uXkXGXGXGXLXGXFXlXlXhXlXuXuXyXuXyXuX!.^.^.p.q.!.lXhXGXhXdXuX~.V.p.e.u.u.p.I.!.~.dXkXGXcXBXGXGXcXBXBXBXBXdXuXuXyXuXQ 1 n k 2 Q i.^.Y.Y.Y.~.~.Y.Y.t.;.t.p.e.V.T.T.HXHXJXJXJXJXJXJXJXJXJXVXMXgX1X{.R.E.E.E.R.E.E.G.R.H.H.H.H.G.H.H.H.H.H.H.G.G.G.H.G.G.G.G.G.G.G.G.D.B.B.D.G.G.G.H.H.H.E.H.E.E.Q.E.R.Q.E.E.E.E.].].].].}.}.",
"J.J.J.J.J.H.F.F.F.F.F.D.D.D.D.D.D.D.F.H.F.F.D.v.D.D.C.C.F.H.H.H.H.J.J.J.J.J.J._.`._.J.J.J.J.J.H.J.J.J.J.H.H.J.J.J.J.J.J.J.J.J.H.F.D.*XfXGXLXLXKXKXKXKXKXKXHXJXJX7X{ F *.6.} ..oX6.*.*.6.5.L A Z , X : t.Q.V.u.` Y y.g.s.g.y.y.s.N.s.:.( R J H J -.` -.r.s.g.g.N.N.g.Z.{.}.Z.U.|.}.H.}.}.}.F.F.A.h.).}.[.A.A. X4X X6X8X X}.6X X|.}.Z.N.N.g.:.R N c b N c y > 6 r.e.W p.e.i.p.p.e.U 2 e.I.V.i.V.r.U ` r.N N Y ;.g.V.W.Q.V.V.V.g.u.u.i.U.R.Z.E.Z.N.H.}.}.A._.}.}.d.h._._._.}.}._.H.[.-X}.].[.|. X|.>X5X2X2X:XW.S.E S ,X1XV.p b <.S.+XS. .C { L T H X.W e.u.V.k.k.i.i.t.I.I.I.I.I.~.~.e.n x x x U U W e.i.I.Q.~.~.~.~.~.~.!.^.^.!.@XQ.Y.I.Q.~.~.Q.^.~.<X~.~.~.kXGXGXGXLXLXGX~.p.W e.!.^.I.I.I.I.^.uXuXhXuXIXuXkXGXGXGXLXLXGXbXGXPXhXlXyXtXtXuXlXtX~.!.uXyX^.^.^.^.p.p.I.I.p.e.e.V.Y.~.uXGXGXLXLXLXLXLXLXLXLXLXLXGXGXLXLXGXHXLXLXKXKXKXw.1 Q m k Q Q p.Y.~.@X~.Y.@X~.I.t.;.i.Q.Q.T.fXVXVXVXJXJXJXJXJXJXJXJXJXJXVXVXmXaX*XR.R.R.H.H.R.H.H.H.H.H.H.H.H.H.H.H.G.G.G.G.G.G.G.G.G.G.G.G.G.G.B.B.D.G.G.G.H.H.H.H.E.E.E.Q.Q.Q.Q.E.E.E.E.].].].].}.}.",
"J.J.J.J.J.H.F.F.F.D.D.D.D.D.F.H.D.F.J.H.H.J.J.F.H.J.H.D.D.F.D.D.H.J.J.J.J.J.J.J.`.`.J.J.J.J.J.H.H.H.H.H.H.H.J.J.H.J.J.J.J.J.H.H.H.H.5XBXKXKXKXKXKXKXKXKXLXKXKXHX,.F *.*.5.*.} 6.6.6.*...} V L L , 2 % y ;.u.r.;.` E E H M c i N r.y.y.y.r.-.-.-.E Y Y E -.y.a.y.Z.R.Q.Z.N.s.s.R.H.h.<.a.d.2.d.a.2.c.A.A.h.c.n.d.n.A.A.N.h.s.y.a.a.-.-.y.y.-.` E -.;.-.` ;.Y n b I.I.e.e.W E H 2 o x p.;.r.U b x x H ;.r.g.g.r.:.` R N H ( ;.g.u.y.u.y.:.:.s.N.y.a.s.a.d.d.c.A.h.n.).A.1._ <.c.c.d.A.A.A.H.H.H.Z.5XQ.;.Z b T u.E p u.2XY.< L +X7XY.#X5.C ..v.V.X.T W r.V.T.Q.Y.V.V.i.V.i.i.i.i.I.~.uXuXuX~.I.I.i.k.I.L.k.i.k.I.I.!.~.yX~.~.IXyXuXuXuX@X@X@X~.Y.I.I.I.i.i.i.~.dXbXGXGXGXGXLXLXuXe.U U e.i.I.I.~.kXhXuXdXjXLXGXGXLXGXGXGXGXGXGXkXlXIX!.!.!.tXuXIXtX~.^.!.yXtXL.^.!.p.k 3 e.IXGXKXKXKXLXKXGXGXBXBXGXGXLXLXLXGXjXkXGXBXGXjXcXGXBXjXkXpXU 3 l k k m U w.I.~.~.~.~.uX~.Y.k.V.i.u.Q.jXVXCXVXZXSXJXJXJXJXJXJXJXJXJXKXKXJXGXcX5X&XR.R.E.R.H.H.H.H.H.H.H.F.H.G.G.G.H.G.H.H.H.H.H.H.H.H.G.G.D.B.B.B.D.D.D.D.H.H.H.H.R.E.E.E.Q.Q.E.E.E.].].].].].}.E.",
"J.J.J.J.J.J.H.H.D.D.D.D.D.D.F.F.D.F.H.H.F.J.J.F.H.J.J.D.D.D.D.D.F.J.J.J.J.J._.J.J.J.J.J.J.J.H.H.H.H.H.H.H.H.J.J.J.H.F.F.F.F.F.D.G.&XjXLXKXKXKXKXKXKXLXLXKXKXKXdXT L ....} } } 4.4...6.4.f p L C % # # o # < < % % . o . . . + i -.r.y.r.-.;.r.y.` ` Y H E :.R i 6 c u < Y N.N.N.N.h.>.<.h.A.F.A.c.H._.n.A.}.A.>.' s.a.:.a.s.s.:.:.:.y.Z.Z.U.Q.R.Z.U.U.U.I.g.g.n Y ~.r.e.i.I.W > . > c b N U -.Y ` r.:.r.r.` -.Y Y Y J J ;.N.V.s.u.s.s.u.E J R S -.<.c.C.c.c.c.A.}.A._.A.A.|.}.n.A.c.n._.H.A.H.Z.T.H u Z Z v L T p v t.Y.p  .+XS.S.j.L f L ..L T H E e.V.W.~.T.Y.Q.I.V.u.i.I.I.I.p.i.I.Q.uXjXGXGXbXGXGXGXjXkXhXlXyXI.p./.!.~.!.!.~.yXuXuXuXuXuXyX~.^.i.p.e.p.I.!.!.I.I.!.~.yXIX^.p.q.q.q.w.e./.!.uXdXkXdXkXGXLXGXGXGXGXLXKXKXGXjXuX~.^./.i.p.i./.I.i.p.w.e.L.I.!.!.! m ^.dXdXuX~.dXkXGXGXLXLXBXuX~.^.Q.uXcXGXBXGXBXGXjXdXuXuX~.Y.w.1 - - 4 - 3 Z X.p.I.Y.Y.Y.i.e.e.W u.Y.gXVXJXCXCXSXJXJXJXJXJXJXJXKXKXKXJXKXKXKXJXJXJXzX>XW.E.R.R.E.J.H.H.H.H.H.H.H.H.H.H.H.H.H.H.H.H.H.H.H.G.G.D.B.B.C.D.D.D.D.H.H.H.H.E.E.E.E.Q.E.E.E.E.].].].].].E.E.",
"J.J.J.J.J.J.J.H.H.H.H.F.F.D.D.D.D.D.H.H.F.H.H.D.D.J.J.F.D.C.D.D.D.H.J.J.J.J.J.J.H.J.J.J.H.H.H.H.H.H.H.H.H.H.H.H.D.C.v.v.v.v.v.v.B.,XBXKXKXKXKXKXKXKXKXKXKXKXLXuXC L { { } } L l.5...*.F s L | Z 0 y q % . . o . O U g.U.r.Y H -.;.:.:.-.( ` :.r.r.a.r.:.r.y.( b 5 % O O N a.h.a.s.a.d.<.2.<.<.D.v.v.D.z.H.F.a.<.<.<.y.-.` -.` >.( ;.:.;.:.g.g.;.-.` u.r.;.r.Q.e.n u.u.e.e.Y 6 2 b E -.s.g.y.:.` r.` ` ` ` ` :.>.>.a.a.:.-.r.:.N.W.2XfXW.S L ;.J R %.a.a.<.<.<.d.h.d.c.d.h.A.A.c.A.n.c.c.c.c.Z.B.T u v Z v v L T T ,.T.t.b t.,.,.4.4.F F } } L  . .W e.T.<X|.~.|.Y.Q.Q.Q.Q.~.<XuX~.!.i.i.i.V.I.I.^.!.~.uXuXuXuXlXuXIXI.e.Q p.^.~.~.~.~.~.~.tXyXyXuXyXuXyX^.I.^.^.L.^.I.p.e.w.UXe.w.q.e.p.p.q.q.q.n W e.W e.I.pXdXBXGXHXLXLXLXLXKXLXGXkXuX!.i.UXQ Q U ! m U Q Q W Q Q W i.I.I.^.I.I.u.e.p.e.p.i.I.~.~.~.uXuXpXuXuX<XuXdXkXdXjXkXuX/.: 1 1 ; - - 1 x n U Q T Z n X.k.<XbXbXBXBXCXJXVXJXJXJXJXJXJXJXJXKXKXJXJXKXKXJXKXKXKXJXMX1X{.E.E.E.].E.J.J.E.E.H.H.H.H.H.H.H.H.H.H.H.H.H.H.G.G.G.C.D.D.G.G.G.H.H.H.H.J.R.R.E.E.E.E.E.E.E.].].].].].}.}.",
"J.J.J.J.J.J.J.J.J.J.J.J.H.F.D.D.F.D.H.H.H.H.H.D.D.J.]._.J.H.C.v.C.D.H.J.J.J.J.J.J.J.H.H.H.H.J.J.J.J.J.J.J.H.H.F.C.C.v.v.v.v.v.B.B.aXGXLXLXKXKXKXKXKXKXKXKXKXKXFXj.L C C ,.#Xt.C } F s s L ,. .Z C T H x # X : % W iXJXfX{.N.s.g.N.y.y.y.y.y.y.y.r.r.y.g.N.g.g.g.y.E ` ` ' ( ) K ) %.%.) P a %.D.D.b.<.P -.%.) %.-.>.<.:.%.( %.-.:.u.T.V.r.;.` E E r.i.b : 6 Y e.` u Y E u u Y :.Z.s.r.:.:.y.>.' ' K R ^ K K K ) ` ` ` -.R Y N y.aXfXMXS.J OX:XG.&X<.%.-.<.>.%.>.c.a.-.-.<.a.d.c.A.}.F.C.C.c.<.:. .H H v q m ,.l.j.@XOX,.p L ..*.*.5.m.4...l.t.L H J E ;.;.` ` ;.W ;.W W E W e.p.i.^.~.|.~.Q.I.I.I.I.I.I.I.I.!.~.IX~.~.^.i.e.q.q.i.L.!.~.yXyX~.^.!.yXlXuXIXIXtX!.^.!.~.~.!.I.I.L././.i.p.q.q.p.L.I.W n e.uXGXGXjXBXGXLXHXHXLXLXLXLXLXLXKXLXGXBXkX~.i.p.uXcXkXkXGXLXKXKXKXKXLXKXKXKXKXGXkX~.uXGXKXKXKXKXLXLXLXLXGXLXGXGXLXGXjXjXdXe.3 x k - ; 3 ; n Q w.k.I.I.@XFXGXbXGXbXjXBXGXVXVXJXJXJXJXJXJXJXJXJXJXJXJXJXKXJXKXKXKXKXJXCXaX{.R.R.E.].E.J.H.J.H.H.H.H.H.H.H.H.H.H.H.H.H.H.G.G.G.C.B.D.D.G.G.G.H.J.J.J.R.R.E.E.E.E.E.E.E.].E.E.].].}.}.",
"J.J.J.J.J.J.H.H.H.H.J.J.H.F.F.D.H.D.F.H.H.H.H.H.H.H.D.D.J.J.D.b.v.D.F.H.H.H.J.J.J.H.H.H.H.J.J.J.H.H.H.H.H.J.J.J.J.J.J.J.J.J.J.J.W.jXLXLXKXKXKXKXLXKXKXLXKXKXKXKXbX@Xj.j.nXHXnX,.V w 0 ..+XS.,.H Z Z < # X . % y <X1X{.U.U.U.U.U.g.s.y.y.s.x.g.N.y.r.s.Z.U.U.N.V.g.y.s.N.a.r.-.) y.a.>.>.%.%.D.J.v.=Xv.=.z.=XE.<.y.<.-.<.y.<.Z.>X&X;.u.x.N.g.i.u.-.e.n O . 6 u c J i 6 c N ( :.:.>.>.d.d.d.d.>.>.' B i i M K ' ) ' -.>.>.' H 5 6 -.2XaX;.Z OXT.k.aXT t E H.B.y.a.( M J N.A.c._.}.c.c.a.z.x.) H Y E T T Z Z  .;. .C L E C t  .,.5.5.*.5.*...j.*.0 H E r.u.y.i.V.I.I.I.V.g.i.i.i.e.e.e.;.;.e.p.i.i.I.I.!.~.~.!.I.L.^.!.~.IXyXyX^.p.w.W w.w.p.i.L.^.^.^.!.!.!.tXtX^.~.~.IXIX~.tXtX^.^.^.L.L.i.p.i./.L.uX!.e.W I.kXBXBXBXBXBXGXLXLXGXGXGXGXGXGXBXGXBXGXLXBXGXBXLXLXGXLXGXLXGXkXFXGXkXdXkXuXuX~.Q.|.dXdXdXpXuXpXdXdXuXpXdXdXdXdX~.^.I.U : 1 - 3 k k x p.e.Q W p.@XlXyXlXbXGXGXLXHXGXVXVXVXZXJXJXJXJXKXJXJXJXJXKXKXKXKXKXKXKXKXKXKXVX5X{.J.J.E.].J.H.H.H.H.H.H.H.H.H.H.E.E.E.E.H.H.H.G.G.C.B.D.D.D.G.G.H.J.E.E.R.E.R.R.E.E.E.E.].].].].E.E.E.E.",
"J.J.J.J.J.H.H.H.H.H.H.H.H.F.D.D.D.C.D.F.F.D.H.J.H.v.<.<.v.H.H.C.v.C.F.H.H.J.J.].J.F.D.D.F.J.J.H.F.D.D.D.H.J.J.`.J.J.J.J.J.`.].].&XBXLXKXKXKXLXLXLXKXKXKXKXLXFXFXGXbXbX7XnXnXnXpX,.p  .S.S.Q.k.T T p @   # % X > ;.r.g.y.a.y.r.:.r.s.y.:.:.:.:.-.:.g.N.y.:.:.:.( -.y.-.` ` ' R ) >.>.>.K S =X,XOX0X7Xv.D.=X9XOXJ R %.-.%.z.9XmXZX9XE %. .E ;.r.;.r.E O . > c N J J E R ' :.` ) -.:.h.d.1.1._ ^ ^ B B B K ^ K K ) ) ) J K b u 5 t 2 p b p p  .t.OX2XT u <.aX1XaXNX:.& M B.c.C.-X*X_.*X].a.S t p Z n Z n v b H T Z b u = < t C f *.*.,.4.5.l.,. .Z E -.N.|.|.|.|.uXuX<XpXdXiXdXfXjXdXdXpXdXpX<X~.^.i.p.e.p./.^.^.!.I.I.^.!.!.~.!.tX!.I./.w.q.Q q.w.e.p.i././././.^.^.!.!.^.!.!.tXtX!.!.I.^./.i./.^.!.!.~.<X~.T.I.Q.<X<X:X:X1XfXMXBXGXBXdXuXiXjXGXGXBXjXBXjXGXBXkXBXkXkXkXdXpXdXuXuX~.g.U n W W ` W e.e.W U U Y U n U W U U W e.i.I.m X 1 : - 1 1 t.Y.i.X.Q X.lXkXhXkXFXkXbXbXGXGXGXGXVXGXJXHXHXHXJXHXHXHXKXKXKXKXKXKXKXKXKXKXKXJXCX>X{.R.E.].J.H.E.H.H.H.H.R.H.E.E.E.E.E.E.H.H.H.G.H.G.G.G.H.H.H.J.J.J.E.E.E.E.R.R.E.E.E.E.].].].E.E.E.E.E.",
"J.J.J.J.H.H.H.H.J.J.J.H.H.D.D.D.D.D.D.D.H.H.H.H.J.J.J.H.G.C.C.v.v.C.D.H.H.J.J.G.D.C.C.B.C.H.H.D.D.H.J.J.`.J.J.J.J.J.J.J.J.J.J.E.@XFXLXLXKXKXLXKXKXKXKXKXKXlX!.hX@Xj.| ..l.S.#XnXnXp j.pXV.k.t.Z n q X X . o o . o % & 6 6 6 u 5 5 5 5 5 > 5 5 5 5 5 5 5 5 5 5 t c c c b M M M B M H J J S ;.G.7XD.%.D.9X9X,XP s S C C S +XmXnX9X0XK.eX7Xj.%.u.;.g.r.c < J ` ( ' Y ) ) -.( ' ' >.' _ ' B B D B ^ ^ K B B K K K K B M c c 6 N < u t H v u v p 0 A F 0 Z +XbXbXnXQ.a t ;.E.=XD.5.#.=.v.<. .*. . .P H C b n H H T  .H H < t * =  .j.5.m.{ C j.S.S.b Y ;.r.y.s.s.g.h.V.Z.U.Q.{.|.|.|.>XiXdXdXuXuXdXkXcXjXkX~.i.UXi.!.!.~.I./.!.!.!.!.^.^.I.L.L./.i.p.p.p.w.q.q.e.p.L.^.^.!.!.!.!.tXyXtXtXtX!.!.L./.i.~.~.~.uXdXpX~.W.:XaXgXaXaX1X:X1XgXfXMXfXuXW.uXjXVXCXCXBXMXjXcXCXMXcXjXjXjXdXuXuXdXe.2 e.uX~.V.~.I.I.i.i.I.I.g.u.e.i.i.^.~.uXkXbXm X 1 : 1 Q 2 L.k.X.Q w.p.hXPXFXkXkXPXFXFXGXGXGXGXGXLXLXHXHXGXGXLXKXKXJXKXKXLXKXKXKXKXKXKXKXKXKXVX:XQ.E.R.E.E.E.E.E.R.E.E.E.E.E.E.E.E.E.E.R.R.H.R.R.J.E.E.].E.E.E.E.E.H.H.E.E.E.E.R.E.E.E.R.E.E.E.E.E.E.",
"J.J.J.J.H.H.H.H.H.H.H.H.H.G.D.D.H.H.H.H.J.J.E.].].].].J.G.C.C.C.C.C.D.D.D.D.C.B.v.C.G.C.v.v.D.H.J.J.J.`.`.`.J.J.J.J.H.J.J.J.J.E.@XGXKXLXLXKXKXLXKXLXKXLXhXyXyX!.L | l.#XoXl.4.S.7XL T @X2XY.k.v - # # . o o X < c Y Y Y ( R K K ) K K ) -.<.>.>.y.>.a.s.:.>.<.a.' ( ` ) >.>.' ) ) ) R J a < = < < 9 <.=X9Xz.0 t t 0 L ,.z.K.0X0XoX0X0X0X=X<.J R R r.y.-.:.R J ) :.<.) K R K ^ ^ B B B M M K K ' B B B B M c B K K c M c b i Z u.2XV.v F S.k.p * * 0 L S.+Xk.L q L &XnXmXDX0XG s =.m.<.7.+XXXK.+Xj.H u b T E J H b q 2 0 0  .S.S.j.K.L % t H  .Z b R :.a.d.y.y.y.g.s.g.V.g.g.g.U.|.|.|.|.|.uXuX|.~.uXuXjXkXIXI.e.I.IXIX!.~.~.~.!.yX!.^.!.~.!.!.yX!.!.^.L./.p.w.q.Q Q Q Q Q q.e.p.p.i.L.L.^.!.!.i.p.yXuX~.uXuXjXfXgXaX5X>X,XsXsXsX2X1XaX1X<X|.:X|.|.1XgXcXMXMXCXVXMXjXcXjXdXjXuXU.Q.U : U i.T U uX<XQ.Q.Q.I.i.I.~.~.~.|.kXdXdXGXhX1 X 3 3 U k.I L.L.t.w.w.w.hXPXFXPXFXFXFXLXLXLXLXLXGXLXLXGXGXGXGXKXKXLXdXkXGXGXLXKXKXKXKXKXKXKXKXLXdXW.R.Q.E.E.E.E.H.E.R.E.Q.E.E.E.E.R.R.E.E.R.H.G.H.H.J.E.E.E.E.J.E.E.J.J.E.E.E.E.E.E.E.E.R.E.E.E.E.E.E.",
"J.J.J.J.J.H.H.H.H.H.H.H.H.H.H.G.D.D.D.D.H.H.J.J.H.H.H.D.D.D.H.J.D.B.v.v.v.C.C.D.G.C.v.v.D.J.E.J.E.E.E.E.E.E.J.J.J.J.J.J.J.J.J.E.uXGXLXKXKXKXKXKXKXKXKXGXyXyXyXQ A 4.#Xl.l.l.S.,. .o.C k.Q.Q.V.: # X # X .   y i.g.:.R R s.a.<.a.s.<.:.a.a.y.<.a.y.:.a.g.:.:.c.a.R J s.H.N.d.d.d.h.h.<.y.>.E S < = = t a p = = s a a P v.XX=XXX%XoX%X8.m.0XD.a %.P ( >.-.a.' R ) ) K N K ` >.P ) K K ) ' ) K D K M i c M M i i i c c M i 5 Y u.u.H v v o.l.S.S.A V j.S.K.,.p p ,.mXmX0XeX%X#.h =.XXeXm.{ b.m.S.+X0Xj.v Z T L C p < : < v 0  .K.2XE.E * t C t t H J -.y.a.d.s.d.s.r.r.s.y.y.y.r.;.r.y.g.V.I.~.|.T.~.Q.Q.uXuXdXkX!.W e.i.^.!.I.i.i.p.i./.i.i.p.p.p.i././.I.^.!.tXtXyXtX^./.p.q.I m ! q.p.p.p.e.Q I U I.kXkXdX|.|.i.V.Z.W.:X{.{.|.|.1X<X:XQ.Q.W.Q.U.V.U.U.U.Q.~.<X<X<XiXdXfXcXjXuX~.I.W X < x : b Q.~.@XdX@XQ.~.~.~.<XpXuXuXuXdXkX!.3 - 2 1 p.L.p.I.P.L.L.w.Q hXPXPXPXPXPXFXFXGXGXGXGXGXGXGXGXHXHXJXLXHXBXuXpXbXFXLXKXKXGXKXKXKXKXKXKXGX2XR.E.E.E.E.E.E.E.E.E.E.E.E.E.E.R.H.R.R.H.H.H.H.H.H.J.E.E.E.H.J.J.J.E.E.E.E.].].].E.E.R.E.E.E.E.E.E.",
"J.J.J.J.J.H.H.H.H.H.H.H.H.H.H.H.D.D.D.H.H.J.J.].J.].].].].J.H.H.D.v.b.b.b.b.c.v.C.C.C.v.C.H.E.].J.J.J.J.J.J.E.E.E.J.J.J.J.E._.E.dXGXLXKXKXKXLXKXKXKXKXLXlXhXyXl | l.4.| j.t.j.,.V C L @Xk.Y.~.x X X , 1 X . Y V.-.( -.` -.) ^ K D M M K D K P ( y.:.` a.s.s.].C.y.J P :.<.a.2.d.A.A.a.-.%.:.E a s a s < t p 0 0 a a a G =.XX0X0XoXoXM.%XmX0XS P -.) ) ) ' K K ) ) -.( ( >.) ) ) J J R H B H K i c i 6 c M M M i c M c i < S %. .C A ,.Y.m.,.+X .L 7XS.m.m.C 0 ,.+XeX0XXX=.{ $.8.%XeXm.{ *.6.b.m.K.;.v Z v 0 v w q q , 0 < 0 C ,.H p u H T H J J R ( -.-.y.N.A.Z.N.g.g.r.;.-.r.s.u.u.g.g.g.Q.<X~.I.I.I.Q.|.~.Q.uX~.I.g.^.~.!.~.uXuX~.~.uXuXuXIXIXI./.i.p.e.p.p.p./././.I.^.!.^.^.L.!.lXhXFXPX!.W ! Q e.Q W W E Y ;.r.y.y.N.R.|.>X:XW.Q.T.Q.|.~.U.V.U.U.U.T.Q.Q.Q.Q.|.|.<XpXdXuXuXdXuXT % . x I.pXdXdXdXuXuXuXuX<XI.Q.^.I.uXGXGX~.: 1 m k p.i.L.I.k.k.L.w.Q hXPXPXhXhXhXPXFXFXFXFXFXbXFXbXGXLXLXJXLXGXbXhXbXGXLXLXGXkXuXFXLXKXKXLXKXKXfXW.E.].].E.E.E.E.E.E.E.E.E.E.E.E.R.H.H.H.H.E.H.H.H.J.E.E.E.J.J.J.J.E.E.E.E.R.E.E.R.E.E.E.E.E.E.E.E.",
"J.J.J.J.J.J.H.H.H.H.H.H.J.J.J.J.H.H.H.J.J.J.].].=X].H.C.C.D.H.J.D.C.B.C.C.B.B.B.C.H.J.H.D.D.H.E.E.E.J.J.E.E.E.].].].E.E.].].].E.dXGXLXKXLXKXKXLXKXLXKXLXyXyXyX| A | o.A | o.L V V V m t.Y.I.yXU X X X : : . i :.( ) -.-.^ %._ P ) ( ) R S J %.>.) %.%.-.) ) >.%.-.) S S K K D K ) _ ) P ) :.y.;.s 9 S P S s C %.D.K.v.P s { M.=X7.7.F.0X=X%.) <.<.-.:.:.` P ) >.:.>.%.P M S M R ) J N b u i M 5 5 u 6 u i u i 6 & < 5 % = t S.0X+Xj.L ,.K.K.#XA ,.S.4.5.m. .C f 5.eXeXm.*.9.8.oX%X0X%X8.} } =.m. .v q w T S.#XS.T Z k.j.H u * % < b E E J E -.( -.;.r.:.:.d.a.y.g.Z.Z.V.g.s.s.y.g.y.u.g.u.V.U.i.I.W E r.I.Q.Q.uXdXdXuXpXuXuXuXpXdXuXuXuXdXdXdXjXGXGXGXLXGXjXkXhXlXlXIXtXtX~.!.!.^.L./.p./.^.yXyXp.U W W ! U W W r.u.r.y.g.V.U.|.|.Q.Q.|.>X1X>X|.>X2X>X:X:X>X>X5X>X2XuX<X<X<X~.g.i.I.Q.T U i.Q.V.I.e.T ;.e.;.e.i.I.p.i.I.p.i.e.n X x n , W L.^.I.L.L.L.w.Q hXPXyXhXhXPXPXPXFXFXFXFXFXGXGXGXGXGXGXHXGXbXFXGXKXKXLXlX@X~.lXFXKXKXKXKXKXGX1XQ.W.E.E.E.E.E.E.E.E.E.E.E.E.E.E.H.G.H.H.E.E.J.J.J.E.E.E.J.J.J.J.E.E.E.E.R.E.E.E.E.E.E.E.E.E.E.E.",
"J.J.J.J.J.J.H.H.H.H.H.H.J.J.J.J.J.J.J.J.J.J.J.J.E.J.J.J.J.E.].].J.D.C.D.G.H.J.J.].].J.H.H.J.].E.].E.E.E.E.].].].].].E.E.E.E.].E.dXGXLXKXLXKXLXLXKXLXLXLXlXyXyX@X| V V V V A A e w V Z m Y.kXW x : 1 # X : O . 5 ) ( ) ^ D ^ >.c.:.-.-.:.:.a.x.<.<.%.>.<.<.D.D.C.v.b.%.D K P K K K D K D H J K a a =.eXeX=X5.g F XX9XmX0Xj.P S *.%.G P P S s P -.) S M J ) ( ( -.P S b a :.G.{.r.;.B.:.Y H b 5 t c i u u c c u 6 6 & 6 t t < K.nX7X#X .,.j.S.,.0 C j.+X,.4.0XeX+XeX0XXX5.9.8.%X%X%X%X%XoX*.{ } s 0 , u ,.7XnX7XnX#Xj.7XOXK.S.L : < y c n Y Y E -.( ( -.r.s.d.` H N E ` :.y.Z.U.g.y.r.g.Z.Z.U.g.;.E U y 6 U u.I.U.i.V.g.V.U.I.V.V.I.~.~.I.U.|.uX<X~.uXdXjXjXjXGXLXGXGXGXBXGXGXGXFXPXhXyXyXyX^././.!.!.L.e.Q Y Y W W e.r.y.V.V.V.Q.W.U.U.|.>X2X:X>X>X1XiX5X>XW.{.|.5X5X2X:X<XuXuX<XU.i.u.r.t.V.i.I.I.e.U Y W W U T W U W e.U n k o - k 2 , U ^.L.L.L.L.P.p.Q yXhXlXhXPXPXFXFXFXFXFXFXFXGXGXGXGXGXGXGXGXGXFXkXLXKXHX~.!.lXhXLXKXKXKXKXKXKXdXW.E.E.E.E.E.E.E.E.E.J.J.E.E.E.E.H.G.H.H.E.J.J.J.J.E.E.E.E.E.E.E.E.H.R.R.E.].E.E.E.E.E.E.E.E.E.E.",
"J.J.J.J.J.J.H.H.H.H.H.H.H.H.J.J.J.J.J.J.J.J.J.J.E.J.H.H.H.H.J.J.].H.D.C.C.D.H.H.].].H.D.D.H.].].].].].].].].].].].E.E.E.E.E.E.Q.pXbXGXKXLXLXLXLXKXLXLXLXHXhXhXFXpXS.T V w w V w z w q q Z k.x X : : q X.W E b i M ) ) ) ) ) &.-.-.:.Z.zXmXmXmXxX9Xb.P P F.8X3X8XmX9XJ.v.d.c.d.2.c.h.A.c.<.%.R a z.eX0XeXeXDX0X5.=.K.0X0X0X+XP S a i b b S M S K ( J J ( :.:.:.:.E J %.B.5XmX9XfXx.J J E b 0 L u.x.<.;.H b c u u 6 < & % < * j.nX#Xj.|  .,. .V w p L | L #XSXnXeXeXeX8.$.6.XX%X%X%X%X%XoXm.8.8.F $ * Z +XY.S.XX#X#Xl.S.S.+X9XQ.2 < c 6 < c N N c M J ` r.r.y.s.y.:.-.R J N H E ` g.g.V.Z.V.u.` H x 2 : % c e.i.Y x W g.Q.Q.V.V.U.Q.U.g.u.i.V.g.r.i.i.V.I.U.~.uXjXGXGXGXGXGXGXGXGXFXPXkXhXlXlXlXIX^.!.!.IX~.e.U H ` e.W E ` u.V.V.N.N.Z.{.W.W.Q.W.>X>X>X>X|.|.>X5X1XiXiXiXaXiXpXjXdXdXuXdXpXpXuX@XuXI.p.e.e.^.~.uXdXkXGXGXGXkXI.k - 1 1 k Q ^.L.L.p.L.P.p.Q !.PXPXPXPXFXFXFXFXFXFXFXFXFXGXFXGXGXGXGXLXLXGXhXkXLXFXtXlXGXLXKXKXKXKXKXKXKXBX1XW.E.E.E.E.E.E.E.H.E.J.E.E.E.H.H.H.H.H.J.J.J.E.J.E.J.J.E.E.E.E.E.H.G.G.R.E.E.E.E.E.].E.E.E.E.E.",
"J.J.J.J.J.J.H.H.H.H.H.H.H.H.H.J.J.J.J.J.J.J.J.J.J.J.J.J.H.H.J.J.H.H.H.H.H.H.J.H.E.J.J.H.J.].].J.E.E.].].].].].].].E.E.E.E.E.E.Q.2XbXGXLXFXLXLXFXLXKXLXKXKXHXFXFXbXpX@XS.V w l w V e e V x v 2 X # 3 x k.Q.iX:XZ.*X{.A.C.C.a.<.( R H %.,XNXmXmXeXmXDX=.h M.0X0X9X9X*XC.a.C.}.c.a._.C.C.G.x.-.%.S 0X0X0XeXeXeX%X0X%X5.M.0XK.9X<.s a b S P -.%.-.:.<.-.( ( <.-.-.E H %.<.G.1XMX7XaXS.H ,.j.T < ,.7XK.T.OX .< % % > O > < % % @ t.#X .A | L V w e w V e C j.7XnXnX0X0XXX6.8.XXXX%XXX%XrX0XXXm.6.oXoXC * A ,.j.4.oXoXXXl.XX7X7X+Xx.< b Y E ( ` ( E Y Y ( ( ( Y R -.:.:.:.-.:.y.r.` b b N Y -.y.u.` H < : > > 2 n c 6 E V.Q.Q.|.{.U.V.V.V.V.g.g.V.U.U.U.U.I.U.|.|.~.~.~.uXdXkXkXbXGXGXGXLXGXFXFXkXkXkXkXuX!.I.!.~.uXi.U H Y ;.;.W ;.u.U.R.U.U.V.Z.U.W.W.|.>XiXsXfXsXsXfXgXfXiX1XiXuX<X<X~.uXpXdXkXuX~.i.W I.~.I.^.Q.dXGXGXGXGXkXGXkXm X k x 1 I I.Y.^.L.P.P.p.Q P.hXhXPXPXPXPXPXPXPXPXPXFXFXGXGXGXFXFXFXFXLXGXFXFXKXFXlXLXLXKXFXLXKXLXLXKXKXHXdXW.E.E.E.E.E.E.E.E.E.E.E.H.H.H.E.E.E.H.E.E.E.E.J.J.J.J.E.E.E.].E.G.C.C.H.R.E.R.R.].].E.E.E.E.E.",
"J.J.J.J.J.H.H.H.H.H.H.H.H.H.H.H.J.J.J.].E.E.J.J.J.E.E.J.J.H.H.H.H.H.H.H.J.J.E.E.J.H.H.J.].].].J.E.E.].].].].].E.].].E.E.].E.E.E.|.dXHXLXPXPXyXlXFXLXLXLXkXL.X.I Q w.P.Y.w e e V V e w Z m v x # o X : H ;.;.u.s.s.a.y.s.g.g.a.N.B.u.%.J :.,X9X9X0X%XM.%X%Xm.XXb.b.>.>.y.c.<.>.c.s.<.) E K J b s j.nX0XoX8.XXoXoX0X6.=.eX0X7X .t a < < 0 S E E Y :.:.%.R %.J Y ;.L  .L Z t.bXQ.Q.2XS.j.S.j.L L S.Q.j.E.S.H < % % < > 2 < % @ q v w A L V w e $ $ , $ v o.V.pX7X+X+X{ *.m.+X0XXXXX0XoX8.%XXXXXXXXXj.* 0 * f 4.m.oXXXS.#XeX7X,.0 % b M J R R ( ' ' ` y.r.:.` N c Y ` r.r.g.g.u.V.g.r.` H i 6 c c n E 2 X % : : 2 W V.r.e.;.r.y.y.y.V.V.Z.Z.Z.U.T.W.R.|.|.Q.V.g.g.V.U.I.I.~.dXBXGXBXjXGXLXGXGXbXkXkXhXhXhXyX!.I.^.~.~.Q.;.N U ;.r.` ` g.V.V.U.Q.V.g.V.g.g.y.r.r.;.r.y.g.T.|.uXfXfXjXdXdXkXGXkX<Xk.e.e.Q i.~.!.V.i.i.k.k.Q.!.w.e.uXU - k m 1 Z L.^.L.k.k.L.w.Q yXyXPXhXPXPXPXPXPXFXFXFXFXLXLXLXFXFXFXFXFXLXLXLXLXLXKXLXLXLXKXLXKXLXLXLXLXLXHXbXW.W.Q.E.E.E.E.E.E.E.E.E.E.E.E.H.H.E.E.J.E.E.E.E.E.].E.E.E.E.E.E.J.G.Z.H.H.E.].E.E.E.E.E.E.E.E.",
"J.J.J.J.J.H.H.H.H.H.H.H.H.H.H.J.J.J.J.].E.J.J.J.E.E.E.J.J.H.H.H.J.J.H.H.J.J.J.J.J.J.H.J.J.].].E.E.].].].].].E.E.].E.E.E.E.].E.E.W.dXbXL.p.!.yXhXFXFXKXPXX.k l Z k q I X.e ; l w w V l V v , , , . : X , E i.g.y.N.B.N.y.r.E.W.u.-.%.E p S v.eX0X%X%XXX0X0XXX=.=.%.S S J -.J K :.) N b b t t 0 * C ,.F 5.oX%X%XoXoXoX{ 8.=XXXs 0 H b % % % < p u H H p u ;.:XT.V.V.t.X.b v v j.2XVXnXj.j.k.j.+Xj.l.S.,.l.,.< . > < % < < : # . # , v  .v w C v $   @   * q Q.VX2X,.C { f *.0X0X0Xj.j 9 4.0X0XXXXX,.* * V 4.oXl.m.#Xm.#X0XeX7XB.H u i i M M u i N Y J ( :.u.e.-.r.Y H J Y -.g.Z.Q.g.T.g.` u O X > c b y : < b Y W Y c i H ;.u.:.-.-.` ` -.-.;.r.g.Z.y.` E ` -.r.g.g.I.~.<XpXdXpXuXdXjXLXKXKXLXGXGXFXPXkXlXuX~.^.I.I.I.I.I.r.H n Y u.u.r.` E ` E ` r.` E J J Y J J J H Y ` r.g.V.T.iXiXuXI.e.W W Q e.W U X.W W W e.W Q X.w.e.^.~.x - , q l Q k.i.k.k.L.k.w.w.yXyXyXyXyXPXPXFXFXFXFXFXFXFXFXFXFXFXFXFXFXLXLXLXLXLXLXLXLXLXLXFXLXLXFXKXLXLXLXGX@XQ.Q.E.E.E.E.E.E.E.E.E.E.E.E.H.E.E.E.J.E.E.E.E.E.].E.E.E.E.E.].E.E.R.R.E.].].E.E.E.E.E.E.E.E.",
"J.J.J.J.J.H.H.H.D.G.H.H.H.J.J.J.J.J.J.].].].J.J.E.E.]._.J.J.J.J.J.J.J.J.H.J.J.J.J.E.J.H.H.J.].].].].].].].E.E.E.E.E.E.E.E.E.E.E.W.:X<XX.Q !.yXPXFXKXFXw.m m m Z l v w.Q q ; v e e V v T v   : X X : # X < H ;.Y ;.-.Y H b i 6 2 = .   < v.DXmX0X%X8.oX%XXXoXG s P b & 5 H M H b u % = % * * * * 0 * p 0X0Xm.8.oXoXoX9.6.XXXX,.L  .Z , : , , % . < v p H 2XbXQ.S.@XS.k.L n v 2XpXpX,.S.7XS.S.#X#X,.V p | A p p u % X < 2 % : : , # , w , v Z C v # # # # # v W n 0 e L L 0 j.+X,.0 0 , p ,.=X7X+Xp @ p ,.l.l.l.oX#Xl.#X+X=X7XMX:.b R K J J N J E N M Y r.V.V.g.u.u.u.r.J x c N ` g.U.U.Q.i.n : % % y x 2 x U E n > < u n Y E R W ;.` Y N E u.N.y.H J E ;.s.g.V.Z.T.Q.~.<X|.~.Q.I.I.pXGXLXLXLXLXGXLXGXGXkXhXuXuX~.I.I.I.I.I.g.W x y U r.U.V.V.I.U.U.U.U.I.I.U.V.V.V.g.u.u.r.r.u.i.i.e.E U Y X.i.i.i.e.v e.t.W e.i.k.I.Q.~.hXGXi.- - - 1 l W t.e.i.k.L.L.w./.yXyXyXyXyXPXPXFXPXPXPXFXFXFXFXFXFXFXPXFXFXLXLXKXLXLXKXLXKXLXLXFXLXLXLXLXFXGXGXBX<XW.Q.E.E.E.E.E.E.E.E.E.E.E.E.R.E.E.E.E.E.E.E.E.].].E.E.E.E.].].].].].].].E.E.R.R.E.].E.E.E.E.",
"J.J.J.J.J.J.J.J.G.H.H.H.H.J.J.J.J.J.].].].].J.J.E.E.].].J.J.J.J.J.J.J.J.J.J.J.J.E.].].H.D.J.].].].].].].E.E.E.E.E.E.E.E.].].].].Q.@X2Xt.L./.lXlXFXFX!.l ! T m ; q T k.X.T t.k.w.V l e w , q X.x X : , : X . # . . % X . . X .     * * p +X7XXXm.%Xh 6.XX8.oX*.= J i O % % O % > % < < t p b L j.v % 0 K.+X5.6.8.oX%X%X%Xm.M.+XL , , , 3 # # # : q < x V.7XpX@XS.@Xk.t.Z Z v @XbXk. .7X@Xt.l.#XS.j.p ,.S.,.L ,.U b < X % % # : , v , @ @ q l Z T l   X # #   .   , $ , w @ * 0 * * < p < , E K.;.* * T S.j.j.m.+Xj.C j.+X0X7X:Xu.J <.<.:.:.:.:.r.;.r.Y 6 x n ;.I.U.V.g.U.U.r.N 6 % 6 H W r.W < o , 2 y 2 y 2 6 : < n Y H n n H E Y W u.N.V.e.Y n ` ;.r.e.;.r.y.i.V.V.g.g.i.i.i.i.Y.~.uXjXLXLXLXLXLXLXLXLXGXFXhXuXuX~.^.!.I.I.I.g.Y 2 O < 6 c b b N n b x x b N H E ` ;.r.i.i.I.Q.I.V.V.V.V.i.I.I.k.p.n e.k.k.Q.~.@XhXlXuXuXi.q 2 2 ; 3 : Z t.i.k.k.L.k.p.!.hXhXhXyXyXyXyXPXFXPXPXPXFXFXFXFXPXFXFXFXFXFXLXLXLXLXFXFXLXLXLXLXLXLXLXLXLXLXGXGX2XW.Q.E.E.E.E.E.E.E.E.E.E.E.E.E.E.E.E.E.E.E.E.].].].E.].].].E.E.].].].E.E.E.R.R.R.E.].E.E.E.E.",
"J.J.J.J.J.J.J.J.H.H.H.H.H.H.J.J.J.J.E.].].].J.J.J.J.J.J.E.E.J.J.J.J.].E.J.].].].E.].].H.H.J.].].].].].E.E.E.E.].E.E.E.].].].].].Q.OX<Xk.P.^.tXhXFXKXlXI m v I Z v q v v e.Y.Y.#XS.t.I q Z ;.n , : % # : : X : % % X     % @ * 0 F j.F 0 l.XXXXm.{ 9 { %X0X0X5.= t 2   . % % O . % % . p t.S.j. .0 * * p ,.S.XX0XXX*.{ 0Xm.oXXX0 # : 1 - # - - : : k T yX@X@Xk.k.pXY.T v , q ,.t.Z @X@X@Xl.A S.S.o., o.S.S.| ,.X.e.W : X % . o #   , # # , , e q w   X #   # : # #   @ @ * # # , u y c c y 0 0 % @ @ p  .,.j.5. .0 @ 0 T S.7XaXV.H ( y.u.y.y.y.s.B.g.H . . . % 2 U u.g.U.Q.~.uXU.e.x O X X . o X % % : : : : > X % b E H n H ;.u.V.i.u.i.r.;.u.T.Q.<XuX<X~.|.~.Q.g.i.u.i.i.i.i.V.u.k.~.kXGXGXBXjXkXkXbXbXFXGXGXFXkXkXdXuXQ.~.dXdXjX|.Y > O X X % % : % X O : : X O : 3 2 x n H H W E T W ;.W W e.e.W m e.i.e.i.i.i.i.e.W x - # 1 1 X 1 1 n t.i.i.k.k.k.k.^.yXhXPXhXyXyXhXPXPXPXPXFXPXPXFXFXFXFXFXPXPXFXFXFXFXPXyXPXFXFXLXLXLXFXFXFXPXFXGXGX1XQ.E.Q.E.E.E.E.E.E.E.Q.Q.Q.Q.E.E.E.E.E.E.E.E.].].].E.].].].].E.E.E.E.R.R.R.R.R.R.E.E.E.E.E.R.",
"J.J.J.J.J.E.J.J.J.J.J.H.H.H.H.J.J.E.E.].].].].J.].J.J.].].].E.E.E.].].].J.E.E.].].].].H.H.J.].].].].E.E.E.E.].].E.E.].].].].].E.E.W.W.Y.!.!.yXhXFXLXLXLXyXw.T I X.I v # 0 v | k.Y.t.X.Z m v : % , # . X # # : , 2   % < % , L j.XX .9 0 C m.5.f 9 @ 9 9.eX0XF @ % # o : 2 X X o . # # % , p Z u * L L $ 0 V L ,.L = @ *.m.XX4.* # : : : : # , 3 # 1 n t.dXbXt.T o.T w Z 0 , q , m @XY.Y.j., T t.p , A S.S.j.,.S.V.;.< % < # # # : , # : , $   e @ , m v w , , , # # : # X 1 v v n b v b b y q q * % # % 0 0 *   @ * 0 * < L V.2Xc v H H N J J Y J n 2 X : % X . o > N e.i.i.I.~.|.N . % : X . X o X X . o X X . . % % : > 2 y q < < > > 2 x n H Y ` r.i.V.U.U.Z.Q.U.U.U.I.I.Y.T.~.uXuXuX@XI.;.n , n e.@XkXGXFXkXjXjXGXGXcXcXcXdX<X~.i.U : % : : : > 3 > : > : % : : O X X X % : : : > 2 2 2 2 y x x m U Q U W W T U U W U X - Z 3 # , 1 q e.t.t.k.k.k.p.w.w.p.L.P.!.tXyXyXhXPXhXPXPXPXFXPXPXPXPXPXFXFXFXPXPXPXyXPXFXFXPXPXFXFXFXPXlXlXGXHX1XQ.E.Q.E.E.E.E.E.E.E.Q.Q.Q.E.E.E.E.E.E.R.R.E.].].E.E.].].].].].].E.E.E.E.E.E.R.R.E.E.E.E.E.E.",
"J.E.J.E.J.J.J.J.J.J.J.H.H.H.H.J.J.E.E.].].].].].].].].].].].].E.J.].E.E.J.J.J.J.].].J.H.H.J.].E.].].E.E.E.E.].E.E.].].].].].E.E.H.E.OXpXk.yXP.yXFXLXFXLXHXHXFXbXpXY.Q v 1 , , v X.I v 1 1 k 2 Z X.m # o # # o 2 v y p < < ,.S.,.F p 0 p 9 C 0 = s h f h F s = < # # q 2 q y # # # # # X *  .Y.j.C A K.T < @   # @ * % * v Z e * : # X : : # , 1 X , q , Z T T o.o.A w q , e q , , X.Y.t.x * $ , , 0 # v C A p C v , # < > X H U : : Z Y.Y.t.Z @ p S.7X7X@XX., * : # # , 1 1 x n Z Z Z n n n b x q v 2 : , # % , : y u p * @ q b % X % . . O O X % % % % : : 3 < 2 % X : x W e.i.m : X m Y n 2 < < > : X X # % % # X o . .   . o o X X # # % % % O X O % % : < 2 2 2 6 y x n N U U U U n x , X o o o # 1 n Q i.I.!.!.!.^.I.i.e.U m m m , o X X o o X X X X o X X o . . . . o o . . . o o o . o X X X 2 I W W W e.X.e.i.k.W # 1 v 3 # 3 , q X.t.;.t.t.k.i.p.p.w.p.w.w.w.w.P.yXhXhXyXlXPXPXPXhXlXhXPXPXPXPXPXPXPXFXFXFXFXPXhXPXFXPXFXPXkXHXGX1XQ.Q.E.E.E.W.W.E.E.E.E.E.Q.E.E.E.E.E.E.E.E.].].].].].].].].].].].].].].E.E.E.R.R.R.R.E.E.E.E.",
"J.J.J.J.J.J.J.J.J.J.H.H.H.H.H.J.J.E.].].].].].].].].].].].].].].J.J.J.].J.J.E.J.].].H.H.H.J.E.].].].E.E.E.E.E.].].].].].].].E.E.E.&XQ.pXk.yXyX^.tXPXLXLXHXbXyXk.X.X.o.Y.Q.k.v L @X@XY.l 1 m : n X.m Z H 2 # v @XnXpX7XS.C L F f 0 f  .L } } j F { *.8.XXF $ % * @ 1 Z Z m n : # % : % % q V.@XY.k.A ,.t.b @ @ @ # % % @ @ ,   , , #   # # : : 1 1 # : , @ V #XpX#X#XS.w , , , : 0 , 1 q   # , # , % , @ $   @     # # , % # t.W : T @XnXpXpX$Xw  .pXY.#X@X7Xv , : - 2 q k q y n Z n U T W U Z v v n v x v y p v v y n H b 0 , : < < < < < 2 < < 2 y x y 2 2 2 2 2 x 2 : X X : 2 : : : : x U U U U H b y 2 q < < < : # % # X % % % % % # : > > : : : : : % O X X X O O X X X X X X X X . o o X X X X X o o o X - : 3 3 : X X X o o o o o - : - : 3 3 : - : X : : : : : # : < > < < > : : < : X X o o o 1 I Q T X.e.e.X.Q q   - : # # , : 1 v X.i.t.k.k.i.k.L.k.^.P.L./.p.w.w.L.yXyXPXFXPXhXhXPXPXhXyXhXhXPXPXFXFXFXFXFXFXPXFXPXFXFXFXFXGXjX2XW.E.E.W.W.W.{.W.E.E.E.E.E.E.E.E.E.E.].E.E.{.{.{.{.{.=X].].E.].].].].].E.E.R.R.R.E.E.E.E.E.E.",
"E.E.E.E.J.J.J.J.H.H.H.H.H.H.R.J.E.E.E.].].].].].].].].].].].].].].].].].E.E.E.E.].E.E.H.J.E.E.].E.E.E.].E.].E.].].].].].].E.E.E.W.W.@XpXX.~.lXyXtX^.yXyX!.k.w.p.Y.@XhXnX#Xt.v T Y.#Xi.q 1 # - q Z @XbXnXT * t.gX@X@XpX7Xj.w w 4.m.l...F f j j *.$.} *.6.S.t @ # # , q q p v % . . : % % , ;.k.Q.7X,.k.V.T # # # # : # : # # * , # X   X X X X # : 1 t.Y.Z p oXoXl.#X#X| , e : : : - # # : : , , : #   #   @ q < % @ . # 1 , y , q 2XpX#X#X#XS.L w l.oX#X#X,.e , : 1 2 2 2 q x b U E W E Y Z b x b v x b b x v b c y H X.E Y Y H H H H b n b n c x x x < > : : : : : 3 3 : : O : : X X X X : 2 x n H U H b x x x q > : < : : < < < < 2 : : < < 2 2 6 2 2 1 2 3 : : : 3 3 : 2 3 < : : 3 : : : : : : - - : - X X X o X o o o X X : : 3 : 3 1 : q U I I n m n m n m x n n b n n n n b n n v x q 2 x 2 X o o X 2 v I U U n x #   # : - ; , q q q T i.i.t.i.p.k.i.I.Y.^.I.I.^.P.L.p.p./.!.yXlXhXPXhXhXhXyXyXhXPXPXPXPXFXPXFXFXPXFXFXPXPXhXhXlXkX@XW.W.W.{.W.{.{.E.W.E.E.R.R.R.H.H.R.H.].{.].E.E.E.].E.].E.E.E.E.E.E.E.E.E.].].E.R.E.E.E.E.E.E.",
"E.E.E.E.E.E.J.J.J.J.R.R.H.R.E.E.E.E.E.].].].].].].].].].].].].].].].].].].E.E.E.].E.E.J.J.E.E.].E.E.E.].E.].E.].].].].].].].E.E.Q.W.2XuXI.i.yXP.tXyXyX!.p.p.p.Y.@X@XyXY.T e q T k.t.Z l , ; q , #XnX@X7X#Xw o.#XS.l.S.#X#Xp j.eX#X0X5.p 0 f f F 6.6.oXm.b.C % < q q q q , @ # % % % # #   W @XV.k.T u.@Xk.% #   # # # : : X @ # # X . o X o X X : e.@XpX$XA S.eXoXl.l.| @ , q 1 : # # : 1 : # # .   .       @ < q 0 , % # : # # v k. .v V 4.l.C @ 9 p L L V e e q 1 q v b b Z U Y U U H U U H n b b v b b n n b x y H r.r.:.;.E ;.;.W Y Y H H Z v x b c c u y < > > 3 : : % : : 2 2 q y x v x x c b n b c v x x x q 2 2 2 2 y 6 2 x x 2 2 6 2 q x x 2 2 2 2 2 2 1 1 2 2 1 2 : 1 2 2 2 1 1 3 3 3 3 : X X X X X o : : X : : 1 1 1 2 1 3 3 : # q U I ! n m m m n m m v v v v x b Z Z n n Z Z m x n m 1 # . . o X : : - 1   X # # ; 1 # e w q w v U e.i.I.Y.Y.I.I.~.Q.~.~.@X~.~.^.P.L.p.w.p.L.!.yXlXlXhXhXhXPXhXhXhXPXPXhXPXPXFXPXFXPXyXtXI.~.@XQ.W.E.{.{.&X{.E.E.E.R.R.E.].R.R.E.{.].].E.E.E.E.E.E.E.E.E.E.E.E.E.E.E.E.].E.E.R.E.E.E.E.E.E.",
"E.E.E.E.E.E.E.E.J.E.J.J.J.E.E.].E.E.E.].].].].].].].].].].].].].].].].].].].E.E.].E.E.J.E.E.E.].E.E.E.E.E.E.E.].].].].].].].].E.E.&XgXHXHX!.^.yXyXyXP.L.! Z I T T | T w , V l.#Xj.T v | x # v v nX$X+Xl.l.C A  .S.j.j.oX#XA j.eXoX6.f } *.*.oX$.{ *.m.5.C * , q % : % # q H b < % . p E H C v Z , @ T @Xt.#   , w w # # % v  .X.u X # o     X : p.bX7X@Xl. .| m.l.S.#Xt., , 1 1 1 1 X # # #     : H t.V.j. .p   * % , , q q % . @ *   @ | l.l.| w w e w A L A C w x y v H H H Y H H H H Y Y Y H b n H b v b b b i i Y y.u.r.;.%.;.-.W Y H n b b n b n n b c v u c y 6 2 > : : < b H U U U H n b H n n n n n n n x y < < 2 2 2 < < 6 2 2 < 2 < > y x x 2 < 1 < 3 2 2 1 < 2 y > > < , , , 2 3 : : : : X X X X X X 2 2 : : : 1 , : 3 : : : , x n n m v m x x m m x x x y q 2 , 2 x x Z U Z x x v n Z n , o # - X # # : 1 q 1 x q , ; l p.w., , 0 q Z X.Y.I.Y.~.Y.Q.~.uXuX@X~.yXlXlXyXyXP.p././.p.p.p.P.^.tXyXlXPXPXhXPXPXPXlXlXPXPXyXyXyXL.2XW.&XQ.E.E.E.E.Q.E.E.E.H.C.C.Z.H.H.H.G.B.C.G.E.].E.E.E.E.E.E.E.E.E.E.E.R.E.E.E.E.E.E.E.E.E.E.R.",
"E.E.E.E.E.E.E.E.E.E.E.E.J.E.E.].E.E.].].].].].].].].].].].].].].].].].].].].].E.E.E.E.E.E.E.E.E.E.E.E.E.E.].E.].].].].].].].].].&X1XCXHXjXbX^.p.!.!.p.p.Q l q e q l v w A t.l.l.Y.| p k.t.0 # e k.#X#XS.4...4.O.} C 4.l.O.w L oXoXh j 6.6.*.oXoX*.9 9 0 $ q q % % q % H Q.BXgXE @ Z gXnXpXj.% # # # % q % p t.OXpX@Xp @ L nXnXpXS.v     o - - : t.~.S.o.l.#XoX} | ,.j.A * : , , q q 3 T k.t.,   X.aX@X7X2X+X@XC @ * , , < 1 < % # , $ A S.l.l.4.} } A f L O.,. .v v b n Z H H H n H J Y Y Y H H n H Z b b H H n H H Y -.;.-.( -.-.-.W E J H Z n H b b c u y u u u 6 2 < > > > < b J E E E Y Y U E Y J H H H H H n v 6 2 6 2 6 2 y c 6 y 2 y y 6 > 2 c y y 6 6 2 2 2 2 2 2 2 > < 2 < < : < 1 1 > : : 4 X - - X X : 3 : : 3 3 : : X : q v n n m x x q k q k x n n v v v x q 2 2 2 q v n v 2 q n U W W 2 o 3 q q q v ; q v v I I q ; w.Y.k.q Z k.k.T v H i.k.t.k.Y.@X~.@XuXkXlXlXhXhXhXlX~.!.yXyXtXL.P.P./.p./.^.tXtXhXyXyXhXFXhXlXyXyX~.~.:XQ.&XE.E.E.H.E.Q.R.].E.c.y.<.a.x.c.s.y.y.a.B.H.].].E.E.E.E.E.E.R.E.E.E.E.E.E.E.E.E.E.E.E.E.R.R.",
"E.E.E.E.J.J.E.E.E.E.E.H.H.E.E.E.E.E.].].].].E.].].].].].].].].].].].].].].].E.E.E.E.E.E.E.].E.E.].].].E.E.E.].].].].].].].].].].E.zXSXCXfXBXkX^.Q Q w.L.Y.T T T V V V A l.l.,.o.S.t.e Y.Y.v @ w Y.#X7X$XoX4.l.oX} r 4.4.f 9 9 ..} f m.m.8.6.8.XXoX9 $ * % u q : % < u +XgX7XnX7Xt  .nX9X7XOXu . : # : : m 7XbXnX7X+XL @ L 7X#X2XnXj.# # X # -   # 1 * o.#X#X7Xm.j.O.| V , e 0 # : , e.pXnXpXS.w w S.#XS.+XK.nXT % % % , % # : x w $ e l.#Xl.| w | ....} V L | L u n H J W E Y ` -.-.-.( E E E W ;.;.-.E W ;.;.-.-.-.-.-.-.E S b Y E Y E J Y J H E Y Y H Y H H H J N N N N N N J N H H J H N N N H H H N n b n H H H b c u 6 c b N H b n b H H N c c n H H b c x 6 y 2 y x y < < 1 2 1 : > < 1 : 1 1 : X X X X o # 1 2 1 3 # - : 2 v Z n x 2 1 2 1 : 3 3 1 x m Z n n n n v v x q q y y q 2 v U T W U 2 o 3 x Z Z 1 # w V q v T w q p.p.k.Z Z k.Q.I.V.X.m v k.I.Y.I.~.uXuXhXlXlXlXkXyX!.!.^.w.w.^.yXyXyX^.p.p.p.L.^.!.yXhXhXlXlXlXyXL.Y.<XW.{.E.J.E.].E.].].R.H.Z.c.x.c.x.s.c.c.a.u.s.c.C.G.R.R.R.E.].].E.R.E.E.R.E.E.E.E.].].E.E.E.E.R.R.",
"E.E.E.E.J.J.E.E.E.E.E.H.H.H.E.E.E.E.].].].].E.].].].E.].].].].].].].].].].].].].E.E.E.E.].].].E.].].].].E.E.E.].].].].].].].].].&XCXCXMXGXdXkXhX~.L.L.^.Y.o.X.t.| Z w V S.Y.S.S.S.L e S.pXL $ v $X#X#X$XXX*.} 4.4.4.f p 9 $ V } s j 5.8.8.oXoXoXl.t * , , * , , q < S OX1X7X9XmXj.5.+XnXnXgXv : q q k x Z X.S.7X7X0XS.,.m.0X7X7X+Xo.q , # # 3 # : . C #X#XS.oX#X#X#X#Xl.V $ @ $ ; , t.pX#X+X7XS.* f l.S.S.,.L *   @ * % : , : % * w v t.l.| 9 * O.4.j.l.,. .A p p H ;.;.;.r.r.r.:.:.;.;.;.` E E E E E Y J H J Y H J H S H J H H R E R E Y E Y J J Y Y Y ` E Y Y E Y R E E R Y R J J H S N n n H b b n n v u c M b N b i y 6 c N N H N H H Y J J H H Y E E Y Y H N b 2 x n U n x y x x < < 2 q 2 x x y , : : - X X 1 2 : : : 2 m U n q : : 3 3 3 1 3 1 2 k v n U U H H U H Z n x b b v x b T W E W U Z : : I I w q w l T Z | o.v 1 T t.P.Z m w.L.k.V.k.X.q X.@X@X@X@X@XY.~.uXlX!.i.w.Q Q w.p.p.w.X.w.e.e.e.e.w.W Q w.w.w.p.L.^.!.~.uXuX~.W.E.E.].E.E.H.H.H.C.N.s.a.c.N.x.a.a.c.s.a.a.a.a.x.C.G.H.H.J.E.R.R.E.E.R.E.E.E.E.].].E.E.R.R.R.R.",
"E.E.E.E.J.J.J.E.J.E.E.H.G.H.E.].].].].].].].].].].].].].].].].E.].].].].].].].].].].].].].].].E.E.].E.E.E.E.].].].].].].].].].].,XNXNXmXMXBXBXuXkXkXuX!.@Xi.Z T T V w Z #X#X#XS.#XL * T t.* $ e l.#XS.#XoX4.4...4.oX} 9 e w  .L p $ p 5.oXoXoX0X4.0 0 * % # . , * p b ,.7XmXnX9X7XnXnX9X7XOXv < x x m q ,   $ C #X7X#XeXeX0X0XnXk.q * , 1 1 q 1 # # T #X,.A S.oX4.l.#XoX4.9 * w w e p A A ..l.4.,.* * w 0 * @ * * @ @ @ , 1 1 : # , p 0 $ @ $ 9 o.l.l.4.l.j. .0 p H Y H J Y H H n c u 2 < < < < > % % % % % % % . % % % % & % < > < > > > > % % > < 6 2 6 2 2 2 6 6 y u c u 6 6 6 y y u u u y u c v v v c u i c c b c i x c b n n H H N H Y Y Y H Y E E Y Y E Y n v 2 x b H Z n n n n 2 2 y n n m v x 2 2 2 3 X # 2 1 : 2 x n U n 1 - : 3 1 1 2 1 , 2 x x x x n U U U U H Z Z b n v x Z T W W W W W X.1 3 X.m , V V T A I T L v ; ; l l e Q p.P.Y.k.k.Q.t.q X.@XY.Y.~.Y.i.e.X.T Q e.p.L.lXLXKXbXdXuXpXkXkXFXbXhXL.W q.i.!.^.L.p.t.1XQ.Q.G.H.G.F.F.F.C.C.c.x.c.a.c.c.c.c.s.c.c.c.a.a.<.<.<.a.c.B.C.G.H.H.H.E.E.R.E.E.R.E.E.E.E.R.E.E.H.H.",
"E.E.E.E.J.J.J.J.H.E.E.H.G.H.].].].].].].].].].].].].].].].].E.E.].].].].].].].].].].].].].].].].E.E.E.E.E.E.].].].].].].].].].E.5XNXzXVXCXiXdXdXpXhXuX!.!.Y.U X.A A T L t.#X7X@XY.v , * $     * j.nX#Xl.l.4.6.4.l.m.m.w * C L A e $ @ C m.m.#X0XL @ * * % % # # = 0 = a 0XnX+XnX7X7XgXCXT.p q q x x : # . # L 7XnX0X0X7X0XeXeXeX2Xp @ * , q 1 - # # , q $ $ ,.7XoXl.#XoX0XV p A p f e 9 } 6.m.4.m.} e 9 9 e F ..4.C       # : : , # # , $   $ , w | l.,.,.l.l.0 % % > > % % % % % % X X X . . X . . O % O X X % % % % X % % % : > % % > > % % % % X % X X X X X X . X X X X . . X X X . . X X O X X X X O O O O O > % % O % : : > > < > < 6 2 2 y u x c y x u 6 2 < : > 3 2 2 < 2 2 2 : : : 2 2 2 2 q 2 1 2 1 X X 3 1 2 Z T U m 2 : 1 q 2 1 1 2 2 1 2 q q x k n U U E T U U U Z n Z H W W ;.X.t.e.W W 1 , Q e w q V Z A Z Z A V 1 ; q X q Y.P.Y.@X@X@XV.~.T # v Q X.X.W Z e.Y.@XbXbXbXbXkXbXbXbXLXGXLXLXBXbXGXGXGXGXLXGXGXkXkXlXuXW.Q.G.C.C.C.c.C.C.C.C.c.c.c.c.c.c.c.c.c.c.c.c.c.x.a.a.y.<.<.<.c.C.G.G.H.R.E.R.E.E.R.R.E.E.R.R.E.E.R.H.",
"E.E.E.E.E.J.J.J.J.E.H.H.G.J.].].].].].].].].].].].].].].].].].].].].].].].].E.E.E.].].].].].].E.].].].].].E.E.E.].].].].].].].].,XZXZXNXfXfXpXdXpXuX@X!.k.^.i.Z Z T Z v v j.#XY.Z * v , 0 #   @  .#X#X$Xl.F 5.l.m.4.l.A $ v p C V v e e w 4.+Xj.u 0 C C 0 *   0 C t 0 %.eX,X9XmX+X7X2XnXbXZ , k q - X # : T 7XnX7X0X0X0X0X0X0XeXnXT @ # , # X # 1 1 # # % @ 9 A ,.l.XXl.L C t...f 9 9 ..8.6.8.6.*.....} *.5.5.4.,. ., @ # # X # X # . # , ,   @ $ * A j.j.l...$ # # # % : % > > : X % # X X . . . . X X X X X . X X X X X % X X % X % X % % X X # % X X O X X X X X X X O X X X O X X X X X X X X X X O X X % O X % % X O % % % % % % % % % % % X O % X X X O X X X X X X . o X X X X X X X o o o o X o X o X X X : : q U U W w.m 3 1 2 2 2 3 : x k x n m v m v v H E E E E E E W ;.e.e.e.X.;.X.E Z x n Z q q L q e Z A V I V q ; ; 3 ; l X.k.k.Y.Y.Y.Y.S.i.q Z X.t.i.q ;.pXpXuXuXhXkXpXdXbXbXbXBXBXGXBXBXBXBXBXBXGXLXGXLXLXGXpXW.W.R.G.C.C.Z.C.C.H.G.C.c.c.c.c.c.c.c.s.c.c.c.C.c.c.b.x.a.<.y.a.z.x.C.R.H.H.E.R.E.E.E.E.E.E.E.E.R.R.R.R.",
"E.E.E.E.E.J.J.J.E.E.H.D.H.J.].].].].].].].].].].].].].].].].].].E.].].].].].E.H.J.E.].].].].E.E.].].].].E.E.E.E.].].].].].].].].,XVXZXNXMXMXaXpXdX@XyX~.I.!.k.m q Z I Z Z l w Z L v , x X., #   L 7X#X,.w * A ,.4.4. .A p T T A v q w e $ 9 j.L * p  .j...p 9 F v.v.t C 0X7XeX+XS S.7X2XnXW # : X     # # ,.pX+X#X7Xm.C 0X0X#X7XaXT @ # , 0 #   : 1 # . @ 0  . .q $ 0 * @ V l.,.| L } oXoX6.6.*.} } *...*.6.*.*.4.5.0       . o   o     # : 0 @ @ % % p  .j.H $ % X % .   o X . . o . X o o o o o o o o o o o o . o o . o o . o o . . o . . o . o . o o . . . . . . X X X . X X . . X X . . . . . X X X . . . . X . . X X o o . X X . o X X X X . X X X . X X . . X X X X # - - - - - : # X X - # : : X X X X X X 2 , n Q Z n X.i.Q 2 2 x x 2 2 2 x m n b n U U U E W W W ;.t.i.V.V.I.k.i.p.i.u.;.T T p.X.: q l , e V V V Z q # q v T X.I Z I Z U k.k.Q.Y.k.Z k.@X~.W U i.Y.~.Q.~.uXuX<X2XpXBXBXBXCXBXCXCXBXMXBXMXMXVXGXLXGXBXjX:XW.R.G.Z.C.Z.C.Z.G.G.B.c.z.c.c.c.c.c.s.s.c.c.c.N.c.c.c.c.a.a.a.a.a.B.H.R.R.E.R.R.E.E.E.E.E.E.R.R.R.R.R.",
"E.E.E.E.E.J.E.E.E.J.H.D.H.J.].E.].].].].].].].].].].].].].].].].E.E.].].].E.H.H.H.J.E.].].E.E.E.E.].E.E.E.E.E.E.].].E.E.E.E.E.E.1XVXVXCXCXMXaXuXdXuXyX!.k.L.Y.w.t.p.p.p.w.l q o.Y.t.q v o.0   @ T pXo.e $ * @ * | l.S.Y.#X@XS.L C V T A C 9 * * 0 5.5.*.5.*.f *.m.+XF 9 m.7XS.V * Z Y.nXgXX.# #   # ; , , w Y.nX7XK.p @  .0X#X2X2XZ @ # , 0 #   # 1 , X   0 k.k.,         0 j.S.S.,.} 5.m.5.8.6...6.} } 9.6.......4.s @ * % % # : : : , < : q v # . # @ < v 0 # q q q < > : o X X o o X o o X X o o X X X X X X X X X X o o X X X X X o X X . . X X X . o o X X o X X X X X X X X X X . o . o o . X X X X . X X X . . X X X X X X X . . o o o o o o X X o . o o o o o X X X X X X X - - X X X X X # X # o X X X 3 2 k e.i.X.n U p.I.e.e.t.k.k.k.k.k.k.k.I.Y.~.Y.~.Y.Y.Q.~.<XuXpXkXdXuX~.Q.I.I.V.p.e.t.!.p.m Z v ; ; l l , ; l I w.L.I.@X~.t.t.t.t.k.i.Y.Y.Y.,.Y.@Xk.H I.@XY.~.Y.Q.@XQ.W.W.:XdXBXMXBXMXMXMXMXMXMXzXfXcXCXGXcXjXMXdX>XE.Z.Z.Z.H.H.G.G.B.c.c.C.v.d.c.c.c.s.c.c.c.c.c.c.c.v.N.c.c.x.a.y.c.G.E.E.E.R.R.R.E.E.E.E.E.R.R.R.E.E.",
"E.E.E.E.E.E.E.E.J.H.D.D.H.].].J.E.].].].].].].].].].E.E.].].].].E.E.].].].E.H.G.H.J.E.].].].E.E.E.E.E.E.E.E.E.E.E.E.E.E.E.E.E.E.1XZXZXVXCXMXaXiXuXdXuX~.L.L.I.t.p.w.X.t.w.Z v X.Q T X.T x #   * T k.q , q * 0 ,.@XnXnXpXnXnXl.A | o.t.t.o.C , * C m.*...5.*.h 8.m.XXj.$ p  .p t b q T V.t.q # # # , q q w 0 v k.l.w @ $ *  .7X7X@Xq   # , , #   # , q q %   , , # # X X # . q v v $ e o.oXoX*.f *.6.} } 6.6.*.*.4.5.C * 0 * , , , 2 1 < q 2 , v x X . # % % # # , , : q b Z x % > : : : : : : X : % : : > > , , < < > > , , : # X X : # % : % : % % : : : : : : : : : : : , 3 : , 1 < < < < < < 2 2 < 2 2 2 q 2 < < < , : : : : : : , 1 , , , , : : : : : : : : : : : X X # X X X X X X X X X X X o o X o o o o , q W L.~.p.U Q U w.W W U T e.p.~.@X@X@XuXuXuXhXdXpXpXhXkXkXkXdXdXdXY.^.Q.I.i.I.I.i.^.~.~.k.k.t.1 ; ; ; # k w.L.k.@X@XyXY.t.i.k.Y.k.k.I.k.k.T u.Y.W X.@XQ.V.~.T.~.Q.W.Q.:XdXjXBXMXmXmXMXMXNXNXNXzXzXzXcXMXcXcXVXJXNXgX5X{.R.Z.N.Z.B.Z.B.N.c.c.c.c.c.c.c.c.c.c.N.c.c.c.c.c.c.c.c.x.a.x.G.E.E.R.R.R.R.E.E.E.E.E.R.R.R.E.E.",
"E.E.E.E.E.E.E.E.J.H.G.G.J.].`.J.E.E.].].].].].].].E.].].].].].].E.E.].].].E.H.G.H.J.].].].].].].E.E.E.E.E.E.E.E.E.E.E.E.E.E.E.E.1XVXJXVXCXNXaXaX2X<X~.^.i.^.~.i.X.Q T t.w.Q m Z t.@X@XpXk.e   # 0 Z T w # * , e.@XpXbXnXnXnXt.A o.k.Y.S.k.,. .0 * F } m.8.6.6.8.0X0XXXp * p p A T C q * , # * @ @ % , , v v , * $ @ # e $ # X.@X,.q % # #   @ # # # 1 q 1 .   X : : q 2 , :           $ 0 9 $ } 8.} *.6.F 6.6.*.4.l. .* * # * , : , 1 : : q , : E q # % % % #   % < , < < q v b > < 2 < < < : : : : > < 2 2 2 2 2 y 2 2 x q 1 : : , 2 < > , < 2 < < 2 2 2 2 2 < : 2 2 2 2 2 y y 2 y x v v v x x x x x x x x x y 2 2 y y < > > < 2 2 q y y y x x q q x x x y x x x m k 2 k q 2 k k k 2 1 1 1 1 2 2 3 3 3 1 3 3 : 2 Q L.^.Y.W Z Q Q U Z n Z W e.e.k.~.@X~.uXpXlXkXdXhXjXkXkXkXkXkXkXjX~.~.uX~.I.<X<XQ.<X@X@Xk.e.e.k ; 4 ; l w.w.w.L.P.k.L.Y.k.i.i.t.k.k.k.k.Y.T k.I.X.Y.@XY.Y.Q.Q.@XW.W.W.iXMXMXfXMXmXMXNXNXNXNXNXzXmXzXzXMXCXZXVXVXVXVXZXNXsX5X1XQ.Z.V.V.N.c.c.v.b.b.b.b.c.c.v.v.c.c.b.c.c.c.c.v.c.z.s.C.E.E.R.R.R.R.E.E.E.E.E.R.R.R.R.R.",
"E.E.].E.E.E.E.E.H.H.H.H.J.`.`.J.E.E.E.].].].].].].].].].].].].].E.E.].].].E.H.G.J.E.].].].].].].].E.E.E.E.E.E.J.E.E.E.E.E.E.E.E.,XZXZXCXNXfX5X7X1X<X@X^.k.k.L.k.X.X.X.w.w.Q Z Z X.Y.k.L.o.v X.q @ L | v , , 1 1 Z t.@XnXnXnXS...o.l.#X$X#Xl.,. .$ @ G XX8.6.8.8.m.0X,.t p w * Z C 0 $   * # @     $   # * 0 w 0 q 0 , w : # , q , $ :       @   # @ # @   # # - : , 2 2 : 3 # #     # @ @ @ @ | 5.4.6.4.9 f 6.6.4.j.,.= # % % : % : 1 : % % < X : W q . : @ @ @ , < q p c u < b 2 , : % , 2 > , < < 2 2 y u y q u p u v b 2 < 2 < < < < 2 2 2 y 2 2 6 q q y q 2 : 2 2 2 2 q y 2 q y x c b v x x x v x x x y y y x x x 2 > > > > : : : > > < < , < < 1 1 1 2 q y m n v x m m m m n n m x x k k m k x k 2 x k 2 : k p.!.~.L.Q T U I U W w.i.I.!.!.@XuX@X@XkXkXkXbXhXkXjXjXjXbXBXBXkXkXdXdXpX~.~.~.uX~.uXdXpXk.t.e.p.I k ; I w.w.w.L.yX!.p.^.~.i.t.k.S.S.Q.Y.k.L t.Q X.@X@XQ.~.Q.~.:XW.Q.1XfXfXbXgXzXMXNXCXNXmXzXzXzXzXmXmXNXZXSXVXJXJXJXJXJXZXVXVXgX1XW.B.B.C.v.a.b.c.c.c.c.v.v.v.c.c.v.v.c.c.b.c.c.x.s.B.H.E.R.E.R.R.E.E.E.E.E.R.R.R.R.R.",
"].].].E.E.E.E.J.J.J.J.H.H.J.J.J.E.E.E.].].].].].].].].].].].].].].E.E.].].E.H.H.E.E.].].].].].].].].].E.E.E.E.J.].E.E.E.E.E.E.E.>XCXVXCXNXmXaXaXiX@XQ.k.I.k.k.L.t.w.w.w.X.T Z T I o.o.k.k.o.@XX.; Z I e 1 1 1 1 : 1 l T | o.oX#XoXl.t.k.k.S.+XS.0 = 5.m.6.8.8.XXm.,.* 0 p e v V w # $ @ * v A p 0 @ @       % q q q 1 , , : : # # @ $ , v C p $   0 H b , # # : : 2 : : : 3 2 3 # X : : # # $ C j.j.5.f   $ p *.m.m.j.p * < , , , : 1 , , 1 q : . v X.< < u * q v v Z Z H S c u u b Y H < : < < < y y y y u u u c x c b c < 2 q > > < 2 u c i c u i i u u i u u < 2 2 2 2 2 2 < 2 2 2 y y 2 y y x c y y c y y y y y 2 > > < > , : : > < 2 2 2 < 2 < , , , < 2 2 x x x v m m m n ! m m x k x m x k k 2 ~ x x 3 : m I.~.L.W U T I U e.k.!.I.i.L.yXhXpX~.@XbXhXpXbXbXkXkXjXGXGXBXkXkXjXjXkXkXdXdXdXpXuXpXhXpXI.p.t.^.^.p.k I w.w.w.P.~.I.L.@XL.X.i.Y.@XY.S.V.Y.v , m t.Q.@X<X@X~.uXW.Q.:XMXMXfXmXMXzXmXNXCXNXmXzXzXmXzXmXNXmXCXZXNXHXHXJXJXJXJXJXVXMXGXCX,XG.C.C.c.v.v.C.C.C.C.C.C.C.C.v.v.v.c.b.b.c.c.x.N.H.E.R.].R.E.E.E.].E.E.R.R.R.R.R.",
"].].].E.J.J.J.J.J.].E.H.D.H.J.J.E.E.E.].].].].].].].].].].].].].].].].].].E.H.H.].].].].=X=X].].].].].].E.E.E.E.].E.E.E.E.E.E.E.:XMXCXCXZXZXMXMX7X2X~.k.i.L.k.p.X.X.X.w.T U I T T Z t.yXbXL.yX| ; e v l v 1 # - : 1 q , , V #X7X#X$Xj.o.k.7XnXQ.t * j.5.5.oXoX0XS.s p C w v T v e * * w C L C L | * * p p ,   # , q q 3 # # X # # @ w  .o.O.o.L $ p T T Z , # X 1 < q 1 - : 1 3 : X : , % : @ # v ,.C @ * $ @ * p H T q # 2 , : q # , q < 2 < < # % b Z q 0 , 0 v H H b C b b Z ;.W Z.1XX.& % > 6 u c y 6 u u c u u u c y > y 2 % > y v b c i c u i u t t 2 2 2 < 2 2 < , , , : < > > < 2 < < < u u > < y 2 < < , % % 2 b n v v b n H H H H n b H n b b c v x q q 1 q m m m n m m k k k q m m 3 k k 2 x m x 3 3 Q ~.~.W Z W e.e.i.^.~.uXY.^.Q.uXlXuXI.~.bXkXkXbXGXkXkXjXGXjXkXkXkXGXuX<XuXdXdXkXkXdXdXhXhXI.p.L.!.L.p.k I w.w.w.~.!.!.~.!.k.t.e.t.@X@XQ.@X@XZ n v t.k.Q.@XY.Q.Q.Y.~.fXMXfXgXgXfXfXmXmXNXmXmXzXmXNXgXzXNXmXmXAXCXVXVXJXJXJXJXVXjXBXGXJXMX:XC.v.C.C.C.C.C.D.D.C.C.C.C.v.v.v.v.v.v.B.v.c.B.H.E.R.E.E.E.E.].].E.E.E.R.R.R.R.",
"].E.E.E.J.J.J.J.J.].`.J.F.H.J.=X].E.E.].].].].].].].].].].].].].E.E.].].].].].E.J.].].].=X].].].].].].].E.E.].E.E.E.E.E.E.E.E.E.:XjXVXJXJXVXCXCXaX<X<XI.i.k.p.w.X.Q X.Q Z U I Q m Z L.FXPXp.k.v   ; q m m 1 - - 3 q k q q V l.#XS.$Xl., w L t.,.* *  .*.5.j.j.XXoX0 p C v v p w * $ C  .{ ..4.4...p 9 A L  .p   X # - X X   # X   , | o.| ....| e 9 p V V v # % : : : 1 : 1 1 3 - - # # : % . : # , # * , % # @ @ # @   % 1 : < y : , q q p q 0 < % @ u p u q p C p s C L C p b x.E t J u.u > u N b i t t u u u y i c c y < y 2 > y n c y < < > > 2 < < > > < < < < < < < < < < < 2 6 2 2 q < > > & > % % > % , % < c b N H n N M H J R E Y J J J Y H N N H N c , , q x q x x x x 2 q 2 m n k 2 x 1 k x x q 2 : W uXe.U t.I.@X^.Y.uXdXuX~.I.I.I.~.uX~.I.~.kXGXkXFXkXbXGXbXbXkXbXhXhXdXI.^.kXkXhXkXGXuX@XuXt.w.k.L.L.w.3 I q.w.w.yXlX~.L.~.~.k.t.;.t.Y.pX~.Y.t.Q.n U i.Y.Y.Y.I.V.V.1XCXdXgXbXBXMXMXMXMXMXNXmXmXmXmXxXNXAXAXAXAXSXZXJXJXJXSXNXMXJXGXJXGXVXaXZ.C.D.D.C.C.C.C.D.C.C.C.B.B.v.v.B.B.c.B.c.N.C.H.R.E.E.E.E.].].E.E.E.E.R.R.R.R.",
"E.E.E.E.J.J.J.J.J.J.J.J.J.J.J.J.E.E.E.].].E.].].].].].].].].].].].].].].].].E.E.J.`.].].=X].].].].].=X{.].E.{.E.W.E.R.R.R.E.W.&XgXGXHXVXGXHXGXCXbXaX<X@XY.k.p.w.e.X.w.X.T U Z I I I Q P.k.q e # X - : k k - - - ; , q q v V l.pXS.o.p * $ 0 , @ $ * C Z p 0 p j.S.w 9 w V e , e e w } *.6.6.6.6.{ F C L | ,. ., X   X       X # @ ; v v L ,.O...V C V V A V # @ # # : 1 : : - - - - - : 1 : # # # 1 1 q < :   , , % # % , , : 1 2 , 2 q q q p 0 q 0 0 0 0 q p C L S F { F S b S &XE < S J i > c N b b b i u t < 6 u u i y > 2 y i u u 6 < < 6 y u c c n n b M b n n n n b b b b Z H H Z y < < < y y c i c c 2 < y v H H J ( H M J R R ( R J Y E ( E Y Y W E H N 2 2 q q x m k 2 2 2 q x m x k q 2 2 m m x 1 3 3 i.L.U e.k.I.Q.~.dXdXjXjX<XI.I.I.Y.~.Y.p.p.I.uXpXkXLXLXkXuXhXkXdXkXbXkXdXkXkXkXkXkXuX^.Q.uXk.e.e.p.t.! - ! I Q w.yXyXL.p.I.k.u.i.X.;.I.Q.Q.k.Q.@Xm I t.Y.I.k.k.k.i.Q.bXjXjXbXbXjXjXMXMXMXmXNXNXmXzXxXmXxXmXNXNXZXJXJXJXJXSXCXVXJXGXKXKXGXaXZ.D.D.C.C.C.C.C.C.v.v.v.v.c.c.v.B.B.c.c.c.B.G.R.E.E.E.E.].].].E.E.E.E.R.R.R.R.",
"J.J.J.J.J.J.J.J.J.J.J.J.J.H.F.F.].E.E.].].].].].].].].].].].].].].].].].].].E.E.J.J.`.].].].].].*X{.E.E.{.{.W.E.W.W.:X1X1X5XaXgXjXGXHXVXCXVXBXjXdXhXuXpXuX~.I.p.t.t.t.w.W I m Z m w.Q p.p.v ; @ # # X - - o # 3 # : : , q w T l.| e $ e C  .L p e 9 $ * * * 0 * 9 9 w p w , w w w C 4.l.m.5.5.5.6.*.m...} T o.t., # # # X # # # # @   * | o.,.4.} } A A C q q q : # : , , : , 1 2 1 , 1 < , : : % q v v y < < , : # , < : % : q q q y u p < u 0 p 0 p L L p * L L  .{ *.F S S a :.E E.,X:.t > u M N H H M b i 5 t u < t 6 > > < % > y n H H Y Y Y Y E ` ` ` -.E W X.X.E E Y Y E E H b b N J E E W E W E E Y v 2 y v J Y R R H b R J H R R J R J H J Y J Y J n N 2 q x q y x k x 2 x x n m k x x x k x x x 1 : q L.e.U I.I.L.I.uXuX~.uXuX~.Q.!.Y.!.~.~.Y.^.^.^.I.uXlXdX@XdXkXuXY.!.uXkXkXFXkXkXkXpXkXuXuXhXuXY.X.Q I k ; Q w.w.w.P.^.p.w.k.p.p.k.u.k.k.V.Y.T e.k.Z T t.k.k.V.k.k.u.I.bXBXbXbXdXdXfXbXMXfXzXmXmXzXzXzXmXzXmXAXAXAXSXJXJXZXCXCXCXGXGXLXLXVXaXH.D.D.C.C.C.C.v.c.c.c.B.c.c.c.v.B.c.x.c.v.Z.H.E.E.E.E.].].].].E.E.E.E.R.R.R.R.",
"J.J.J.J.J.J.J.J.J.J.`.`.H.C.D.H.].E.E.].].].].].].].].].].].].].].].].].E.E.E.E.H.H.J.=X].].{.{.&X{.{.{.{.W.:XaXfXjXjXBXBXMXjXjXjXjXBXBXMXjXjXjXkXkXpXuXuXlXuX~.L.k.p.X.W I n I I I T !.P.I $ @ # # #   # - # - - # , w e q p e * * V j.+X+X#XS.e ..o.A * * 0 * $ v v q e , w e e p 4.oXl.5.4...*.m.l.l.| L L ,.p X # # ; : : , : # @ Z t.,.4.} O...| | C $ q v , # : , , , 2 2 q q : # : # X # # < q q b b v # # : b u < , 0 v b q 0 v C p u 0 p  .j.K.K.5.s L %.%.*.{ {  .S s < %.5X=XP < u b M J J K J P J J J J N M b i 6 < < < > > < n Y Y -.;.:.r.r.y.u.u.:.:.e.e.r.e.;.E Y E -.:.u.u.g.i.i.y.-.H b y 2 y b n J E -.( J b M H H R J b H S N H J H H J N n v x x x q q k m m I n ! m x x x k x m m x 3 : m i.W k.kXbXbXbXGXbXkXkXdXuX~.~.!.Q.~.~.~.~.~.uXuXuX~.@X~.lXkXhX@Xe.I.kXhXkXkXkXkXdXkXkXkXkXuXyXL.Q Q l - I Q w.w.L.p.p.k.Y.k.u.k.k.S.S.OX@Xq # X.I.X.W e.k.k.t.e.V.V.fXBXjXfXdXdXjXjXbXbXMXNXNXmXzXmXNXmXNXAXCXCXSXJXJXJXSXZXVXGXKXHXVXMX5XR.D.C.C.C.C.C.v.c.c.c.c.c.v.B.v.c.x.x.c.C.H.E.E.E.E.].].].].].E.E.E.E.R.R.R.R.",
"J.J.J.J.J.H.J.J.J.J.J.J.D.C.D.`.].E.E.].].].].].].].].].].].].].].].].E.R.R.H.H.G.G.E.=X].].{.W.&XW.W.:XaXfXjXBXGXGXjXbXGXGXLXLXBXjXBXGXjXcXGXGXkXdXuXuXuXlXlXhX@X^.L.w.w.X.U Q X.Z Z w.t.T e $ @ @ @   # X # l q 1 # , , < , 0 $ p ..4.*.4.,.5.L j.#XS.,.e $ * e v e w | L A C V e f  .L } L p 6.oX5.l.4...,.j.v   # - 3 1 1 q , X , X.t.X.p $ | O.T T L # % , % % , 2 2 : 2 2 : 1 1 q x q : # X % : 2 n n > . # q n x q 0 p p b 0 0 p 0 0 0 V ,.XXXXoX0XXXg F 5.4.*.#.*.%.*.%.s a z.P t t u b M K K K R ( %.>.:.:.;.:.-.;.` Y Y N b n y > > y n b H Y E W -.;.;.:.r.;.E Y Y E ;.y.N.V.V.u.;.;.H c i v n H Y W W ` ;.y.u.u.;.Y R E Y W H c J R Y J E W E E ;.E T n n v x x x k x k 2 x x x k x m x m m x 1 2 Q i.U !.hXkXGXGXGXGXGXGXGXBXuXI.I.!.~.~.@X@XuXpXhXlXuXkXdXkXbXGXuXi.I.kXkXkXhXkXkXFXkXhXkXhX@XuXyXw.w.l o ! Q w.w.^.L.k.k.I.Q.Q.V.I.@XI.2Xi.q X.@X!.w.X.w.e.t.e.u.I.V.dXbXdXdXdXjXBXbXbXMXMXMXNXNXCXNXNXNXNXNXNXCXZXJXJXJXJXJXJXHXJXHXBXcX:XH.v.v.C.C.C.C.v.c.v.v.c.v.B.c.b.x.x.c.C.G.R.E.E.E.E.].].].].].E.E.E.R.R.R.R.R.",
"J.J.J.H.H.H.H.J.J.H.H.G.D.F.J.].E.E.E.E.E.E.E.].].].E.E.E.E.E.E.].].E.H.H.H.G.G.H.H.].=X{.W.W.W.Q.2XaXdXbXGXGXLXLXGXGXGXGXGXGXGXGXBXGXGXGXGXGXGXjXkXuXkXkXuXlXkXyX~.!.p.e.e.W w.X.Z l A | L w $ $ , @   #   , Z Z v ; # % # , * * A *.......*.......m.l.oXo.* * | k.t.T | o.t.o.,.p $ * @ 9 0 e oXXXoXS.,.L T X.q   # : , 1 1 2 2 : : U X.Z , $ q L | o.T * % , q x n H n b H n b v n n b b v < > % < b n < X % : y u u p p C p p 0 * * 0 0 * { 0X0X+XXXXXm.*.8.m.XXXX*.F *.<.<.<.P i = < s J -.( -.>.>.>.y.s.y.g.g.B.Z.N.N.N.g.r.;.E E Y Y b 6 & y H E E E E E R E E E ;.y.u.g.N.N.y.E Y n c c N Y ` ;.r.u.V.V.T.V.u.u.;.;.-.E ( -.E ( J b J R J Y W -.E ` y.;.T U U U x x I Q I k 1 2 1 3 : 1 2 1 1 3 - - 3 w.e.! Y.kXGXGXbXGXGXjXkXkXBXdX!.Q.~.~.Q.~.uXhXkXhXkXhXkXkXkXbXGXuXY.~.hXkXuX~.kXFXkXkXkXkXkXdXkXyXQ Q k X I w.w.Q t.X.X.p.p.V.V.i.t.E X.u.H i.@XI.t.p.k.p.X.e.p.V.Y.V.dXbXjXjXjXBXBXbXjXbXMXMXMXNXNXmXNXCXCXCXNXZXZXSXJXJXJXJXJXJXHXJXGXfXR.G.C.C.C.C.C.c.c.c.v.c.B.v.c.b.x.x.c.C.G.H.R.R.R.R.E.].].].].].E.E.E.E.R.R.H.H.",
"J.J.J.H.H.H.H.H.H.G.G.H.H.J.].].].E.E.E.E.E.].].].].].E.E.E.E.E.E.E.E.H.G.H.G.G.H.J.E.E.].E.W.{.2XdXjXjXGXLXGXGXGXGXGXLXLXGXGXGXGXGXLXGXGXGXGXGXLXkXuXpXhXhXkXbXlX@X~.i.e.p.t.i.t.I e e V A w   e o.A , @   q Z Z Z , # # # : @ * } l.4.l.4.*.oXoX4.4.S.oX#XL ,.#XnX$Xt.L L T T L w @ $   @ @ @ p +X#XS.q * , 0 ,   # # - 1 1 1 q q : q q q q # @ e Z T v : 2 y u b H H n H U H n x n Z c n H c y 2 c H 6 o : < 2 y y b H L  .L p = p | *.,.C s L *.6.6.8.oXoX8.XX%XXXXX=.F G P b J M S a K -.:.y.y.s.g.s.N.Z.g.U.U.Q.W.Q.U.Q.|.Q.i.;.E E E Y J c y c H ` u.u.u.V.Z.Z.U.Z.B.N.s.E N c n H E ;.:.g.T.W.W.W.W.Q.V.r.Y c u 2 < 2 < b H Y ` E J Y E ` ` -.;.-.;.;.Y n n U U n n W i.w.! m m m k k m x q 2 2 k 1 2 w.w.Q I.hXbXGXbXkXBXbXBXkXBXkXI.p.~.lXlXuXuXuXuXyXuXlXkXFXGXkXhXuXyXyXuXuX~.!.hXFXkXkXkXkXkXkXkX!.Q w.k 4 m ! k 1 v Z X.i.Q.@X:XT.I.;.q , Z Q.!.k.w.X.k.k.k.Y.I.Y.Y.Y.dXbXbXbXbXbXbXbXbXBXBXCXVXJXMXMXVXVXZXSXZXSXJXJXJXJXKXJXJXJXGXGXCX1XG.G.F.C.C.C.v.c.v.v.v.v.v.c.c.c.c.v.C.G.H.R.R.R.R.R.E.E.E.].E.E.E.E.E.R.R.R.R.H.",
"].E.J.H.H.H.G.D.G.H.J.J.].].].].].].E.].].].].].].].].].].].].].E.E.J.H.H.R.H.G.H.J.J.E.{.W.W.:XkXkXbXGXLXGXFXLXGXGXGXGXGXGXLXLXLXGXGXGXGXLXGXLXCXQ.I.~.uXkXkXbXhXyX!.I.i.k.k.t.t.v w p | t.A $ e o.t.o.T ,   , q q # : # 3 y % q S.S.l.m.l.} l.oXoX*...oX#X,.l.nX#Xj.| ,.S.,.L | p * $   # # # * k.#XL @ @ q v q # -   X - 1 1 q q , # .   # X     # # % % < < & < p u y n n b n b H n v n b u v u c y . X : < q 2 c H J ,.,.,.a p *.L F L F 0 = @ @ } oXoX0.8.XX%XXX%XXX#.{  .%.>.%.%.>.R :.s.s.g.s.s.Z.U.U.U.Z.g.u.;.-.E Y E H n b v b b c c n u y < < y y c c c c b b c i u > u ` U.U.U.|.>X:X:XW.T.V.;.Y n y u u y < < < % % > < c H E E E E Y E E E Y b c b n n m n ! ! U ! x x m m k k x k x k 2 2 : : w.U e.@XkXbXbXGXbXjXbXGXBXBXBXuXI.Y.uXdXdXpXhXpXlXuXuXuXuXkXlXuXyX~.~.~.~.~.!.yXFXGXGXFXFXkXbXlXe.q.p.~ o - 3 k I t.k.uXdXuXu.k.Q.I.2Xk., X.k.k.i.w.w.L.Y.Y.@XY.I.Y.~.dXbXbXbXbXbXBXGXGXbXjXjXMXCXVXVXZXVXVXJXJXJXJXJXJXJXJXJXJXHXKXCXgXW.R.Z.H.v.C.C.v.v.C.v.B.v.c.c.c.B.C.D.G.G.H.R.R.H.R.E.E.E.E.E.E.E.E.E.E.E.E.E.E.R.",
"J.J.J.J.H.H.G.G.H.H.J.].].].].].].].].].].].].].].].].].].].].].J.J.H.H.H.E.H.G.H.H.E.E.{.W.2XdXkXyXuXkXFXFXFXPXFXPXGXFXGXGXGXLXLXLXGXGXLXJXBXBX@XQ.iXnX@X<XdXkXkXuX@X~.^.I.k.t.A V L |  ...e e o.o.| t.k.v   # # # # 3 : - Z q b j.j.j.m.4...4.oXl.l...l.$Xl.A t.L ,.#X#X#Xl.j.#X#X .# ; : # # # Z Y.:   : v Z n #     X X o X X . o o   o   o         o . . .   . . . . . . O % % % & & % % & > % % O . o . % % < < u C  .<.,.a F ,.L 0 * 0 0 9 @ f oXoX8.0.8.oXXX%Xm.%X=.G P %.>.>.%.%.%.:.N.Z.Z.N.s.s.s.;.J N u 6 5 > > < > 6 < 2 6 u 2 < 2 < > > < > % % O . % % % % % < u H E ` y.s.V.Z.g.Z.y.Y n n n y u u y % % u n b y < : % O % > < y x b b b c x 2 < 1 1 3 3 : 3 3 3 : : : : - - - - : X X - X o k e.! i.uXkXbXGXGXBXGXGXBXBXjXuX!.I.^.uXkXkXpXkXFXkXkXbX~.~.uXlXuXuX!.~.~.~.~.~.yXkXGXFXkXbXFXFX^.Q p.p.- o 1 I p.p.L.!.pXbX~.H X.Q.V.Q.@Xn X.k.Y.w.Q i.k.I.~.@X@X@X@X~.dXbXbXkXbXGXBXBXbXdXpXjXdXdXaXgXgX5X{.1XCXJXJXJXJXJXKXJXHXJXHXJXaXT.G.F.C.v.v.C.C.c.c.B.B.c.a.c.G.H.H.H.H.H.R.R.R.R.E.E.E.E.E.E.E.E.E.E.E.E.E.E.E.E.",
"J.J.J.J.H.H.H.H.J.J.J.E.].].].].].].].].].].].].].].].].].].].].E.E.H.H.H.R.J.H.H.J.E.E.W.W.1XdXkXyX^././.P.yXhXPXFXLXFXFXFXGXFXFXFXPXkXbXGXBXaXS.:XS.S.2XQ.pXbXbXpXuXY.i.k.k.S.V | l.j.,.| w  .S.k.t.j.t.v @ # X # : - - # 1 1 , < * 0 * 9 ..4.m.l.$XoX..XX+Xp * A S.#X+X#X#XoX+X#X+XZ # 1 q - # X q     # : 1 # # X : X o X o o o o o o o o o o . o o . X % % % X . . . . X O . . . . . . . . . . . > < % X . . X @ % * 0 p a * 0 p * $ w C s $ $ ..XXoX8.8.8.m.XXXXXX%X<.= 0 t i s t i b N N S H H b i u 5 < 5 5 6 6 5 6 6 < & y b y y c u < u c n c > X % > < < y c c c N E ` J c c c b b u u c b u > < 2 2 y % . > N J H c y 6 2 > : X X X . . . . . . o o o o X o o o o o o o o o o o o o o o o : k k Q /.U i.!.uXbXbXGXGXBXdXjXbX~.i.i.I.I.uXkXhXhXuXuXkXGXkX~.~.yXuXuXuX~.yX~.~.IX~.~.IXPXFXkXbXkXlXi.W L.w.- l w.w.w.p.!.~.@XpXpXV.Q.7XW.W.<X;.w.k.!.w.t.L.Q.~.Q.~.@X~.~.@XkXbXbXbXbXBXkXjXkXdXBXuXV.T.<XiXgXaX,X5XaX1XzXJXKXJXJXJXJXJXJXCX5XG.Z.G.C.v.C.C.B.v.C.C.C.c.c.C.H.J.J.J.J.J.R.R.R.R.E.E.E.E.E.E.E.J.J.J.J.H.R.R.R.R.",
"J.J.J.J.J.J.J.J.J.J.E.E.].].].].].].].].].].].].].].E.E.].].].].=XE.H.H.E.J.J.J.J.].E.].{.W.aXpXlXhXhXyX^./.p.w.p.P.~.hXFXFXGXFXFXLXFXFXGXGXbXaXj.x.u.j.Q.@X<XbXbXdXhX~.k.I.k.o.t.j.l.l.} w p S.S.S.#X#X#XZ @ #   X # # 3 - - # X @ # * @ $ f 5.4.4.$Xl.w ..7Xp 9 l.7XS.Y.#X#X+Xk.S.OXV.: : - - 1 o o   X X # #         X X X o o o o X X X X X X X X X % > 2 y c 2 % > 2 5 < > > > > % % % % % > % > y y < > > & < & = = = < 0 * 0 * @ 0 L L 0 e p 5.oX8.8.XXoXm.XXXXXX0X5.= a t t t 5 u i u u i i i i u u i c i b b b b b b i % y b c b H H x N ` E u : 2 u y > > < y c c b b c y < 2 y u c u 6 b n 6 % < b N c % % 2 H H n c y x x x x 2 3 X X X X X X X X X X X X X X X X X X X X X X o o o o X 1 m x 2 W L.U p.!.pXhXkXGXBXjXkXGXkXQ.i.^.^.Y.uXdXpXkXkXhXkXGXdX~.@XyXpXlXyX~.~.yXyXyX~.~.yXkXFXkXFXFXhXL.p.p.n l w.p.w.p.p.k.!.@XpXpX2X2X1XaX2XW.X.X.k.k.X.i.Y.@X@X@X@X@X@XQ.@XbXbXkXbXbXkXkXbXbXBXGXQ.I.aXfXbXMXgXzXNXmX9XmXZXJXJXJXJXJXJXJXMX5XG.Z.G.C.v.C.c.c.C.F.E.E.E.D.H.J.E.R.R.R.R.R.R.R.R.E.E.E.E.E.E.J.J.J.J.J.H.J.J.J.J.",
"J.J.J.J.J.J.J.J.J.J.E.].].].].=X].].].].{.{.].].E.E.E.E.E.E.E.E.E.H.E.E.].E.J.E.E.].E.&X{.W.dXpXlXlXyXyXyXPXyX^.p.w.w.L.yXPXkXlXPXFXFXFXGXGXBXbXV.,.S.OXQ.@XY.<XpX@X<X@X~.Y.k.t.t.o.A C A L v C o.t.S.,.V $ @ , : , , ; 1 3 # # # % % % * * * C j.XX,.e @ , L w * o.j.S.Y.o. .$X+XS.Y.2Xx   X 4 - - X # X   # @ # ; : #   o X X X X X X X X X 4 X X X # > 2 y x v c 2 i u u i u u y y y y u u u 2 2 u c c i u 6 < t t t b S S C C p , 0  .,.A p $ f 5.5.m.oXoX} 0 5.oXm.S.m.b J H Y R R R R Y E R K S H H H H H H H H N n b b b n b c u c y 6 2 6 y 2 < < 2 < 2 > > < < 6 y u 6 c u c c c y c c b Y c < b E -.H c 2 > < H Y b x y x b n n n c 2 3 : : : X X X X X X X X 4 4 4 4 4 4 4 4 X X X X o - m k 3 3 w.^.T Q i.yXhXkXdXuXuXuXuX~.~.^.!.I.I.^.~.uXhXkXFXkXuX@X~.~.~.kXkXuXyX@X~.yXuXuXyX~.lXGXbXbXFXhXL.i.p.m w.p.p.w.Q p.p.!.yXuXiXpXaXgXaXiX2X;.X.i.e.w.k.!.@XyXuX@X@X@X~.uXbXbXkXkXbXkXbXbXBXBXdXQ.iXGXMXBXfXgXNXSXSXZXZXZXZXJXJXKXJXJXJXNX9XG.Z.G.C.C.C.B.c.C.J.E.E.E.H.J.E.E.R.R.R.R.E.E.E.E.E.E.E.E.E.J.H.J.E.E.E.E.E.E.E.E.",
"J.J.J.J.J.J.J.J.].].].&X].].].].].].{.{.{.{.].].].E.E.E.E.E.R.R.E.H.H.E.].E.E.].].].E.{.{.W.dXpXyXPXPXyXP.^.tXyX^.P./.p.P.lXhXPXFXPXFXFXhXbXbX@Xt.W t.Y.@X~.Q.Q.I.k.i.k.yXuXY.o.A L 4.O.o.l.o.w e p p , e q q w e , p q p Z x x % 2 2 % % % @ * | S.p $ , *   $ $ V X.Y.k.0 % t.+XS.@X@Xq o - o o X o     @ @   @ V Z x :   X X X X o X X X : : - # X X % , 2 y y c y b c y u u x x u y y u u y 2 6 u c c c c u u u u p b H H C Z u % C j. .w e 9 f l.m.XXoXL @ @ 0 } XX+Xj.c H H E W Y Y E ` W Y S b M N b b b b b b b c c b b n c b N N x u c b n x 2 2 6 2 > < < < 2 2 2 2 2 6 2 y y x x c c N H u n ;.;.R J c b b 6 x c y y x v n n n n n n m x x x 2 3 3 : 4 4 4 : : 4 4 4 4 4 4 4 4 X X X X 2 k 3 1 1 U I.e.U Z Q t.e.W X.W T W t.V.i.I.I.I.I.uXdX~.^.!.~.~.uXpX!.~.kXkXlXuXuXuXuXlXhXlX~.lXGXFXbXkXyXi.k.w.k w.t.w.w.Q p.L.!.Y.@XuXgXaXaX:X@X1X;.X.e.X.p.^.Y.@XuX@X@XuX@X@XpXbXbXkXkXbXbXbXGXbXbX<X~.jXbXCXVXMXNXZXSXZXZXAXNXCXJXJXJXJXKXJXNX9XH.D.G.C.C.C.B.B.D.H.H.G.G.E.E.E.E.].].E.R.E.E.R.R.R.R.E.E.J.J.H.J.E.E.E.E.J.J.J.J.",
"J.J.J.J.`.`.`.`.].].].=X=X].].].].].{.{.{.{.].].].].].E.E.E.R.R.E.H.H.E.E.E.].].].=X].&X&XW.aXpXlXPXhXyX!.^.!.tXtX^./.p.^.hXhXPXPXPXhX^.e.i.i.e.e.e.k.Y.Y.Y.@X<Xe.L.@X~.lXpXI.X.T o.l.l.#XS.Y.m , e w w q w v q , Z o.| Z v v Z < & H H < @ * # * 0   # % # # # # , l C m # # 0 X.V.pXk.: o o o X   # , # @   @ $ A ,.T m # . X o X o X X 4 : : : : # X X % : : < 2 2 2 2 2 2 < < < > : : : : : % % % % O O % > % % % , > < q < < , %  .T q e 0 * p ,.XXj.C * @ * @ * *.+X,.< < q y u 6 6 6 6 2 > & % % : % O O % > > > > < < < < < 2 < 2 < 6 y y x x 6 2 2 2 > 2 2 2 2 y x x y 2 2 y y x x x y H -.;.;.` Y J N N n b u 2 y x x x x b n n b n n m m x m x ~ 2 3 4 4 : : : 4 4 X X X X 4 X o o X - 2 2 2 k 1 Q yX^.w.U n Z U Z T W W ;.e.;.p.I.^.k.@XbXbXpX~.yXuXkXGXGXyXuXkXbXlXyXyXlXhXkXkXkXkXFXGXFXFXFXuXL.L.n x p.p.Q X.t.L.!.!.Y.@X2X1X:X1X7XQ.Y.Z X.t.p.i.Y.~.@X@X@X@X<X@X2XdXjXbXkXkXbXbXbXGXbXjX~.2XCXCXVXVXNXNXCXCXNXCXZXZXSXJXJXJXJXJXJXNX>XG.C.D.C.F.C.B.C.G.H.H.H.J.E.E.R.R.E.].E.R.R.H.H.H.H.R.J.E.E.J.J.J.J.J.J.J.J.J.J.J.",
"J.J.J.`.`.`.].].E.].].].=X=X{.].].].].{.{.].].].].].].].].E.E.R.E.E.E.E.E.J.].].=X=X&X{.&XW.1XpXhXhXyXyXyXyXyXyXyXtX^.L.^.tXyXlXlXlX/.Q p.^.^.^.^.^.!.!.L.I.k.I.t.k.pXyX~.~.i.X.X.t.l.S.#X@XyXI , v v , $ $ , * V S.+XS.j.C w 0 % X % H H % % % @ @ # : , # # # - X X   X # : # # n X.q # . X o     Z k.,.v @ w w p T Z v X   o X X X X X X 4 : o X X . . . . . . X % % X X X X X X X X . X X X O X . X % % X . O X . # # # % % % . @ p 0 * * $ , * * p t   @ * @ @ @ 9 L u o o X X X O O X X X X X . X O : : 4 O % : O O % : : O & : O O % % O O O : : % : : % : < < , 2 x x 2 2 2 2 < > < > > 2 i N H b i b i y 2 < > X X > > < , < 2 2 < < < > : : : : : 4 4 X X X X 4 X 4 4 4 X X 4 X X X X 3 k x 2 2 1 Q yXyX!.k.e.T E T T U W e.W U e.k.L.!.kXLXGXGXGXFXGXkXbXbXlXlXkXFXkXhXuXuXkXFXFXGXLXGXkXFXFXFXuXk.e.1 Z t.p.w.W e.!.!.@X@X2X<X:X2XfX7XQ.k.b Z W t.k.k.~.~.@X2X@X~.~.pXjXjXBXbXbXbXBXGXdX<XpX<XdXGXGXVXCXNXNXCXZXCXNXmXmXmXNXCXJXJXJXVXNXE.G.C.C.A.Z.H.H.H.J.E.H.H.E.R.E.R.R.E.].R.J.H.H.H.H.R.R.H.J.E.E.J.J.J.J.J.J.J.J.J.J.",
"`.`.`.`.E.`.E.].].].].].].].].].].].].{.].].].E.].].].].].E.E.R.H.E.E.E.E.J.E.].].].].E.W.Q.:XuXyXyXhXyXyXyXyXtXyXyXP.p.P.^.tXtXyXyX/.e./.^.^.^.L.^.^.L.~.!.^.~.t.t.uXI.i.^.k.j.t.l.l.#XS.k.Z 1 , , q Z T T A e w l.l.l.oX| e * % % % < E J & . : , : : , - X ; # # # # X - - X #   # . # . X #   : X.t.L L A l.l.p @ * #     o : : X X X o o o o o o o o o o o . o . . X . o o o . o o o o o . . X X . . X X . X % X X # # # # # # q , # $ * @ @ $ @       $ * * 9 *     . o o o . X X X X X X o X X o o o X o o o o X . o . X O X X . . o . X X . . X X X X . . X X X X % % # X . . . o % : < < > < < > > > X X X o . . . . o . . . . . . . . . X X . o o o o o o o X X X X X X X X X X o X X 1 k k 1 x k n ^.~.uXQ.i.e.W X.i.W e.u.i.i.I.i.I.uXkXkXhXhXkXhXhXlXuXpXhXkXkXGXGXkXFXGXFXkXFXFXkXkXkXFXFXkX~.t.U - 2 Q Q w.Q w.i.k.!.~.Q.W.~.W.@Xk.V.bX@XT v T e.k.Y.~.@X@X~.Q.V.uXdXpXbXbXbXbXbXGX~.~.jXuXpXBXGXVXVXCXNXCXNX8X=XE.H.R.{.1XfXZXSXCXNXH.Z.B.B.N.C.E.E.J.J.J.J.J.E.E.].E.E.E.E.R.J.H.H.R.R.E.R.J.H.E.E.J.J.J.E.E.E.E.E.E.J.",
"`.`.`.`.].].].].].].].].=X&X].].].].].].&X].].].].].].].].].E.E.H.H.J.J.J.J.E.E.E.E.E.E.E.E.W.1XyXyXhXyXyXyXyXtXtX!.p.Q w.P.yX!.tXyX!.L.L.!.tX!.p.P.p.i.I.I.Q.S.k.T pX@XY.+Xj.S.j.o.j.l.T , # : , e T #XpX#XoXL w 4.#Xl.#Xj.V * 0 < < , u ;.H % % q < # # - # - - - # # # # , # # #   #   X # X   # Z w , w ,.l.,.A @   @ # X   . # - o X o o o o o o o o o o X X o X : X X X X X - X X 4 4 X - X X X X X X X X X X X o o X o o 1 v q , $ $ p q . # 1   @ C T *.,.,.,.P <   X X o o o o o o o X o o o X . . X o . o o . . . . o o . X O . o X . . . . . o . . . . . X . . . X X o o . o o . . X % : : % O : : X o . o o o . . o o o o o X X . o o o o X X X X X X X o o o o o o o o X o o o 4 : 2 x x 3 x k m ^.~.pX~.k.I.T W e.i.i.I.uX<X~.uXhXdXdXlXlXlXkXhXlXlXlXbXGXGXFXFXFXFXGXGXGXFXkXkXLXbXBXpXhXyXi.e.m , # - k k Z T t.i.I.~.@X~.Y.u.;.i.bXdXdXQ.x 2 Z k.!.uX@X@X~.Y.I.k.Q.kXGXkXkXbXbXkXdXI.Q.<XuXBXCXVXCXNXgX*XC.C.a.a.C.G.N.].1XzXCXmXCXE.Z.C.C.c.C.=XH.H.R.H.H.E.R.].].].].].E.R.H.H.H.H.E.E.H.H.J.J.J.J.E.E.J.J.J.J.`.`.`.",
"J.`.`.`.].].].].].].].].=X&X].].].].].].].].].].].].].].].].].E.E.J.J.J.H.H.E.E.E.E.E.E.E.E.].2XlXyXPXyXyXyXyXyX!.P.p.Q q.w.P.tX!.yXyX!.!.P.P.L.p.w.p.i.Q.Y.j.,.l.*.j.j.j.j.,. .A ..l.j.t.v 0 Z k.#X#X#X#X#X#X#Xp f ..XXj.4.l.w $ # # < % b J 2 % % % n Z 0 # # # : - :     # # # # 1 ; # X   # X     w l.T V | o.A $ @ $ # # #   - 3 X o o o o o o o o o o o X X o X - 4 X - : 3 : 4 : : - 4 - - - - 4 - - : - - 4 X X - - X X k q # @ , A  .p X # q q . C k.l.j.5.,.S.T . . X X : : X X X o X X X X X X O % . X . . . . . X . X X X O X . X . X X O X X X X X . X X . . . X o o o . o o o o o o o . o o o o o o o o o o o . o X o o o X X o . o o o o o o o X X X o o o o o o o o o o o X 3 1 k x x 1 k ~ x L.uXuXuX~.~.W U p.~.uXuXhXdXpXkXkXhXkXdXdXkXkXyX~.yXyXyXlXhXkXkXkXkXFXFXGXGXkX~.Y.k.p.u.t.w.e.Q , - 1 1 1 3 1 q m X.k.I.I.Y.e.v q i.@XuX~.X.Z Z ;.Y.~.@X~.~.yX~.I.i.I.uXhXkXbXkXbXkXdXI.k.<XjXfXVXVXVXsXa.( -.<.s.c.C.F.E.E.{.sXZXVXmXH.C.B.G.x.Z.=XR.R.E.R.E.].E.E.E.E.].].E.R.R.H.H.H.E.E.J.J.J.J.J.J.E.`.`.`.`.].`.`.`.",
"J.E.`.`.].].].].].].].].=X&X].].].].].].].].].].].].].].].].E.E.J.J.J.J.J.J.J.J.J.E.].].].].].&XlXyXyXyXyXyXtXyXtXtXP.w.q.w.w.w.!.yXyXyX^.L./.i.p.t.k.Y.T.,.,.,.,.,. .j.K.+XXXoXC } XX,.,.X., t.Q.nX#X#X#Xl.#X4.O.4.A } f L S.,., @ # , @ = J i % < E Y.u.Z , . @ # # : : 2 x 1 # : Z Z v q # X # #   v X.e , o.j.v @ , e $ ; @   X - X o o X o o o o o o X o X X o X - X X - : 3 - X - - - - : : - - 4 - : 3 : 3 - 4 4 : - X 1 v q q p T ,.C   # # # x ,   C ,.t.,.E C 0 % < < X % : X # # : X X X X O X : : . X X . X X X O O X . O O . O + O X O O O X O O X O O O O X X X . . X X o o . o o o o o o o o o o o X o o o . . o . . . X X X X X X X X o o o o o o o o o o o o o X o X o o - 3 2 x v x 2 k k k e.uX!.~.uX~.e.Q I.lXlXlXuXhXkXbXkXkXkXkXkXhXlX~.L.^.~.lXkXFXGXGXGXPXFXGXkX!.e.W X.W e.e.X.e.p.m - : q 1 Z k.~.p.q x Z X.W T n x x < u U Z v W i.V.k.~.~.Y.Q.~.Y.Y.V.V.V.uXkXuXdXbXjX2Xu.:XVXVXMXMXfXaXZ.J R <.<.<.a.H.H.R.E.>X1XMXNXgXG.Z.N.B.c.H.].H.R.].E.E.E.E.E.E.E.E.].E.E.E.J.H.H.E.E.E.J.J.J.J.E.E.].].`.`.].].`.`.",
"E.].`.`.].].].].].].].].].=X].].&X].].].].].].].].].].].].R.J.J.H.H.H.J.J.J.J.J.J.].].E.].E.E.Q.uXyXyXlXyXyXyXyXyXyX!.w.w.w.w.Q p.p.L.L.L.p.p.p.i.p.k.Y.*.L ,.,.,.,.m.0X+X+XXXl.*...l.#XS.,., % v T S.$X$X#X,.e ..oXl.m...j.S.#XT * # % % % b b , ,.7X2XOX;.b T Z v , q C H T v 1 : q Z H Z w X #   o # @   # 0 w   e o.| v V q -     X o X X o o o X o o X X X - X 4 : 4 X : 3 3 - 4 : - - : 3 3 : : - : 3 3 : 3 4 - - : - - I Q Z T j.u.A %     - # : Z q   * * % #   % J J E  .& . X X % X X X X X X X : > . X X X X O X O O O . O O . + O % O O O O O O % O O % O O O O X . . X X . X X . X X X X X X X X X X X o o o . . . . . . X X X X X o X X o o o o o o o o o o o o o X o X o o : 3 2 x v x 2 k k 1 m ^.i.I.!.I.^.I.yX~.uXuXyXuX@XuXuXuXlXuX@X~.~.I.I.I.^.I.I.!.^.I.I.yXkXhXL.Q W e.e.;.;.X.W w.X.k 1 , # q @XHXbXkXY.n n ;.I.<XdXjX1XU.;.X.Q.jXV.X.t.t.;.V.@X~.I.~.~.Q.Y.V.~.pXpXdXpX<XI.;.W.MXfXCXgX:X{.N.R -.a.s.N.a.a.Z.{.{.{.1XsXzXsXC.G.N.x.Z.H.E.H.R.E.E.E.E.R.R.E.E.E.].].E.E.E.E.J.E.E.E.E.J.J.J.E.E.E.E.J.`.].].`.`.",
"E.E.].].].].].].].].].].{.{.].].].].].].].].].].].].].].].J.J.J.H.H.H.H.J.J.J.J.H.J.J.J.J.J.H.R.@XuXlXhXyXyXyXyXyXyX^./.p.w./.p.p.w.w.w.e.i.L.L.^.k.Q.S.*.4.4.{ { j.XX+XXXS.5.4.XXm.*.j.+Xj.p # , $ L pX#Xl.A * C oXm.XX#X#X#X7X,., # , % % < b u T.pX7X7X,.T V.S.S.,.Z Z L T T v q , q Z L n , . o o o     .       w  . .X.X.V v :   X o o X o o X X o X X X X : - - 3 - 4 3 3 2 3 : 3 : 3 3 3 3 3 3 : 3 3 3 : - X 3 3 3 : : W V.j.j.j.Z , . o X o : # x H . @ @ @ @ @ . = % < D.>.< % % % X O X : X % X : 2 X O X X O O O O O O + % O + % % % % % % O O & > & O % O O % O X X o X O X X O X X X X X X X X X . X . o o . o o . . . . . . . X X X X X . o . o o . X o o o o o o o o o o . > 1 2 x n n 2 k k 1 : Q e.e.e.p.!.!.!.Y.I.i.L.^.^.L.k.p.p.L.p.p.p.Q w.e.e.e.e.p.e.w.w.e.p.e.Q W W Q W U U n W p.Z - ; q 3 x @XdX<XCXCXBXBXGXJXGXGXVXCXJXHXJXKXJXVXbXQ.X.H W I.@XY.~.2X@XV.Y.@XdXbXuX<XW.:XT.V.@X1XaX:X:Xx.-.R <.N.H.R.s.x.a.y.Z.R.1XNXzX9XC.G.B.C.].E.E.R.R.E.E.E.E.E.R.R.E.E.E.E.E.E.E.E.E.E.E.E.E.H.H.J.E.].J.J.J.J.E.E.E.E.",
"E.E.].].].].].].].].].].{.{.{.].=X].].].].].].].].].].].].].].].J.J.H.H.H.H.H.H.H.J.J.J.J.J.J.E.W.<XpXlXyXyXyXyXyXtX!.P.p.w./.p.w.w.p.p.L.I.i.p.i.Q.dXj.*.4...} { XX0X0X0Xl.*.6.8.XX5.,.S.j.q @ $ # A #X| p o.4.p A l.$X7X7X7X#Xl., # , u b p q ,.OXOX7X7Xt.L t.S.V.+XV. .C C C p 0 , , q p q # . # o o # X   .   @ V A w A o.T T l # o o o X X o o o o X X X - - - : 3 - X 3 3 ~ 3 : 3 3 3 3 3 3 3 3 : 3 3 3 : - 4 2 2 2 3 X x t.t.T p @ @ #   o - o X : u H % @ @ @ . % = % + S =X<.< & % > : : 1 : > : 2 6 X O O O O O O % O O + O % & & & & % & & % % & & % % % % % % O O : . % % X O % X O : O X X X X X . X X X X X . . X X X . . X X X % X O X X o X X X X X X o o o o o o o o o X 2 2 2 v Z U 2 2 k 2 - 3 ! U U w.p.e.e.p.p.w.w.Q U n n m m Q W e.p.i.L.p.p.e.e.e.t.i.I.i.p.p.w.U U Q U U T Z Q p.k X 3 , : x Q.@X@XaXfXdXMXfXMXfXjXcXCXVXZXCXCXCXVXVXHXjX~.U T I.<XQ.~.:XV.Q.2XiX1X@X2X2X2X@XV.i.:.r.E -.R J -.y.a.Z.H.N.<.-.E :.W.MXMX9X>XE.H.C.E.R.E.E.R.R.R.E.E.E.E.R.R.R.E.E.E.E.E.E.E.E.E.E.E.E.H.H.H.J.E.].].].].E.E.].].",
"].].E.].].].].].].].].].{.{.{.{.=X].].].].].].].].].].].`.`._._.J.H.H.F.F.H.H.H.J.J.J.J.].].].].E.OX2XuXlXlXyXyXyXyXtXP.p.p./.p.w.w.p.L.^.^.L.L.L.hXbXk. .*. .*.0X0X0XXX5.5.5.m.*.oXm.l.S.,.# @ @ q | A * @ | S.,.p p L o.j.+X@Xk., # , T u. .* t.aX7XgXnX+X%.j.+X+X+XpX,.T A p w , q 0 # , , ; X 1 : o X : # .     , e   e A L X.Z - X o o X X X o o o X X 4 : : : : 3 - 4 3 2 2 : - : 3 1 3 1 1 3 3 3 2 2 1 3 : 3 k k k 1 # # # , # # . # X o 4 : : X o # H b . . = + a -.S = a z.9XS & > > % : 2 > < > x y . % % % O O O & O % & % & & & & & & & & & & & & O % % O O % O % < X : : O : > % % : O X X X % X . X X . X X X X X X X X X O % O % O X X . o . . . X X X . . . . o o o . . X x x y b Z Z x k k ~ : - k m U W w.X.Q w.Q U I ! ! U Q p.i.L.p.p.Q I U Q T U U U I n m U W e.UXW n x U n n T W n 1 ; ; 1 1 T @XuXdXfXgXaXaX1X2X{.{.>X:X{.5XzXNXNXMXzXHXbXfXi.X.V.Y.W.Q.Q.<X@X:X:XW.<X:X:XQ.Z.R.T.u.x.r.:.:.s.N.s.:.` ( -.-.%.:.B.R.W.:X>XE.E.H.C.].F.J.H.R.R.R.E.E.R.E.H.R.R.E.E.E.W.E.E.E.E.R.J.E.E.H.H.J.J.].].].].].`.`.].].",
"].].].].].].].].].].].].{.{.{.{.=X].].].].].].].].E.E.E.J.J.J.J.H.H.F.D.F.H.J.J.J.J.J.J.J.J.J.].].E.:XuXyXP.P.P.P.^.!.P.L././.p./.p.p./.i.L.L.!.uXbXkX@Xk.S.,.4.7X0X0Xm.m.+XXXXX+X4.5.j.| 0   # # q , $ e * C l.O.j.e   $ $ 0 C v # , q T k. .% ;.pX7X7X7X:X,X,X7XnXnXMXQ.C A v p 0 , , : : # - # , q # o : X o o         $ ; , Q m X o o o o X X X X o X X 4 3 3 : : 3 - X 3 1 k 1 : 3 3 3 1 ~ 1 3 3 3 2 2 2 1 3 ~ 2 k x x q : # # % 1 # : # o - 4 : % # # % t b <.y.a t %.) t P -X8X) = > < : > x , < < x y . > > > & % % & + & 5 & & & & & & & & 8 & & & & & & & O O % O % 6 X : : % > > : > : O X X X % X X X X X X % X X : X X X : : % X X O O X X . . . X X X X . . X . o o . X . # v x x Z Z H I n x k 3 - X 1 x x x m k k 2 m I U Z ! I ! ! n m k k Q i.e.k.~.uX~.!.L.t.UXQ U U U n 2 : : 3 n m - ; ; ; q q t.jX1XgXNXzXgXgXsXsXsX,X,XR.{.G.x.N.>X1XgXVXfXfXQ.i.2XV.T.@XW.<X@XW.<X<X:X:X:X:X&XQ.:XR.y.i.u.V.R.s.y.:.( R R -.s.T.Z.Z.i.r.1XE.C.C.Z.].J.H.H.R.R.R.E.E.E.E.R.R.E.E.E.W.W.E.E.E.E.R.H.J.J.H.H.E.].].].J.].].`.`.`.`.",
"E.E.].].].].].].].{.{.{.{.{.{.{.].].].].].=X].].].].J.J.J.J.H.H.H.F.H.F.F.H.H.H.J.J.J.J.J.J.J.].].].{.W.uXL.w./.p./.L.p.p./.p.p.w.w.L.p.i.Y.I.uXbXbXdXpX2XOXt.T 0X7Xm. .l.XXj.XX+XXX5.S.F     # : # ; # : , v j.+X#X| $ $ $ @ . # # # q X.t.q : E t.j.OX,X&X,X9X9X7XDX7X+Xp 0 v w , # : : X X # # ; 1 3 : - o X X X o   # # @ # 1 - o X - o X X 4 X o o X 4 4 : 3 3 3 3 4 X : 4 1 1 3 1 3 3 1 k 2 3 3 1 ~ ~ 2 2 3 2 x x m m x 3 - 1 m q 3 - : o X 3 : % . p  .*.%.<.<.S a S S t S -X*Xb + 2 2 : > y < 2 2 u 6 . > 5 < % > > & 5 & 7 5 & 8 8 5 8 5 8 5 5 5 t 5 5 5 > & & % O % y O > > > > < < > : % % % % % % % % : X X X X X X X X O : : : O X X O X . X X . . O O O X . X X o . o . X : x n x U H Z T n 2 3 3 - X - X X - X 2 x x m n m x ~ k m m x 2 m p.^.i.^.hXbXkXbXkXkXGXkXkXkXuXuX~.e.n x 2 : # # # ; m l q ~.jXiXfXgXzXsXgXzXxXsX,X3X*X*X3X=XR.Z.s.N.Z.5XfX1X;.2XiXQ.u.Y.Q.U.U.Q.Q.W.&XW.&X:X&XZ.u.r.y.u.s.y.-.:.R.sXsXZ.u.s.g.y.-.-.s.5XZ.c.C.].E.F.E.H.R.E.E.E.E.E.E.E.E.E.E.E.E.W.W.E.E.E.E.R.H.H.E.J.E.E.].].].].].`.`.].].",
"E.].].].].].].].].].{.{.{.{.{.{.].].].].].&X].].].].E.J.J.J.H.F.H.F.F.F.F.F.H.H.H.J.J.J.J.J.J.].J.&XE.W.<XlX^.p././.L.P.P.p.p.P.tX~.lXyX@X~.@XbXHXVXdXdXbXpXo.p L L  .p p ,.F f XX7X+Xj.b @ # X # # X : # , $ q l.l.w @ * $ # % X : - # l m ; 1 , . # Z G.+XW.9X,.L j.7X7Xp $ w p x 1 , , ; 1 q 1 , , : : X o o - X X X   # # X #   o X X o X - - X o o 4 4 - 3 3 3 3 3 4 o 4 4 - - 3 3 3 1 2 x 2 1 2 2 k ~ 2 1 3 2 x x m x x q 2 q x q 1 3 : o 4 X # % 2 S.9X7XM.= ^ `.P a ) = s >.) & > 2 > : : 2 > y c n b + < 6 < < 5 & 5 5 5 i t 8 8 8 7 5 7 7 7 t d d 7 5 5 > > & % % < c O > > < > > > > > % : % % % : % % % X X X X X X X O O : > : O X % % % X X X X X % O O O X X X . o o . X : x Z b H H U T m 2 1 k 1 : 3 x U X.e.i.i.i.i.i.e.W n v x x x Y ^.hXpXyXkXFXkXkXbXbXjXbXBXkXkXGXGXkXuX~.~.Y.W : # 1 , v q e I.dXiXfX9XsXxXgX9X3X5X3X3X*X,X=XH.E.*XE.B.y.u.:XaX .V.<Xt.v H ;.u.V.Q.:X2X2XQ.Q.T.u.:.x.{.>Xr.E R r.W.gXMXNXNXgXNXMX5XQ.{.MX1XC.G.H.H.H.E.J.R.E.E.E.E.E.E.E.E.E.E.E.E.E.E.E.E.E.E.E.E.H.H.J.J.H.J.J.].].].].`.`.].].",
"].].].].].].].].].].].].{.].].].].].].].].].].].].].J.J.J.H.F.F.F.H.F.F.F.F.F.F.H.J.H.H.J.J.J.].].].Q.:XuXGXkXlXlXyXyXFXhX!.!.hXbXhXkXbXpXk.,.u.pXnXgXpXJXpXT v L j.S.C * * C * p L j.A @   , 1 - 3 2 : # # $ $ , $ $ e * $ # # ; : ; ; 1 q , x , # # , E &XOX,.p S j.,.V.C 0 0 0 q w l l 1 k v l q ; # #   X o - X o X o # - # . o X X X o 4 3 4 X o o 4 : : 3 3 1 1 2 - o - 4 4 4 - 1 1 1 2 k k 2 k ~ k ~ ~ 1 3 2 x x x x x x k k k k k 2 : o : : X % , T G.,X7.+ G ;X<.s i + = + % % < 2 c 2 > 2 < 2 6 b b . i i < 5 5 8 t 5 7 i i 7 7 7 7 i 7 i i d B B i t 5 & 5 & % % < i % < < < > > > > < : > : % : > % % % X % % O X X X X O % % % O X O % % . O % O % % O O : % X . . . o . X : c U n H U U Z x 1 3 1 1 w.Q.@X~.~.dXuXuXdXdXpXuXuX~.~.i.e.i.uXdXkXBXGXGXbXGXGXGXLXGXGXBXjXjXBXcXjXcXBXjXkXkXt.1 - : , 1 ; t.bXfXgXaX9XzXxX3X,X9X5X5X>X=X=X=X,X&XG.G.Q.&XaXfXH v H H U ;.;.X.u.iXHXVXcXgX1XW.T.:XgXzXmXaXR.T.sXCXzXmXJXJXJXJXJXJXJXJXJX,XG.E.E.F.H.].H.E.E.E.E.E.E.E.E.E.E.E.E.E.E.E.E.E.E.E.E.E.R.H.H.H.H.H.J.].].].].].].].E.",
"].].].].].].].].].].].].].].].].].].].].].].].].J.J.J.J.J.J.H.H.H.F.F.D.D.D.D.D.H.H.H.H.J.J.J.].].E.*XaXBXFXFXLXLXLXHXFXFXFXFXFXkXuX@X+Xj.,.*.,.l.+X7XnX7Xt.T j.+XpXu.p 0 * C C *   # @ % % : , : : 2 : # V o. .L e * e $ $ @ # , ; ; , q , , v # % # # & Z H 0 C ,XDXS.j.L * $ $ q v v m q x l v w ; X X X 1 - X : - - o X X # # X 3 : X X X : X o o X : 3 3 2 3 1 1 ~ - o : : - - - 1 1 1 2 k x k k ~ 2 2 k 2 3 2 k x x x x k k m k k k 2 : X : : # # % % t H 8 = s G S t + = & & < > < > 2 < > 2 : % > c N O c i 5 7 t 8 7 8 7 i i 7 7 t 7 i i d d d B d i i 5 5 5 5 & % < i % < 2 2 > > > > < : > > : > > > : % X % : % X % O X O % % % % O O % % . % % % % > % % % % X O : . . . X : b H n Z H H n q 2 1 : n ~.dXkXkXjXGXBXBXGXGXGXBXdXkXBXGXjXkXdXBXLXLXGXbXkXLXLXbXBXGXBXGXLXGXBXjXjXdXpXdXjXLXkXe.: 3 l l l X.7XBXgXfXmXsXsX9XsXzX,X].].E.E.].,X&XG.G.W.5X2X;.b ;.I.I.k.i.Y.Q.<XjXMXMXVXjXgXBXVXMXcXMXmXzXCXNXzXNXZXZXNXZXZXJXJXJXKXJXZX,XR.H.C.J.R.J.E.].E.E.E.E.E.E.E.E.E.E.E.E.E.E.E.E.E.E.E.E.E.H.H.H.G.H.E.].].E.].].].].E.",
"].].].].].].].].].].].].].].].].].].].].].].].].E.E.E.E.R.R.R.J.H.H.F.F.D.D.D.D.H.J.H.H.J.H.J.].R.E.5XfXHXGXGXGXFXHXFXlXlXkXFXkXpXpXpXQ.*.5.j.m.l.j.j.@Xj.k.dXgX@Xk. .C p 0 p L 0 $ * # # . : # ; ; ; # A S.XXS.#XoXp $ A ,. .V , # ; q l 1 , 1 # % # # . @ @ % j.nX7X9XXXC p  .p q e v m l x q q e #   X 3 k : X 3 1 1 X X # : : : k 3 4 X X - 4 X X X 4 : 3 1 : 1 1 1 - X 1 1 1 3 3 1 1 2 2 k x 2 2 2 2 3 2 2 1 2 k x x x x 2 x m q k k 2 3 X : : : X , % . % + S 7.a a 2.S = & u < : y u 6 < : q : o . > 5 . 6 i i i i 5 8 8 7 t i 7 7 i 7 d d B B d B d 7 i 7 7 5 > & % < c % < 2 2 < 2 < < < > > > % > > > % % O : : % O % O X X % % : % % % % & O > & % % > % % % O O : > . . . X > b U n H H Y U x q x 2 X.kXkXbXBXBXjXuX<X<X~.uXjXVXLXGXjXjXGXGXGXGXBXLXGXBXGXjX~.<XBXBXGXBXBXGXGXGXfXuX<XpXpXjX!.1 , w.k.U C S.bXfXgX1XaXsXaX9X9X].E.&X*X&X,X:XW.Q.G.S.V.H U V.dXuXk.i.~.pXiXiXdXgXfXjXaXgXdXaXjXCXCXCXzXNXzX5X5XxXmXCXCXNXVXVXJXJXJXJX5XR.Z.C.J.J.J.].].].].].E.E.E.E.E.E.E.E.W.W.W.W.W.E.E.W.E.E.E.R.G.G.H.E.].].J.].].].].].",
"].].].].].].].].].].].].].].].&X].].].].].].].].E.E.E.E.].E.R.R.J.H.H.H.F.F.F.F.E.J.J.J.J.H.H.E.R.{.fXVXGXLXHXbXbXkXkXkXkXhXhXkX@XuXpXj.L ,.,.*.,.j.*. .S.nXdXV.j.j.t.C * * p C C 0 @ $ < * # X : e q e l.#XoXS.l.l...A l.#XS.S.| , @ , q v Z 1 % # % # % @ $ * j.0X+X9XK.f j.nXS.T # , q q k q 1 #     # , k - X 4 3 1 : 3 , % - 3 x 3 X o 4 - 4 X X X 4 - 3 1 - 3 1 1 - 4 k ~ ~ 1 1 2 2 2 2 k x 2 2 ~ 2 3 2 3 2 2 k x x x x 2 m m 2 x x 2 : X : : : : # # % , H H.=X=.v.=Xb.5 & 6 2 2 2 y y 2 > x y < % X + . i M d i i t 8 7 t t i i i i i B d B B B B d i i 5 7 8 & & % < c O 2 6 y t y t < < > > > % > < < % % % > > % % : % X O % % > > % % > % % < < & & % % > % O O O O X . . X > b U n H Y Y U x q x v ~.jXBXHXiXV.t.u.u.e.;.u.W.iXdX<X~.~.<X<XuXBXGXjXGXGXGXjX<XuXjXjXiX<X<XdXBXGXcXpXuX@X2XuXw.# - k.pXS.T t.gXfX1X5X5XgXsX9X,XOXW.&XE.T.R.T.G.Z.i.:.Y T <XiXV.I.k.Y.uXhXdXkXBXjXfXdXBXBXBXjXdXMXVXMXgXzXsX,X*X3XxXmXzXzXmXVXJXKXJXJX5XC.H.E.J.J.].R.].].].].E.E.E.E.E.E.E.E.E.W.W.W.E.E.E.E.E.E.E.E.G.G.H.E.].J.J.].].].].].",
"].].].].].].].].].].].].].].].&X].=X].].].`.].].].].E.E.].].E.R.E.J.J.H.H.H.H.H.E.E.H.H.J.H.H.R.R.2XVXHXBXBXBXjXbXbXkXkXdXdXkXkXkXuXY.Z C L } } { } } C ,.k.I.i.i.Y.Y.L p C  . .,.t. .L < # q 1 , $ $ * w A l.oXl.O.O...l.l.l.l.#Xv $ , e l Z # . q p % @ % ,   L D.D.nX0XK.7X+X#XY.e $ 1 q , 1 ,     2 2 : 2 - X 4 : 3 , 2 2 : : 2 m 3 X o 4 - X X X X - - 3 2 : 3 1 2 - 4 k ~ k 2 1 2 1 1 1 k x ~ 2 k 2 3 2 3 2 k k x x x x k m k 2 x k 1 : X : # X , # X : , :.,Xy.P F.%X2.& < 6 > 2 x 2 < < < y x n c c 5 & N M M i d i 7 i i t i i d d d D / / / / B d 7 7 7 7 8 & & & 6 b O y y u y y u 5 < > > < > < < < > > % > : : : : : O % % % : > % & > > % 5 5 < < < < > % O O % O : X . X , b H n H H H Z q x k U kXGXBXQ.;.;.u.V.V.;.r.T.:XT.V.I.~.~.T.V.Q.:X<XuXdXjXGXGXbXdX2XW.W.W.Q.~.<XdXjXiXdXaXdXdXp.q # I Q.@XQ.W t.7XgXgXgXfXgXaX>XE.B.j.B.S.Q.V.r.;.E H E V.V.u.i.Q.@X~.hXhXhXbXBXjXjXBXjXBXGXVXVXCXCXVXZXzXxXNXzX8X3X8XsXNXZXVXVXJXJXZX,XC.R.].J.J.].].].].].].].].E.E.E.E.E.E.E.E.E.E.E.E.E.E.E.E.E.E.H.G.G.E.].].J.].].].].].",
"].].].].].].].].].].].].].].].&X].=X].].].`.].].E.E.E.E.].].E.E.E.J.J.J.J.J.H.J.].E.J.H.H.G.G.R.Q.dXGXBXjXjXjXBXjXjXdXdXdXdXkXhXhXuXQ.W t.,...} ..,.A  .,. .j.k.k.7Xo.L l.S.S.#XXXXXl.j.C 0 C L T V * @ @ * 4.XXl.oXl.l.oXl.l.l.Y.Z , e , @ ; # X.OXT.j.F % # * j.+XE.9X9XeX7X+XnXS., , # : q 1 #   X I ! : 3 : X 3 2 1 2 x q y 2 x n 3 X X 4 4 4 X X X - : 3 1 : : 1 ~ 3 4 ~ 2 k 1 3 1 1 1 1 2 x ~ 2 2 1 3 k 3 2 k k x k x x k x 2 k q 1 3 : X - X : : # # # % 2 i = < %.M.2.= = > > > 2 < < < > < y y 2 u < O N M M d d i i i i 7 7 i d B D D / / / / B d 7 7 7 5 8 & & & u c % u y y 6 6 u 5 < > < 2 > 2 2 2 < > % : : : : : : : : : % : : % < 2 < % 5 5 > > < < < & O O O X < % . X > v H n H H H Z x x 2 p.kXGXdX;.;.V.U.T.T.V.Q.<XiX~.Y.Q.~.T.~.~.~.<X<X~.@XuXuXuXuX<XW.:X:X:X<X<X<XuXpXfXiXdXuXpXk.Q x q I.@XpXT t.fXgXfXMXaX{.W.G.B.u.:.J  . .H E V.u.H t.e.;.e.Y.pXuXuXhXjXbXBXBXBXVXMXCXBXVXMXcXMXCXMXzXzXzXzXxXxXxXxXzXNXAXVXVXJXJXZX>XH.H.H.].].R.].].].].].].].].E.E.E.E.E.E.E.E.E.E.E.E.E.E.E.E.E.H.G.D.H.].].J.].].].].].",
"`.`.`.`.].].].].].].].].].].{.].].].=X=X].].].].].E.E.E.].E.E.E.E.E.E.E.E.E.E.J.].].E.E.E.G.C.R.Q.MXCXBXbXBXBXbXjXdXdXkXkXdXdXpXlXhXbXpXbXnX+XY. .V 4.S.,.L  .j.j.l.j.S.$XoX4.*. .L A v 0 w V L A C * $ * C #Xl.4.l.l.l.oXoXl.l.S.| $ @ p A e e S.S.,.,.S. .= F 7X+XOXK.V.7X7XK.7XC , n m q 1 #   o q I Q 1 - 1 - 3 x q x x x Z n I x : X X X 3 4 4 X 4 - 3 3 ~ 3 - 1 ~ 3 4 k k ~ ~ 3 : 1 3 - 2 2 2 2 1 1 1 3 3 2 1 x x ~ x 2 x k 1 q k 1 2 3 X : - : 3 : - : , % % % . % t < . . % % O > > > > % & % > : : . < H B M d M i i M M d i d B D B / / / / / d d i 7 5 8 5 & + & u i O u y < y y u u < > 2 2 < < 2 2 > > > < > : : : < : : : : : 2 > < < 5 & u u 5 5 5 > < & + . X O % # X X < b H b Z n H x q m q Y.GXjXi.t.u.V.@X<X<X~.<XdXdX<X~.~.<X<XuXuX~.~.uX<X<X<XuXuX<X1X2X@X<XiX1X1X<XuXuXdXdXpXuXjXk.X.W q k.2XE Z I.aXfXQ.u.r.E M H -.` E X.r.H b Q.T.H i.i.e.e.i.hXdX@XdXpXkXBXVXCXMXMXCXCXBXCXVXVXMXzXzXzXzXzXzXNXNXNXmXAXSXCXSXZXJXVXNX&XH.H.E.E.].].].].{.].].].].{.{.E.E.E.E.E.E.E.E.E.E.E.E.E.T.E.E.E.D.B.H.E.E.E.J.].].].].",
"`.`.`.`.].].].].].].].].].].{.].].].=X=X].].].].E.E.E.E.].].E.E.E.E.E.E.E.E.E.E.].].E.].].H.G.G.W.mXCXGXGXjXjXjXdXaXdXkXjXdXdXkXkXpXlXbXuXpXpXbX .L S.XXl.4.j.| 4.| } ,.....} } } ..}  .| V A ..A A f 9 $ | #Xl.S.S. .A oX#XoX#X#X .$ A l.S. .e 4.5.4.L 4.#XL { +XQ.t.p u j.gXnXS.< # 1 m Z 1     k Z k W m - 3 : : x x m m b H U I k - X o X : - 4 4 4 - 3 1 ~ 3 - 1 k 3 4 k k 1 1 : : : : 4 3 2 2 ~ 2 1 3 3 3 ~ ~ k k x x 2 k 2 2 q x k 2 - X 3 : # : : - : : # % < , % O & % % & 5 < u u c u & i t u y x % > R D d M d t M M M 7 i D D D D D K D B D B i d 7 7 7 5 & & & y < X 2 y u u u i u < , > < < y y y < < < < < < 1 2 2 : : : : : 2 > < 5 6 & i i 5 t 5 5 > & O . O % X X . X > v H b b n H y q x n <XkXuXu.t.k.Y.<XuXuXuXuXiXuXpXpXuXuXuXpXdXdXuXuXuXuXpX2XuX<X2XaXiXaX1X2X1XiXiXuXdXjXbXpXdXk.Q i.q X.X.;.W.V.V.;.u.U.2X1XR.V.|.<X2X5XaX2XY b x W t.u.i.i.I.dX@XuXdXdXjXVXVXCXCXNXNXCXCXCXVXZXMXcXzXxXzXNXZXSXSXSXSXSXAXCXJXVXCXMXzX*XH.E.E.E.E.].].{.{.].].].].{.{.E.E.E.E.E.E.E.E.E.E.E.E.E.E.E.E.E.G.D.H.E.].J.].].].].].",
"].].].].].].].].].].].].].].{.].].&X].].].].].].E.E.E.E.].].].E.E.E.E.E.E.E.E.E.].].E.E.].H.C.B.&XNXGXLXGXbXdXdXiXiXdXdXdXpXdXkXpXkXkXkXuXuXpX7X| 4.XXoXl.6.5.F ..} A A l.oXm.oXoX4. ...| ....} A A L w * o.k.t.l.,.w $ o.#X+Xl.$X} f 4.l.4.} F } oXm.6.6.XXm.9 * , , # : q T k.Z # , X o - o X - ! m 1 m U - - 3 - x m m b Z U U n 2 : X X X : 4 4 4 4 4 3 3 2 3 3 1 k 3 4 ~ ~ 2 2 3 3 3 3 : 3 1 1 ~ 2 3 3 3 2 x x 2 2 x k 2 1 3 x m m x x - X 3 : : : : : : X # : < > % < c 5 u i b i b b H M i M c S c J > % ( M M M d i B D M i M / K / / D D ^ D M K / B d i 7 5 & & & 6 5 % 2 u i u t u < t < < < < y y y < < > > 2 2 1 < < : : 3 > < 6 < < 5 5 & i i 5 t t 5 > & & + % % % X . # < v H n c H Y x u < T dXkX<Xi.k.~.<XuXpXdXdXdXuXuXpXdXpX<XuXpXdXbXbXkXbXkXkXuXpXuX1XdXpX1X1XaXpXaXdXdXdXdXdXjXpXk.X.Y.U v t.pXdXjXuXV.iXgXaXaXgXfXcXgXgXMXaXfXaXp b u.e.I.I.i.Y.uX<XpXdXjXMXMXMXMXNXNXNXZXCXCXCXCXcXzXzXfXzXNXAXAXAXAXNXNXAXJXJXMXgXNXCX:XE.E.E.E.E.].{.{.{.E.E.E.E.].{.].E.E.E.E.E.E.E.E.E.E.E.W.E.E.E.E.E.G.G.J.].J.].].].].].",
"].].].].].].].].].].].].].].{.].&X&X].].].].].].].].].E.E.E.E.E.E.E.E.E.E.E.E.E.].E.J.E.J.D.B.B.&XVXHXLXGXGXjXpXaXdXdXdXkXdXdXkXjXpXhXuXkXbXHXl. .nX0Xm.5.6.6...*...4.l.l.m.oXoXoX} } m.4.,.oXl...C L p   e T Z 0 e $ @ e T S.$XS.f 4.l.5.{ } l.F m.oXm.m.5.#X0   X X X : # # # @   : X o o o X q 1 3 1 : n 3 X 3 - q v b v U T I m 1 : - X X 4 - - 4 4 - 3 1 ~ 1 3 1 x 3 X 2 2 ~ 2 3 3 1 3 3 3 1 3 1 3 , 1 2 2 2 k x x x k 2 3 2 n U n m x : X : : : : : # : : < , < < 2 b R N M M K D M H J M M S H R N H > > R M d d d i M K M B K K D / D D K M t 7 M K B K M i 7 5 5 & 6 u % y i c u 5 t < 5 < < < < 6 5 < 6 2 > > 2 2 > : < > > > < 6 c 6 < 5 u % i i 5 i i 5 > & < > > % % X o X < b N n b H Z v n 2 e.dXdXQ.i.V.<XpXpXdXhXdXhXhXdXpXpXuXpXdXdXkXjXbXBXGXbXbXkXjXjXdXdXdXdX1XiXdXdX<XdXdXjXfXCXpXk.t.t.T v k.uXI.<XpX<XgXMXfXgXaXgXcXgX5XgX:XZ.x.W E V.I.V.i.I.~.uXuXpXdXGXGXVXBXcXzXNXAXCXCXNXCXCXNXzXzXzXzXzXNXNXzXzXxXNXAXZXNXgXMXJXVX,XE.E.E.E.E.].].{.{.E.E.E.].].{.{.E.E.E.E.E.E.E.E.E.E.E.W.E.E.T.E.E.H.G.J.].J.`.].].].].",
"E.=X].].].].].].].].].].].{.].{.].].].].].].].].].].].].E.E.E.E.E.J.E.E.E.E.`.].].J.E.].H.v.c.Z.{.VXHXGXBXGXbXdXdXdXkXjXkXkXdXhXhXuXuXhXdXQ.Y.o.l.$XoX8.6.8.6.*.6.{ F ..l.#XoXXXoX4.l.m.j.V *.#XoXl.l.| *   # #   # : # X # v X.f * ....6.....6.F } XX6.oXm.l.C % # o o X X . .   . X X o o X - 3 X X 2 - k 3 X 3 - 3 x n n n U n m 1 : 4 X X 4 4 4 4 4 3 3 2 ~ 1 3 1 x 1 X 1 1 3 3 3 3 3 4 3 : 3 3 3 3 1 2 q 2 : 2 n m x x q 1 x I U U n x , X : : X : : : , 2 < % , > < b R H M M D D K P ) K M K D J R H O < J M i M M i M B M D K B D D D K K 5 . + + i K ) B B d t 7 & 6 6 O c N n c 6 5 < < < < 5 5 u 6 < 5 5 > > < < > > 2 2 < < 2 x c 6 < 6 u & i i 7 i t 5 & & 5 5 < % % . . . < b N b H H c x n q i.aX<XV.i.V.~.dXdXdXuXuXdXdXkXhXdXhXdXdXkXkXdXkXjXjXdXpXkXbXbXbXjXjXgXjXjXpXV.t.<XBXCXBXjXaXu.t.k.U T i.k.;.Y.aX2XgXaXfXMXfX5X5XsXsX>Xu.u.T.;.W V.k.i.t.I.~.<XpXdXdXBXVXVXBXcXNXNXAXNXNXCXZXZXCXCXCXNXzXxXNXNXNXmXmXAXAXNXmX5XVXJXZX1XW.E.E.E.E.].].{.{.E.E.E.E.E.E.E.E.E.E.E.E.E.E.E.E.E.E.E.W.E.H.H.E.H.G.J.].J.E._._.].].",
"=X=X].].].].].].].].].].{.{.{.{.].].].].].].].].].].].].E.E.E.E.J.J.E.E.E.E.`._.].H.E.].D.z.b.C.W.CXLXLXGXBXjXdXpXdXkXbXkXbXkXdXpXpXpXkXuX .o.j.4.} F } 8.oX6.6.oX} 9 @ p } ....f m.#X5.l.A w ,.#X#X7X .$ # # # - - : # # X X   @ p ..4.6...4.4.} p ..m.$XoXm.L   X X X o X . X # # X o o 4 X o X , 3 k 1 1 4 - 1 : 3 x Z v n U n m 2 : 4 X 4 - 4 4 4 - 3 1 2 ~ 1 3 1 x 1 X 2 2 ~ 2 2 1 2 - 3 : 3 : : : 2 q y 2 : , m n m x q 1 n U U Z n m 1 X : # X : 2 2 2 2 q , < > > i J ) M D B M D K K D B K M D J i + < Y c c M i i M M M M D D D K ^ ) D + & -.c O i B M D M i i 5 i b % c n n N b u < < < 5 < 6 u 5 < 5 5 < > < < < < y < > 2 y x c y 2 5 u % i i 6 i t 5 & % 5 6 < % % . X X < b n n n H v x x y i.2X@XV.V.T.uXdXuXdXuXpXuXpXdXhXhXdXuXuXkXjXkXkXjXkX~.~.kXjXkXjXkXfXjXCXdX~.u.u.uXMXVXCXBXgXj.k.@X .E k.E Y 1XaX7XgX7X1X9XaX9X,X9X5X5Xs.R.aXV.e.I.k.V.k.I.~.~.uXBXBXGXBXcXzXzXNXAXAXCXCXZXZXZXCXCXCXNXzXzXzXNXNXAXNXAXAXNXCXaXNXJXSX1XW.E.E.E.].].{.W.W.E.E.E.E.E.E.E.E.E.E.E.E.E.E.E.E.E.E.E.E.E.H.H.E.H.H.J.E.J.E.J.J.].].",
"].=X].].].].].].].].].{.{.{.{.{.].].].].].].].].].].].E.J.J.J.J.J._._.E.E.E.J._.].H.J.].D.x.x.v.R.CXJXLXGXBXjXdXdXdXkXkXuXhXkXkXkXdXbXGXQ.T  .} F } f j *.8.*.6.} f L $ 9 @ * @ * oX0X7X#X| 0 C T T X.0 @ ,   # - - : - # X #   @ | 4.4.....l.4.4.9 $ } ..4.XX| # # X X X o . # , : - o o 4 o 4 X 3 x k ~ X X - 1 3 3 x m x n n m m ~ 3 - X 4 : 3 - 4 3 3 1 1 2 1 3 1 x 3 4 x x m x 2 2 2 3 3 : - : - : 2 q x y y 2 x x n x q 2 n T T n m m 2 X : : : 2 x q 2 2 2 > > < > % i R K K D B / / D D B D D K M & + 5 ( c b i 6 i c M B M K K ^ ) &.&.J % & ` b O < & & i 7 5 i 6 u u % 6 6 u n N N c c b b b c b c c u u u 6 y y 2 < 2 > : 2 6 u c u y 5 u & u 5 u u i t & & 5 5 < > X . . X > x c n n n y c y b i.W.@XV.V.~.pXuX|.~.uXuXuXuXlXdXdXhXhXkXkXbXkXkXkXhXuXuXjXbXjXjXjXiX<XiXaXOXV.U.<XgXfXdXBX<XV.Y.@XX.L E p  .:X0X0X#XXX+X,X,X9X9XsX>X*X{.R.G.V.u.k.t.i.k.Q.@XI.~.hXjXGXGXcXcXcXVXAXAXZXZXZXCXNXNXNXNXCXzXzXCXAXAXAXAXZXAXNXZXMXVXJXCX5X{.E.E.E.].{.{.W.W.E.E.E.E.E.E.E.E.E.E.E.E.].].E.].E.E.W.E.E.E.E.E.H.H.H.J.J.E.J.J.].].",
"&X&X].=X].].].].].].].{.{.{.{.{.].].].].].].E.E.].E.E.J.J.J.J.E._._.].].E.E.J._.].H.].=XH.v.b.b.Z.MXHXGXBXBXBXgXgXdXpX@XI.@XdXhXkXbXBXHXt.,.j.} 6.oXoX6.f } 6.4.p } S.w 0 0 e * * p ,.l. .C X.j.V : ,   , : o : : - X - - X X # $ o.t.C 0 ,.j.j.l.e @ * * p p 0 @ X % % : # # , x : o o 4 - o X X o 1 m 3 o o 4 ~ 1 3 ~ x x m x k x 2 3 : X X 3 3 - 4 3 3 3 3 3 3 : 3 k : X x m x x 3 3 3 - 4 : # # # , 2 q v b m b x v n q q x n T T Z n n 1 % 2 y 2 y y q y c 2 > % 2 u < u i K ^ K K &.&.&.1./ / D _ K 5 . 6 E N i 6 u 6 i c B M K D ) &.1.>.K & % > % < b b c >.' ) ( E N 6 < 6 > > y b J N N H Y H N n n H b b N N b c u y 6 2 > < 2 x c c c 6 u % 5 6 u u i 5 & & < > & % X o X % > y c N Y H x Z q b t.W.@Xk.k.Q.pXuX~.~.uXuXuXuXdXdXdXhXkXFXbXkXFXbXkXkXdXuXjXBXjXdXgXW.k.Q.2XV.k.Q.T.V.u.k.k.V.Y.2X7Xu.T Z v  .K.XXm.5.,.<.S.:X,X*X5X>XE.3X{.B.:Xt.u.t.t.e.I.Y.i.Q.~.uXBXBXBXMXMXNXNXNXZXCXNXNXNXCXAXZXCXNXNXAXZXAXAXAXAXAXJXJXNXNXZXCXaX&XE.E.E.].].E.W.W.E.E.E.E.E.E.E.E.E.E.E.E.].].E.E.E.E.E.W.E.E.E.E.H.H.G.H.J.J.].].].].",
"].].].].&X].].].].].].].{.{.{.{.{.{.].].E.].].].].].E.E.J.`.`.J.E.E.E.E.].].].].].E.].].E.D.c.x.x.5XGXGXGXBXJXnXgXbXGX~.p.k.@XnXbXFXBXpXZ | ,.l.XXXXoXoX8.F F f f A j.T * < , 0 j.S.S.,.L ,.j.<X@Xp.v < , . X X : 4 X 4 - X X   , L v @ @ V j.l.| * $ 9 9 = @ @ @ % # . % , p C q   X X o X 1 2 1 - - - - o o - 3 3 - 2 k k x x 2 x 3 3 : X 4 3 3 4 X X 4 4 - 1 : : 3 2 - X x x x : X : - 3 3 - X X % : 2 y n H n b b n n q , 2 U W T U Z n , : 2 y < > > > 6 y 2 2 2 i n i c a K &._ _ &.1.3.3./ / / D _ d . 5 ' b > u u c M M i i D B >.f.&.&.^ 5 O 6 > > c N Y y.:.Y r.r.R b N Y Y U Y E W -.W y.;.E E H N H b n N N N H H N c y > 2 x b n n y y < + 6 u u u i < % % > > > O . . . % < v i H Y H n H x n u.Y.Q.;.u.I.Y.I.I.uXuXuX@XuXlXuXdXkXbXkXkXkXbXkXkXhXkXBXjXdXpXpXdX<Xi.T.:XV.V.2XW.T.Q.@X@XX.,.k.Y.T C p A j.0Xj.*.l.j.,.%.E.9X,X>X*X}.*Xc.R.:Xi.Q.t.;.X.k.L.k.I.I.k.Y.kXLXBXcXcXMXzXCXCXNXCXAXZXSXCXNXAXZXZXAXNXAXSXJXAXJXZX5XMXJXJXgXW.W.E.E.E.{.{.E.E.E.E.E.E.E.E.E.E.E.E.E.].].].].E.E.E.E.E.E.E.E.E.E.G.G.G.H.].J.J.J.J.",
"].].].].&X].].].].].].].].].{.{.{.{.].E.E.E.].].].].E.E.J.`.`.J.E.E.E.E.].].].].E.E.].E.J.F.B.s.x.H.NXVXHXMXMXgXMXCX@Xu.t.I.@XpXdXGXHXQ.,.S. .l.$X$XXXoXoXoX} f ..j.T j.0 # C V.7X7X7X7XL H ,.Y.pXlXQ.Z : % 1 x X X 4 4 X o X #   ; # * * $ , p 0 9 e 0 $ = 9 9 0 $ @ @ < 0 S L *   # X X 3 m m I ! k ~ X X X - 1 1 : 1 k x x 2 k x 3 1 3 X 4 3 3 - - - 4 o - 2 - 3 3 2 : X 2 2 x : X X - 2 1 X X X : , y n U Z x b b v x q n q Z T T U U Z , % 2 > % > < > > y 2 u i c b i b a M &.>.1.3.3.3.3./ / / / >.K + 5 ( u < u i b M B d d D / 1.2.&.&.^ i O . < 6 b Y E J ` :.y.r.` Y H Y b N Y u.g.r.u.;.u.i.i.V.U.Q.V.u.` Y Y n N n N b x 2 y b n x 6 c 6 X % > 6 u y < % O % % > O . . X X < b c H Y H H H x n u.Q.Y.;.u.V.i.e.p.Q.@XuXyXuXuXuXdXkXkXkXkXkXkXhXkXbXdXdXuXuX1X2XiXfX1X1XaXQ.W.2XOXOXaXnXS.|  .C v A b q C  .5.4.*.5.*.F a j.,X5X8X*XH.].R.>X:Xx.W.T.e.X.t.p.t.p.L.L.I.~.kXGXMXcXCXMXNXZXNXCXZXJXSXJXSXZXZXZXAXAXAXSXSXSXNX3X>XVXKXZXgXW.E.E.E.E.{.{.E.E.E.E.Q.Q.E.E.E.E.E.E.E.].].].].E.E.E.E.E.E.E.E.Q.H.G.G.H.H.].].].J.J.",
"].].].].].].].].].].].].].].].].{.{.].E.E.E.].].].].E.E.J.J.J.J.E.E.E.].].].].].R.].].R.R.E.Z.x.x.x.,XNXCXG.B.:XgXV.@XGXhXV.;.X.t.k.@XX.k.bXS.l.4.l.#XoXm.oX4.f l.#X .| 0 * u.7X7X+X+X+X*.L ,.W.bXhXpXe.< Z X.n # - - - X X X X # : , q p * @ * @ * 0 0 9 } 6.6.5.s @ = = F XX0X<.C @   o : n I ! ! ! I 1 o 3 3 1 2 3 ~ x x x x x k 3 2 3 X 4 3 3 - - - 4 X 4 3 4 : : 3 : . : < 2 : X # X X - # - : : 1 u H H x x v b x 2 1 U q n T T U U U 2 : < % . > c i < < u M b c c u M M i ) _ _ &.1.3.3.] / / / &.) & 5 :.5 < u i c c K d B D _ 3.1.1.&.^ D 5 . . % x E r.E ` ` ;.r.W N 2 6 c E Y b -.e.i.e.r.i.u.i.I.uXcXU.g.I.U.r.r.W U n n n b c n b b x > . O O > u u 2 % O O % : X X . . . 2 N b Y E H n Y b H u.Q.1Xu.t.i.k.p.e.i.Y.~.uXuXuX@XuXkXjXkXkXkXkXkXkXjXdXaX1X:X1X1X:XiXaXiXgX1X1X:X2XaXnX+Xj.S.,.| C A v  .t.+X,.*.j.j.L a p m.1X,X,X*X*X].R.R.:XU.T.Y.;.X.X.p.p.i.^.I.k.I.~.dXGXGXcXfXgXCXNXNXCXCXNXJXJXZXAXZXSXSXZXZXZXSXxX>XzXJXJXJXzXW.E.E.E.E.E.E.E.E.E.E.E.E.E.E.E.E.E.E.E.E.].&X].E.E.E.E.E.Q.Q.Q.Q.H.G.G.H.H.E.].].].].",
"].].].].].].].].].].].].].].].].{.{.E.E.E.E.E.].E.E.E.E.J.J.J.J.J.E.E.].].].].].E.{.].R.R.].H.N.c.N.B.9XG.x.+XgXQ.@XHXHXKXdXk.t.V.@XuXQ @XhX#XY.X.| 7X#Xl.m.l.*.4.#X0XL * * C V.T.S.0X+Xm.j.u.dXdXkXbXW.n T  .p X X - - X # # # # : % , q 0 * < * * 0 9 9 6.oX6.=.8.f @ f M.%XXXeXS.p : : : x n ! ! m ! m - 2 ~ 3 3 3 2 k x x m x k 3 2 3 X 4 3 3 4 4 4 4 X X 4 4 4 : 3 : . : % 2 : : : X o o X X , : 2 x U U v y b v x 2 : % : U W W H U H 2 > 2 & % > b H u < b J N b i i N b i K ^ / &.3.3.3.] / / ] &.>.7 > :.< < u u i i K M D D &.2.1.3._ K K M < o o > N ` ` ` ` ;.` H 2 < u.R 6 N N ` ` ;.e.` ;.E W u.~.~.i.i.u.e.i.I.e.u.e.u.p.U c c c c 2 % X O . O 6 2 < : O O % x N < . . X y N c J E H b E n Y t.Q.dXi.u.i.k.i.e.i.i.I.~.uXuX~.uXkXjXkXkXkXkXkXdXdXdXpXiX2XiXiXW.W.1X1XuXpXaX2X1X7X,Xj.l.S.,.o.V V Z i.k.7Xk.v  . .C a  .+X9XaX3X5X3X].{.R.*X{.x.V.;.W X.t.p.k.k.p.k.k.i.^.kXHXMXfXsXNXNXNXNXsXxXJXZXSXSXSXJXJXSXSXZXSXmXgXJXKXJXJXMX{.E.E.E.E.E.E.E.E.E.E.E.E.E.E.E.E.E.E.E.E.].].E.E.E.E.E.E.E.Q.Q.Q.H.G.H.R.E.].].].].].",
"].].].].].].].].].].].].].].].].].].E.E.E.E.E.].].].].E.J.J.J.J.H.R.E.].].].].].].].].R.R.E.H.C.c.x.Z.E.W.y.x.S.V.Q.KXLXLXKXbXpXbXbXQ.X.pX@X!.#Xt.| $X#XoXm.4.4.*.l.+Xm.| 0 , 0 0 S.eX+X+XK.T OXpX@X@Xj.0 p L q # : 1 : # X X # , , # # $ % @ * , , e 0 9 { 8.6.$.oX$.= 9.%XoX%X%XeX*.v n k 1 1 m ! ! Q m : 1 2 1 1 3 2 x m x x m x 3 2 3 X - 3 3 4 4 4 4 X X - X 4 : 3 : . : X 2 2 > : - - X X : q 2 y b E U b b v x x 2 2 2 x T W T Z U H < < v 6 < > u H M c J R H N b b N b i M M B &.3.3.3.&./ ] ] _ 2.d & ` < 6 i i i M K B D D 1.3.3.3.&.&.>.P M > . o . < b Y r.;.` Y u 6 Z.b > Y ` ` :.-.E b c c E ;.W e.e.u.e.e.g.i.` e.` I.uXI.n x x x 2 < : > X X O % % X X O % N ` y X . % u N b Y E H b E n H e.T.pXi.i.V.i.i.i.i.u.i.I.<XuXuXpXjXjXjXkXkXdXdXdXdXdX1XdXdXiXuX@XQ.Q.iXaXdX<X<XiXiXS.,.S.l.,.A v v X.k.k.pXgXT t 0 p  .+XgX1X,X,X5X3X,X3X{.G.W.s.:Xu.X.e.t.i.k.i.p.p.e.e.V.<XGXGXcXcXNXMXVXNX>XzXJXZXJXJXJXJXJXSXJXZXJXSXNXJXJXJXJXNX&XE.E.E.E.E.E.E.E.E.E.E.E.E.E.E.E.E.E.E.E.E.E.E.E.E.E.E.E.Q.E.E.E.H.G.R.E.E.].].].].].",
"].].].].].].].].].].].].].].].].].].].E.E.E.E.E.E.E.J.J.J.H.H.H.R.R.E.].].].].].].].].E.E.R.H.G.C.C.x.B.W.T.u.gXJXuXlXLXKXGXpXpXpXdX;.k.yXX.t.p.X.| #X7XXXm.l.5.m.j.S.#X+XC q , * S.+X4.XXl.0 b Y.pX7XL * 0 0 0 q q k 1 : # X # # , : * # # # , $ , e w 9 s 9.XX8.0.0.$.9.oX%X%X%X0X,.q n m x x m m m m ! 1 1 m x ~ 2 x n n m x m x 2 2 3 X - 3 3 - 4 4 4 4 4 - X : X : : . : < 2 2 > : - X X - 3 x x x n W H v n b x n n 2 q b T W T Z H H < 2 n t y u u u c H R R K H M M N M M d i d ] 3.3.3.] / / / ] n.B > E 5 6 i i i M K B B / 3.3.3.3.3.&.2._ P M > % . o . O < b Y ;.r.J c > N :.` y.a.s.` b > < b c c N U p.i.u.p.e.r.UXU UXIXQ.Q ! W U n x x c 2 > % : : . . O % x b 6 X . % u H N R W J b H n H u.I.pXk.k.V.i.V.i.p.i.k.Q.uXpX<XpXkXdXdXdXdXdXdXdXpXuX<XpXdXuXuX<XY.I.iXpXdXiXdXdX<X+X .*.l.o.v q v t.k.k.pXbX7X,.L +X7X7X9X,X,X5X5X,X].B.N.Z.W.x.iX;.T X.e.t.k.i.k.i.i.i.I.~.GXJXcXMXzXMXVXNX{.sXJXJXJXJXJXJXZXZXSXZXJXJXSXJXJXJXJXVX*XE.E.E.E.E.E.E.E.E.E.E.E.E.E.E.E.E.E.E.E.E.E.E.E.E.E.E.E.Q.Q.E.E.R.H.E.].].].].].].].",
"].].].].].].].].].].].].].].].].].].].].].].E.E.E.J.J.J.H.H.H.H.E.E.E.{.{.{.{.{.{.{.{.{.].R.R.E.H.C.B.x.B.1X,XJXHXJXFXlXhXlXuX2XuXuXQ ~.bXL.k.k.| | #X#XoXm.l.l.oX .A l.+XA e q ,  .#XS.m.A , 0 u L j.,.} } C 0 q 1 q 1 1 ; - # : # , q q * , q ; q q p 0 $ f 8.oX0.%X%X0.0.0.%X%X0XXXH m m x x k ~ m ! ! x k m x 2 ~ n n m x m m m 2 2 : X 4 : 1 : - 4 4 4 X 4 X : : : % . 2 x x 2 % % : X o - 1 y x v n W U b n v x n Z x n Z T W T n H H < y b t u i 5 5 i M K K K K M M M M a i i d / ] ] / [ d h / 1.).^ 5 E u u u u i M ^ / B / 3.3.3.3.3.3.n.d.:.N c c i > & > > O . 6 b ` ( ' R ) ) d.d.:.-.( i 6 > > x U n n U U U ` e.W Q W p.p.W Q U N n n v x 2 2 6 2 2 % X X O 6 y < O . % u H N R -.Y b Z n H u.V.<XV.V.V.i.V.u.u.i.V.~.pXiX<XuXdXuXuXpXdXdXdXpXuXuXuXiXiXiXdXuX^.I.dXjXbXdXdXpX@XOXk.T C p V v n e.k.Y.@XgXnXgXt.E.7X:X:X1X1XsX5XN.s.<.s.E.W.y.Z.;.T E X.t.p.k.Y.!.@XY.I.Q.cXLXVXcXzXNXCXNX,X{.ZXJXJXJXJXJXJXJXJXJXJXJXJXJXJXJXKXJX>XE.E.E.E.E.E.E.E.E.E.E.E.E.E.E.E.E.E.E.E.E.E.E.E.E.E.E.E.Q.Q.Q.E.E.R.E.].].].].].].].",
"].].].].].].].].].].].].].].].].].].].].].].E.E.].E.J.J.H.H.H.E.E.E.].{.{.{.{.{.{.{.{.{.].E.E.].R.Z.Z.B.B.:X,XVXHXJXKXlXlXuXpXhXkXI.p.yXpXbXhXbX@XnX$XS.#XXX4.j.o.p e l.7X,., , $ C S.5.C * , p q % 0 5.m.l.*.L w , q , q 1 : ; , ; , , q : 1 2 : l v p p 9 0 oX%X%X0.0.0.8.0.%XoX%X0X .q T W W I k m w.w.Q 1 ~ k 2 k n m n m m m m 2 2 : X 4 3 3 : 3 : 4 X X X X X : 2 : X y b x y : : : - X : x x n n n W T n n U Z Z U n H n n H H m U T q y b t u u 5 M J M b M J P S S b M M d i D / ] / / / / / / 3.).^ 5 -.b c i i M / 2.3./ _ 3.3.3.3.3.(.).n.f.^ ) K J N c c c 6 b Y > . c H R ) ` -.y.-.>.:.J N 6 c 6 N Y x y 6 n n x U Q Q U Q W UXQ U W U n 6 6 6 6 x y : X : > y 6 % . . > i H N R %.E n n b b e.p.@XI.V.V.V.V.e.i.V.V.T.uXpXuXiXiXuXiXdXdXaXpXpXpXdXdXiXdXdXuXuX@XQ.dXjXjXkXdXdX<XpX2X@Xt.Q U m n k.I.I.Q.gXfX1Xx.j.7XfX1X,X5X{.x.-.B.R.G.R.u.R :.;.T H W e.t.k.Q.~.~.Q.~.I.<XGXJXMXNXZXZXVXsXR.zXZXSXJXSXJXSXZXSXJXJXJXJXJXKXJXJXJX,XW.E.E.E.E.E.R.R.E.E.E.E.E.E.E.E.E.E.E.E.E.E.E.E.E.E.E.E.E.E.Q.E.Q.R.E.].E.].].].].].",
"].].].].].].].].].].].].].].].].].].].].].E.E.E.E.E.E.E.J.J.J.E.E.{.{.{.{.{.].].{.{.{.{.{.{.E.E.].H.H.H.G.H.:XaXVXjX~.kXGXkXhXkXkXw.~.lXlXkXhXpXdXpXnX .v L V p p p p } $Xl.0 0 * @ 0 * , q , : , * 0 5.m.6.8.m.F w 9 e , , # # ; , : : : , x : 0 , q p p 0 0 4.oX%X0.0.8.+.8.%XoXoXXX<.C ;.u.X.e.W q U I.p.m ~ k 3 m n m n n m v m x 2 4 o - : 3 - 3 3 4 X X 4 : : : 2 : . x v x 2 % # : - X 2 q y v b Z Z U U U U U U U U Z n n T U Z U H y c J i < t a J H M b c b K H b M S M M B K D _ 1.&.] / / ] 3.'._ 8 <.Y i i M B >.3.(.3.] 3.3.3.3.3.(.'.(.3._ &.>.:.` H c i b n u.b . . . > b ( ` ` ` ` ` ' ( ( Y N Y U c < c Y N c n x x U U Q ! ! W W W n c c 6 6 u y > O O > < 2 % . % > i J M R ( E H b n c ;.;.Q.~.V.i.Q.Q.i.i.V.u.V.Q.uXdXuX<XiXuXiXdXdXuXiXdXdXuXuXpXaXaXuXW.~.@XdXjXjXjXpXdXaXpXpXk.T I q X.I.I.i.I.uXaXaXaX<.:X5X:X5X&Xx.u.G.*XE.u.y.R.,XgXk.E Y T E k.Y.Q.@X~.~.~.~.~.kXLXVXMXNXCXNXgX{.R.NXCXCXJXJXZXZXSXSXJXJXJXJXJXJXJXJXgXQ.E.E.E.J.J.E.E.E.E.E.E.E.E.E.E.E.E.Q.Q.E.E.Q.Q.Q.Q.E.E.E.E.E.E.E.E.E.E.].].].].].].",
"].].].].].].].].].].].].].].].].].].].].].E.E.E.E.E.].].].].].].{.{.{.{.{.{.{.].].{.{.{.{.{.].].{.].].E.H.G.Q.W.:X:XaXjXdXkXbXkX~.t.uXhXkXkXuXkXpXpXnXA , w V V f f p F m.m.0 q v : % % 2 q q q < 0 t 5.oX6.8.6.} 6.} p C e # # # , 2 , : y q # q @   $ * $ 0 m.%X0.%X0.6.j f 6.oXM.0Xb.S ,.;.;.t.E Z 1 w.!.Q ~ 2 : x n n U n m n n x 1 - X - - 3 - 3 : 4 X X 4 : : : 2 3 X y x u < % : , : # 2 x b Z U n x Z U T U U U U U U U U Q U n U H 2 u R M 5 i H R H b b u 6 a M S S M M K / K / / ] _ [ d d ] 3.'._ t N.( 5 i B / 3.1.3.3.3.3.] 1.3.3.(.'.(.3.2.f.2.h.a.R H M b b ;.c < 2 % . o + > i Y ) ` -.` ` ( Y ` ` Y N N Y N U Y 2 - 3 ~ U Q n e.i.N > > 6 < c u 6 % O > 6 < : : . % < i J H R W E H c H b ;.u.I.Y.V.V.Q.Q.V.V.k.i.k.Y.Q.2X<X<XdXpXuXpXdXpX1XiXdXaXdXdXdXdXdX1X<X:X<X~.<XdXhXpXiXaXuXt.Q m 1 Q i.i.t.T.iX1X5X,Xu.x.:X1X{.E.G.R.*XR.:.s.1XgXgXaXT.E T ;.t.V.~.~.<XuX<X~.!.I.uXHXJXVXNXNXVXMX5X>XzXzXsXmXZXSXZXSXSXJXJXJXJXKXKXJXJXfX{.E.H.J.J.J.E.E.E.E.E.E.E.E.E.E.E.E.E.E.E.E.Q.Q.Q.E.E.E.E.E.H.H.E.E.E.E.E.].].].].].",
"].].].].].].].].].].].].].].].].{.{.].].].E.E.E.E.E.].].].].].{.{.{.{.{.{.{.].].].{.{.{.{.{.{.{.].].].].R.G.G.Z.B.B.W.dXdXpXpXkXt.^.dXdXkXlXuXpXpXbXbXA w V V V A V { 6.m.} $ 9 0 $ * * < : q q < < f m.oX8.oX8.6.oXl.} *. .0 % # , q q % y , , m ,     $ @ % L oXoXoX%X{ 9 9 s a P v.,.H ;.E ;.u.;.e.x x p.e.x 1 - x n n n x x m n x 3 - 4 4 3 3 - : 3 4 X X : : : < x 2 % u u u < % : 1 : : x n U U U v x U W T Z Z U U U U U U T U n H H 2 c R J b M J H H S S i < i b M D D D K ) D / / / / d d / ] 3.)./ t A.-.i M K &.3.&.3..X3.3./ 1.3.3.(.'.(.3.(.(.f.n.>.&.' R b i E b c Y J H b 6 O + + & 5 M Y ( ` ` :.` ` ` W E U U U m 1 ~ ! ! ! U W e.2 % O & c i i y % X > 6 < : % o X > i J H J E W H c H b Y u.i.Y.I.Y.Q.i.e.k.I.V.i.i.Q.<X1X<X~.uXuX1XpXpXiXdXdXdXjXdXfXdXdXuXdXiX<XT.~.dXdXiXuXdX<XX.T q k X.Y.I.;.V.<X:X&XT.Z.u.,XaX1X>XW.Q.Z.J E &XzXsXaXMXBXu.E X.;.e.V.Q.uXpX@X~.~.~.uXkXJXVXMXMXNXMXzXsXgXsX5XxXJXJXZXAXZXJXJXJXJXJXJXVXCXgX>XW.R.E.E.E.E.E.E.E.E.E.&X{.&X].E.E.E.E.E.E.Q.Q.E.E.E.E.E.E.H.H.H.E.E.E.E.].].].].].",
"].].].].].].].].].].].].].].].].{.].].].].].].].E.].].].].].].{.{.{.{.{.{.{.].E.{.{.{.{.{.{.{.{.E.E.].E.E.E.H.C.x.N.V.@XdXbXkX~.X.uXbXhXpXlXhXuXkXbX@Xq * w f } F 4.oX8.8.6.*.F @ t <.V.T * , 0 0 = { b.5.m.oXoX8.oXm.*. .v. .* % * , , 0 , % w V l , @ $ $ * 0 $.oXoX5.f s  .{ C s 0 a E ;.Y ;.X.t.e.W v n i.U 3 X k m x b 2 x 2 x x 1 - 4 4 3 3 - 3 : X X 4 3 > < 2 x 2 % x c v y > : 1 : 2 m n W W E x x T W T n n T T U n H n U U n U U 6 b R R H S J H M N M i 5 c i i M K K K ^ / _ _ _ ] B d / ] 3.(./ i A.>.M M ) f.3.1..X(..X3.] 3.3.3.(.'.).3.(.).f.).d.d.d.>.Y J Y i b ;.r.;.` Y N Y c 6 > % & > 5 6 b N Y E R Y Y W ` U N W UX! ! Y W W n : : > 5 i b y % % 6 x < < % . X > u J S J ( ;.Y b H n n u.I.<XY.V.V.u.W e.I.k.i.u.Q.<X2X@XaX1X@X@X1XpXdXdXdXdXdXiXdXdXdXdXaXiX<X~.<XpXpXuXuXpX@XW m : Z p.t.k.X.u.:X7X2XW.W.W R.,XR.B.x.%.a = J T.{.aXNXgX2XW.V.V.i.e.;.W i.~.<XQ.~.<XuXdXVXVXBXcXMXMXNXMXMXsX*X,XCXZXZXSXJXSXZXJXJXKXVXiX1X1X2XW.E.E.E.E.E.E.E.].E.&X&X&X&X&XE.E.E.E.E.E.Q.Q.E.E.H.H.H.H.H.H.H.E.E.E.E.E.].].].].",
"].].].].].].].].].].].].].].].].].].].].].].].].E.].].{.].{.{.=X{.{.{.{.].E.E.].{.{.].].].{.E.E.].E.E.E.E.E.H.C.N.c.B.T.iXbXpXt.Y.@XbXbXkXdXpXpXbXbXY.| V C w f ..$XoX8.6.8.XX$XF { b.<.p $ < t p s j.S.m.oX8.*.oX8.m.5...j.j.p * 1 % # u # @ w v v e @ $ 0 p t 9 F { 0 * p  .t. .p * y ;.e.E ;.e.i.i.e.U 2 W e.3 X k m x m y c x m x 2 4 4 - 3 3 - : - X X : < < 2 2 c y % b n v u > , 2 < x n T ;.W W n b W W U m n T U Z n Z n Z H n Y E y i ( J J J J H N N N i 5 b b i M P K K ^ / ] 1.&.] / / / ] 3.(./ i ).>.D B 1.(.3.3.3..X(.3.] 3.3.3.(.(.'..X(.(.n._.).).A.d.:.-.Y 5 b ;.-.E ` ` R :.-.` Y N c u < > > % O O < x n U W ` U ! x 2 x U N U W n y u 6 u y < % : x c 6 6 > % % < c J H Y -.:.E n H n v u.V.uX~.k.k.I.t.E u.i.i.V.V.~.~.iX2XQ.Q.<X<X<X<X2X<X<X<X<XiXuXiXuXuX<XQ.Q.<XpXdXdXhXkX@XQ l - U i.X.e.k.@XpX2X2XaX&X:.T.R.;.b b E s.K M :.u.-.;.%.u.fXJXHXHXGXuXu.W i.Q.V.I.@X<XuXMXHXGXCXMXMXVXNXNX5XR.{.zXmXNXNXZXZXJXJXJXKXVXiX<X1X1XW.W.W.W.W.E.E.E.].].&X&X{.&X{.].E.E.E.E.E.E.E.E.E.H.H.H.H.G.G.K.J.E.E.E.].].].].].",
"].].].].].].].].].].].].].].].].].].].].].].].].].].].E.E.].].].{.{.{.W.E.E.E.{.{.].].E.{.{.E.{.].].].].E.E.F.C.N.x.x.R.:X7Xk. .k.t.j.@XkXhXuXpXdXpXj.#X$XoX..} XXXX8.8.8.0.0.XXm.} g *.F a = * 9 p 4.m.5.{ j = 5.m.6.oX*.*.j.p , < % , ,   , Z L v e $ $ 0 v C p * % @ * , 0 L ,.v p v ;.i.u.i.u.W e.e.W n n p.k - x m m v x n H n x 2 4 - 3 3 3 : 4 4 4 X : < 2 y 2 b u > b b b c < , 2 2 n U n W e.W n n W T U v v U I Z n U v n H Z E E y i ( H K P H K N N Y b 5 b M H D K K ^ / D / ] / / / / / ] 3.(.D i [.d.D ^ f.f.3.3.3..X(..X&.3.3.3.(.(.(..X(.(.).[.).).).A.a.-.Y 6 b y.r.;.( E H ( -.-.;.-.-.` Y J b c 6 & O o . O < y 2 2 : X . : 2 m N n c c 6 < % % X X % O . O > % % > u J H R ( -.E n n n v t.i.~.@XI.k.T.Y.W U W t.V.V.Y.Y.@XI.I.~.2X<X@X<X<X~.<X<X2X2X2X2X<XuX<X~.<XpXkXkXuXdXpXi.m , - I w.k.k.Q.pXpX2XOXS.r.J %.Y S u.gXZXJXNX5X*XR.u.s.Q.MXGXJXKXJXHXJXJX~.u.V.T.T.<XdXdXBXJXHXVXCXCXCXMXsX>XE.>XzXzX8X{.>XzXJXJXJXJXJXHXMXMXaXW.W.W.W.{.W.E.E.E.].].{.&X{.].E.E.E.E.E.E.E.E.E.E.H.H.H.H.K.G.H.J.E.E.].].].].].].",
"].].].].].].].&X].].].].].].].].E.E.E.].].].].].].].E.E.E.E.E.].{.{.].].{.{.{.{.].].E.].{.{.{.{.E.E.E.].E.E.H.A.C.C.B.H.+X+X,.,.l.o.o.j.@XdXuX@XpX7Xj.#XnX#Xm.XX$Xm.oXXXXX0.0.oX6.$.{ 8.8.6.s @ $ * * 0 0 @ @ @ { m.8.oX{ F L = * # , < @ @ p L w , @ $ * @ , v v u q q , q 1 , W v q b e.i.i.U.V.W ;.e.e.X.m U n : k v m x b N U H x 2 4 : : : 3 - - - : O : < y u 2 v i > b b n v < , q 2 U W < E k.;.n n W U U v b U U U H H v n H H W E u c ) S a K S J M M R c 5 c M D M K K K / B ] ] / / / / / / 1.f.D i [.f.) 1.f.3.3.3..X3.(.(.3.3.3.3.(.(.(..X).(.'. X X).[._.d.<.-.6 b s.y.:.` ( H E ` ` ` -.y.s.y.a.s.y.r.:.` N 6 > . X 6 b 6 2 2 2 X . y b u 6 % . o     o . o o . . . % < y Y J J E ( ` N n H b E i.Q.~.I.i.V.~.i.W T E E ;.e.u.i.i.i.i.i.V.I.I.I.~.T.Y.<X@X~.~.@X2XuX<X@X<XuXpXuXhX@XQ q # 1 X.t.^.@XuXpX<XT.,.b 0 i V.5XzXJXZXJXCXSXJXZXZXJXSXKXJXJXJXJXJXHXJXJXCXV.e.V.Y.~.jXGXBXGXJXVXVXVXMXzXgXsX5X5XxXmX5XZ.Z.,XNXJXJXJXKXKXJXJXgXW.W.W.W.W.{.{.{.{.W.{.].{.].E.E.E.E.E.E.E.E.E.E.E.H.E.H.J.H.H.H.J.E.E.].].].].].].",
"].].].].].].&X&X].].].].].].].].E.E.E.E.E.E.E.E.].].].E.E.].{.{.E.E.E.{.*X*X{.].].E.E.].{.{.{.{.].E.E.].R.J.H.A.A.c.G.G.OXj.j.l.,.,.j.T k.bXuXpXdX@X#X+X#XoXS.$X$XoX0.0.oX0.0.8.6.8.9.} } 6.*.s * * @ % * * * = 9 <.m.XX5.0 = = % % 2 #   # 0 w q Z m , # .   @ @ % : # : # : , W H 1 b V.Q.T.Q.T.U.u.W ;.T Z x n - 1 x m x n E N U x 2 : 4 X 4 3 : : : : X : 2 y c y v u > b b n c < < u q U E c ` V.;.n n W E H v m U U U H n n n n H ` Y y i R K b J H H D K K i u M b M M ) ^ D / D ] ] _ / / / / / / 1./ t [.f.>.f.f.(.3.3.3.3.(.'.3.3.3.3.(.(..X3.'.). X X'.A.[.}.2.s.s.i N N.N.y.;.` J ` ` ` -.-.r.a.g.Z.N.g.g.Z.V.V.g.-.E E Y c < c c 6 % X % > < o . O % X . % < & + .     % t u Y R H Y E -.H b n u c i.~.@XI.I.V.Q.Y.u.W E T W W U n v v x b H H n Y H b n t.t.X.T W X.i.Q.<X@X~.uXuXuXI.m 1   l t.t.t.V.V.t.T < b <.;.;.SXVXVXVXZXSXZXJXZXZXJXZXCXVXVXJXZXHXJXJXVXHXJXdXe.;.T.1XjXGXjXGXJXGXCXCXzXzXmXCXmXzXsXNXxXH.c.*XNXJXJXJXJXJXJXVXaXW.&X{.W.W.{.{.&X&X{.{.{.{.E.E.E.E.E.E.E.E.E.E.H.H.H.H.H.H.H.H.H.J.E.E.E.].].].].].",
"].].].].].].].].].].].].].].].E.E.].].E.{.].E.E.{.{.{.{.{.{.{.{.E.H.{.*XZ.B.H.H.G.H.R.R.E.E.E.E.E.E.E.E.E.R.J.H.Z.G.D.G.+X,.l.4.4.j...| Y.pXpXnXpXo.Y.#X+Xo.L 4...} 9 $.%X0.0.8.8.8.8.9.+.h *.*.V * , , < < * @ @ t *.K.%.< @ . < < %       # # X l L U Z ,   #   X X   X 3 1 2 Z X.Z Y U.T.Q.U.:XW.V.e.e.U Z x k : 2 x v y n ` Y N b 2 X 4 4 4 3 : 3 3 : % 2 6 c b y u c & c u c u > 2 y y U U Y u.V.u.U H W E Z n v U H Z U b v H N Y ` E 6 c R K ) -.) S D ) ( c i b b S K K K M D B / ] / / d / / d 5 i 5 i }.f.2.n.f.(.3.3.3.3.(.'.3.3.3.3.(..X3..X'.'.'.;X-X_.}._.N.a.s.i N U.V.g.s.y.( ` ` ` r.:.:.g.a.y.y.a.g.g.N.g.g.N.R.y.Y H c b b y , 2 c o o X 6 u y % % < b 7 & & O O O 5 u E ( J J J -.J H H v < e.i.Q.Q.Y.i.i.V.i.;.W e.W U x x v n H E W X.W U n c v b U e.~.I.i.T Z t.~.uXuXuXV.U I x # n Q Z m Z n % q :.:XaX .1XCXMXVXJXJXJXJXSXZXAXZXZXSXSXSXZXZXVXVXVXVXCXBXHXjXu.u.Q.aXjXjXGXHXMXcXMXZXmXmXmXmX9XsXzXzXsX5XmXJXJXSXVXSXJXJXfX2XW.W.&X&X&X{.{.{.{.{.{.W.W.E.E.E.E.E.E.E.E.E.T.H.H.H.E.H.G.D.H.J.J.J.J.E.].].].].].",
"].].].].].].].].&X].].].].].].].].].].].].].].].{.{.].{.{.{.{.{.R.*X>XR.a.y.x.N.C.Z.R.R.E.E.{.{.E.E.E.R.H.H.H.H.Z.C.H.B.+XXX4.,.j.l.| | o. .j.pX#Xt.pXpX,.A A A F F f 6.oXoXoX8.0.6.8.0.9.9.*.*.A p u v b q % % @ @ $ < = . # , , % # : #   X X   # # : v Z 1   # # # 2 1 Z T v x t.X.;.V.V.x.|.iX<Xi.T H H U x : , x v v x n Y H b c 1 X 4 - 4 3 3 1 1 : O 2 u c n i v u % c b b u , < y y H H Y u.N.u.E U E W U Z n U Z U U b c H R E ` ` u i ( -.%.%.>.^ K -.` M M M a M K J D d M d / ] / / D / d i d t + 7 }.f.f.(.f.(.3.3..X.X(.'.3.3.3.3..X.X3..X'.'. XwX4X[.3X[.A.a.s.c b Q.U.g.s.s.` ` :.:.r.r.:.y.s.s.a.s.g.s.g.g.g.g.Z.g.E J N n c u > y n . % u c 6 6 > & i M i 5 > > O O 6 i R ( R E J ` E E Y H > T ;.i.~.~.Q.I.Y.I.Y.V.e.c 2 x Z T W u.u.e.e.W U H T U b x x W Y.uXk.Z I H i.Q.Y.e.m n , # , w U H q , H OXnX:XB.j.gXCXVXJXJXJXJXJXSXSXZXSXSXSXSXZXZXZXZXZXZXVXJXGXVXVX<Xu.V.~.aXfXMXMXMXCXNXzXgX9XsXNXzXxXxXzXmXmXCXCX5X2XgXVXSXVXaXW.OX&XW.W.W.{.{.{.{.{.W.E.E.E.E.E.E.E.E.E.E.T.E.H.H.H.H.G.G.H.J.J.J.J.J.E.E.].].].].",
"].].].].].].].].{.{.].].].].].].&XE.].{.E.E.W.W.{.:X>X{.E.W.{.E.{.>X=XC.s.y.y.y.a.N.Z.E.].{.{.E.E.R.R.E.E.R.G.B.E.B.B.S.+Xj.j.m.4...} A | L T k.l.Y.pXt.C A L | F p F oXoXoX6.8.oX8.6.0.0.8.F p w w Z U H 2 # % < +   . @ , 2 , X % , 2 : X # X   # # X : q , #   # 2 x 1 k Z Z v u.;.;.V.V.:.T.Q.V.Y H E Z Z n 2 : k n x x U U n N n 2 X 4 - 4 3 3 1 1 : % 6 b i b u c i % c b b c u c i y H J R u.i.r.E Y E W E U Z Y H E U n c J ;.-.-.;.u i ` -.%.&.a._ ^ &.-.H H K a b K ) K M M d / ] / / d d i B d.n.B d [.f.f.(.f.(.(.3..X.X(.'.3.3.3.3.3.3.3.(.'. X;XwX4X*X6X>X}.N.g.b N }.U.Z.V.s.` -.a.y.y.s.y.:.N.Z.s.s.a.y.h.N.Z.V.N.N.r.` N c c c 2 u H % u N c u y 5 & M B i d i 5 O % u b R ) ( R R ;.;.;.E Y c 2 i.e.p.V.I.I.I.i.u.W U n H E X.e.u.V.u.e.e.;.W W Z Z n m 1 1 Q ^.w.x T U e.p.e.n m T q   , w v , p ,.+X2X7XQ.;.1XZXVXJXJXSXJXJXJXJXJXJXJXJXSXSXZXZXSXSXZXSXJXJXJXVXHXBXQ.V.I.W.iXgXfXfXMXCXmXfXmXgXzXsXsXsX3X,X9X:XW.,XgXgXMXVXaX:XQ.W.&XW.{.{.&X&X{.W.W.E.E.Q.Q.Q.E.E.E.E.E.E.T.E.E.H.G.G.G.H.J.E.].`.J.`.E.E.].].].].",
"].].].].].].&X].{.{.{.].].].].].&XE.&X&XE.].&X{.&X&X{.W.W.{.{.{.{.G.N.c.c.x.y.:.y.a.N.Z.R.E.E.R.H.R.R.H.G.G.R.E.H.H.W.+X,.L A } ..} f f A | ,. .| o.l.j.,.,. .| | p *.0X0XoX*.8.oX6.8.oXXX} * * u w v q 2 < % % % % % < u q % X , : : 1 1 X   #   X # : # # 1 v # @ 0 q q k q m Z T X.;.u.x.V.V.V.;.W u.V.u.U Z x # q Z x x n n b n n 2 X X : : 1 3 3 3 : : u b c n i b c > b b c b b H c y n J R u.i.e.E E W W E U Z U U E H b c ( :.-.-.;.u i :.' ) >.d.&.^ ) ) D K K M S ^ ) ^ M B D ] 3.] / / d d K 1.c.D 7  Xf.f.'.(.(.(.3.3..X'.'..X3.3.3.3.3.f.(.'. X;XwX4X-X6X3X6X}.U.N H {.R.R.U.g.` y.U.Z.g.Z.N.:.s.Z.s.:.:.y.N.R.}.N.B.N.r.-.H b N c i u H > b n c i u 5 & D D i d M 5 + & c H R ) ( J J ( :.r.` ;.E < Y e.W U U n n b c b n n Z U T X.;.W W W W X.E Z m v m Z m x m T Z q I X.;.W U Z e.X.:   # $ ,  .,.u.j.+X:Xj.,.CXJXSXJXJXZXJXJXJXJXJXJXJXJXJXSXZXSXJXJXJXSXSXJXZXZXJXHXfXY.V.T.W.Q.2XaXgXgXsXmXaXgXMXsX>XR.{.>X:XT.Z.aXCXgXgXgX:XW.W.W.W.{.&X{.&X{.{.W.E.E.Q.E.Q.Q.E.E.E.E.E.H.E.E.E.H.G.G.H.J.].].].`.J.`.E.E.].].].].",
"].].].].].&X].=X].{.{.{.{.{.{.{.W.W.&X&XE.{.*X&X*XW.W.*X&XE.E.&XH.x.a.s.s.s.s.a.s.a.u.s.N.H.R.E.R.H.H.R.W.&X:X:X&XW.S.,.T L | V ..O.A A A A ,.o.C ,.+XnXnX7X,.|  .C L l.0X5.F m.8.8.8.oXm.C 0 0 q x x q q u < . @ < v u : X # : q 1 : : 3 : # # # X . # # ; m T V # # q v Z m x y Z t.r.;.;.;.r.u.X.u.Q.I.Y.t.x : # x n m m n H N n n 2 X 4 : : ~ 3 3 > : : u b b n i n b < b b b M H J c b H J ( :.y.;.Y Y E E W Y n U T U H v H :.:.-.;.-.u i <.&.^ >.c.1.^ ) K B K ) D P _ ) ^ B D / &.3.] / [ d B / &.1.M i  Xf.f.(.(.(.(.3.(.(.'.'..X(.3.3.] 3.(.(.'.;XwXqXqX3X8X6X5X|.{.J H >X{.}.U.g.r.g.{.].N.Z.}.g.r.N.s.-.r.s.g.Z.{.g.N.Z.:.( J N N H b c H > b N N u u < & D K D D B & + > c Y ` -.( J R -.:.u.r.W ;.y : n W W U U U U U T T T n b x x y 1 2 q , < 1 : q 1 n Q Z I I m m x x n I x m T n 1   e T A * L ,.t.Y.2Xt. .OXCXVXJXJXJXSXZXSXSXJXJXJXJXJXJXJXZXZXSXSXJXZXSXSXJXJXVXVXJXaXV.u.V.x.W.@X:X2XgXgXfX1XW.:X1XR.V.r.;.V.:XMXJXJXVX1XW.W.W.W.{.{.{.E.E.E.E.W.E.Q.E.E.Q.Q.Q.Q.Q.E.R.R.Q.R.H.G.G.H.J.].].].].E.J.].E.E.].].].].",
"].].].].].&X].].].{.{.=X*X{.{.{.E.W.&X&XW.{.&X&XW.&X&X&X*X*XW.H.B.x.x.x.a.a.x.a.a.y.y.a.N.H.E.E.E.H.R.W.:X&XW.Q.V.,. .,.,.L A L O.S.4.A A A  .L L pXbXS.,...L o.| ,.L s C f p m.m.m.XXXX*.p q v Z Z v v c q & > u x 2 % # : : 2 q - 1 k q ; # # # # # X # q T I V w ; , 1 q q q : x E W E ;.;.V.u.W V.V.t.V.e.x : : m U x v n N H H U 2 X : : 3 x 2 1 3 : % 6 c c b i N b > b b c i b J b b H J %.:.u.:.H n Y ;.;.U b H E U Y v J y.:.:.r.:.u i -.^ ^ 2.d.2.) ^ D B K ) K %.>.) ^ B K / 1.3.] / d d / ] &.2.D d  Xn.3.(.(.'.).(.'.(.).'.f.f.3.1./ 3.).).'.;XwXqXqX4XxX8X6X|.|.J J >X{.|.E.Z.s.Z.>X{.N.N.>X{.s.N.s.-.a.V.a.N.W.g.g.N.:.` J N H H N c n > N J H u i 2 & D ^ K D i + + > c Y ;.:.%.) R :.:.;.u.W c % > : : v U e.I.I.Y.~.~.<X<X<X~.~.i.X.E T Z y , , 1 , 1 q m U I v k 1 q Z U v q , @ @ v k.#X#XA , C ,.S.,.A j.VXCXCXSXVXSXJXZXZXSXJXJXJXJXJXSXJXJXSXSXSXZXZXZXJXZXJXJXJXVXMXW.u.Y E u.V.T.:X7X2X1X1X:XT.u.` u.V.1XcXMXMXCXHXHXgX:XQ.R.W.W.E.E.E.W.E.E.E.E.E.Q.E.E.Q.Q.Q.Q.E.R.R.R.G.G.G.H.H.E.].].].].E.].].].E.].].].].",
"].].].].].].].].].].{.{.{.{.{.{.E.W.{.&X&XE.E.&XE.E.R.R.*X,XE.x.x.x.x.a.y.y.<.<.<.<.a.s.B.H.R.E.H.R.E.Q.G.Z.T.Q.Y.V.Q. .| | L L | l.o.|  .l.7Xo.L ,.t.| L ,...,.o.t.,. .t 9 0 p *.m.XX4.p q q x v Z Z C u * < Z x % X : : : : 2 3 , l l , - # X X X #   # Z Q Z v I w 0 1 1 1 x x q T U x W e.t.u.u.V.Y.i.u.X.n X X n W x m Y H H Y E x X : : 3 x 2 2 < : % 6 c c b i N b > b b b c S R J b J R %.<.u.:.H v H ;.W H x b H H H b J :.>.:.:.:.i i ' K ) 2.c.2.&.^ D B K ) ^ 2.2.' ^ B / / 3.3.] / [ [ / 3.&.&.D B '.f.3..X(.(.(.3.'.(.(.'.f.f.1./ [ 3. X).'.;X;XqX4X4XxX4X>X|.|.H Y 5X,X5X>X{.Z.G.3X5XR.N.{.5XR.C.s.:.s.N.a.N.W.Z.s.y.:.:.J J H b N c M < H Y N i u 2 & K K i 5 + + O < n E ;.r.-.R R -.( e.-.n % < > : > W uXBXBXbXkXpXuXuXdXpX<XpXjXkXuXI.e.T U m q m m k k v m q Z m v T W X.T , # q j.Y.S.Y.o.p w p w q A k.#XMXVXSXCXZXSXZXJXSXSXSXSXSXSXSXSXJXJXJXZXZXZXZXJXJXJXJXJXVXHXiXi.V.;.H X.i.T.Z.x.i.u.e.;.V.1XCXGXGXCXdXfXjXCXVXVXaX:XW.E.E.E.E.E.E.E.E.E.E.E.E.E.Q.E.T.E.R.R.R.R.G.G.G.H.E.E.].].].].].].].].].E.].].].].",
"].].].].].].].].].].].{.{.{.{.{.W.E.E.*X*XE.R.*XW.E.E.W.R.B.u.u.x.c.a.<.<.:.>.y.:.y.s.c.N.Z.H.H.R.H.H.E.*X:XOXW.2XOXOXj.t.o.o.L o.o.j.o.o.Y.pX .j.,.t.j.,.,...,.t.S.S.,.t $ $ $ s C C p p v x m v n v u < p p y # % 2 q q 2 : : 3 q q , # @ # , 0 # % @ # v v q v C v , 1 1 : 3 q m e.T x b x v E ;.V.I.i.i.e.x X : n Q x n E Y Y E ;.x : : : 3 x 2 1 < : % 6 c c c y N b > b b b M H J H S E J R :.u.:.J b n Y W H b b n H H S R -.-.` R ' 6 i >.) &.2._.2._ _ K D K ^ ) c.d.) _ D / _ 3.3.] / / ] &.3.2.&.K B  X3.] ] 1.&.&.1.(.(.'.'.(.(.1.B B 3. X(.). X-XwX4X-XqX6X6X>X>XH R cXcXzX5X5X>XR.>XsX*XN.H.5X,XR.N.y.s.s.y.N.W.Z.:.y.y.:.) J N N M b J < N J N c i 6 % K B + + + . % < H ` ;.;.( ( R y.g.u.u < 2 y % y i.BXGXbXbXpXuX<X@X@XuXuXuXuXkXkXbXuXt.X.W T W X.X.T m m l I X.w.v e.p.i.k.w @ Z t.T l.S.l.,.w V v p A  .l.gXVXVXVXZXCXSXJXSXSXSXSXSXSXSXSXZXSXJXSXJXJXJXJXJXJXJXVXVXVXfXT.W.jXW.r.H H Z b n X.U.V.~.GXLXGXGXHXKXKXHXJXVXBXCXgX1X&XQ.Q.E.E.E.E.E.E.E.E.E.Q.Q.Q.Q.R.R.R.R.G.Z.Z.H.E.E.].].].].].].].].].].].].].].].",
"].].].].].].].].{.{.{.{.{.{.{.{.{.].E.].=X*X].H.=XZ.R.R.G.y.s.x.c.c.a.<.y.<.:.<.<.y.a.c.N.B.Z.H.H.H.H.R.R.R.Q.OXR.OXQ.:Xu.;.T t.Y.| t.t.o.#XnXO.#Xl.f p ..L | t.,.V. .F = = * 9 L v % , q q : m n H q , v v , : q m m T U m 1 ; 1 ; # # @ 0 ,.7XQ.C @ # # , , # l Z v q q 1 2 k m x m x m q 1 v e.e.W e.e.e.e.2 : : U Q x N Y U ` -.;.x % % : : x x 1 > : % 6 i u u 6 Y b % c b b c b H P H R R ( ) -.u.:.J p n W E u u H E J J ) -.>.) ) :.i i >.&.&.2.A.d.&.) K D K ) ^ d.h.&./ B / &.3.3.&.] ] 3.3.n.f.)._ d '.f.n.3.3.1.3.(.'.).(. X(..X3.&.1.(. X(.).;X-XqXwX6XqX-X6X6X6XM -.MXMXsXzXsX8XR.{.sXsX{.Z.{.5X5XZ.y.r.s.g.V.R.B.r.y.a.:.J K H H N b J < H Y M M b u % J N . u > . > 2 Y :.;.r.;.( ( a.x.;.u c y , U @XbXjXBXuXu.V.<XuXQ.@XjXkXkXkXkXkXkXdXpX~.t.k.i.k.L.k.w.1 m L.p.w.Z T k.I.@Xk.q , v ,.l.S.l.oX| w p A o.j.o.j.CX7Xj. .<.gXSXSXJXJXSXSXJXSXSXSXSXJXJXJXJXZXZXJXVXJXJXGXMXCXQ.:XT.t.E J X.V.k.U Q.kXI.!.LXGXLXLXHXHXHXHXHXHXGXGXBXBXgX:XR.R.W.E.E.E.E.E.E.E.E.E.E.Q.E.R.G.Z.Z.G.H.E.E.E.E.].].=X].].].].].].].].].].].",
"].].].].].].].].].].{.{.{.{.{.{.R.=X].H.=X,XH.<.G.E.{.].>XC.s.B.c.a.a.y.a.y.<.y.y.y.a.c.c.N.B.Z.F.H.H.H.R.R.Q.{.*XR.W.W.Q.x.S.OXk.o.o.o.T Y.nX.... .} V p V L ,.j.S.,.*.*.} s = 0 C q q 1 x 1 q q b q q q # : x Z Q Z U U m q 3 3 1 , * 0 j.0X+X#XS.v , # % @ % 1 m m q x m I W p.e.w.Z n m m T u.;.U X.i.e.Z : : 3 U Q v N Y Y ;.-.;.x X X : 3 x x 3 > : % 6 u c c y J c & b b c b H J J H R R ( -.<.r.;.-.H H E Y p c H Y E J ) &.>.` -.:.7 i >.&.1.2.A.2.' ^ K D ) &.^ &.1.1./ B / 3.3.3.1.1.3.&.f.f.A.n._ D  X(.f.3.3.(.(.3.'.).(.;X(.(.(.f.f.). X)._.wX;XwXwX-X4X4X4X-X|.N R cXSXzXsX,X].}.R.8X5XsX{.R.>X{.U.y.r.s.s.s.T.U.y.r.:.-.Y J J Y N c N < J K M M M i % b ;.y u : . % y ` :.:.s.-.-.) :.u.-.y y y e.pXbXjXGXBXU.e.;.U.2X2XdXjXkXjXjXkXdXdXdXkXdX@XuXuXyX~.!.p.k m /.Y.i.I X.^.~.uXuXI.T 0 v j.XXS.j.l.p V j.#X@X#Xt.j.T C p C S.JXSXJXJXJXJXJXJXJXJXJXJXJXJXJXJXJXJXJXVXCXVXVXVX:X;.E ;.V.OX2XW.;.W hXuX~.GXKXGXKXLXKXKXKXKXKXJXHXHXGXGXCXgX1XW.Q.Q.Q.E.E.H.H.E.H.E.E.R.H.G.G.Z.G.G.H.E.E.E.E.E.E.E.E.].].].].].].].].].].",
"].].].].].].].].].].{.{.{.{.{.{.{.{.].*X,X].s.-.N.H.G.B.E.c.<.a.a.c.s.a.x.z.a.u.a.a.s.c.N.N.B.C.G.H.R.G.R.E.E.{.E.G.R.E.*XQ.OX&Xl. .L | A t.7XT A A } | A | l.j.S.+XS.m.0X+X5.4.f 9 q v q , 1 < < < x q # 3 x n n U x x k 1 1 1 1 q < $ ..l.4.L  .j.w @ < , % , : 0 1 q m U W I.yX!.I.e.X.T Z m U H H ;.e.X.x # : 1 U U b H E Y ` W ` x X X : 3 x x 1 < > > u c b b u H i % c c b b J J R R E R -.:.y.y.-.E E E W H b b S E %.J >.>.-.' ` ` 5 b >.>.2.2.A.2.&.^ D K &._ K ' >.2./ / ] 3.1.1.3.1._ &.2.).).h.' B ).3.3.f.'.'.).(.(.(.(.;X).(.(.(..X(.'.).'.qX;XwXwX;X4X4X4X6X|.M E ZX1XZ.}.R.Z.N.s.>X8XzX5X{.,X>X{.s.:.s.s.y.U.U.s.y.:.` E Y J Y H b N < H H N H M a & O H n y o . O y ;.:.:.s.-.-.( <.s.E 2 y H dXGXpXdXBXuXi.u.u.Q.dXuXdXpXdXjXkXBXjXkXhXpXdXdXdXhXkXpX~.k.I x t.L.t.w.k.@XuX<X2XpX7Xj.0 V j.XXl.| C V V o.#XY.S.,.T  . .C *.VXJXJXJXJXJXSXSXJXJXJXJXJXJXJXJXJXSXZXZXVXVXCXMXi.;.2XfX1XiX7XE n ~.LXuXuXLXLXLXKXLXKXKXKXKXKXKXJXJXJXHXGXMXfX1XW.Q.E.E.E.H.H.E.H.E.H.G.G.B.B.G.G.H.E.E.E.E.E.E.E.].].].].].].].].].].].].",
"].].].].].E.E.].E.E.].].].].{.{.*X{.E.E.H.x.y.s.<.:.<.<.a.a.x.x.a.c.c.c.b.b.x.a.s.a.s.N.C.Z.B.B.G.E.E.H.R.E.W.{.G.E.G.E.R.E.G.E.#Xj.,.| X.t.@X .V A A A p j.nX,.*.5.*.*.m.oXm.+XoXC v v v , % % X 1 :   : 1 : q 1 1 ; , # - q 1 , q q p 5.4...{ { F * < ,.u.C , % 1 q Z Z T W I.kX~.!.Q.yXY.t.I b x x H E U : # 3 2 U U n U E Y J Y ` c X X : 3 ~ x 2 2 < < c b c b c Y u % c c b b H J ( R J J :.y.y.r.( Y E ;.W Z H H S -.%.J &.>.&.>.:.-.u M <.>.2.>.n.2.>.) K ^ _ ) K ^ ^ 1._ / &.1.&.&.3._ / 1.1.A.A.n._ i 2.).'.n.).;X'.3.(.).'.;X'.(.'.(.f.3.).).).qX;XwXwX;XqX3X3X8X5XN ` zXR.R.5XsXxX6XN.*XsXsXsX9X1X5X>XN.;.y.g.y.U.R.g.y.:.:.-.R J Y J N H < N N H H M b 5 . O % X   O % c r.:.:.g.-.:.-.r.u.Y 2 y ;.hXdXdXGXBX<XV.i.t.Q.uX<XuXpXkXbXGXjXuXuXhXdXdXkXdXkXhXhXpXuX~.X.I w.i.Y.@XuXpX2XuX~.@X7Xu @ p ..C w V | V w | o.o.o. .j.k.;.L ,XSXJXJXJXJXJXJXJXJXJXJXJXJXJXJXJXJXJXJXJXVXVXMXu.1XfXBXBXfXfXt.Y.LXkXuXkXGXLXKXKXLXLXLXHXHXHXKXJXJXKXJXHXGXVXjX1XW.R.E.E.H.H.E.E.E.H.G.Z.B.B.G.H.E.E.E.E.E.E.E.E.].].].].].].].].].].].].",
"].].].].E.E.E.E.E.E.].E.E.E.].{.].=XF.<.>.a.c.c.a.:.y.a.a.y.x.a.c.c.c.c.x.c.c.x.s.a.s.N.C.C.B.B.G.E.E.H.R.W.W.].R.R.R.H.G.H.W.+X7XeX7Xo. .;.S.Y.S.p p Z L bXJXS.L *.*.*.5.oX8.XX0XL p L b q @ . % , # # : # , 1 1 ; - , 3 1 k 1 , 0 * A oXm.5.6.5.*.0 ,.7X2XQ.;.q v Z T Q w.e.I.~.!.!.lXFXbXlX!.i.Z x : , 1 : 3 , 2 n U E W W E Y E ;.b X # : < 2 x 2 2 2 < c c c b c Y y O i c b b J P R J H J ( :.-.( R J Y W J b H H S %.-.R >.<.&.<.a.:.5 b 2.2.2.&.2.>.>.&.^ ) &.&.K D M >.1./ &.1.&.3.(._ / &.d.n.A.F._ d ). X'.(.(.(.(.(.'.'.). X).).'.).f.3.(.).).wX XwXqX;XqX3X8X8XsXH R W.{.zXzX5XsXsX3X,X6X8XzXsX5X5X{.U.r.a.g.r.U.Q.s.y.r.:.:.' Y E J N J 5 H J J N M i < % . . o X % % n u.:.:.s.-.>.-.y.u.H < y V.jXpXjXBXjXQ.u.V.I.~.uXuXdXdXdXdXjXkXuXuXkXjXjXjXbX@Xe.~.bXuXpXuX@XuXuXuXuXkXjXaXdXgXaXQ.q * $ $ V  .l.S.l.T v T | | | T ;.,.L j.ZXJXJXSXJXJXJXJXJXJXJXJXJXJXJXJXSXJXSXSXJXVXdXV.VXgXBXBXHXVXjXBXGXuXuXGXGXKXLXLXLXLXJXJXKXKXJXKXJXKXKXJXJXJXHXMX:XQ.R.E.E.H.H.E.H.G.Z.Z.C.Z.G.H.E.E.E.E.].].].].].].].].].].].].].].].].",
"].].].].E.E.E.E.E.E.E.E.E.E.E.].E.].F.a.<.c.c.a.<.<.y.x.c.a.x.c.c.s.x.x.x.c.N.c.c.s.g.N.C.C.C.C.G.E.R.R.E.{.E.R.R.Z.R.H.H.OXOXj.,.+XnX2XY.S.j.Y.bXZ C L k.HXbXj.S.m.m.m.oX8.6.m.XX..p v < , 0 @ $ # # , 1 , q q q q 1 1 1 2 1 1 1 w , L m...{ F *.*.*.0X7XK.T.2XL Z Q e.I.!.yXyXI.!.yXpXkXkXbXkXuXk.W m , : : : , x n n ;.u.;.` ( ;.u.N % % 3 1 2 2 < < < < u i c b c H 2 O i b b S J P R R H S R J H S J E H H H H H H J E %.J <.>.-.:.s.:.5 M a.2.>.) >.>.>.) ^ >.2.&.K D M &.>./ &.1.&.1.'.2._ 2.c._.A.A._ M _.).(.n.(.).(.). X'.(. X).(.'.'.(.f.(.).(.wX;XwXqX-XxX3XvX5XzXJ J {.{.iXzX,X3XxXsXsX5XsXxX5XsX5X{.R.y.s.B.y.U.U.g.a.y.:.:.( Y Y Y N H 2 J J K H J N 6 & X . . . X : N u.r.:.y.( -.-.u.i.Y < x <XjXuXjXjXjXQ.i.Y.~.~.~.uXjXjXjXkXdXBXjXkXjXkXkXkXdXuXt.I.kXuXkXdXpXpXuXpXpXdXdXdXfX<X@X;.1 , q L l.t.l.k.S.j.A o.,.o. .C T k.K.2XJXJXKXJXJXJXJXJXJXJXJXJXJXJXJXJXJXKXJXJXHXCX<XV.W.fXHXVXbX@XpXkXkXyXpXLXGXKXLXLXKXKXKXKXKXKXKXJXKXJXJXJXJXJXKXGXgX*XR.Q.E.G.G.H.Z.Z.Z.Z.Z.D.G.H.E.E.E.E.E.].].].].].].].].].].E.].].].].",
"].].].].].E.E.E.].].E.E.].].{.].].H.E.].G.c.y.:.:.<.<.a.x.a.a.c.c.a.a.c.x.c.N.c.c.c.N.N.C.C.Z.Z.R.R.R.E.{.{.E.H.R.H.R.E.W.K.j.| ..o.+XHXJXHX@XV.GXW n ;.bXHXnX,.XXXXm.,.5.m.m.5.l...C Z T v , * # @ # ; , q q , q l q 1 1 1 3 , 1 v , | ,.5.6.{ oX5.m.9X9X+Xj.u.Z Z X.k.~.!.yXuXyXuXpXlXyX@XlXFXbXkXi.X.U q # 2 2 n n b ;.u.-.-.-.;.u.H : : : 3 1 2 < < < < i c n b c H < % c b b S H J R R P S H H J J H J H Y E E H H E E ( R <.&.( ( :.;.5 N s.2.&.) >.<.&.^ ) d.C.>.D K M _ &./ 3.&.&._ (.).f.A.h.F.h.h.' M ).(.(.(.'.'.'.).;X X).;X'.).'.'.(.(.(.).).wX;XwXqX-XqX8XxXsXzXJ ( NX>X|.sX8X8XxX8X5X5X5X5X6X5X>X|.R.y.s.U.N.U.R.N.s.a.:.-.( E Y Y N H < J J N K H M i 2 % . X O % > H g.r.y.s.` >.-.y.i.;.y n uXjXkXBXdXdXdX<X~.~.~.~.uXpXdXuXuXdXBXjXkXkXjXdXuXuXdX<XuXdXdXjXuX2XY.V.T.~.:XiXW.e.u.T.V.k.Z @ , v T T | L A A  .k.S.S.j.S.@X7X7XNXZXJXJXJXJXJXJXJXJXJXJXJXJXJXKXKXJXHXJXMXjX~.Y.U V.bX2Xt.k.@XpXuXuXkXLXLXLXKXKXKXKXKXKXKXKXKXKXKXKXJXHXHXKXJXHXVX1XQ.R.R.G.D.C.Z.C.C.Z.Z.G.F.H.J.].].].].].].].].].].].].].].].].].].].",
"].].].].].].E.E.].].{.].{.{.{.{.].H.].].B.a.y.<.<.<.a.c.a.a.x.c.c.a.a.c.c.c.N.c.c.c.c.N.N.B.Z.G.R.E.E.].*X*XE.H.R.H.G.G.+X,.L | | | S.CXJXHXpXI.LXX.b @XKXJXVX7XXXS.4.5.S.S.m.oXm.,.,.Y.7Xk.q $ @ q X.t.Z , ; , q k q k q 1 q ; 1 Z e A 4.....6.m.#.,.9X9X9X%.p Z T e.I.L.L.~.uXuXyXuXyX!.L.!.kXkXGX!.Q W 2 , 1 q x x c r.r.` y.r.;.r.N : : > 1 2 q 2 2 < < c c b b c S > % c b M H J R R ( %.P J M H H S E E H E H b b E -.R R <.>.) b b J > M a.a.>.) >.>.) P ^ a.A.s.K K M 2.1.&.3.&.&._ n.).`.A.F.c.A.c.^ d f.n.).(.).).'. X X;X). X).).'.'.(.).(.'.).wX;XwXqX-XqX4X8XxXNXY E cXzX5X{.sXvXxX>XN.H.*X5X6X>X,X>XW.y.g.U.g.U.|.V.s.y.-.` ` ( Y b c J 5 J J M D S M b c : % % X : : H x.:.y.Z.-.-.-.u.i.e.u b <XuXkXjXkXkXuXV.i.I.~.~.<X~.<X~.~.uXjXBXjXjXkXuXQ.~.bXbXfXjXcXjXfX2XT.U.T.V.V.<Xi.u.g.Q.T.:XT , # @ # w t.o.L L S.Y.$Xl.j.S.+XS.Q.:XaXNXJXKXJXJXJXJXJXJXJXJXJXKXKXKXJXVXVXVXjXT.W.;.y n H p.@XyXuXyXkXLXLXKXLXLXLXLXKXKXKXKXKXKXKXKXKXKXKXKXKXKXJXJXgXW.H.H.G.D.C.Z.Z.Z.G.G.F.H.J.J.].].].].].].].].].].].].].].].].].].].",
"].].].].].].].].].].{.{.*X{.E.R.E.H.].{.G.x.<.<.<.a.c.c.c.z.z.c.x.x.c.c.c.c.c.c.c.c.c.s.N.V.Z.W.R.{.E.E.*X{.E.E.R.R.G.G.E.,.|  .....7XJXJXHXBXV.jXW W HXKXJXSXnXK.K.S.5.4.j.5.4.*.L j.@X,.A A $ * w | oXpX,.e , ; q 1 q q q k 1 1 v 0 0 { { ..m.XX*.S =X,X,X<.t U X.k.k.i.@X!.!.!.!.uX~.^.~.tXyXlXhX^.n m k 2 q 2 v U ;.r.E ;.y.y.-.y.Y : : 1 1 2 y 2 < < < u b b N b c % % c b S H H J R P R J R R R J R E Y E H J b H R R -.) a.-.H N c c % H y.d.>.&.&.>.<.) ) a.A.Z.P S K c.2._ 3.&.1./ _ 2.n.f.c.A.}.F.' i A.).(.(.(.(.wX'.'. X). X'.'.). X(.(.(.(.(. X X;XqX-XqX3X4XxXNXJ ( gXzXsX,X>XvX6XR.}.s.a.|.>XR.|.{.U.g.B.Q.Z.U.|.Z.g.g.:.:.:.R H 6 c Y < J J M K J J c c > : X % : : H s.y.s.s.:.y.( y.i.;.c b @XpXjXkXbXkXY.t.V.~.<XQ.~.~.hXkXpXpXdXkXkXjXkXdXpXdXjXMXMXcXcXfXiXgX2XiX1X<XgXV.N.5Xg.u.@XV.u % : , # $ T @X7XX.7X#XS.$X7X+XS.+X2XOX:X1XgXCXJXJXJXKXJXJXJXJXJXJXJXJXVXVXJXHXCXT.aXY.% Z Q.uXdXkXuXuXGXLXLXLXKXLXLXKXKXKXKXKXKXKXKXKXKXKXKXKXKXKXJXJXNXR.G.G.G.C.C.C.C.G.H.H.H.J.E.E.].].].].].].].].].].].E.E.E.{.].].].].",
"].].].].].].].].{.].{.{.].].].{.E.E.R.R.].F.a.y.y.a.x.c.c.z.c.c.c.c.c.c.c.c.c.c.N.N.c.x.G.&X2X2X:X&X:X&X:XQ.Q.R.R.R.Z.G.E.j. . . .S.CXJXKXJXGXY.uXW Q.HXJXJXVXl.S.0X+X+Xm.*.j.m.t 0 { ,.V L  .9 V | V f 4.#Xl.* ; ; ; q k 1 1 q q q x q 0 t ,.+Xb.S = x.9X7XB.u x w.I.i.L.!.I.L.^.~.tX!.^.!.~.^.~.bXI.k x Q k 2 x W W W ;.` r.y.y.r.g.E : : 3 < 2 y 2 < 2 < u b b b b c % O u c b S S J R R R J J H b H R W Y E H H N J R R -.( a.<.H b c v & H :.s.c.&.&.>.<.J ) c.C.Z.R M ) C.2.>.n._ _ _ / / &.2.2.A._.A.^ d n.h.f.3.(.n. X'. X;X'.'.'.'.'.wX'.).f.(.(.'. XwXqX;XqX4X8XzXMXJ E cXsX5XsX>X}.R.R.|.Z.s.Z.{.Z.,XR.Z.g.N.W.Z.U.W.Z.s.g.:.r.-.Y H 5 b E 6 H J K J J J c c < > : : : > H N.s.s.a.<.s.-.u.u.e.b y Q.uXkXpXbXuXI.Y.~.~.~.~.<XQ.<XpX<XuXdXBXjXkXjXjXjXjXjXcXcXcXzXsX5X5X5XgX1XaXaXi.1XW.Z.u.u.E v , # , 1 e , X.@X| S.7X+XS.#X#XS.+X7X5XMXaXaXcXfXZXJXHXJXJXJXJXKXJXJXJXGXGXHXGXGX<XdX~.q i.jXdXhXpX@XhXLXLXLXKXKXLXKXKXKXKXJXKXKXKXKXKXKXKXKXKXKXKXJXJXVXQ.G.Z.C.C.C.C.C.Z.H.R.E.].].E.E.].].].].].].].].].].{.E.E.].].].].].",
"].].].].].].].].].].].E.E.R.E.E.].].H.G.*XE.a.a.a.a.x.c.c.c.c.c.c.N.B.v.c.b.c.c.N.N.x.B.W.7XaX2X7XQ.E E Q.Q.OXR.G.G.G.Z.G.:XG.L ;.nXJXHXKXJXJX2Xk.X.jXHXHXVXW.L S.eX+XXXS.K.7X,.9 0 *. .p ....9 p l...4.} } #XL ; ; ; 1 q k q q m m q , 0 , p L F t s L E.,XB.u U i.k.p.I.I.L.L.^.^.!.^.I.^.^.^.yXlXQ x p.~.m 2 x W ;.;.;.` y.y.y.y.I.` : : 3 < < x 2 2 6 2 y b c b c c % % i c b S S J R -.-.R J H b H J Y H H n H H E R ( -.( a.&.H H n b % M s.a.h.>.&.&.-.J ) c.A.].( c ) A.h.2.`.&._ &._ D / ^ &.A.A.h.Y i d.1.1.1.3.&.f.'. XwX X'. X'.'.wX'.'..X.X(.'.;X;XqX;XqX4XxXzXNXJ J cXfXsX>XE.*X*X>X5XN.N.g.U.W.R.U.Z.g.g.W.Z.U.{.Z.y.g.r.r.-.Y Y b N E 6 J J J ) J J c c < 2 : : < < J V.s.a.y.y.a.-.u.r.r.n 2 I.pX@XuXkXuX~.~.~.uX~.Y.<X~.~.~.I.dXkXbXjXjXjXjXMXbXMXcXcXfXsX5X5X,X5XZ.:.{.,X( x.V.W.g.V.V.V.e.: # # q , Z Y.X.+X7X#XS.#X$X+X0X2X9XgXzXMXMXMXVXHXJXJXJXJXJXJXJXJXJXHXJXGXVXBXiXiXuXn <XjXdXpX<XuXFXLXLXLXKXKXLXKXKXKXKXJXJXKXKXKXKXKXKXKXKXKXKXKXKXVXQ.G.Z.B.C.D.C.C.C.H.E.{.].].].].].].].].].].].].].].{.].{.{.].].].].",
"E.].].].].].].].].].{.].E.E.E.E.E.].H.R.*XG.y.s.x.c.c.c.c.c.b.c.N.N.v.c.c.c.c.c.C.N.B.E.:X7XgX7X#XA L S.S.V.Q.W.R.Z.B.H.Z.G.E.:XQ.HXKXHXKXKXJXpX;.Y.HXHXHXJXOXj.*.j.0X7X7X0X,.9 @ p m.,.} 5.4.} A l.4.oXm...4.O., ; 1 1 l | X.I m m l Z X.o.v , , C <.E %.W.-.u W I.L.i.p.p.L.L.L.^.L.^.L.L.!.!.yXL.Q p.lXyXI x k U W ;.;.E r.y.y.r.V.W : : > > < x 2 2 6 2 y b c b c i % % c n H J J J R -.>.) J K H b H H H H n H S E R -.-.` a.-.R J H b % n s.s.d.>.) -.K M ) c.R.E.-.i K g.h.>. Xn.f.3.1.&._ ) &.:.R Y b % N D K ) 2._ 1.). XwXwX X X'.'. X X X(.3.f.).;X XqX;X4X3X8XzXzXJ E fXiX>XZ.Z.6X>X{.,XE.Z.s.Z.N.N.g.N.g.u.W.Z.V.R.V.r.s.r.r.-.E E E R E 6 Y R J ) ) J b b 6 2 : : < < Y V.s.s.a.y.:.-.u.u.r.n q k.pXuXuXuX^.I.~.~.~.~.Y.~.uXuX~.Q.kXbXjXjXjXjXjXjXjXjXMXcXfXsX6X5X,X*X<.Y W.5X%.R y.V.:.V.iX<X<XZ # ; 0 m t.j.X.Y.S.+XS.S.+X+X7XQ.2XaXfXMXCXVXVXBXJXJXJXJXJXHXVXJXHXVXGXBXCXVXjXdXuXE dXdXjXdXuXkXLXKXLXLXKXKXLXKXKXJXJXJXKXJXKXKXKXKXKXKXKXKXKXKXKXCXR.G.G.B.C.C.C.C.C.H.].&X&X].].].].].].].].].].].].].{.].{.{.].].].].",
"E.].].].{.{.{.{.=X=X{.].].].].].].].].R.R.B.y.s.x.x.c.v.v.c.c.c.B.N.c.c.c.c.c.c.N.c.N.E.OX2X7XpX@XS.#XS.l.+X .Q.G.R.Z.R.E.].E.&XCXHXJXJXHXJXHXbXX.I.KXKXHXKXbXV.C * C j.V. ., 0 * f m.4.m.oX6.6.F ..m.4.l.m.l.l.q $ l I w.w.w.w.Q ! I T w.k.e.T q q C H H H < 2 T p.w.i.p.e.w.e././.^./.i.^.^.!.!.^.!.IXhXyXW x 2 U W W r.R -.:.u.-.r.E > : : > 2 x 2 < 2 2 u N b b c c % % c b n H H H J %.>.%.J H M c N H H Z H J M R R -.-.( a.<.<.E n n & N a.h.n.2.%.K t i ) A.R.H.-.i M -.h.>. X`.A.f.f.f.>.) K K b < & > 6 u i B &.1.1.n.'.wXwX'. X'.'. X;X;X(.f.f.(.'.'.wX X X-X8XmXmXJ E 2XZ.U.{.*X>X}.R.E.N.Z.Z.Z.r.x.y.g.N.u.W.Z.N.U.g.r.s.:.r.:.` ` R ` ( < Y ) P ) -.) M N y q : : : < Y Z.N.N.s.y.:.-.u.x.t.Z q e.~.uXY.~.!.Y.@X^.I.<X~.~.~.~.I.^.kXjXjXjXjXjXMXCXfXMXcXfXzXsX3X=X>X>X&X&X*XE.Z.G.x.u.i.Q.aXQ.Q.W # # , e.k.T W k. .o.l.Y.+X+XQ.k.j.gXdXdXGXVXVXGXJXJXVXjXcXGXHXGXVXCXBXMXGXGXBXpX@Xe.bXkXdXuXhXGXLXKXLXLXKXKXKXKXLXJXKXKXKXKXKXKXJXJXKXKXKXKXKXKXKXMXT.G.H.C.C.B.C.G.G.R.{.&X{.E.&X&X&XW.{.W.W.W.].].{.{.].].].].].{.{.{.",
"].].].].].{.{.{.{.{.].].].R.Z.B.*X{.R.N.s.x.s.s.s.x.c.v.v.c.B.B.C.B.c.c.c.c.c.c.c.x.x.V.S.@X@X7X7XpX#X#Xl.#Xj.j.:XW.Q.Q.G.R.*X1XHXHXJXCXS.+X7XbXX.Q HXKXGXJXHX,.0 @ * $ * q , u 0 A l.oXoX5.*.6.*.} oXoX4.m.oX#X| , m X.w.w.w.w.w.Q w.w.w.w.w.e.X.Z v < 2 y < < T e.X.p.w.Q Q /./.L.L././.^.^.^.yXuXlX~.kXkXw.x 2 n E ;.;.Y ( ;.u.` ;.E : : : 3 2 x y 6 6 6 u b c N n b > % u c c b S S S P -.%.J H M b H H n n H H b J J -.-.-.d.<.<.R H H % b s.d.c.2._ a & u -.F.H.{.<.i b J a.2.-X[.).).n.2.^ K M 6 6 x n v x b u i K _ &.&.(. X X'.'.'. XwXwX;X).n.(.n.'.'.wX X X3XxXmXmXJ J T.V.Q.>X>X>X{.].:.R R.Z.u.:.x.s.N.g.y.Q.U.V.U.N.y.s.:.r.:.` ` J E R > Y ) ) ) &.) M S u y > > > < Y Z.N.N.g.s.y.:.s.x.u.H q T W k.Y.uXhXhXuXk.i.~.@XuX~.~.I.~.kXjXjXjXMXMXMXMXjXCXMXgXsX8X*X].].,X=X>X:XE.,X1X{.,X{.Y.V.k.~.i.1 2 Z I.Q.Z W @Xt.v v T ,.,.T C y i.aXfXBXGXHXJXJXCXiXW.:XjXHXHXMXCXVXVXGXGXjXdXI.i.jXjXuXuXGXLXGXLXLXLXKXKXKXLXJXKXKXKXKXJXJXJXJXJXKXKXKXKXKXKXKXgXR.G.H.D.C.C.F.H.E.W.{.{.&X&X&X&X&X&X{.{.{.{.].{.{.{.].].].].].{.{.{.",
"].].].].].].{.{.].].].].].R.B.s.C.Z.N.<.<.s.x.x.x.c.B.B.B.v.B.B.B.B.N.N.c.c.c.c.C.B.B.x.V.@X@X@X7X$X@X#Xl.Y.S.S.OX2XW.R.{.&X:XgXBXKXHX7XF L o.S.C w @XHXHXHX@Xb % * , # , x q : < q f l.oXm.6.6.oX4.} 6.oXoXoX#X| e I Q w.w.w.w.I Q w.Q I w.w.Q Q w.i.X.T X.U U w.p.e.Q W p.w.p./.i.L.L.I.^.^.!.yX~.~.~.lXhXe.x q x W r.;.J ( :.y.` r.E : : : < 2 b b c x 6 u c c N N N > % u c b H J J J K J -.J H S b H n n H J H M R R -.-.-.s.:.-.E H Z % c y.h.h.&.K S i u >.A.R.R.R t b K >.>.[.-X'.n.1._ D K i < u 2 : : : 2 < i D ^ &.1.3.).'.). X X XwX;X X'.f.n.n.).).;X-X X;X8XzXzXH n U.Q.:X:XZ.x.s.y.H ;.Z.y.:.-.B.g.N.u.r.U.U.N.U.B.a.g.:.r.:.` ` N E R & H R ) -.>.) S J c y : : 2 q Y V.x.x.s.c.a.:.u.u.r.Y y T e.T Q t.i.Q.~.I.k.~.uXdXuXQ.^.uXjXjXdXjXMXCXcXfXbXBXMXgXsX3X}.].].>X&X&X&XG.R.Q.T.aX2XS.k.Q.dX@Xq q t.t.k.m k.Q.t.T X.o.o. .T Z y E @XiXdXGXGXHXVXiXW.W.:XaXBXGXGXGXGXBXGXGXdXdXu.T.dXdXdXjXLXGXLXLXLXLXKXKXKXKXKXKXKXKXKXJXJXJXJXKXKXKXKXKXKXKXJX2XR.G.G.G.C.C.H.E.{.&X{.{.{.OXW.W.{.{.{.{.{.{.{.{.{.].].].].].].].{.{.",
"].].].].].].{.{.=X].].{.*X{.H.B.-.<.y.<.s.N.x.B.N.B.B.B.B.B.B.B.N.N.B.B.v.v.c.B.B.N.B.x.j.Q.Y.7XpX#X#X#XS.S.#XY.2XOX:X:X:X:X&XS.7XHXgXS.a C p p , @ Z bXbXY.2 % # v w % # # # % % @   } 0XoX5.5.l.l.$ 9 4.oXoXoXV ; m m Q w.Q Q w.w.w.w.Q w.w.p.p.p.k.p.p.p.p.p.e.w.i.w.w.p.w.Q w.i./.L.^.!.~.!.^.IXI.~.kXlXe.x x b W ;.;.J E r.y.r.g.r.< : > 2 x b b c x 6 u u i N N n : O y i c b J E R S K -.R J S b N b b H Y Y J ( -.-.-.-.s.N.:.Y U n % n y.d.d.>.K ) H b >.H.{.y.5 & a H <.-.n.`.A._ / ^ _ S i i > : 1 3 1 2 2 c M M ) &.1.(.).).'.'.'. X'. X'.3.n.(.'.). X X X-X8XxXzXH c V.V.N.2XZ.J c c ( T.s.y.;.:.i.g.N.g.u.U.U.g.V.Z.s.N.r.:.` E E c ( -.> b R -.-.>.) D R b u : : > < Y Z.V.s.y.s.a.>.u.:.;.E q X.L.X.Q i.e.e.!.I.k.I.I.uXdX<XI.dXkXkXjXjXcXcXcXbXCXCXfXgXsX3X{.].5XH.E.:X;.C P ;.;.E ;. .u.OXY.k., T k.t.U q X.X.Z t.Q.S.k.Y.Y.k.Y.V.V.Q.dXBXBXLXbX1X:X@XW.aXGXGXGXHXGXBXGXBXY.V.i.pXuX~.pXBXLXGXLXLXLXLXLXLXKXKXKXKXKXKXKXJXKXJXJXKXKXKXKXKXKXKXVX{.T.G.G.H.C.C.H.E.{.&X&X&XOXOX{.{.{.{.{.{.{.&X{.{.{.].].].].].].].{.{.",
"{.E.].{.{.{.].{.].].R.].].{.>X].c.<.y.y.a.N.c.c.B.B.B.B.B.B.B.v.B.B.B.v.c.c.c.c.x.C.x.u.B.W.Q.OXY.Y.t.l.Y.Y.k.Y.@X#XS.j.,.7Xm.f } *.} f s p p f V * * v m # . v k.#XY.w # : : , % . % 0 S.XX5.$X#XA $ e * V l.#Xl X 1 m Q Q Q w.w.w.w.w.w.p.p./.P.w.Q L.L.p.p.i.p.i.i.p.L.L.e.n q.p./.i.^.!.~.^.IX!.!.lXhXuXe.x q x ;.` r.E H ` y.r.U.g.< : < 2 v b c c u 6 u i c N N N < O y c b b S J J J K ) R M n n c b n H J J N ;.-.:.-.;.x.:.E E U U : b s.g.s.:.>.-.J D a.}.}.K 5 u u N ` :.A.[.d.K _ >.a.K u u % 1 k m m ~ 2 2 N M ) &.&.3.f.(.'.'. X'.'. X X(.3.f.(.(.'.'. X-X4XsXzXY i u.u.g.u.T.|.V.Z.Q.s.u.;.e.:.i.i.V.i.u.U.Z.g.Z.Z.s.s.:.-.` ( E c ` E > H J ' ` &._ K J N u > % 2 2 E Z.V.y.r.g.s.:.V.;.;.T q t.!.X.U p.i.k.Y.I.I.Q.I.I.~.dXkXkXjXcXjXjXMXMXMXMXBXBXgXgXfX&XS.OX&X:XB.;.L L | | L v p V A ,.l.j.q | o.o.v Z Z T n T X.X.e.k.I.Y.~.Y.Y.V.Y.dXbXGXbXbXbXdX<XBXGXGXBXBXBXGXjXk.u.u.k.dXdX@XbXLXGXGXLXLXLXKXKXKXKXLXKXKXKXKXJXJXJXJXJXKXJXKXKXKXKXJXgXE.G.G.G.H.Z.C.H.E.].].E.&XOXOXW.&X&X{.{.{.{.=X{.{.].].].].].].].].].].",
"{.{.].].].E.].{.{.=X].].{.].].=XZ.y.y.a.a.c.c.B.B.B.B.B.c.N.c.c.c.c.c.c.c.v.v.v.c.v.Z.u.x.E.j.j. .,.Q.OXY.Y.Y.Y.Y.o. ...L  .f 0 } *.4.} f f C f p 0     # # C T.S.#XnXT , * < * @ @ q * L K.0XS...$ * L v * , T q - - 1 ! ! Q w.I I w./.L.i.L.L.i.t.w.L.k.p.L.^.p.p.p.p.L.L.p.w.p.i.^.^.L.L.!.^.!.lXuXhXpXuXe.y y c ` ;.r.E N H r.y.Z.U.2 : 2 6 n n b b c u c c c N H N < % y x b b H J J K H R ( H n b b n n H H H n ;.;.;.-.-.;.E H H H H : H g.u.:.:.s.a.) ) N.].C.D a M b u ' a.}.-XC.) ) >.) H y > 3 ~ k x ~ k x 2 b c d ^ &.2.f.(.'.'.'.'.'.;X;X3._ 3.'.(.).).'. X6X6XsXY i g.;.r.u.u.:.Z.V.x.:.;.-.E W u.u.V.x.u.V.Z.i.V.g.y.a.:.:.` ( E b ` E > J R -.-.>.>.P ( N b < > < 2 E U.Z.s.y.U.Q.j.V.k.,.T w X.w.I p.^.L.!.I.k.I.I.~.I.~.kXcXcXfXjXcXcXVXCXcXjXjXgXgXgX:Xx.<.,.j.j.L C o. .L |  .L C e 9 w A V , Z o.X.q Q X.Z n n m U e.k.k.k.V.Y.I.V.I.Y.@XuXbXbXBX:XiXHXGXCXGXKXbX<Xk.u.Y.u.dXdX1X<XBXGXLXLXLXLXLXKXKXKXKXKXKXKXKXKXJXJXJXJXKXKXKXKXKXKXKXKX1XH.H.H.Z.G.B.B.H.E.{.].E.&XOXOX{.&X{.{.{.{.].{.=X].].E.E.E.E.E.E.].].].",
"].{.E.].E.E.{.=XE.H.E.{.{.{.{.*XC.y.y.y.a.c.c.B.c.c.c.c.c.N.B.B.N.c.c.c.c.c.v.v.c.c.c.y.x.Q.T.S.:XOX+X7X@Xk.Y.Y.l.,.l.| ..} 0 f m.XXXXXX4.e f L L C #   # q V.2X+X#XS.p * t b , . * C @ * C L p $ , V V v T e   - q v k m q l m I I X.i.t.Q X.i.k.i.L.k.e.p.!.~.p.p.L.L.I.L.L.L./.^.^.p.p.^.~.tX!.yXyXlX~.yXW y b H W r.y.E i i :.g.I.U.2 : < 2 b n b b c i c c c N H H 2 % y u b b H J R J K R :.R N c c b n H Y J n -.;.:.( E -.Y H Y U U > H r.y.u.y.a.y.' ) c.}.N.K K K J i ' h.}.>XA.) %.:.( M y % 2 m m 2 k m x 2 5 i i ^ _ 3.(.).'.'.). X'.;X X&./ 3.).(.(.(._.[.>X>XiXJ u N.y.-.Y ;.W -.` ` -.;.;.E W e.u.i.i.y.N.U.u.V.s.s.:.r.y.( ` ( b ` E > R ( :.>.:.<.) -.J N 6 < 2 6 ` U.g.r.:.Z.Q.Q.:.H C V V Z m Q P.^.p.I.I.V.~.^.^.I.~.dXjXjXjXcXBXBXcXjXgXaXiXaXgX2XV.;.;.P H v C L  .L |  .C C p w .. .w 9 e V o.T v Z Z v v v q Z e.t.k.k.i.k.Y.Q.Y.V.I.I.dXBXuXU.jXjXjXVXHXdXk.p.Q.2Xu.:XMXgXiXdXGXLXLXLXLXLXLXKXKXKXLXKXLXKXKXKXKXKXKXKXKXKXKXKXKXKXKXGXE.G.J.H.G.Z.N.C.H.E.&X{.E.&XOXOX&X&X&X{.{.{.].].{.].E.E.E.E.E.R.E.E.E.E.",
"E.{.E.{.{.E.=X].=XG.R.{.R.{.,XR.y.<.<.<.u.N.N.c.c.c.c.c.c.B.B.B.B.B.c.c.c.c.v.v.v.c.a.u.s.x.V.x.:XOXQ.2X2X@XY.k.S.j. .} 4.F f f 8.8.oXm.oX} w f C e % # : Z Y.S.5.0Xm. .F S.0Xp   * L * % @ @ $ # , Z Z V T Z ; X , x k v q , q w T t.Y.@XY.e.w.L.L.^.i.p.I.!.p.p.p.^.i.L.^.^.^.!.^.p.p.!.~.^.!.~.L.!.yX!.I.n n n W ` ;.y.( H N -.u.V.U.y : : 2 b b x c c c c c b M S H 2 % 2 y b n H J ( ( R ) :.( S i i c b H Y J n -.-.;.( E ;.Y H T U U : n ` u.y.-.g.s.( -.A.[.c.) R R R b :.N.}.-XA.` -.>.-.N 6 X : ~ m ~ x 2 X X % i K ) >.3.).).(.).).'.'. X X3./ 3.(.'.'.(.).}.6X|.iXJ 6 g.y.` -.` J E J Y E Y Y H Y ;.u.u.r.;.i.U.u.N.s.s.r.r.y.( ` ( b ` R < R ( :.>.:.:.-.` Y N u 6 2 6 ` U.g.r.;.Z.W.;.u C ,. .Z q Z e.p.^.L.Y.@X<XuX<XY.^.@X<XdXkXcXcXMXjX1X<X2X2X2XgXaXQ.r.;.;.T H b A T | C V A A A e } l.j.4.V e w I w T T v w q m Z X.t.p.k.L.I.V.Q.~.Q.I.i.V.dXBXdXuXVXGXJXjXQ.V.V.I.W.T.Q.bXdXfXpXuXBXGXLXKXLXKXKXKXLXLXLXKXJXKXKXKXKXJXKXJXKXKXKXKXKXKXHXdXG.G.J.H.G.Z.B.Z.R.E.&X&XE.W.OXOX&X&X&X&X{.{.{.{.{.].E.E.R.R.R.R.R.R.R.R.",
"].=XE.{.{.E.].H.R.G.G.{.{.*X=Xy.<.<.y.u.s.B.B.c.c.c.c.v.v.v.v.B.B.N.c.c.c.v.B.N.c.x.N.x.x.x.x.B.,XOXQ.OXQ.W.Y.S.j. .A ..C f *.f *.8.oXm.oX*.f F C p 0 % X Z S.A *.eX0Xm.m.oX0XL @ < T , , * : : , X # q v m Z q 3 # - 1 e , e C o.S.t.S.nX7XpXp.t.k.L.p.L.!.i.w.i.p.i.p.L.^.!.^.^.I.^.~.^.i.P.tX^.i.yXlXyXi.Z W n W -.;.;.;.s.-.` -.V.U.x : : 2 c x 6 c b c c c c M b H 6 O 2 y c N H J ) ) P J -.( S u i c b N Y H b ` ` ;.` W ;.T H U U U < n ;.;.y.y.U.s.:.` H.[.c.&.' >.( K N.Z.|.6XC.) -.( E n 6 : X - 3 - 3 : X : % > M P f.3.n.).(.).).'. X). X(.&.1.(.'.'.).'.-XvX1XsXH u g.:.-.s.;.n Y E J H H H n Y ;.u.r.e.;.u.V.r.N.y.s.y.:.r.( ( Y M ` Y < R R -.` ' -.' ' Y N c 6 6 u -.Z.N.y.:.Z.T.X.< L ,.o.l e p.p.p.~.!.~.uXuX<XuXuXY.I.~.uXkXcXcXjXiXW.W.:X:XaXgXW.V.;.;.T C A C q w V C p f A F f oXl.4.l.A 9 e v q X.t.T v q Z Q e.k.i.k.^.I.I.Y.~.Y.Y.I.Q.jXjXjXdXCXCXdX~.V.k.W.dXI.V.dXbXgXiX2XuXGXGXBXGXGXLXKXLXLXHXKXKXKXKXKXKXKXJXJXKXKXKXKXKXKXKXCX@XG.H.H.G.H.G.C.G.E.E.&X&X{.W.OXOXW.W.{.{.&X&X{.{.{.].E.E.E.R.R.R.R.R.R.R.",
"{.=XE.].{.].].R.R.].G.R.*X=XG.<.y.<.y.s.c.c.c.B.c.c.v.v.c.c.c.b.N.B.v.v.c.c.c.s.x.v.x.x.s.x.V.S.y.B.T.T.u.k.W.j.o.,.,.} w } m.} f ..8.oX4.F F F L L v   . , * L 0X0XXX%X5.5.XXXX0 0 L * * # $ # # # X X : q q 1 : - # q q p  .l.+XoXS.j.k.+XpXk.X.i.p.p.L.i.W w.p.e.e.p.i.L.L.L.^.^.^.~.L.L.~.!.I.I.uXpXuXt.;.X.n W ` ;.:.:.y.E E Y g.~.x : < 2 x y 2 x b c c u i b b H 6 O 2 y u n J J R R R K ( ( S i c b b n Y H b ` -.;.` E ;.Y H U H U < n ;.u.V.V.R.;.( ` _. X_.c.a.a.>.>.H.H.>X6Xs.) ) R b v U x - : 4 - 4 3 x n c 5 i N 2.&.3.).).(.(.'. X).).(.&.&.3.'. X).[.4XzXiXiXH c g.;.-.-.g.Y c N b c b n H E ` r.e.e.;.u.g.;.x.y.s.y.:.:.( ( J b ` H < R R ` ) ) ) Y R J H c c u c -.V.g.s.:.V.Q.,.0 p  .A e I ^.I.L.yX~.~.Q.~.~.<XuX@Xk.Y.hXdXjXjXdXiX2X2X2X2X1XW.Z.V.r.E C b v C e * 9 p f C f 9 p m.4.l.4.A * $ $ ; v Q T X.X.X.X.w.i.i.p.L.I.Y.I.Y.~.!.~.Y.uXjXdXdXbX2XT.Q.Q.2X@XV.I.bXfXfXgX2X1XdXGXBXbXkXGXLXLXHXLXHXKXKXKXKXKXKXKXJXKXKXKXKXKXKXKXJXgXR.R.R.G.Z.G.G.Z.G.E.E.E.&X{.W.W.OXW.W.W.W.{.{.{.{.{.].].E.E.E.E.R.R.R.R.E.",
"].].E.E.].].].E.H.E.].{.,XE.y.:.u.y.u.x.N.x.x.B.c.v.v.v.c.c.b.b.N.B.B.B.c.x.s.a.y.c.x.B.Z.Z.B.G.;.%.:.u.Q.W.V.j.,.,.F w f ..4.{ e * p p s F { { *.*.C   @ @ 0 0XeX%XoXXX*.m.oX+XC , p @ * #   @ # # # # # - - - - : : q p L j.l.m.m.m.S.j.#XpXt.X.p.e.k.^.L.W w.e.e.e.w.w.p.i.L.!.!.^.!.^.^.^.L.L.^.@XyXuXe.t.X.n W ` -.y.:.M M H Y i.|.c : > 2 x x y c b v c u c b b J y X 2 y y b H H R ) ) J P -.J b M b b M Y J N ;.:.y.;.( ;.E H U U U 3 c u.i.U.Z.s.H ` :.}.}.A.A.A.c.<.<.Z.R.6X6Xc.K K b 2 b Q.W x m ~ k n I W W c < 6 M _ &.2.).).n.n.).'.).'.).3.&.3.). X'.'.4XxXsXiXN c N.` E E Z.;.b H N b b N J ` -.-.;.;.;.u.y.:.s.y.s.:.:.>.( ` J M ( N 5 R R ` ( ) ) J R J J b b u c -.V.N.N.:.N.OXV.L , u 0 , w.!.!.I.~.~.Y.V.<X<X<X<XdXY.~.bXdXjXjXdXaXaXaX2X:XQ.T.T.T.T. .v L Z L p * 9 w g f f f r } l.l.4.,.e $ @ $ l L Z T t.k.k.t.i.i.p.i.Y.!.^.!.@X~.~.k.i.<XdXdX1X~.@XQ.2X@Xt.t.gXjXfX1XgXiX1XuXjXBXBXjXGXGXGXLXLXJXHXLXHXLXKXKXKXKXKXKXKXKXKXKXJXMX&XG.R.H.G.G.G.Z.Z.G.H.R.E.{.{.{.W.W.W.W.W.W.{.{.{.].{.{.].].E.E.E.E.E.E.E.E.",
"].].{.].].].E.E.E.c.C.c.x.a.>.N.y.a.a.x.c.x.x.c.c.c.v.v.v.c.c.b.x.c.c.c.b.x.c.c.B.x.B.Z.Z.R.:.Z.s.u.y.N.V.Z.B.G.j.F e 9 C 6...5. .9 * $ * C  .*.m.| , . #   L eXXXm.oXXX} m.0X0X .* ,   $ , * $ ; # # ; # # : : , 3 : % q T j.j.l.5.S.0Xm.L ,.U X.X.p.^.^.^.!.!.yX!.p.e.W w.i.!.^.!.!.^.L.^.P.L.L.i.~.yXuXX.e.;.H Y ` ;.:.( t M i E r.~.n : : 2 x c x c n b c u b M b Y c % 2 y y c c b J R ) J R :.R M M b b H R Y S r.s.x.r.;.r.E H U U T 1 v p.i.~.|.s.i Y a.H._.A._._.s.a.a.Z.}.6X>Xs.D b 5 < x ^.x m w.Q p.e.U U y X < c M _ d.f.(.).f.f.(.'.'.'.'.3._ 3.(.;X'.'.4XxXsXiXH n B.;.E Y N.y.b Y N n N H H E ` E ` ` ( y.y.r.u.:.s.:.r.:.R ` H N ( N 5 ( ( ` ( -.) R Y R Y N b u u -.V.N.s.-.y.Z.V.j.Z , , x t.^.~.uXyXV.i.V.<XuX<XiXkX@XhXbXdXdXdXaXiXiX2XW.T.&X1X7X:XgX;.0 V V p e * 9 p *.} h ....} 5.oXj.l.p @ $ $ Z T T X.v X.I.k.k.L.i.I.I.I.Y.!.~.@X~.Q.i.Y.dXpX2X@X@X@XQ.@XX.@XdX1X<X:XgXaX:X:XBXBXjXBXGXGXGXLXKXKXHXLXLXKXKXKXKXKXKXKXKXKXKXKXJXaXH.H.H.H.G.G.Z.C.Z.G.G.H.E.W.{.{.W.W.W.W.W.W.{.&X{.].{.].].].].E.E.E.E.E.E.E.",
"=XE.{.E.*X*Xx.:.:.:.-.:.y.<.a.a.a.s.s.c.x.x.x.c.x.c.v.v.B.B.x.z.s.s.x.b.c.v.B.B.B.c.N.B.x.R.E.E.G.R.{.R.R.Z.B.B.m.} s f F 5.5.l.L @ * < * % $ 0 p < @ % @ @ S 7XXXXX0X+Xp F #X7Xt.*   w T o.,.o.o.o.T , X # - l I Z v # q  .l.XXm.F 5.m.+Xp v t.w.I w.p.L.yXyXuXlXhXhXL.W I.~.^.L.I.I.i.p.^.^.L.P.i.yXlXuXW i.e.n W E -.:.E J H ( E E ~.H : : 2 v x c b N b c i M N b H c % < 6 2 y u i H ) -.J P %.R S M i H J R R H y.W.B.y.-.y.E U Y W U 2 n ;.u.Q.V.y.5 N y._.-XF.H.A.}.c.d.}.}.6X6Xy.J i i 2 m I.x : 2 2 x 1 : % . . > b u K a.f.).(.3.3.(.(.'.'.).3./ 1.(.;X;X'.qXxXzXfXH b Z.-.E H :.y.J N N b J H Y E ;.` Y E -.y.:.y.s.:.:.:.:.' ) ( J J ( c u ` ` -.>.>.( -.' R Y N b u i -.N.U.s.-.E V.T.k.;.H < Z i.Y.uXuX~.I.~.uXiXuXuX<XuXpXjX<X@XpXdXdXgX:XOX2XQ.V.j.j.S.l.A p e C A f * j *.=.*.} *.6.F ..m.j.,.e $ @ * A o.L o.L q Z k.L.k.p.i.L.!.@X@XyXyX@X@X@XpXpXjX@X@X@XY.7XpXY.S.Q.iXaXQ.1XdXW.:XdXjXdXBXjXGXLXLXLXJXJXGXKXKXKXKXKXKXKXKXKXKXKXJXfXW.G.H.H.H.G.G.G.Z.Z.Z.Z.G.R.E.W.W.W.W.W.W.W.W.W.{.{.{.=X{.].].].].E.R.E.E.E.E.",
"].E.{.R.].E.y.:.u.y.>.<.a.y.x.a.s.s.x.x.x.c.c.x.x.c.c.c.c.c.x.x.x.c.c.c.v.B.B.B.B.C.B.s.B.G.B.c.B.H.R.N.s.N.x.u.S.L } C } $Xl.*.0 @ p Z p 0 = * < , # . # X % C m.eX0XF $ 9 p | C @ 0 t.l.,.o.4.j.Y.o., # # # T m I T 1 v j.+X#X4.f m.m.#X .0 k.X.Z p.L.!.~.!.lX@X~.lXuX^.!.I.i.e.L.yX!.^.i.!.~.!.L.~.uXyXU e.e.n W E -.;.-.:.:.y.-.E V.H : > x b x x c n b c c b H n N u % < 2 y y t u b J ) J J -.-.S M M H R ( R H N.{.U.g.:.N.;.E W ;.W 2 v W e.V.u.r.< c y.}.[.A._.F.}.s.s.H.}.6X{.y.H c c 1 2 e.m : > X : : X % > > < E 6 K h.A.f.).(.3.3.(.'.'.).(.&.1.(.;X;X).qXxXsXsXH c B.:.:.` s.V.` Y Y N J J Y E ` ` J R ` y.y.y.s.:.:.y.:.` ) ' J J ` c i :.:.:.:.-.' :.( Y Y N N c u ` u.B.y.( R -.B.u.X.H q T k.~.uXuX<XuXuXiXiXuX<XiXdXuXpXpXY.2XBXbX1X1XOXu.L P L L L L p e p V A F f ..5.=.*.6.6.l.} e 9 p A ,.l.j.| V | o.j.j.T , 0 T k.L.L.@X~.@XuX@X@X~.I.@X@XQ.S.Y.Y.j.t.S.bXY.t.I.V.S.Z.T.@XaXdX~.dXBXBXbXGXJXKXKXKXLXLXLXJXKXJXKXKXKXKXKXKXJXMX:XT.R.E.R.H.G.G.G.Z.Z.Z.G.G.E.E.W.{.{.&X&X{.{.{.{.{.].{.{.].].].].].].].E.E.E.E.",
"].].=X].].J.y.<.a.a.<.y.z.a.x.a.x.c.x.s.x.c.c.s.x.x.x.x.x.x.x.x.v.B.B.B.B.B.B.B.N.H.Z.c.G.Z.N.x.N.B.N.B.x.x.x.B.v. .} p ..XX} p 9 * p T Z p p p p , X X # , # @ p S.F @ 0 e e p p * w j.l.4...l.l.o.q @ @ - , 1 : X m m : T S.,.f p l.S.2Xl., Q w.i.!.^.!.~.~.~.~.Y.~.<X@XuX~.^.~.uXkXkXkX!.^.^.I.p.!.uX~.Z e.i.H E E ;.:.:.s.V.:.E H r.n : 2 b b c x x n b c i b S n N y O < 2 < 6 y u b H P J J -.:.K D M N R ) R J N.}.Z.N.y.N.;.Y Y T U 1 x e.;.;.e.u.u N s.}.[.A._.A.`.s.s.}.}.5X>Xy.J H n y 3 U n X 6 b c u x x y y X c b :.[.}.f.).(.3.3..X(.(.(.(.3.1.2.;X;Xf.4XxXsXsXJ c N.:.y.y.Z.U.y.E E J Y Y E E -.-.H Y -.y.y.a.s.:.y.a.:.-.' ( J J ( c b y.y.y.:.-.' :.( Y Y N b u u ( :.B.s.:.( J y.;.E Z q T i.I.uXuX|.uXdXiX~.<X<XuXdXhX@X@X~.pXjXOX:X2X,.C L L | ..} } w e 0 f V f L 5.*.$.#.*.4.6.A e e  .l.XX#X$XoXO.A | ,.o. .| Z q m w.Y.@XyX@XuX@XY.^.~.I.I.Y.Q.@Xk.,.@XY.S.pX,.2X2X7X2X2XW.1XjX<X<XjXGXGXBXBXGXLXJXJXLXJXJXJXJXJXJXKXKXKXJXbX2XW.E.E.E.E.E.H.G.G.G.Z.Z.G.R.Q.E.{.{.&X&X&X&X&X{.{.{.{.{.=X{.].].E.E.E.E.E.E.E.E.",
"E.E.=X].].H.y.:.<.a.y.a.x.a.z.z.s.s.s.s.x.c.x.s.x.a.y.z.x.v.c.c.B.C.C.C.C.B.B.C.B.G.C.G.E.B.N.Z.c.C.N.N.B.x.x.S.,.,.| p f A  .l.| t 0 T L v  .C 0 % : : : , , % @ $ @ * p p A L ,.| p A j.l.,.j.o.@   e # # : - - X q m 1 : 0 0 e p L l.S.T q Q P.!.L.^.^.!.yX~.~.Y.~.@X@X<X~.@XuXI.I.pXhX~.i.p.w.! I.kX~.U e.V.N Y E r.y.u.N.s.;.E H Y x : 2 b c c b v n v u i b S N H u % < 2 2 y u u u M R ( R -.a.-.K D H ( >.( J N.}.E.Z.-.-.N y < 2 < X x ;.E Y E r.i N s.}.-XF._.F.}.c.d.].}.3X>X:.Y H N Z 2 2 2 . y E ` Y b u 2 < X 2 b r.}.[._.).(.(.f.3.(.(.(.(.3.3.3.'.'.1.-XxXsXsXY b g.r.g.g.Z.R.N.` ` E ` ` -.-.:.:.J R ;.r.y.a.s.y.s.g.:.:.-.) J J ( i b s.y.r.r.:.' -.( E J c c u u -.y.B.g.:.-.` u.:.W Z 2 T X.k.uXuX<X<XiX<X2XuXiXiXdXdXQ.Y.@XdXgXW.:Xj.F L ,.} *.4.4...f V A f ..{ F 4.$.{ *.m.m...9 9 C oXm.l.S.oXoX#XL C  ...j.S.Y.Y.t.k.k.Y.uXI.I.k.k.!.@XuXpXnXdXk.t.pXKXbXk.k.u.2X:X:XQ.:X,X1XdX1X<X2XjXjXBXGXGXGXLXJXJXKXHXLXHXJXKXKXJXHXfX:XW.W.&X&XE.OXW.E.H.G.G.Z.Z.R.R.E.E.W.{.W.{.W.OX{.{.{.{.{.{.{.{.].].E.E.E.E.E.E.E.E.",
"E.J.].E.E.H.y.-.<.a.x.x.b.x.x.x.a.a.a.a.x.a.s.x.x.a.y.x.B.G.Z.B.C.C.C.Z.C.B.B.C.C.B.N.R.H.N.c.B.B.c.N.x.B.x.G.x.,.l...f f ..#X$X4.*.p q C p C C 0 , < 1 1 : : : % @ = p L | V p V L | .. .O.j.j.t.q $ , # - 1 , 1 m k 2 q 1 2 q : w , x v q Z L.@XP.k.^.k.i.Y.~.~.~.<X<X<X~.~.~.Q.W X.@XhX~.W U m k e.hXQ.n e.V.n E ` u.u.r.y.:.E ` E ` v : < x n c v x b c u c N H N N y O 3 2 2 y u y u b J ( ) -.h.a.) K ` :.<.-.K a.A.H.h.' b u 6 < 6 2 # x ;.X.E E r.c H N.}.-XF._.H.[.C.c.}.3X5X>XZ.-.n U Q 1 : 2 > u R H N 6 < > . o c e.E s.}.[.'.'.(.(.3.(.(.f.(.n.3.2.'. X2.4XxXsXfXR c N.s.U.Z.U.E.Z.:.-.;.r.:.;.:.r.:.J Y :.:.a.s.g.s.N.N.a.y.:.` R J ( u b s.r.r.r.y.` -.( E Y c u u c ;.s.x.x.:.-.-.u.r.e.U v e.e.p.I.Q.<X<X<X~.iXdXiXpXuX<X<X~.uXBX2X:X:XF C ,.5.....5.4.} p } *.f C *.C 6.6...6.6.l.F 9 e p l.#XXXoXoXoX4.A } oX$XS.,.l.7X#XpX#XX.t.@XdXpXuX^.k.Y.Y.@Xt.X.pXKXJXHXnXu.,.2XW.W.:X&XW.W.:X2XaX1X:XiXfXBXBXGXHXLXHXHXHXHXJXKXKXHXCXiX:XW.W.W.E.E.&XOXE.E.H.H.G.Z.Z.R.R.Q.E.E.W.W.{.&X&X&X{.{.{.{.].E.E.].].].E.E.].E.E.E.E.",
"=XE.].E.J.H.z.%.y.x.x.x.b.c.b.x.a.a.a.x.c.a.a.x.a.a.a.x.Z.H.H.B.C.C.C.Z.Z.C.B.C.B.B.Z.E.B.N.N.c.B.s.C.N.x.B.Q.,.,.o.V 9 l.$X#X7Xl.XXl.C 0 , 0 * < 0 0 # : v Z q , * * L ,...4.4.4.4.o.j.O.o.o.o.t.X.w ; : - , q k w.I 1 2 k v v q 1 q : , X.I.P.L.k.L.L.w.W ~.uX~.~.<X~.~.<XuX~.I.e.^.dXkXhXyX~.i.i.^.kX^.y W i.n E -.r.;.R ( ( ;.-.E ;.x : < n n x u y n b u c b H N b 2 O : < 2 2 u u u S J ( ) >.A.s.) ) a.a.:.>.R a.h.g.s.) Y Y H u b v : y ;.;.E E ;.b H s.}.}.A.}._.[.C.A.>X5XzX1X:X;.H n 2 X 2 x 6 u ` N b 6 < > X O 2 e.e.E Z.[.).'.'.(.3.n.(.3.).'.n.n.). Xf.qXzXsXfXE c Z.Z.{.E.}.{.U.y.r.y.g.y.r.y.y.-.J K :.:.g.N.N.s.N.N.s.a.:.-.( J ( u N N.r.:.r.>.` -.R Y Y c i 6 c ;.u.u.s.;.>.y.u.r.e.Z x W U W Q.<XY.Q.2X<XW.uX<XuX~.@XpXuXBXBXQ.OX+Xv 0 f A ........} r } ..} f } } } } *.l.l...e e e 9 0 V ..m.5.4.4.4...l.m.7X#Xj.o.l.@XnXk.U k.bXHXGXI.I m Z V X.pXKXKXJXJXJX2Xj.2XW.&X&X&XE.OX:XW.OX2XiXiX1XiXfXBXGXGXGXJXJXJXKXKXGXjX2XOXOXOXOXW.E.E.{.E.Q.R.H.H.G.Z.G.R.R.E.E.W.{.{.&X&X&X&X&X&X{.].].E.E.E.E.E.E.E.E.E.E.E.E.",
"].H.E.E.G.H.c.%.a.x.c.x.x.c.x.z.a.a.a.x.c.a.a.a.u.x.N.B.G.R.R.Z.C.C.C.Z.Z.C.B.B.c.B.H.H.c.N.B.B.B.B.E.B.V.G.OX;.L p C | S.nXnX7X#XXXj.L p 0 * * 0 , 0 q , e v w * * $ s *.*.5.m.m.l.w w o.t.X.o.k.t.Q , # 1 3 1 ~ q.w.I k k 2 2 q k k 2 n ^.!.P.L.P.L.L.W I !.~.T.T.W.<X<X~.<X<XI.I.<XuXhXkXbXkXbXkXlXyXe.2 W V.b E E -.-.R -.r.u.;.Y r.c : > x n y y y n n u c c N N b < O : 1 y 6 u u u b J -.&.a.F.A.>.>.n.h.2.:.) d.A.A.h.-.( ( Y n H H < y e.;.Y Y ;.S Y u.}.}.A._.H.[.C.A.*X{.sX>XQ.E n < X : 1 2 N H H J N i c > % 6 : y e.H :.].).'.wX Xn.n.f.1.(.;X(.2.).4X`.xXzXaXcXE b Q.R.{.}.{.|.R.c.N.s.N.V.y.y.y.-.J K >.:.N.N.N.s.N.h.N.a.:.-.( H ( u M B.y.:.:.' ) ` Y J J c i 6 i ;.y.y.y.%.-.y.:.` ;.Z x n m p.I.i.;.u.T.@X@X<XuXuX~.~.@X<XjXT.T.W.S.L 0 9 e } ......} p } m.5.*.F } f F 4.5.} e e w $ $ $ * } 4.6.8.oX6.6.oXm.m.#XoX .t.#X@X#XY.T e.pXbXhXQ.@XT C t.bXHXHXKXJXHXaX7X&XW.&XW.E.&XE.E.W.OXOXOX:X2XiXfXbXbXBXBXVXBXBXBXjXaX:XQ.W.OXOXOX{.&X{.E.E.E.R.H.H.G.G.G.R.E.E.{.&X&X&X&X*X&X&X&X&X{.].].].E.R.R.R.R.R.H.H.H.H.H.",
"J.G.E.E.G.J.D.>.<.x.B.c.x.c.x.x.z.z.a.x.c.x.a.<.y.c.Z.G.G.G.H.G.Z.C.C.Z.G.C.B.B.C.N.G.N.c.c.c.v.H.K.G.E.&XW.,X0X+X+X7XpX| V 4.oXoXj.| | ,. .A w p p 0 V w 0 e , * $ 0 f ....6.l.oX,.*   w | t.o.t.t.t.Z : - 2 2 - m w.p.I m k k k x x m k Q !.P.L.^.P.p.w.e.~.^.V.T.<X@X~.<XpX<XQ.~.uXdXkXuXbXkXFXhXlXL.U 2 W i.n ` E ;.y.:.y.N.N.e.Y e.n > < v n y 2 2 b b u b c N N N 6 O : 2 y y c v u i M R >.2.F.A.a.a.A.A.a.a.' N.A.h.h.:.:.-.Y J U Y 3 x e.W H H :.J E s.}.[.A.H.A.[.C.A.>X6X5X>XU.U x X 3 x 6 c R E i ' E b < % > c < : H W ( N.[.-XwX;X(.n.n.1.n.'.n.3.-XqX-XxXxX5XcX( N {.{.{.{.{.|.R.Z.R.N.N.Z.s.:.:.-.R R :.:.g.h.N.g.Z.N.H.a.:.` ) H ( u b g.r.:.-.' ) ' R Y H i u 6 u :.y.s.u.-.-.:.;.` u.U x n U e.Z H @XbXY.t.I.T.~.kX@Xk.I.uX<XW i.j.u.;.F  . .} } ....} f p } j.l...} 9 9 0 9 9 9 V e * * * | m.oX8.8.oXoXoXoXoXoXl.#Xl.,.#X7X#XpXk.Z k.HXHXuXt.T j.k.j.Y.nXJXKXJXnX:XW.OXOX&XE.E.&X&XOXOXOXW.W.OX:X:X:X2X2X2XiX1X2X2X:XW.W.:XOXOXW.OX&XW.W.W.E.W.E.R.R.R.R.R.E.{.&X&X&X&X&X&X&X&X&X&X{.{.].].E.H.G.G.G.H.H.H.H.H.H.H.",
"G.G.G.H.H.J.C.a.<.y.c.c.x.c.B.x.x.a.a.s.x.a.y.:.:.c.Z.G.G.G.R.G.B.B.B.B.Z.x.Z.Z.G.E.E.OXK.v.B.K.XXM.XXXX=Xv.K.nXnXnXHXnX .V A | l.l.j.S.$XS.C w }  .V A v V A w * * p V ..4...l.l.A   @   , Z Q X.w.X.m : - 1 3 2 k Q w.w.q.q.Q Q I U U Q I L.~.L.L.!.^.L.~.~.~.~.~.uX<X~.~.~.~.!.uXuXuXuXdXjXkXFXFXkXp.x q U e.n E ;.u.y.r.y.s.y.` W ;.x : 1 x b x 2 < b n y x c b H n < X : 2 2 u n N H J E -.<.a.N.C.a.s.A.}.c.d.>.H.H.A.A.h.y.:.;.` ` E 2 y W U n Y W -.>.y.A.-XA.H.A.H.A.Z.*X8XiXiXu.U : : y 6 n H ` ;.N < > % X O 2 m x 2 2 ;.H Z.}.}.wX;X).n.(.3.n.).n.'.qXwX4XxXxX6XzX` N |.{.E.{.*X}.].A.H.N.N.N.y.r.r.` J ) <.<.h.s.Z.Z.R.H.Z.C.s.a.( H ` u b N.:.:.>.-.( ' R E J b c 6 c :.u.u.u.y.:.u.:.;.k.T x Z b v 0 X.+X+XQ.E ;.I.<XdXuXuXI.I.I.e.i.;.u.j.S.#XS.} | ....} A A f ,.oXl.A $ $ * e p V p w A 9 * 4.oXoX6.m.8.6.m.m.m.XXXXS.#X,.S.pX@X#XpXY.v L.k.Z Q pXY.k.l.j.S.+XVX7XS.+X2XOXOXOXOX&XOXOXE.OXOXW.OXOXOXOXOXOXOXOXOXOXOX&XOXOXOXOX&XOXOXOXOXOXW.W.E.E.E.E.E.E.E.E.E.E.W.{.{.&X&X{.&XW.E.{.{.{.H.Z.B.Z.G.G.G.G.G.H.G.H.H.H.",
"G.C.C.D.G.G.D.B.a.<.z.B.c.x.c.b.c.a.a.a.a.y.<.:.y.s.N.Z.G.G.G.G.B.B.B.B.Z.Z.E.&X>X&XH.K.K.j.D.=XK.5.8.XX=Xm.j.0XbXbX+XX.T C | | #X$X$X$Xl.L f L 4.m.| ..,.L V C 9 * e w } 4.4.l.,.,     # , # : q , , : - - 1 m x 1 k m Q w.p.p.w.e.Q U Q w.!.yX^.^.~.!.~.uXuXlXuXuXuXuXuXuX<X^.uXuXuXuXuXuXdXjXkXkXbX!.m q H ;.n W ;.y.:.-.:.y.u.;.E U 2 : 3 x n x 6 2 b b u c c b H n 2 : 3 2 6 u b H H Y ( y.y.s.A.Z.s.c.].[.c.c.a._.}.}._.N.a.y.r.` ;.;.x 2 U T H ` -.y.:.a.H.[.c.A.H.].H.].>X5X5X>XW H : x x c b Y -.y.` i % . X : 3 3 3 2 < E N r.}.}.4XwX).(.'.(.). X'.'.wX;X-XqXxX6XzXR M {.{.R.{.}.].R.H.H.N.N.Z.s.y.a.:.) ) <.<.d.s.A.R.}.].H.N.N.s.-.J -.u c N.y.y.:.-.' :.` ( J n c 6 b r.u.u.u.u.y.x.u.;.T.;.2 v Z ,.C T ;.,.j.T Z Y.iXuXdXpX<XQ.V.i.u.;.,.t.K.Y.L V ....} F ,...L f A A * * $ * e p V p w V p p *.m.6.l.m.oX4.m.oXoXl.oX+XoXj.l.$X+X7X7XY.V q w @XpXpX#XS.S.j.,. .K.7Xj.,.j.S.OX1X&X&XOXOXE.OX&XOXOXOXOXOXOXOXOXOXOXOXOXOXOXOXOXOX&X&XOXOXOXOXW.W.].].].].E.E.Q.E.E.E.E.W.{.{.{.{.{.E.E.E.E.R.G.C.G.G.Z.C.B.C.C.C.G.G.H.H.",
"C.C.C.C.D.C.C.H.C.a.y.x.c.c.c.z.c.a.a.a.a.<.<.y.x.a.a.N.Z.Z.Z.B.Z.C.C.B.B.G.Q.&X:X1XE.,XK.L m.S.*.*.5.m.m.m.,.S.nX+XZ X.k.X.V ,.7X7X#X#Xl.| | j.,.oX,.A j.j.L p e * * 9 C ,.l.,.p @ @ . X , #   ; # - : 1 1 1 m I k k m ! Q Q U w.p.w.Q Q w.L.!.tX~.!.!.yXpXuXuXuXpXiX<X~.<X@X~.dXdXuX~.~.uXdXdXlXlXbXlXU q v E H ;.-.;.-.-.-.:.r.;.W U < : : x n y 2 6 c b u c c v H n < : 3 2 2 u b H H Y R -.:.a.A.A.A.}.-X-Xc.A.h._.}.}.}.A.s.a.y.-.;.e.x 2 U W Y ;.-.:.:.a.C.[.C._.}.}.H.{.5XsXsX>XY n : v y Y H E ` r.` J > % : O : : 4 2 < U H R R.}.6XwX'.(. X(.n.'.'.).;X;X-XqXvX5XzX' b {.E.R.}.E.H.H.H.Z.N.N.Z.s.y.a.:.( ` :.:.s.h.H.H.E.].H.C.c.s.:.( ;.u b Z.y.a.a.' ' :.-.E J n c y n u.s.s.s.u.y.B.x.E k.;.x X.k.k.o.S.k.j.Y.X.H ~.uX~.dXdXpX<XiXV.u.r.;.j.7Xj.w C A A } 4.#X#XoXL 0 9 9 e , , e e w e A C 9 A 4.4.4.oXoXl.F l.oX#XoX5.+X#X,.j.$X$X0X4.A L | p ,.#XnXHXnX#Xo. .j.S.nX+Xj.j.V.V.OX:X&XW.&XW.W.&X&XOXOXOXOXOXOXOX&XOXOXOXOXOXOXOXOXOXOXOXOXW.W.W.W.{.{.&X&X{.E.E.R.E.E.E.W.{.{.W.E.E.E.R.R.G.G.Z.Z.R.H.Z.B.N.N.N.B.B.B.B.C.",
"v.C.C.C.D.B.B.H.G.B.x.a.a.x.b.a.x.s.c.a.a.<.a.c.N.x.a.x.B.B.B.B.C.C.Z.C.C.E.W.:X&Xu.j.+X+XF XX0X5.6.6.5.m.4.*.,.7Xk.q X.@Xt.A #X$X$X#X#X#X#X#X#X4.l.oX .l.l.,.C q , e , e p p e * % @ @   # , # q q k m Z l 1 m m 1 x Q Q Q I m I I I I Q w./.^.~.!.!.!.yXlXuXuXuXuX~.~.~.~.<XpXBXkX~.I.@XhXdXuXkXhXbXkXi.v x H n ` -.-.( -.:.:.-.;.` U < : : x n 6 2 2 b b c v b b H n < % 3 2 6 c b H J R E ( :.a.A.A.].6XqX-XA.}.A.F._.[.-XA.h.a.y.;.r.;.y x W E Y ` -.-.>.d.n.[._.}.}.}.Z.{.5XsXiX|.Y c : < x H Y ;.i.V.;.T y : % O : 3 3 x < Y Y N A.[.4XwX(.(.'.f.3.).).(. X X;XxX8X6XzX` M >X{.R.].R.Z.H.Z.H.N.N.A.N.a.y.:.( ` :.:.a.c.}.H.].{.].A.N.s.y.-.r.c N Z.y.a.y.-.` :.` Y S n c y n u.x.s.s.s.y.u.j.E u.u.T t.k.o.,.l.k.S.k.Z T ~.<X<XiXpX@XuXdX<XV.i.V.T.2XH p C V C } l.#X#X7Xj.e e w 0 $ * e w e * | | *  .l.4.m.m.oXA 9 } oX$XoX..4.S...4.0X$X4.L *.#X#X4.w w V t.#XbXnXj.,.+XVX2Xj.j.j.S.T.,X&XW.&XW.W.OXOXOXOXOXOXOXOXOXOXOXOXOXOXOXOXOXOXOXOXOXOXW.W.{.W.&X&X{.W.E.E.E.E.E.E.W.{.{.W.E.Q.R.R.R.R.H.H.H.H.H.H.G.C.B.B.B.B.c.c.c.c.",
"c.C.C.C.C.C.B.C.C.G.D.x.<.y.a.x.a.x.x.a.y.a.c.N.c.N.x.x.N.N.Z.B.B.C.C.Z.Z.W.Q.W.T.j.,.V.j.p K.+X5.4.6.*.5.*.*.| Y.k.v V t.w.k.nX7X#X#X#XoX#X#X#XoXl.$Xj. .j.j.C , , < * $     @ # : # .   , 1 : Z I ! I T m k l 2 1 m W w.w.U I I I ! m m p.!.!.^.!.IXuXuXuXuXuXdXiX<X<XuXuXpXjXjXkXdXuXpXuXuXdXbXhXkXkX^.U v H c W -.-.;.r.y.:.-.W W n : : : 2 m y 6 y n n b H b x b b < : > < y u b J R R ( -.<.c.F.R.=XxXzX3X}.-XA.C._.[.-XA.N.a.a.:.y.r.x c X.E J E -.( >.d.n.[._._.}.{.H.}.sXsX5X{.Y b > : 2 y U ` r.I.i.e.N 2 1 2 3 3 ~ x 3 E H N s.}.wX;X(.). Xf.n.).(.f.'.'.wXxX8X6XzX` N 5X,XE.{.].H.R.R.U.Z.N.Z.N.y.r.:.' -.:.>.a.c.].].*X*X].A.A.g.a.-.N.N N N.y.a.>.:.>.y.` J N b c y n u.x.x.x.s.s.y.j.;.;.t.;.S.S.j.| j.j.S.k.0 Z ~.uXpX<X~.~.uX<XdXdXQ.V.V.Q.p 0 w L L C l.7X7X#XL e e w 0 0 * , V w $ C A * o.l.5.S.XX4.e 9 p L ..A w f C L ,.XXl.} l.$XoX5.5.w w V A A T S.7X,.Y.nXbXk.S.2XS.T.,X&XW.&XW.W.W.{.{.{.OXOXOXOXOXOXOX&X&XOXOXOXOXOXOXOX&X&X{.{.W.W.{.{.W.E.E.E.E.E.E.E.{.&X&XW.Q.R.G.G.H.R.R.R.E.E.H.R.R.G.Z.C.C.C.C.B.c.x.",
"v.C.C.B.C.C.C.C.C.G.H.C.b.a.a.b.c.c.a.a.a.x.c.s.x.B.N.N.N.B.G.Z.Z.C.C.C.B.G.Z.B.B.T.K.S.,.L j.#X,.5.*.} } }  .A k.Y.m Z | t.@X@X#X#X#X#XS.#X#X$X$Xm.#XS.e * 0 , : : : .   @ @ * : q 1 #   # , # m I I ! m l m m m k ! w.q.Q U U Q Q U m k w.^.!.^.~.uXlXuXyXuXuXBXjXdXuX<XuXjXGXGXBXjXdXdXdXuXdXFXkXFXkX^.W v b c ;.;.;.r.y.:.( E E W n % : : < 2 2 x c n n H T y y x v 2 : : < y u n Y ( R ( :.a.C.{.*X3XxXzX8X].*XA.C._.[.-XH.A.c.c.y.u.g.b b ;.E H W -.-.>.a.d._._.`.}.}.}.*XsXsXsX|.Y U < : < < 2 x U X.W U n m x ~ 2 2 x n 2 ` b H s.}.wX[.'. X Xf.n.).(.n.'.).;XqX8X6XzX( N 1X5X{.*X{.E.R.}.U.Z.Z.U.N.r.y.:.` >.:.>.a.C.}.E.>X}.A.c.A.h.:.r.Q.H H B.a.s.r.y.:.y.-.Y H b c y n u.x.s.x.s.s.u.u.;.T U U t.t.o.L t.j.S.o.q Z V.~.<X~.Q.@XdXiXfXCXW.U.Y.S.T V V ..,.| | S.l.A , 0 p w , Z V e 0 e , p w $ p A p V C 0 * p p w w w p | | }  .4...5.oXoX8.6.$Xf 9 A | A L  .j.,.j.CXnX:X&X:X:X:X&X{.W.{.W.W.{.{.{.{.OXOXOXOXOXOXOXOX&X&XOXOXOXOX&XOX{.{.W.&X&X&XW.W.W.W.E.E.E.E.E.E.{.{.{.E.E.R.G.G.H.R.R.E.E.E.R.E.E.H.Z.C.Z.Z.H.D.B.c.",
"B.B.C.B.B.C.G.D.G.D.G.H.G.v.a.x.c.x.a.a.c.c.x.a.x.B.N.N.B.C.G.G.C.C.C.C.G.Z.Z.B.B.G.S.j.S.L *.j.,.,.*. .{  . .L k.pXI | p.t.#X#X#X#XS.,.} l.#X0X0XXXS.S., @ $ # , : : # # #     # # % : # # q , Q Q Q T m 1 k m n k n Q q.w.p.w.e.Q I I m U p.P.yXlXuXlXpXuXuXdXLXBXjXpXiXdXcXBXBXGXGXkXpXdXdXdXjXFXjXuX!.e.m b c e.r.-.` :.` R J -.` b % X : < 3 < x n b v H H 2 u x b 2 % > < c b H E E J -.x.E.E.*X>X*X,X5X3XZ.{.A.C._.[.-X_.A.N.Z.s.V.V.n b ;.Y H -.-.>.>.2.>.c.A.}.}.}.}.3XxX5XsX>XY E 2 3 > 2 2 2 x k ~ x x x k k x k m U n e.y ( N.}.4X X X'.'.3.n.).).).).n.-X4X8X>XzX( N >X5X>X>X{.}.{.>XE.Z.Z.R.N.y.s.y.-.:.y.<.a.N.R.].>X}.A.A.A.N.y.s.|.H N V.y.a.y.:.:.y.` R H N b u H N.V.g.s.s.y.:.u.;.W H < : , * p ,.t.S.Q , Q X.V.I.Y.~.uXdXdXdXVX2XV.Y.Q.V.,.j. .j.S.V * * $ e q V w , Z k.v * $ e C C * * $ $ $ $ e w q p e p | | 4.4...} ,.oX5.6.6.8.8.oXF e V V L  .,.7Xl.j.OXaX7XOXQ.W.&X&XW.{.{.W.{.&X{.{.{.{.{.OXOXOXOXOXOXOXOXOXOXOXOX&X&X{.{.&X&X&X&XW.E.W.E.E.E.Q.Q.E.E.E.W.E.E.E.R.R.R.R.R.R.R.E.R.R.E.E.H.G.Z.Z.Z.C.C.C.C.",
"C.B.C.C.B.C.G.D.G.G.G.H.H.B.a.a.a.a.a.c.N.c.c.c.x.N.N.B.C.Z.G.Z.B.C.C.C.G.Z.G.B.B.T.G.B.x.S.%. .,.S.+Xj. .,.,.L k.dXI Q p.Z I t.S. .L L p w o.$X0X$XS.o.@ $ * % 3 # 3 1 , , # # @ # @ * , v L q I I T Q ! v m m x k m I w.p.p.i.p.w.Q I I q.p.p.yXlXyXyXpXuXuXjXGXGXGXBXfXdXBXGXBXcXBXjXdXdXdXdXkXkXhXI.~.e.c c x ;.` Y E -.` Y J ;.` x : : 3 1 1 > c N c y b x 2 x x x 2 : > < 2 c H ( R E r.Z.Z.s.y.y.y.y.C.R.H.*XH.H.}.}.*X_.C.N.R.B.Z.V.b b ;.H H ` :.` -.>.2.d.n._.[.*X>X8XxXsX8X1X;.W n 2 3 : : x x 2 1 m x x x m x ! Q m W ;.< -.Z._.-X X X'.'.n.n.).).).).n.-X4X8X|.zX` H >X1X,X>X].}.{.,X{.R.Z.R.Z.s.N.s.:.a.s.a.c.N.Z.R.{.H.A.}.A.N.s.s.>XN b s.y.a.r.>.>.:.( E J N N y H Z.U.N.s.s.y.y.V.;.X.U %   . # , L o.T v 1 Z e.Q.^.i.Y.uXuXuXpXgXW.j.V.V.j.S.l...o.l.A e e q w V | | , q k.C * @ * C L e p w $ $ , e e $ e e w A L | ..A f 4.l.6.4.*.6.oXoXe 9 A L o.|  .7X7XY.j.2XOXW.*X:XW.{.W.&X&XW.{.&XW.{.{.{.{.OXOXOXOXOXOXOXOXOXOXOXOX&X&X{.{.&X&X&X&XW.E.E.Q.E.E.Q.Q.Q.Q.Q.Q.Q.Q.E.R.R.R.R.R.R.R.R.E.R.E.E.R.H.G.C.C.C.C.G.G.",
"B.B.B.B.C.C.C.C.D.G.H.H.G.B.x.a.x.s.x.N.N.x.x.x.c.c.c.B.C.C.Z.C.C.C.Z.Z.G.G.Z.N.N.G.H.N.c.x.x.G.V.G.B.K.B. .;.H u.@XT Q X.v , v w T o. .V * w o.#X7XS.v % < : : : 2 q v q , q , * $ $ , A j.L # T X.o.I m T T m l k m W p.p.^.^.L.L.q.Q Q p.p.p.~.lXhXhXkXhXjXGXGXGXGXVXMXjXMXGXGXBXjXdXjXkXkXjXuXPXGXI.uXe.n x c ;.-.Y ` :.` J J u.r.x : : : 1 3 2 c b b x x q y y v x y % : 2 2 u H H H R :.-.-.;.y.r.u.y.y.;.:.E.H.]._.H.[.H.c.F.C.N.Z.U.x n ;.H Y ;.%.-.-.>.1.>.2.n._.-X-X3X8X6XsX,Xy.Y W > b q : 1 x m n ! m ! U Q w.Q m n V.y b s.Z.A.).'.'.'.'.f.(.(.).). X2.;XwX8X1XzX-.N 5XaX5X,X].{.{.3X}.H.R.Z.N.y.g.y.:.s.s.s.s.s.Z.R.{.H.H.].F.N.a.a.|.N b y.:.r.>.-.:.:.R R J b c u Y U.|.R.B.s.V.Z.N.V.r.H , .   # , Z m l q q Q i.i.i.I.@XuXdXpX2X2XQ.t.,. .L A w p C | A w $ w L o.t.t.v , W v $ * p L T q v v , * * , e e w w p V A V | A e p p p p w f ,...9 e A A | | o.#X7X@XQ.OXOXOXW.{.{.{.W.&X*XQ.W.:XE.{.&XW.&XW.&X&XW.&X&XOXOXOXOXOX&XW.&X&XW.W.&X&XW.W.E.Q.E.>X{.Q.E.Q.Q.Q.Q.E.E.E.E.E.E.R.R.R.E.E.E.E.E.E.R.H.G.G.G.G.H.H.G.",
"B.B.B.C.C.C.C.C.C.C.G.G.G.C.c.a.c.c.c.B.N.c.x.x.N.N.c.N.B.C.Z.Z.C.D.G.G.G.Z.B.N.N.Z.H.x.x.s.x.B.Z.s.B.B.Z.R.x.V.Q.@XT I x w 0 e L o.| | p e e w  .k. ., 1 : 1 q : , v p w q p e $ $ e V A L p , I o.o.l q m m m k k m Q w.Q p.^.!.yX^.w.w.w.w.i.yXhXhXlXhXkXGXKXGXGXGXHXGXBXVXGXGXBXBXjXjXdXjXBXuXpXGXdXcXe.c x N ;.-.Y ;.y.-.J J ;.V.n X # 3 2 2 6 b n b y y y 6 2 x y y % > 6 y 2 c u M J R ` E E Y Y E E u.g.-.-.N.Z.}.H.}._._.J.C.N.U.Q.v n ;.H H ( ( ) -.>.&.&.&.c.A.[.3X-XvX3X6X|.U.n r.b x e.Q n ! e.e.q.p.p.q.U m 3 m k.E > H U.N.A.}. X'.).).f.).).(.(. X2. X-X4X6XzXE H iXgXaX>X{.{.{.>X{.E.R.Z.Z.s.s.y.y.s.N.N.N.y.c.R.].H.H.H.Z.N.y.s.|.N b y.;.:.-.-.-.` Y R J b c y H R.2X|.R.Z.R.:XU.E y q 2 , : # v Z Z l q m W Y.e.t.Y.<X<X@X@X2X2X7XT.L u , w 9 e A A L C * w l.S.k.t.C * C w # C T A p 0 * * * 0 , , w V V w e w A V w q e C C e w p * 9 9 w p V A o.o.j.,.o.j.7X7XOXW.:X:X{.*XW.W.Q.&X&XE.>X,X:XOXOXW.OX&X:X:X&X&X&XOX&X&XW.&X{.W.&X&XW.&X:X{.&XR.1X5X9X&XE.E.E.E.E.].].{.E.E.E.E.R.R.E.].E.E.].E.R.H.G.G.G.G.G.G.G.",
"B.B.C.C.Z.Z.Z.Z.Z.C.C.G.H.H.C.c.c.c.c.B.B.N.c.N.N.N.c.c.N.B.Z.G.G.G.G.H.H.Z.C.C.C.H.H.c.c.c.x.N.N.T.Z.V.B.G.B.G.@X@XX.Z q : , V o.o.T V e w 0 * , , , , # q Z X.w @ q p v q * $ e L ......A * $ e w l ; e l , , q q l n Q Q w.~.yXtXp.I Q q.w.^.lXhXhXhXhXjXLXKXGXGXVXVXVXVXVXGXGXBXBXjXdXdXBXGXuXuXkXdXGXp.b b H ;.` E r.s.-.R R ;.V.n % : 1 y < 6 b n x 2 2 y x 2 x x x % > 2 u 2 q u n Y Y H c H E U W Y E r.r.Y :.N.H._.}.[.[.].C.N.Z.Z.u v E H H E ( ) -.&.^ &.&.c.A.-XqX-X8X8X6X|.{.E b V.v x e.I.I.e.Q ! k ~ 2 2 v U e.p.< < ` {.g.}.}. X_.(.).f.).'.n.).'.2.`.6X8X1XzXY H iXaX5X1X:X>X{.,X{.{.G.G.R.s.s.u.u.s.N.N.N.>.a.Z.R.R.].}.Z.N.:.s.W.b N y.;.-.-.-.` ` J E J N b u H Q.|.W.T.T.U.;.H H H T y 1 v Z Z m I x q m U i.e.Y.uXpXpXpXOXpX+X,.C p p f A f A | ....A V w | t.,.T w @ 1 q u T Z , v L 0 * p 0 , C  .| | | w e w A w e w o.o.| | L v A v L A V p w C A A A ,.nX7X2XW.W.{.W.W.&X&X:XW.&X,XW.2XOXOXW.&X:X:X1X9XaX,XOXOXOXW.&X&XW.W.&X&XE.W.&XW.Q.Q.:X9X5X1X{.W.W.{.{.{.{.{.].].].E.R.R.E.E.E.E.E.E.R.H.G.G.Z.H.H.H.H.",
"B.B.B.C.C.C.C.C.Z.C.C.G.R.R.H.Z.N.N.N.N.N.N.B.B.N.N.N.N.B.B.Z.G.G.D.Z.H.R.H.Z.Z.Z.E.E.N.C.C.N.B.U.Z.Z.Z.R.G.G.T.W.2X@Xk.Q Z U o.| | v v v T Z , : , , : : v U U C $ , 0 0 ,   *  .....4.4.} w @ 9 e w ; q v q , , 1 k Q L.p.w.!.tX!.w.m Q q.p.yXlXhXkXFXbXGXLXLXLXJXHXGXVXGXGXGXBXjXbXjXkXjXBXkX~.kXjX|.dXp.c x N ;.-.( r.s.-.( ( u.;.c : : 1 2 < y n b x y y x x q x x y X > < x u y p H H b y H E r.e.p.u.` Y u.` J c.H._.[.}.[.R.Z.N.x.u.< u W Y J ( ( ( ) ^ ^ &.>.d.n.-X8X[.*X-X8X}.R.g.c H I.n : n i.I.!.p.x : 2 n W p.e.y > H g.>XN. X_. X).(.).f.).'.n.).'.1.n.qX8X1XiXY H aXgXaX5X>X5X>X5X{.{.R.R.Z.x.s.y.s.N.N.N.N.( <.Z.R.R.].R.Z.N.r.y.R.c N y.:.-.-.-.` ` J E J N c c Y W.|.W.Q.Z.u.x.j.Y.2XY.v # q v q n W I Z Q w.p.L.~.dXpXgX2XS.j...F C F A } 4.4.*.*.4.4.,. .p $ q q , , , , v v 0 q * 0 Z L * , 0 e A  .o. .,. .e @ * $ ; q T o.j.| v T w.I T X.L w e A | S.S.S.nXnXgX1X|.:X{.{.{.Q.W.OX&XG.W.:XW.OXW.OX:XT.OX1X,X1X,XOXOX:X{.W.&X&X&X&X&X&X&X&XR.W.W.1X:XgX1X&X&X*X*X*X*X=X{.{.*X{.E.R.R.R.R.E.E.].E.E.R.H.G.E.E.R.H.",
"B.B.B.B.C.C.C.C.Z.C.C.G.H.R.H.H.Z.C.C.B.N.N.N.B.B.B.C.C.C.C.C.C.C.G.G.H.H.R.R.G.H.E.].Z.Z.Z.Z.Z.Z.Z.W.E.B.m.+XS.T.Y.k.k.o.k.k.t.X.X.| v Z o.T e # : : : Z I q # , % # # # $ $ A 4.6.m.l.*.} F 9 9 V A e w q , 1 q q k Q !.p.e.P./.L.Q I Q p.^.lXuXhXkXLXLXGXLXGXLXJXKXJXHXGXGXVXBXjXBXBXjXkXkXuXi.dXjXuXjXu.c c N ;.-.( :.s.-.( -.N.r.x % : 1 1 2 2 c c x y u v x q x q 2 # 1 2 y q 2 c Y H 6 H r.g.e.;.e.i.u.` E ;.c :.H.].[.H.}.Z.C.x.y.;.> c E Y Y -.-.&._ ) ^ &.2.d.c.*X6X[.4X*XqX-X{.|.y.y b i.p.v 2 x U n 1 2 y T i.e.x > b r.{.>XA.6X_._.).n.(.2.).'.n.).'.1.1. X6X>X5XY H aXgXiX1X:X,X>X>X].{.{.{.G.Z.x.:.x.Z.Z.N.N.R -.B.R.E.{.].H.N.r.s.R.u N y.:.-.-.` -.-.J ( Y H c u Y :X:X|.W.x.J V.+X+Xt.H C T ;.T , , v n W w.X.k.@XuX@X@XS.j.4.l.6.F { { } } 4.oXm.5.4.l.l.4.L p q , * w q # q @ @ * % $ < p p L ,...C f } } } j.p $ $ * # v t.o.o.X.o.t.T I Q | A V | } ,.$X#X#X7XnX2X7X2X:X:X{.OX:X&XOX:Xj.&XOXW.W.OXOX2XQ.W.:XaX5X2X>X&XW.&X&X&X&X&X&X&X&X&XW.W.Q.&XQ.&X,X,X&X&X*X*X*X*X=X=X*X*X*X{.E.E.R.E.].].].].].E.E.E.E.E.E.H.",
"C.C.C.Z.G.H.H.H.H.G.G.G.G.H.H.H.G.G.Z.C.B.B.B.C.C.C.Z.Z.C.C.B.B.C.G.R.H.H.H.R.R.H.].{.Z.R.G.Z.G.G.&Xj.,.v.j. .L k.k.e.t.i.k.t.p.k.j.T v X.k.o.e : , : , T T q # % # : q q 0 0 p } ..6.*...*...f p A V * w e e w 1 1 l w.^.p.e./.L./.Q I Q p.!.yXuXhXkXLXLXLXLXLXZXLXHXGXVXVXVXVXBXdXdXjXBXjXbXuX~.dXkXdXcX;.y y H ;.` R -.s.>.( :.g.V.n % : 2 3 1 2 c b u > y n v x v 2 2 # 2 q y y u n Y c y ` i.g.n c ` i.` W H :.b ( H.].[._.}.C.N.u.:.;.> c E Y R -.>.<.>.>.>.1.d.z.d.*X6X*X4X`.3X8X>X1XR.-.v < U e.I.e.T T ;.i.V.u.H < % b -.g.>X>XH.;X`.).n.n.(.2.).'.n.`.'.3.>.d.}.>XiXH H iXiX5X,X{.,X>X,XR.>X*X*XE.W.N.:.x.R.H.N.N.J ( N.R.{.*X}.R.Z.r.g.T.y H u.:.r.r.` >.:.Y ` E H c u Y :X:XW.T.;.u 0 C Z A o.l.S.Y.S.v ; q x n Q T e.I.@X@Xo.4.4.4.m...F } { 4.6.} 6.oX8.4.4.4. .} | w $ , x , # w # # # * # % @ F m.#XoX| V A A A  .A q * # # p X.X.Z Z X.| I Q T Z e v | A | XXS.+X7XnX2XiXgX1X2X:X:XQ.W.&X1XOXOXW.Q.W.OX&XaX7X1XaXaXgX5X&X{.*XW.&XW.W.W.W.W.{.*X5X5X1XaXW.,X*X*X&X&X*X*X*X*X{.=X{.*X*X{.{.{.].E.E.R.G.G.G.H.H.R.R.E.R.H.",
"C.Z.G.H.R.E.R.R.H.H.H.H.H.H.G.Z.G.G.G.G.G.Z.C.C.C.C.C.Z.Z.C.C.B.C.C.H.H.H.H.R.R.G.E.{.G.R.G.G.G.+Xj.S.K.+X0Xl.,.| X.e.t.t.t.I.Y.S.t.| Z U e.Z , , , : Z X., , 1 : # : n X.L V 9 @ j } 9...9.6.} } O.L $ e v q q q 1 v X.L.L.p./.p.p.Q Q w.L.~.lXpXkXkXGXKXLXLXLXJXLXGXMXBXGXGXGXdXuX<XdXBXGXGXuXuXdXdXdXcX` 6 u N ` ` R ` s.:.%.r.u.U.W : : 2 2 2 x n H c > x U n v n q k # 1 q q y u Z H y H e.I.W x 2 n I.;.W Y -.M P C._.`.`.}.N.N.s.r.;.> c ` E ( -.>.>.>.>.2.2.2.d.d.}.4X[.6X`.4XqXsX6XfXZ.` n 2 2 x U T Y W Z y < > < b ;.y.Z.6X|.}.-X`.).n.n.n.f.)._.f.[.'.h.1.:.A.5XiXN N 1XiXiX5X>X5X5X>Xs.{.*X*X{.E.G.y.N.E.G.Z.B.H H Z.{.}.{.{.H.Z.y.s.B.2 H g.:.y.y.>.>.` Y ` E H c i E :X:XQ.Z.E 0 w C A t.Y.S.l.t.#XZ ; q m Z U X.p.@XY.,.j.,.*.4.6.} ..*.6.6.6...8.oXoX6.5.m. .} o.A e q q * w v @ @ # 0 * , 0 5.S.l.,.} F } 4.4.m.5.| v * # q X.k.t.I w v Q X.w.I , V A A } m.l.+X+X+XaXaXgX1X:X1X1Xu.t.1X2X:X:XOXOX2XW.OX1XgX7X:X1X5X1X1X:X&X:X&X&X&X&X*X*X:X>X:X:XaX1X*X&XE.Q.&X&X{.{.*X{.=X=X{.{.*X*X*X{.E.E.G.C.N.N.N.N.B.B.Z.G.H.G.",
"C.Z.G.H.R.R.R.H.H.H.H.H.H.H.Z.Z.G.H.H.H.G.Z.B.B.C.C.C.C.Z.Z.Z.Z.C.C.C.H.R.R.R.R.Z.E.{.G.R.G.G.K.K.S.XXm.XXXXS...C v Z X.t.t.j.X.T A p v u Z v q q , : T x # % q # : X , U v 0 * 9 } 6...9.6.6...4.j...$ $ e q v 1 ; m w.P.^.p.w.p.e.Q Q i.!.yXlXkXkXkXGXKXJXLXGXLXJXVXMXCXGXGXCXMXdX<XdXGXbXdXI.!.jXGXuXcX` 2 y N ` ` E ( a.-.` :.u.i.u.< : 2 x 2 v n U b > x H b x n q x # < y v u b b Y y U u.Q.U 3 > b ~.V.;.Y R a J c.H.H.A.].N.N.N.y.r.> v -.Y ` -.-.<.&.2.d.2.2.c.c.`.4X_.-X[.4X6X5XxXzX>Xu.` ;.U x < : . % % > < i Y y.:.s.}.xX}.-X3X`.A.).n.d.d._.`.n.[.`.A.2.2.A.sXiXH N 2X1X1X1X|.>X5XE.( G.*X>X{.G.R.N.T.{.R.H.B.M t N.{.{.{.{.H.N.y.r.u.< H N.:.:.y.:.-.' Y E Y n c 6 Y ~.:XQ.S.W t L ,.| ..S.Y.#X+XS.Z ; 1 Z I m T e.t.Z L j...4.m.6.} 6.6.6.oXoXm.6.oXoXoXl.4.4.L o.l.| v , $ L C % # 0 , $ e ,.#X+Xm.,.....} 5.4.5.S.S.T $ $ C @X#Xk.L.Q v Z Z T V w L L A } l.oX#X,. .nXVXVXMXiXW.:X:Xu.W.OXOX:XW.W.:XG.S.Q.7XOXW.E.W.&X&X&X&X&X*X,X5X1X1X5X5X,XB.Z.2X&XW.W.E.{.{.{.{.{.{.{.=X{.*X*X*X*X{.{.R.G.C.B.c.c.c.x.x.x.c.B.Z.G.",
"Z.Z.G.H.H.H.H.G.G.H.H.H.H.G.G.Z.R.R.R.H.Z.Z.C.C.C.C.C.C.C.C.C.Z.C.B.C.B.R.G.G.R.Z.G.E.H.G.Z.G.E.7XoXm.*.{ } f 9 p q < q C L k.K.K.m.%.a = < u 1 2 # 1 , , q q 1 , : # # q 0 * 9 { 6.*.{ *.6.{ ..4.l.l.e @ , , q v 1 I p./.L.L.L.e.Q Q e.^.tXuXlXhXdXkXBXGXLXHXHXJXGXHXVXVXCXMXVXVXMXiXpXjXBXkXkXkXGXkXdXjXE x 6 N ;.R J -.s.:.` :.s.V.Y.q : 2 2 2 x b n n y y n n n n n x # 2 y u y n N Y u H ;.Q.u.c < n V.e.W H J 5 R C.].A.C.Z.g.Z.s.x.r.% N r.R -.>.&.>.>.d.n.d.2.2.>.[.-X`.[.`.xX4X6X6XzX5XU.s.u.;.Y U x O 6 c H E -.-.r.a.N.6XxX|.[.}.F.A._.c.d.d.A.).A.;X-X_.c.c.N.1XiXN N >XuX|.>X>X>X5XR.M s.{.{.{.R.Z.Z.R.>XE.R.Z.J i N.E.E.].H.N.N.y.u.u.> H V.:.:.:.:.-.( J E Y N b i J Q.W.Q.x.J p  .j.,.,.j.Y.@Xt.v ; , 1 - 2 m T W v v  .L | 4.4.} } 6.6.6.0.6.0.*...m.m.m.5.,. .T | Z , @ p L v q 0 p q e | l.l.4.A *.*.} { ..l.m.m.,.| p , Z S.k.k.S.t.Z Z V v e A L A | A | l.l.V f #XHXJXJXHXnXV. .C Q.j.y.,XOX&XS.m.K.x.9XW.E.OXW.E.W.&X&X&X&XE.1XG.{.5XsX&Xu.B.{.W.Q.{.R.{.{.{.{.{.{.*X*X*X*X*X{.R.R.R.G.B.c.B.C.C.N.c.x.s.s.x.x.N.",
"N.B.Z.G.H.H.H.H.R.R.H.H.H.H.H.R.E.E.R.G.G.G.G.Z.Z.Z.C.C.C.C.C.C.C.B.G.C.B.Z.Q.R.G.G.H.G.G.K.R.&XXXm.m.m.{ f F 5.S.S.u.u % S K.0X0XeX0XK.P = & p q , : : q q ; ; 1 3 - # , * 0 t *.,.*.5.5.F 0 } j.4.l.p $ , ; # 1 1 ! w.L.L.p.L.L.p.p.I.~.yXlXhXbXGXGXGXLXLXGXGXVXVXJXJXCXMXCXJXBXBXdXdXBXGXBXkXkXkXdXuXjXU y 6 N r.` R -.s.:.` -.s.N.Q.v : 2 x 6 v b N H x v U U v b 2 : X 2 x 2 u H H Y b c ;.e.I.i.W V.u.u.Y Y b i -.N.H.A.A.H.g.N.s.x.y.& J s.-.:.>.>.2.>.<.2.2.2.d.) A.4X`.}.`.qX6X8X4XzXsX5XW.B.g.u.U.` y y.y.g.s.-.` a.N.R.5XxX>X-X}.>.A.[.c.2.d.A.A.A.-X[.[._.c.a.>XiXN N |.>X|.>X,X,X8XR.K s.{.{.E.E.Z.Z.R.*XZ.Z.Z.-.J Z.{.{.R.H.N.N.y.s.u.> H i.;.:.-.-.-.;.R Y J n N b Y Q.W.T.x.E b u.S.S.j.t.t.T q # X , 1 # - : : ; # C o.|  .4.4.F f 6.6.6.6.6.XX} 9 f C F L L Z w : : , w A T L C w 0 p e ,.#X5.e r 4...} ..} l.l.m.S.C e , , X.e.l.k.X.L o.o.Z , V A A | A V } } C V XXHXnX7XbXbX2XV.T.:X;.L %.,X,X*.*.x.m.:X&XW.E.E.E.E.OX&X&X*X&X,XW.:X,X9X&X>X&X&XE.R.{.R.R.E.{.{.*X{.*X*X*X{.].R.G.Z.C.B.N.N.B.B.B.N.c.c.c.s.s.s.x.",
"N.B.C.G.H.H.H.H.R.H.H.G.H.H.E.E.].E.H.G.G.G.G.G.Z.Z.C.C.C.C.C.C.D.B.B.B.W.9X9X&X&X=X=XJ.E.OX&X0Xm.l.5.l...} oX0Xm.+X7XC = a %.b.M.XXF.=XM.a t b 0 , , 1 1 q 1 1 q 1 1 , < 0 C C l.l.5.} f $ @ C l.#XS.q   $ , , 1 k ! w./.L.L.!.^.^.!.yXyXlXkXGXLXLXHXHXHXHXHXHXHXZXHXVXGXVXCXGXGXGXBXBXGXGXGXGXFXbXdXuXdXU 2 6 N ` R Y ` a.>.( -.u.g.<Xn : 2 2 2 x n n H x c H y , < > % X 2 x u c H H R J u N E u.i.g.i.u.;.H J 5 b :.N.H.N.A.R.g.N.s.x.s.> E s.-.>.>.<.d.<.&.&.&.1.2.^ 2.qX[.}.}.8X4X4X6XxX8X3X6X|.|.Q.jXy.i Z.g.s.:.>.:.N.N.}.8XxX6X>X2.K H.-Xn.2.n.A.A.[.4X4Xn.A.A.:.|.sXb N ~.<X|.>X5X1XaX].-.N.{.{.R.R.C.Z.R.*XR.E.{.<.R G.*X*XC.Z.N.N.y.y.y.> H i.;.:.;.-.-.;.R R J N N n H T.T.T.u.E b Z u.V.;.T v , : , , 1 -   X - # # # p V C p f f 9 f 5.....6.8.m.F p f p w e e , # , q , x  .T C q C w 0 9 4.j.p 9 9 ..*.} ..}  .oXS.S.Z e * e A T o.,.T T t.e.v , A A A A | C A } f f S.7Xj.t.Q.gXaX7X7XS.L L L OX=XK. .<.z.OXOXW.E.E.E.E.OX&X{.R.W.&X&X&XR.:XW.&X&XE.E.R.E.].{.R.].{.{.{.*X{.].H.Z.C.B.B.B.B.B.B.B.B.N.N.N.N.B.c.c.x.x.",
"C.C.Z.Z.Z.G.G.Z.H.G.G.G.G.H.R.R.E.R.H.G.G.G.G.Z.Z.Z.C.C.C.C.C.C.B.G.G.E.,X9X9XeXj.t %.z.B.7XG.<.S.l.5...C } l.XXXXXXj.F F { #.@.8.M.%X%XM.S t a * < q q v v l Z m q l q % 0 C V ..| f @ @ * e C S.#X| $ $ , q Z Q Q Q e.p.i./.L.L.^.yXlXlXhXGXLXLXLXLXGXGXHXJXJXJXJXJXJXHXVXGXHXHXHXGXGXGXBXGXFXbXGXkXuXuXY y 2 N R J J ` s.<.>.-.s.g.1XU % 1 2 x x n n H c v b x y x b x % x c H H -.( R H b i H ;.e.i.u.;.H N u 5 N :.A.].N.A.H.g.Z.N.s.s.< E N.:.>.<.>.2.2.&.&.>.2.d.&.) ;X`.}.[.qXqXvX8XxXsX-X3X,X>X|.gXr.u s.N.h.:.:.a.A.A.|.sX8X>X}.) ) }.3XF.a.c.c.n.-X4Xd.S >.C.J Z.iXb n ~.<X:X>X5X5X9X{.N.E.>X{.Z.H.N.R.R.{.R.E.{.y.R Z.{.{.x.N.c.u.r.:.:.> N i.:.:.-.-.( ( Y E E H H N H Q.T.T.u.;.J t 0 < % , % % : # : : 1 v x q 1 : # ; $ * @ @ @ e w } *.4.6.5.oXf 0 C p e , $ ; ; 1 , # : w w * $ 0 0 p p f V } } 9 w } }  .A 9 p | V q 0 w t.t. .T T L T X.| q w A | | A A A A } w w l.j. .4.l.V.7X1XOXG.E H ,.&XK.+Xj.%.u.B.&XE.E.E.E.E.&X&X&X&X&XQ.:X,X:X>XE.H.Q.Q.W.E.H.E.].E.{.{.{.{.{.E.H.N.B.B.C.Z.Z.C.C.C.B.B.N.N.B.B.B.B.B.B.N.",
"Z.Z.C.C.C.B.B.B.C.C.Z.Z.Z.G.G.H.H.H.R.H.G.Z.Z.Z.Z.C.Z.Z.Z.Z.Z.Z.B.Z.D.,X9X9X7XeX%.F 5.m.K.=Xu. .,.l.4.} V p } ,.m.*.g M.8.$.8.9.@.$.8.M.7.s s i < p n Z I Z Z Z T Z x q , v 0 @ $ * , * , , 0 , Z Z , , e 1 v I Q w.Q w.p.p.p.L.~.yXlXkXkXFXLXGXLXGXGXGXGXJXJXJXHXJXJXJXGXGXHXHXGXLXLXGXGXkXjXkXbXGXkX~.uXW c y N E R ' -.d.a.a.:.N.g.uXU : 1 2 x x n n Y H H H H H H Y n X c H ;.` y.-.H b c c c H Y W E N H u 5 c J :.A.H.C.h.N.s.Z.N.y.s.5 R x.>.>.<.>.2.2.1.>.c.n.n.A.1.[._.).[.4XqXxXvXxXvX3X-X>X,X>XfX:.5 :.N.N.>.d.c._.|.6XxX8X[._.>.A.3X3X_.c.F.a.d.}. XK i a.H.H s.iXN n ~.2X:X2X1X5XsX{.R.>X*XE.R.Z.N.Z.E.{.Z.H.{.s.( Z.E.Z.s.N.s.r.:.;.;.> b u.-.;.;.( R ( Y Y E Y Y H H Q.U.Z.i.u.:.H c p p c : : # # 1 : k X.;.W U Z T | X.| v * , 9 e 9 f  .l.oXS.0 @ e * $ , e q 1 l k , # # # : #   $ * 9 f 4.XXoXl.f 9 f 9 * * * $ $ 0 0 L +XY.l. .T L T T I , w C | | V C } } } f w ..| } .. .t.gX1X,X7X+Xu.:X+XE.E.:X;.%.z.+XE.E.E.E.E.&X&X{.Q.E.W.&XW.E.E.Q.E.E.R.E.E.R.E.E.{.{.{.E.E.E.G.N.N.C.Z.Z.Z.Z.C.C.C.B.B.B.C.C.C.C.C.C.C.B.",
"G.Z.Z.C.C.C.C.C.N.N.B.C.Z.G.G.G.H.H.R.E.R.G.Z.Z.Z.Z.Z.Z.Z.Z.Z.C.Z.C.D.,X,X0XXX5.f XX5.*.=XXX*.L F }  .C p p e p p s { %X8.G 8.8.=.G @.M.M.a g s 0 p H W T Z I Z Z Q m 1 m p # q #   # , , # , , , e , w v l m I I W w.p.w.W e.!.lXhXkXkXhXFXLXLXLXLXLXGXHXKXJXHXGXJXJXJXHXHXHXVXGXGXLXLXGXGXGXbXFXkXkX~.uXe.x x H E ( ( :.g.a.a.r.N.N.uXU : 1 2 x n N N U U U E H H Y E n % b ;.r.-.y.;.J b > < 6 c c b b y > % u b J y.c.A.C.a.N.a.Z.N.y.s.i R N.:.>.2.<.2.7.2.2._.n.).[.A.[.[.F.-X4X4XxX8XvXqX}.-X3X5X5XzX:.5 a.H.F.d.A._.}.[.4XzXvX}.c.A.>X6X4X}.H._.-.K >.c.>.B a.C.R g.>Xb n W.<X:X:X,X5XsX>XE.>X*X{.{.Z.N.Z.E.{.Z.G.>XN.R Z.E.Z.s.c.s.:.:.;.;.: c ;.E -.( ( ( ( Y Y Y E Y n H U.U.Z.u.s.s.r.u.u.r.Y : : % : x q : v T ;.i.X.Z | j.t.| w e w V e * V L *.L 0 $ $ , 0 w m q q l w : # , , 1 # * @   9 ,.m.m.oXXX5.9 $ @ e V , $ , , v S.#XY.l. .L T X.T Z ; v V A A C ,.oXl.} f 0 |  .A }  .7XVXfX1XOX:X:XW.E.K.OXOX&XE.,XOXE.E.E.E.E.E.&XW.&XW.W.E.{.*XQ.E.Q.E.H.E.E.R.{.{.{.{.{.E.E.H.B.x.N.Z.Z.B.B.Z.Z.C.B.B.B.C.C.Z.Z.C.C.C.Z.C.",
"H.G.G.Z.Z.Z.Z.Z.B.B.B.B.Z.Z.Z.G.G.G.H.R.H.G.Z.Z.G.G.G.G.Z.Z.Z.Z.Z.H.H.J.5.*.{ f #.%Xm.*.K.v. .L { f p p p V C C f s 6.8.7.{ { m.M.7.#.7.2.a S t < v Z H T Z Z I n Z q , m q q Z # . # : : # 1 q q l q 1 q m m I U w.i.e.U T L.uXhXkXkXhXhXGXLXLXLXJXLXHXHXHXJXHXVXJXJXJXVXHXJXJXHXGXGXGXGXGXLXGXbXhXkX~.uXr.x x J ( ( ` :.N.a.s.y.N.N.<XU : 1 2 n N U H U H n Y N N E E n % n H J -.y.-.J N 5 u > % % : > O < u N M J y.c.A.c.a.A.2.C.N.a.N.M R H.z.<.z.2.2.n.2.n.`.A.A.)._._.[.`.4X4X4XxX8XvXvX*X3X3X8X5XzX:.u >.h._.A.).A.}.-XqXxX6Xn.h.-X6X6X4X[.].}.:.&.A.8X}.) <.N.s.R.1Xb b W.:X{.&X,X5X9X>X{.{.*X{.{.N.Z.E.{.E.N.Z.{.N.) Z.R.Z.s.N.s.y.;.;.;.% u ;.W -.` -.-.` Y Y E E J b H U.U.T.s.y.u.:.u.Z.V.H % : : # 1 1 x X.I.Q.Q.Y.T Z | w.| v v w e , v V $ * w Z % @ , v T T T L L V 0 * 0 v Z p % $ V | ....4.5.4.4.f e e e V 9 @ * e p o.l.o.T L T  .o.X.| w Z C V L ,.+X7XnXS.C p 5.4.A  .S.HXJXCX1X:XT.OXOX&XT.OXT.OXW.E.E.E.E.E.E.E.OXW.W.W.{.*XE.E.Q.Q.W.E.E.E.E.E.R.E.].{.{.E.R.G.C.N.c.B.C.Z.B.C.Z.Z.Z.B.C.C.Z.Z.Z.Z.Z.G.G.G.G.",
"R.H.G.Z.Z.Z.Z.Z.C.C.B.B.B.C.Z.Z.G.Z.G.H.H.G.Z.Z.G.G.G.G.G.G.Z.Z.Z.Z.B.G.*.g g F oXXXoX*.K.K.E.K.K.j.l.S.#X+Xo.V s g 6.m.8.=.j a { 5.%.S a t b t b H Z H Z Z Z ! Z 1 1 Z : 1 I q 3 : : # # # - 3 # 1 m 1 q m Z Q Q e.p.U n T I.uXhXkXkXkXGXKXLXBXLXHXHXGXGXGXHXJXJXVXsXiXfXCXJXVXGXVXcXBXGXGXGXjXkXlXbX~.dXi.x x N ( ( ( :.h.a.A.y.g.N.<XY > 2 2 c n H Y Y Y n E E Y ;.;.H > H u % H <.:.>.R N i 6 c % > > % u c H S R s.A.].2.2.A.>.h.C.s.B.S P v.<.<.2.>.1.n.2.n.n.A.n.A.).A.[._.-X-X-X8X6X8XvX3X6X-XxX5XNX:.i -.<.A.[._.A.[.4XxXwXF.2.A.3X4X6X>X}.}.>XN.A.6XxX-X-.N.{.N.R.<Xb b Q.:X|.:X5X5X5X*X].E.>X{.R.N.Z.].E.R.N.Z.E.N.( N.E.Z.s.N.s.s.-.-.;.% y e.;.;.;.:.r.;.E E Y E H c N B.Z.Z.s.y.u.N.B.x.u.E y , # q : q e.~.@XQ.Q.t.| p L | w q w v w e p e * p L ,     * , q C p w V w e , q T X.v : # T j...} 4.l...6.oXXX5.p L  . . .L p w C , p L o.X.| o.o.V v v C A +X7XnXbXnXo.C S.S.| ,.nXJXJXJXfX&XE.OXOXE.OXW.&XW.E.OXE.E.E.E.E.OX&XW.W.&XW.E.E.W.E.E.Q.E.E.E.E.E.{.{.{.*X{.E.H.C.N.N.B.Z.B.B.Z.Z.Z.C.C.C.C.Z.G.Z.Z.Z.Z.Z.Z.Z.Z.",
"R.H.G.Z.C.C.C.Z.Z.Z.Z.B.B.B.B.C.Z.C.B.C.C.C.C.C.G.G.G.Z.G.G.G.Z.Z.R.B.G.x.P { 8.XX%Xm.5.J.B.B.B.B.G.Q.OX2X@XL A F { m.XX5.s $ t p p p % % b b = 0 v Z Z m m Z x 1 , x : q I m ; 1 1 : # # X # X X 1 Q n m Z e.w.W e.T m T t.k.Y.uXjXbXGXGXkX~.V.~.kXGXKXKXGXVXdXQ.r.Y E u.T.gXCXJXJXVXBXBXBXjXkXkXkXuXuXjXI.x y Y ( ( -.y.g.A.A.s.g.Z.Q.` < 3 x n b c E ;.Y H Y Y E ;.;.J < Y H & M s.a.-.( K J b c u u 5 6 b H R J <.A.A.C.c.d.c.>.A.A.a.a.K K <.>.>.<.<.2.n.n.n.n.).)._.A.[.[._.-X}.[.6X-X4X4X[.3X-X8XsXzX-.i N.<.2.d.}.3X4X4X4X}._ >.-X6X3X3X|.}.6X>Xg.}.>XxX*X) N.{.R.:XQ.c c W.W.:X:X5X9XsX{.{.>X>X>XH.B.c.Z.].R.Z.Z.{.Z.:.N.{.s.<.N.N.y.-.` ;.y u r.-.;.:.;.;.( E E E Y n c b N.U.U.y.y.s.x.-.-.;.r.E v # 1 1 Q I.@XY.k.V. .t.t.L A v l Z V Z v w v w q * @ * H k.,.p * p ,.l.,.4.,.L T p * X @ A ,...4.m.5.6.oXXXXXoX5.XXXXm.4.oXL 9 V C v A o.o.,.o.t.T v C | j.@X7XnXnXMXgXS.7XOX,.2XSXJXJXSXCX1XE.E.E.OXE.E.&XE.E.E.E.E.E.&X&X&X&XW.W.{.W.E.E.Q.E.Q.E.E.E.E.E.E.E.{.{.{.{.R.Z.N.N.G.Z.N.Z.G.Z.Z.Z.Z.C.C.Z.G.G.G.G.Z.Z.Z.Z.G.G.",
"H.H.G.C.C.C.C.Z.Z.Z.Z.Z.Z.C.B.B.B.c.c.B.Z.Z.Z.Z.Z.Z.Z.Z.Z.Z.Z.Z.Z.Z.Z.E.x.%.<.7.XXM.=X*.OXx.B.B.B.G.W.W.@XOXC v L F *.*.p @ % p Z n v q . p i % v T H v q m q , - , ; , Z m 1 3 1 3 3 # X X   X o - U T Q Q W X.w.e.X.i.~.^.i.I.<XkXdX~.i.e.e.k.i.V.~.dXdXI.r.E H Y E r.V.i.i.Q.5XcXHXGXBXT.I.<X~.dXkXBXGXY.x c J R ( >.a.N.N.Z.u.g.V.Q.;.< 3 x H n b H E Y J W E E -.r.J > ( :.H R s.s.y.:.R J Y n i c H N N R R J a.A.H.A.c.a.c.a.F.A.a.s.J H a.<.P &.z.n.n.n.n.n.A.).`._.[.`.A.-X_.[.4X*X3X-X-X4X-X3X5XzX:.c _.h.2.>.d.).}.}.h.>.>.F.6X[.-X6X6X|.6X>XN.>X>X6X{.P C.,XT.:X>Xc b W.|.:X:X5X3X5X>X>X>X>X{.R.Z.s.Z.E.Z.E.E.{.Z.:.N.W.s.:.s.s.y.;.W ;.v y ;.-.r.:.-.:.;.E J H H n i b N.U.N.;.y.Z.<.J -.u.u.U q : # q Q X.X.H  .Y.7X7X#XpXT e ; w q q q e w e * $ p j.2X7X#Xl.w V oXm.4.XX+Xj.v . # , # q ..j.5.5...8.oXoXXXoXoXoXoXoX5.5.4.V v v q Z k.k.#X$X#Xj.L A t.@XpXnXgXnXMXJXVXCXaXaXJXJXJXJXJXZXgX&XW.&XOXE.E.E.E.E.&X&XE.&X&X&X&X&XW.&X{.{.E.E.Q.Q.E.E.E.E.E.E.E.].{.{.{.].Z.B.N.B.Z.B.C.Z.G.Z.Z.Z.Z.C.Z.Z.G.H.G.G.G.G.G.G.G.G.",
"G.G.Z.C.C.C.Z.G.Z.Z.Z.Z.Z.C.B.N.c.s.x.B.G.G.Z.C.Z.Z.Z.Z.Z.Z.Z.Z.Z.Z.Z.R.C.H.=Xb.m.b.z.b.J.C.N.Z.Z.N.W.Q.W.2XA C j.*.C * @ * , 1 m m Z x # v u * v p p p v < # # # # q I I v 1 q l 1 : X X X X - - 3 U W W W p.k.^.Q.Y.Q.<X~.I.I.~.Y.e.U U U Z n H H H H H n b n H H -.u.Z.Z.B.x.V.V.fXMX:Xe.U.jXkXBXGXLXGXY.y i J E :.:.s.g.y.s.u.i.V.Y.W < 3 x U Y H n J E E -.;.E ;.y.Y > -.u.:.-.s.a.:.>.R J -.H N H Y J J R ' ) s.A._._.A.h.d.a.F.C.<.<.J K a.<.S %.C.).A.F.2.n.). X`.`.[.`.F.-X`.-X4X[.-X-X_.[.*X3XiXxX:.M _.}.A.f.1.d.A.d.d.a.[.4X-X X3X-X6X6X6X6XZ.6X6X6X].P :.,X{.{.<Xi b Q.|.:X:X1X,X5X{.>X>X3X{.].Z.:.Z.].H.R.E.>XZ.:.N.R.s.r.y.y.<.-.E ;.H x ;.;.r.;.-.:.-.J H H Y H i c u.Z.N.-.:.N.-.H ;.i.H : X , 3 m X.T v 0 T @X7X+XS.#XA | o.V e , w w C L e p l.#X+XXXS.#X4.9 6.m.4.l.j.5.f @ # # # $ w ,.5.F j oXoXoXoXoXoXoXoXoXoXm.5.V V V v T yXpX@XnXnXnXS.j.#X7XnXnXnXnXCXMXmXmXNXJXJXJXJXJXJXJXNX,XE.{.E.E.E.E.E.&XE.E.OXOX&X&X&XE.W.&X&X&X{.E.E.E.E.Q.E.E.E.E.].{.{.{.{.R.N.N.B.C.Z.C.Z.Z.Z.Z.Z.Z.C.C.Z.G.G.H.H.G.G.Z.H.G.G.G.",
"Z.Z.C.C.B.C.Z.G.H.G.G.Z.Z.B.B.B.N.x.N.Z.R.R.Z.B.C.Z.Z.Z.Z.Z.Z.Z.Z.N.Z.R.H.C.H.H.v.v.b.J.].Z.N.N.N.G.G.W.OXOXY.l.S.4.q @ @ # - k m m m 1 # b < = 0 p p < p v p * % * b Z v , , q 1 3 - : : # - - X m X.p.p.t.I.k.I.Y.V.V.~.@XY.k.W H q : < 2 < > < < < : , y u u c 6 u M :.W.1X1XV.V.W.W.V.E V.GXGXBXGXGXGXW.i c H R -.:.a.a.y.s.s.g.V.Y.W < > x n Y ` Y -.;.E %.:.( :.r.J & ( :.<.:.a.y.>.-.) ) :.( -.-.( ( -.>.>.:.h.Z._.F.n.d.a.1.A.c.) ) K P a.>.M &.A._._.).>.2._. X_._.[.F.A.[._.[.4X[.}.}._.-X*X6X8XsX' b }. X X[.f.h.A.d.A.[.4X-X[.3X6X-X6X5X>X>XZ.6X6X8X{.>.J Z.W.R.2Xy n Q.W.:X:X5X,X5XE.{.,X,X{.{.N.:.Z.{.Z.Z.Z.{.N.:.N.R.N.y.y.:.:.( E ` H v ;.;.;.` E ( R b n Z H H i u r.g.u.( ;.x.:.J ;.u.n # # , q W X.T v q T +X@XQ.#Xo.| #XbX#X| V L | ....w e ,.l.+X#X#X0XoXs j *.5.oXm.l.*.0 % # # @ @ e e $ e m.m.oXXXoXm.oXoXoXXXoXl.A q p m Z p.yXpX@X#X#Xl.O.t.l.nXnXmXnXDXCXVXVXSXJXVXZXJXJXJXJXZXaX{.].E.E.E.E.E.E.OXE.OXOXOXOX&X&X{.&X&X&X{.E.E.{.E.Q.E.Q.E.W.{.{.{.{.].H.x.N.Z.Z.Z.Z.Z.B.B.Z.Z.Z.C.C.Z.G.G.G.G.G.G.Z.G.G.Z.C.",
"C.C.B.B.B.C.Z.G.R.H.Z.Z.Z.Z.Z.Z.B.B.B.G.R.R.G.Z.Z.Z.Z.Z.Z.Z.Z.Z.C.C.B.Z.G.c.B.E.D.D.E.C.G.Z.B.N.C.Z.Z.R.@XY.S.| | v ; ; # # - k m n m 1 # c p  .,.m.m.j.5.5.*.F @ p p e * # 1 l 1 , 3 q q : - X : X.p.W U n n U H U Y Y E E H n < % # : x b n n n b b v n E E W e.E Y n v E Z.W.U.T.V.r.;.X.V.GXBXbXGXGXGXW.i v N R ( -.y.c.A.}.s.N.U.Q.W < > x H Y ` ;.r.W E :.:.-.:.:.H & ( :.:.-.a.y.:.:.-.` -.>.:.-.` -.-.a.:.a.N.A.}.A.c.d.a.>.A.a.D J K ) x.2.D <.A.)._._.2.2._.).).[.[.n.c.[.`.[.-XA.n.F._.`.].}.>X6X) M |.[.[. XA.n.A.h.A.[.-X[.-X3X3X-X4X3X|.|.N.6X>XsX*XC.-.:.s.{.1X6 n Q.W.:X:X5X,X8X{.>X,X{.{.E.y.s.R.{.Z.Z.R.E.N.r.N.R.Z.s.y.:.-.E E E H c ;.W ` E J E Y Z n n H b x u ;.r.;.J E u.;.J -.u.H q 2 , q Q X.X.v w Z k.Q.Y.t.0 L #X#XS.oXA | O.j.4.V e * 0 L ,.,.j.m.m.{ } h *.5.j.l.p @ # @ $ e e * e f l.m.l.oXm.m.#XoXoXoXoXl.| w , q q q Z Q.bX+X| V A L l.#X0XDXDXDXnXDXZXSXSXSXKXJXJXJXJXSXgXE.E.E.E.&X&XOXE.OX=XOXOXE.E.OXOX&X&X&X&X&X{.W.{.E.Q.E.E.E.E.{.{.{.{.R.Z.c.B.G.Z.Z.Z.Z.C.B.Z.Z.Z.C.Z.Z.Z.G.G.G.H.G.G.G.Z.C.C.",
"B.B.N.N.N.C.Z.G.G.G.G.G.T.G.G.G.Z.Z.Z.G.R.R.R.R.G.G.Z.Z.Z.Z.Z.Z.Z.C.B.B.B.G.G.G.B.C.C.C.B.Z.C.B.C.G.Z.S.Q.T w ; e ; ; , ; - , 2 k n n q % c x.mXeXeX0X%Xm.{ } g = 0 f ,.,.A 0 , l 1 q k k 1 - X # n b < 1 x x n U H H H b y > : y v b n T W E T E E E Y E t.u.u.u.u.u.u.;.H H ;.Q.T.V.u.;.E t.<XkXbXGXGXHXW.c b H R ( >.y.g.Z.R.y.x.Q.Q.W < > x Y E ` ` E Y W u.-.( :.:.H & R :.-.-.y.y.:.:.:.-.<.:.:.:.:.:.<.s.d.d.c.A.}.A.d.c.2.&.h.%.a K K P c.N.K >.A._.).`.n.c.[.).`. X`.2.c.[.[.-X3XA.d.A.n.n.C.H.}.[.P M [.}.}. X).A.n.d.`.-X-X-X3X4X4X-X4X-X}.[.Z.6X|.8X-X].E.s.:.>XiX6 N Q.W.:X>X5X>X5X>X,X,X].{.Z.-.s.R.{.H.R.R.{.Z.y.N.R.Z.N.s.:.-.E Y W H u W E E H Z H H b n H H v x y W E Y n Y u.E H u.V.;.Z 2 % q T e.;.v n Z W k.t.v , Z #X#X#XS.} O.l.oXS.4.} w $ $ * * * 5.XXXXoX*.f 9 A j.Z # # 0 w w e 9 9 e  .l.l.oXXXl.m.+XXXXXXX4.f e * $ e v 0 Q pXCXS.e V L o.o.j.7XnXK.5.,XSXJXJXVXJXJXJXJXJXJXsXB.x.x.x.B.E.E.&X&XE.OXE.E.E.&X&X&X&X*X&X*X&X{.W.E.E.W.W.W.W.{.].E.E.R.Z.N.Z.G.Z.Z.Z.Z.Z.C.Z.Z.C.C.Z.G.G.G.G.H.H.H.H.Z.Z.C.B.",
"C.B.N.N.B.Z.G.R.G.R.R.R.R.R.R.R.G.G.H.H.R.R.E.E.R.G.Z.Z.Z.Z.Z.Z.G.B.Z.Z.B.x.N.Z.G.G.B.C.H.v.G.B.C.B.G.Q.T , v q Z , # : , 1 , 1 k x v % % a v.eX0XXXoXoX8.{ F f 9 F l.+X+XS.C , 1 1 2 k k k 3 X X < y q 2 x x x T b p u < : u U t.k.i.e.t.p.t.e.i.k.i.e.u.Q.<X<XI.T.V.i.i.u.W b E i.k.u.t.r.;.t.dXGXLXHXKX:Xb H R J ` >.:.y.<.a.y.g.T.T.E > : x Y W ` E R E ;.r.( %.:.;.H % J -.-.-.y.a.:.:.:.-.y.-.>.<.:.:.a.s.F.A.A.F.}.c.2.n.2.&.d.) M ) K R N.C.) <.F.}.}.`.n.n.-X[.[.[.A.2.c.`.[.-X-Xc.2._.F.A._.}.H.}.J M }.}. X[.`.`.`.).`. X-X-X X4X4X4X8X>X>X}.Z.8X|.6X3X].5X].:.{.1X6 H T.W.|.:X5X{.5X*X5X>X{.,XN.-.s.R.{.E.E.R.*XT.y.N.Q.B.N.x.:.-.E J -.H y Y E Y H H H H c H E E b y < U H H n E V.:.J ;.r.X.b < % : X.;.T n Z v v v q 0 w e V | j.| A } O.l.m.S.l.| p * $ * @ { oXoXoXoX5.0 * p q @ % 0 C  .,. .A e p } 4.m.oXL f 4.S.oX#Xj.e $ e , @ e 0 C V.@Xk.p V A A | l.7X#Xj.j.+X9XmXSXJXJXJXJXJXJXJX5Xu.r.<.:.>.<.x.H.&X&XE.OX&XOX&X&X&X&X&X&X&X*X{.E.E.{.W.W.{.{.{.{.E.E.H.C.N.Z.Z.B.Z.Z.Z.Z.Z.C.C.C.C.G.H.G.G.Z.G.G.G.G.G.Z.C.C.",
"Z.C.B.B.C.G.R.R.R.R.R.E.E.E.E.E.R.R.R.R.R.R.R.R.R.G.Z.Z.Z.G.G.G.B.C.B.B.Z.Z.B.Z.B.B.Z.N.N.Z.B.Z.Z.Z.T. .v w q X.Z , ; 1 , 1 1 k q 2 y : % u a *.oX%XXXoX8.XX6.F } *.5.j.l.+Xt.: , q 2 k k x 2 X X , , < < 2 2 2 x q < < q Y i.U.Y.@X<X~.I.k.k.^.I.Y.Q.Q.uXBXGXMXGXjX<XT.V.i.u.e.H n E V.k.;.X.;.i.~.~.@X<XV.u J -.J -.:.a.s.a.g.u.s.T.U.E > : x T E Y Y J E ;.;.( -.:.E b % Y ;.%.) :.y.:.:.-.( -.%.%.-.>.<.a.A.A.A.n.`.-Xn.d.A.d.>.d.) P :.J -.N.c.&.s.A.[.-X`.).n.[.[.`.[.n.<.n._.`.-X-Xc.d.-X_._.}.].A.].P M }.}.-X_.}.-X[.A.}.-X-X[.-X4X}.4X8X*X6X}.Z.vX6X8X3X}.-X}.r.E.>X6 H T.W.{.{.5X{.5X*X5X>X>X5XN.<.N.E.E.H.E.R.{.Z.s.N.T.N.s.N.<.-.( Y :.H q H H Y Y H E U v Z T E b < > T E E H Y u.;.Y ` u.e.b q < : X.u.E H X.U v , # q q * $ V ......} | 4.l.l.S.S.,.0 @ @ @ L 0Xm.m.oX+XA @ $ $ # , C j.+XXXXXXXL 9 w C } V * * p C A l.,.p w * , , # , T Y.k.X.w V w L l.0X7Xm.m.+Xj.v.9XDXSXVXJXJXJXJXJX1Xu.u.u.u.<.<.<.v.E.E.E.&X&X&X&XE.&X&X&X&X&X*X{.Q.E.E.W.{.&X&X{.{.{.{.H.B.N.Z.C.B.Z.Z.Z.Z.Z.Z.Z.Z.G.H.H.G.Z.Z.Z.G.G.G.H.H.G.Z.",
"D.C.B.C.Z.H.R.R.E.E.E.E.E.E.E.E.R.E.].{.E.R.H.G.G.Z.Z.Z.Z.Z.Z.G.Z.G.B.G.B.B.C.B.Z.G.V.Z.G.x.T.T.T.Q.S.U m Z w.w.q Z I Z v q l k 1 k m : # 2 . = j 6.oXoXXXXX6.5.XX5.j.#XS.#Xp.1 q k k k k k 1 X o X : : : # 1 2 2 # 2 b ;.V.I.Q.@XI.I.~.~.@XuXpXdXdXCXGXGXHXCXNXVXVXMXcXiXT.V.V.V.;.n c E r.t.e.;.W Z v U e.6 H u.R ( a.a.N.y.c.s.V.R.U.U : > x U U Y Y Y -.:.-.R ( ( E b % Y E Y E <.:.:.:.-.( ( ( -.:.<.s.2.A.A._.A._.-X_.c.A.d.d.A.a.:.g.K ( c.Z.a.A._.[.3X[.`.n._.[.[.}.d.>.c.}.}.4X3X&.&.-X`.}.}.A.A.R.J M H.}.}.}.-X6X}.H.6X*X}.6X8X6X*X6X5X6X6X}.}.8X[.6X6X}.}.>Xy.R.5X6 H W.W.:X:X>X:X3X>X*X*X5X{.s.u.N.R.E.R.R.R.E.R.u.x.G.B.N.y.:.;.W E ;.N u Y Y E Y U H H q u n W ;.,.H L T H J H E ;.Y ;.V.t.u < , % L t.;.,.E ;.W q q C , , A O.4.l...A ,.C } j.l.j.o.0   * $ 0 +XXXm.XXm.p $ , $ 0  .Y.XX#XXXoXoX} } ..L 9 @ * , p , * q v v q , * , , : Z t.;.L V A w L ,.j.l.S.,.j.j.j.,XgXmXsXSXJXJXZXCX5XN.x.x.B.B.z.<.u.G.&XOX&X&X*X&X&X&X&X&X&X&X&XW.E.E.{.E.].E.&X&XE.{.{.G.x.N.G.B.B.Z.Z.Z.Z.G.G.G.G.H.R.H.G.G.G.G.G.G.G.R.R.G.G.",
"D.C.C.C.Z.H.R.R.E.E.E.E.E.E.E.E.R.R.R.R.G.Z.Z.Z.Z.Z.Z.Z.Z.Z.Z.Z.G.H.G.H.Z.Z.B.B.Z.Z.G.Q.T.W.W.OX@X@XY.k.X.Q !.I T | Y.Y.Q m q k , k k : o : % = @ } XXXX0XoXm.oXXXXX,.A  .T l ; q l k k l m 3 - o X o #   X X % 2 v U ;.p.I.Q.~.@X<XuXkXBXGXHXHXBXVXJXVXNXMXMXMXNXMXcXVXZXfX<XW.Z.V.u.Y c q b Y ;.r.Y E V.i.2 c r.:.-.>.<.N.g.N.N.Z.W.U.H : < v n n H J J ` -.R R E W E b % Y E Y ( y.<.<.:.-.( ( ( -.y.a.c.2.A.A.F.c._.4X[.n.A.h.h.F.d.-.y.H -.Z.H.N.C.C._.-X;X[.n.}.[.[.}.d.>.c.[.*X-X-X&.&.-X`.[.-XC.a.*X) M H.}.[.}.-X6X}.}.>X6X3X6X3X5X6X3X6X>X>XR.}.6X[.5X6X{.|.}.y.Z.iXu H R.W.{.{.:X:X,X>X>X>X5X{.y.s.N.R.R.G.R.G.E.E.x.s.C.N.x.:.( E R Y ;.H u E E E E H U H u H u.Q.@XaXj.v J OXgXQ. .E T ;.u.T q u u % C t. .,.t.V.U , L  .e w t.j.O.O.} 4.l.V $ e q 0 #   * , @ @ A +X0Xj.f $   ; ; v k.#X#X#XoXm.oX4.5.oXoX,.* $ * * 0 w , , q x 2 # : # @ C ;.,.L w V L o.#X$Xj...S.+Xl.j.+XnXxXmXzXVXJXJXCX>Xc.B.C.B.B.x.u.u.B.E.&XOXW.&X&X&X{.&X&X&XW.W.{.W.W.W.&X&XE.&X].E.R.G.N.s.N.G.Z.Z.T.Z.G.H.G.G.G.G.H.H.H.G.G.G.G.G.G.H.R.R.H.G.",
"D.C.C.C.G.H.H.H.R.R.R.R.R.R.R.R.R.R.G.Z.Z.Z.Z.Z.Z.Z.Z.Z.G.G.Z.Z.G.H.G.G.G.R.G.G.G.W.V.j.,.S.,.,.@XbX7X#Xk.o.w.w.bXt.o.j.X.Z q 1 q k 1 - # % * $ s XX+X$X$Xm.XXXXoX$Xj.* , , ; k l m k k m k 3 m n : o X   X 1 v U X.e.I.~.dXjXjXdXjXBXGXGXGXBXjXMXVXVXVXVXCXZXCXzXCXNXMXCXZXNXgXW.Z.V.x.u.H < % q H H Y E b 2 u ` s.>.` <.h.Z.}.Z.R.{.T.H : 2 x v n H H Y -.` R R R E R c % Y E E ( r.:.:.:.:.( ( ( -.y.s.C.2.c.F.F.c.`.qX XA.).A.h.C.d.<.-.5 -.>XZ.s.F.].*X*X-X[.d.[.-X[.`.c.d.n.[.-X-X;X>.>.*X`.[.-X<.K ].R b H.}.[.}.3X6X}.}.>X>X5X8X6X8X-X8X3X}.>XH.}.6X}.6X>X}.>X{.s.g.5Xu J R.W.{.W.&X,X>X>X>X,X5XE.y.N.B.R.Z.Z.R.Z.R.R.N.s.N.s.s.:.-.` ` E r.H b -.X.W Y U E b Z Q.7X+XK.+Xk.p  .7XnXfXW.E J ;.t.C v Z L q b ,.T ;.u.H v W j.T @ V o.l.O.L | O.o.e @ * @   ; , : # # . # 0 p *   @ * w e $ V | ,.l.oXXXoXoXl.l.l.oXL $ , q < : # 1 q x q , : # * T ,.t.L e V L L ,.#XnX#Xl.j.+XOXaXaXsXsXzXCXVXZXmXE.B.G.G.B.v.B.v.x.B.H.&X&X&X&X&X&X&X*X&XW.Q.E.W.E.E.E.E.&X&X*XE.G.B.x.s.x.B.Z.Z.Z.R.Z.R.R.H.H.H.H.H.H.H.G.G.G.G.G.H.H.E.R.R.H.",
"D.C.C.C.G.H.H.H.R.R.R.G.Z.Z.Z.G.R.H.G.Z.Z.Z.Z.G.Z.Z.Z.G.G.G.G.Z.Z.Z.G.Z.G.G.B.B.S.OX .C C j.4.L S.@XpXuXpXY.Z @XHX@XT j.t.I v q q q 1 X # # @ @ ,.#XoX5.L #X$XoX7X#XA $ q w v m l k m m k 3 m ! m X X # - 1 m Q W k.uXjXjXdXjXjXpXfXBXBXGXBXjXfXCXCXMXMXNXZXZXNXzXNXzXzXzXzXMXNXMXiXW.u.i.V.-.b % % % < > % c b b r.>.-.h.s.N.Z.Z.Z.{.Q.H : 2 x x H H H Y -.( R R %.( E b % Y E E ( :.-.:.:.-.( ( ( -.a.c.C.<.c.A._.c.`.qX X)._.F.A.A.a.g.-.. i {.H.c.F.*X-X*X*X[.>.F.[.[.}.A.h.A.[.-X*X4Xc.a.-X[.[.6X>.B }.J b }.}.}.}.6X6X}.}.|.{.6X8X6X6X>X8X3X}.6XH.}.>X}.6X|.}.1X{.N.y.>Xu Y R.:X{.{.&X,X&X>X>X5X5XZ.u.N.Z.R.B.B.E.B.G.Z.N.s.N.s.s.r.-.;.;.W y.H n ;.;. .H H Z v Z k.2X2X0Xv.,. . .,.S.G.<. .L ,.;.v Z Z U Z v L v q C < X.Y.t. ., v | o.o. .V A e * w w v v v Z L U v % $ @ @ @ $ $ , V v $ * * A oX$XXXoXm.4.m.4.S.,.$ , 0 < , , p v m v v 0 , 0 T o.o.L A V V ..o.| oXnXS.| ,.7XnXaX9X5X8XzXzXmX9XR.C.Z.D.B.B.B.C.D.B.B.B.Q.&X&X&X&X&XW.Q.R.R.R.R.R.R.R.H.E.E.E.G.c.c.x.N.Z.Z.Z.Z.G.G.G.R.R.H.H.H.H.R.H.H.H.G.G.G.G.H.H.R.R.H.H.",
"C.C.C.C.G.H.G.G.R.H.G.G.Z.N.N.Z.Z.Z.Z.Z.Z.Z.Z.Z.Z.Z.Z.Z.G.G.G.G.G.Z.Z.C.Z.G.G.T.2X2X| * f m.$X| ,.#X#X7XbXpXX.nXHXHXY.o.X.T Z e , x 1 # . # * @ p C p e , l.#X#X7XL $ , v l m ! m m m k ; - 1 1 1 1 k 1 k ! I w.I.@XhXdXdXdXdXuXdXjXcXjXMXfXdXCXGXVXcXMXCXVXNXxX6XxXzXsXvXzXzX5XzXNXaXT.s.u.y.e.H u % % % : x u c :.` ) s.y.N.H.U.U.W.U.n : 2 x x N N n H E E J R %.-.E b % J Y J ( :.:.<.:.-.R R ) -.y.a.s.>.a.d.F.c._.4X-X_.A.A.d.A.>.c.a.& % R Z.C.C.H.}.*X*X[.1.A.[.[.}.c.d.A.[.*X-X4X`.c.[.-X}.3Xs.>.>XK M }.}.}.|.6X-X}.}.|.{.6X5X6X>X-X6X6X[.6XZ.}.>X|.6X|.}.>X{.Z.r.|.i R W.:X:X&X:X5X*X:X*X5X5XB.N.N.Z.R.N.Z.E.N.Z.B.x.y.N.s.s.:.;.:.:.E r.n b W E E H U b y < p A L j.+Xj.,.OXS. .t.;.;.H ,.E v C C Z C w T T v w q Z X.e.Z , e A A Z A e e , q v Z T Z T t.S.L.k.Z @ % * * , * 0 C T e 9 0 } oXXXoXoXl.L S.4.l.j.9 0 0 p b Z Z H Z v n Z Z T X.,. .| r V | ..| f  .nX$Xl.t.j.gXMX,X*X9XmXmXsX{.Z.Z.C.C.B.v.v.B.D.B.x.x.G.OX&X&X&XOXE.G.G.G.G.G.G.G.G.E.H.C.B.x.s.N.C.G.G.Z.Z.Z.Z.Z.R.R.R.H.H.H.E.E.T.H.H.H.G.G.G.G.H.R.H.H.H.",
"D.C.C.D.Z.G.G.G.R.R.H.G.Z.N.N.N.C.Z.Z.Z.Z.Z.Z.Z.Z.Z.Z.Z.Z.G.G.G.H.Z.Z.Z.G.R.OXOX#XpXl.w O.$X$X4.A l.Y.@X7Xt.Z GXVXHXnXT V T v q q l q 2 @ 0 0 * * * V v , e k.7Xt.0 e q l m m ! ! m k 1 ; m ! ! Q Q ! k ! Q w.I.uXdXdXdXpXdXW.:XfXgXjXcXdXdXMXCXCXCXNXCXZXCXNXzX8X8X5XsXxX6X6X>XsX{.1XzXU.:.( H H H b > X > c b c ( >.` a.a.N.A.R.R.{.V.n : 2 x x n n b N Y R J J ) ( E b % H H H E r.:.<.:.%.R R ) -.>.>.<._ 2.a.A.c._.wX-X`.n.`.A._.<.s.%.= u R Z.N.c.A.].-X[.[.c._.[.}._.h.a.H.[.-X-X;X-XA.}.-X`.[.A.Z.6XJ c ].}.[.-X4X|.}.>X,X|.6X5X-X}.*X4X3X[.6XA.}.|.}.6X}.}.|.{.U.y.W.c E W.:X>X*X>X5X*X:X*X9X>XN.G.B.Z.T.N.Z.E.Z.Z.N.s.y.N.s.y.:.-.;.;.E :.b u H H H H U Z y q * 0 | #X#XXXj.+X#Xj.;.V.u.C L Z v v m Z 0 v S.k. .L v w q Z v , q Z w v w , e q w v q q I t.Y.@XyXpXt., $ $ @ * 0 V Z Z w * p ,.oXoXoX#X4.e ,.oXS.o.* , w C H T H Z Z Z Z T  . . .,.,.l.A w A } A A  .oX$X| S.OXnX7X&XE.,XzXNX5XG.N.B.B.N.x.z.c.B.B.B.x.x.B.B.G.H.H.G.G.H.H.H.R.R.H.H.E.E.G.x.x.x.x.C.Z.Z.Z.Z.Z.G.G.G.R.R.R.H.H.H.E.E.E.H.H.H.H.G.G.G.G.H.H.H.G.",
"G.G.G.G.G.G.G.G.R.R.R.H.Z.N.N.B.Z.Z.Z.Z.Z.Z.Z.Z.Z.Z.Z.Z.G.G.Z.Z.C.G.G.R.T.Z.T.j.Q.7X#X..oX$X$X$X| | o.o.k.X.Z k.k.k.X.v q I l Z v l m x % q p q C x I m ! q q Z e q v l l l m m m ! k - l Q Q Q w.I k k I Q P.uXbXdXdXdXuXT.u.N.1XaXcXcXiXgXCXMXZXCXCXNXzXzXcXAXxXzXxXsX5X6X6X6X*X{.,X5X{.N.-.J H H W H > : x n i J -.` -.s.N.R.E.U.|.V.b : 3 2 x n b c b J Y J J R E E b % H H H ( y.>.:.-.%.( ( ( ( -.-.<.-.2.2.A.c.`.qX;X[.A.A.).[.c.C.S & >.{.>XN.c.H.=X-X*X`.n.A.[.].}.c.d._.`.;X-X-X-XA.A.-X[.}.H.R.6XR c }.}.|.|.6X|.}.6X5X>X6X8X-XH.>X8X6X[.-XA.R.}.R.|.}.R.|.}.R.s.R.i E {.{.>X:X,X5X>X>X>X9X{.Z.E.R.Z.Z.x.B.G.B.B.x.x.a.x.y.r.-.E E E E :.v y n b H H H v q q , L 7X+XS.l.j.K.OXS.C T t.v q x q q v n * v S.l.l.l.L V , , q , e 0 V V v 0 , V I l m l V Z X.#XyXp.m , $ , , , w A T V $ $ e  .S.oXoX#XA $ w o.l.,.e 0 v Z Z C Z T U Z U X.t.t.,.,.k.7XS.A A A V f L ..#XA j.CXnX:X=X9X,X5XsX>XZ.N.N.c.c.s.s.c.B.B.B.B.B.x.u.x.x.x.B.G.R.H.H.E.E.E.E.E.E.B.x.B.Z.B.C.C.C.C.Z.G.G.G.G.R.R.R.H.H.H.T.E.E.H.T.H.H.G.G.G.G.G.G.H.G.",
"G.G.H.G.G.G.G.H.R.R.R.R.Z.N.N.Z.G.G.Z.Z.Z.Z.Z.Z.Z.Z.Z.G.G.G.Z.Z.C.G.C.Z.Z.Z.W.u.T.S.$X#XoX#X$X$XS.A | ,.@Xt.H ;.k.Q.k.t.Q q q v l v q 1 , 0 v * v I I Q I l X ; # , x m m ! m l ! m 3 - I I ! m Q l 3 I Q p.kXkXhXdXbXaX:Xr.W -.N.iXgX1XfXCXCXJXMXcXNXzXxXzXzXAXAXzXxXzXzX8X8XxXsX5X>X{.>X5XN.y.J b u.<Xi.x 2 c 6 b :.r.:.h.N.}.R.U.|.g.c : : 2 n H N b b Y E R J R ( E b % H H H ( y.-.-.-.%.%.( ( -.>.<.a.>.a.>.A.n.[.qX-X[.)._._._.C.].-.5 %.*X{.A.Z.F.}.=X*X_.A.n._.}.}.C.d._.F.-X[. X Xn.d.}.-X}.].R.>X( b |.|.[.|.6X3X|.>X,X5X5X5X|.R.6X5X|.]. XA.}.}.A.[.}.}.}.}.R.N.R.c ( {.W.>X:X5X5X,X,X,X9XR.R.E.{.Z.Z.s.N.Z.B.N.x.x.:.y.r.y.;.E ` ;.E ;.u y n b H U n v q : q k.2XS.S.L o.S.k.S.C q Z v , 2 2 q n v $ p l.l.S.o.C e , , w q C p q w e w p | l w V T V A V C v q ; : # Z L e , p T V $ * w  .l.#X#X,.9 w p e T | , q v T X.T T U U T T i.Y.S.j.,.+XCX#Xf f } ..F f L #XL  .2XnX,.m.mXAXsX>XG.c.N.B.B.c.c.c.B.B.B.B.B.x.B.B.B.B.G.H.E.R.H.G.H.E.E.E.E.R.B.x.B.G.B.B.B.B.C.G.G.Z.G.H.G.R.R.H.G.G.H.T.R.H.T.T.H.G.G.G.H.H.H.H.H.",
"F.H.H.H.G.G.H.H.R.H.R.R.G.N.B.Z.Z.Z.Z.Z.Z.G.G.Z.Z.G.G.G.G.H.H.G.G.B.G.B.B.B.&XV.T.@X#X#X#X#X#X7X#X,.+XT.;.k.:X@XY.pXuXk.~.p.X.q 1 q q : # , u , x m ! Q I ! q ; # : q Z ! I ! m 1 - 4 1 I Q Q m k - m L.i.yXGXpXuXkXdXdXT.;.E -.N.:X1XaXMXMXNXVXzXgXzXCXzXsXxXNXNXNXmXmXzXxXsXvXsX6X6XzX5X>XH.x.y.E <XBXuXu.x c y b -.y.h.N.}.|.{.R.>Xe.6 : 2 < x H n c H E R Y H ( ( -.c O Y E E ( -.>.-.-.-.( -.-.) -.>.<.>.2.>.n.n.).wX4X).A._.[.*X[.A.c.M R N.C.x.c._._._._.`.A.A._.}.}.c.2.`._.`.).[.-XA.1.A.3X[.Z.N.>XE M >X{.*X3X5X6X>X,X>X5X5X5X}.].6X5X>X}.>XH.}.[.H.[.F.}.|.}.Z.U.U.c -.W.W.1X:X1X5X:X,X,X,XG.{.R.E.Z.Z.u.Z.s.Z.N.x.y.:.y.y.:.R R ` -.E ;.2 q n n H Z n n 2 # v S.Y.S. .v | j.u.u.C q u y 1 q q l v , # , C l.S. .,.4.V v A w q v p 0 w T l.#XV A A A q v w w 1 ; ; , , | Y.,.L e e e $ w A ..l.S.L 9 9 e p V  .L v v v v | X.Q T Z T t.V.@XQ.V.T.9XnX0X4.5.m.0X0X5.F 4.|  .,.+X,.*.XXmX1XG.x.B.B.N.Z.C.c.N.B.B.B.B.B.B.B.G.H.R.E.E.E.R.R.H.H.E.H.].R.G.x.B.B.G.N.B.C.C.C.Z.G.G.G.G.G.T.G.G.G.G.H.H.R.E.E.E.H.H.H.H.H.H.H.H.H.",
"F.H.H.H.G.G.H.H.R.R.E.E.H.Z.B.Z.Z.Z.Z.Z.Z.G.G.R.H.R.R.R.R.R.R.H.G.D.G.B.B.B.W.V.Q.OX@X7XY.S.#XpXpXS.V.L V.@X:X~.Q.k.k.t.k.k.k.T , , q q % , C , v Z Q Q I Z , : - : - 1 m m k - 1 3 - 1 m m m m k 1 p.lXhXkXkXdXjXiXiXdXV.W ;.u.N.T.5XMXzXfXMXgXzXcXzXNXNXzXzXsXzXAXzXxXzXvXxX6XsXxXzXsX|.{.H.s.Z.N.MXHXBXQ.Z c y N -.s.N.A.}.|.E.U.|.` c % 3 < x H N b H Y J H J ( R E i % E ` E ( -.:.-.-.-.( -.( J ( &.<.&.<.&.h.c.A.;X-X)._._.*X*X].c.<.u H J ) ) >.z.n.n.n.A.n.A.F.].H.d.n.[._.`.A._.`.n.1.n.[.F.C.Z.{.R N 1X>X6X3X8X3X>X3X,X5X3X5X|.}.5X8X|.[.>X}.}.}.H.[.H.[.|.].Z.U.U.i ;.{.W.1X:X5XgX5X,X9X,XE.*XE.Z.Z.N.:.N.x.N.y.y.y.:.:.-.( R E -.W E ;.2 < n c H n n q k x p Z Z v p A C T X.H p y q 2 x q q 1 , * # * * e A l.XXS.|  .,. .v C 0 Z Y.#XnX#X| V A A z V w V v w , ; , v t.#Xl.q * * , * v o.A q e e A L T Z L V v U V e v o.L.Y.p.T T @XpXOX:XaXmXmX7XeX=Xm.oX0XXX*.,.,.S.j. .*.*.,.+XE.B.x.B.B.Z.B.N.C.C.Z.Z.C.B.Z.B.B.Z.G.G.H.H.H.E.E.E.E.E.R.].H.G.B.B.B.B.B.Z.Z.Z.Z.C.Z.G.G.G.G.G.G.G.G.G.G.H.H.T.T.E.T.K.H.H.H.H.H.H.H.",
"F.H.R.H.G.G.G.H.H.R.E.E.R.Z.Z.Z.B.Z.G.G.Z.G.R.Q.E.E.E.E.E.E.E.E.G.G.G.B.Z.Z.&XQ.W.2XT.S.@XQ.Y.pX@XX.n Y.W.W.T.Q.uXY.L.L.k.T 0 , , 0 A p % * b u b Z Z m v v q : : ; : - 3 m ! m ! 1 X k ! I I w.1 ! yXFXFXkXhXkXjXpXiXdXV.;.u.g.Z.V.Q.aXgXfXcXiXfXcXzXzXzXmXzXsX8XxX6XxX8X>XvX8XAXxX6X|.U.E.E.Z.y.Z.VXBXLXuXE i c J ` s.h.A.}.}.R.W.Q.W U : : < x n b c N J J H H R R Y y > -.-.( -.:.:.-.-.-.%.:.R J ( -.<.&.<.) d.d.n.[.[.)._.[.*X].}.c.<.5 S a.C.c.C.[.-X[.[.`._._.A.}.C.>.A.}.F.[.n.A.).n.d.n.F.A.A.:.J t J sX5X5X5XsX5X3X5X5X5X6X5X>X|.8X5X|.}.>X}.}.}.A.}.].}.}.R.Z.H.Z.i :.{.W.1X1XgXgX9X,XsX>X>X>X{.B.R.B.-.s.s.x.<.y.<.;.r.:.` E ` ` Y E W < < H b U n n Z T T v q q 0 w V e , 0 0 0 q q q x 2 q q : # , t.L 9 C #X#X+Xj.o.,.j.A 0 v Y.pX$X$X#Xl.| | o.o.Z , e Z w.X.V e ; , V | | ,.l.| w * v w 0 w w v T L w v Z t.t.Z w q | k.Y.L.k.Z Y.fX7XgXNXmX9X0XqX0Xm.5.XX=Xz.,.*.nX7X{ 5.l.5.j.+XG.x.B.N.N.N.C.C.N.N.C.B.B.Z.B.B.C.G.H.H.H.R.R.R.E.E.E.E.].G.G.B.B.B.B.Z.G.G.Z.C.C.C.Z.G.G.G.G.G.G.G.G.H.H.H.H.H.H.K.H.H.H.H.H.H.G.G.",
"H.H.H.H.G.G.G.H.G.H.R.R.R.G.G.Z.Z.G.R.G.G.R.R.E.E.W.W.W.E.E.E.E.E.H.G.B.G.G.*X{.Q.T.S.T.T.Q.V.Y.t.v U.W.T.R.:X@X@XpXY.k.j.v * , * *  .L $ @ b p 0 q * , * % < , : # : - 1 I Q I ! - ; Q w.w.Q Q 1 p.kXFXkXhXuXdXdXdXuXuXW.T.T.Z.V.V.V.W.uXiXiXaXfXzXfXzXzXzXzXzXxXxX>X5X6X8XxXNXxX}.}.|.U.}.{.R.J y.JXCXGXdXe.n n ` ( s.g.N.A.Z.Z.W.Z.r.` : : 2 x n c u n H H H S J R R < % ;.;.;.:.-.-.-.-.-.%.:.R K ( -.:.>.<.) d.c.c.`.`.A.`.[.*X=X}.c.-.& J }.3X*X[.-X;X-X-X-X-X_.F.*Xa.) A._.A.-XA._._.A.n.d.c.c.H.R u & R sXiX5X8XxXzX5X5XsX5X>X6X6X>X8X6X[.}.>X_.}.}.A.[.}.H.H.].R.H.Z.c :.{.W.2X1XgXgX9X,X5X{.,X*X{.B.R.x.-.y.<.y.:.s.:.;.y.:.( J E W E E W > < Z b n n b U H n v 0 , w C L A p p v p T i.t.k.X.k : : # q +Xk.p p 4.#XoXS.A ,.S.T e S.7X$XS.l.l.S.l.l.l.l.w.A ; e Q t.o.o.w $ v l.#X#XS.k.k.V e A o.t.j.T V , q Z T Q Z v v V T o.i.w.Q q ,.aX,X,XgXzX9X8XqX%X=.=.m.5.=X+Xx.VXSXK.5.5.5.S.7XE.B.B.B.B.Z.N.C.Z.Z.B.B.B.G.C.B.G.H.E.R.R.E.R.H.E.E.E.E.E.C.H.G.B.B.B.G.G.Z.C.C.C.C.Z.G.G.G.G.T.H.H.H.H.H.H.G.H.H.H.H.H.G.H.H.H.G.G.",
"H.H.H.G.G.G.G.H.G.H.R.H.H.H.H.H.G.H.R.R.R.Q.Q.Q.E.E.E.E.E.E.W.W.W.E.R.G.R.H.E.R.Z.G.S.S.T.T.Q.W.t.i.W.Q.W.R.Q.Y.pXpX#XY.t.w e $ * $ 0 s = = g t $ p F F F L p * , : ; - m Q Q ! ! - - k l k 1 X k !.kXFXkXhXpXkXdX1XW.1X<X<X<X~.V.V.V.Q.iXiX<XiXfXfXfXMXMXgX9XsXiXxXsXvXvXzXAXsXA.U.R.W.R.|.>X{.R ` MXCXBXdXi.Y H ;.-.Z.Z.A.N.a.N.R.u.V.e.: : 2 x b c c n N N b H J R R > % ;.r.;.:.-.-.( -.-.%.-.J K -.>.a.2.2.&.c.c.n.`.`.).`.[.*X*X].a.%.& D *X8X-X`.[.-X-X-X_.[.A._.-X&.^ C.`._.-X_.[.`.).A.2.d.a.Z.) J i J sXaX5X5XsXxXiX5X5X5X*X6X6X6XsX6X}._.-XH.}.[.A.}.H.A.H.].R.Z.Z.b y.|.W.:X1XgXgXgX5X>X*X,X{.R.B.B.u.:.x.<.:.:.N.y.;.r.r.E J J E E Y E : > Z b n b c u Z | ,.j.| 0  .4.,...,.,.| L ,.j.Y.j.Z q q , v Y.S.A p L #XS.| , C t. .v #X#Xj.o.t.Y.oXl.S.S.S.P.t.w $ , v v e q T Y.$X#X#XS.S.$X| e L l.Y.#X@Xp.: q m Z v v w l T t.i.L.k.U q u.2XV.Z.,XzXxXDXmX9X<.7.K.b.9XDXMXVXVXnX*.{ { XXgX+XE.OXG.x.x.Z.B.B.B.N.B.G.B.B.Z.G.R.E.R.R.E.R.R.E.E.E.{.R.Z.G.G.Z.G.B.H.G.C.C.C.Z.Z.D.G.G.G.G.H.H.H.H.H.H.H.H.H.H.R.R.H.H.H.H.H.G.G.",
"H.H.H.G.G.G.G.G.G.H.H.H.H.H.R.R.R.R.R.R.Q.E.W.E.R.Q.E.Q.Q.E.W.W.W.W.{.E.E.R.R.H.H.G.H.G.Z.Z.Q.:.Q.Q.r.2XQ.Z.OX2Xk.| T T V e p 9 @ 9 G 6.$.s j = a M.%X%X0X%Xb.F * , w v I Q I I ! 1 X o - 1 m k m @XFXkXkXkXuXuXuXQ.T.<X~.<XuX~.T.I.Y.W.iXdXuX2XdXfXgXgXzXgX5X5XsXsXsX>XiXxXzX{.Z.{.R.Z.R.>X>X>XW.u.cXHXVXdXV.;.S -.( Z.}.R.H.a.N.Z.r.Q.` : : 2 6 x x u b n N N K J R R % % y.y.;.y.;.-.-.:.-.%.-.J R :.>.a.d.d.&.h.c.n.`.`._._.[.>X>XF.a.&.& b ].3X[._.`. X[.`.`. XA.`.}.P ^ A.`._.-X`.-X`._.).2.d.2.N.R -.N H fXsXsXsXsXsX5XsXiX5X>X5X5X6X8X6X}._.-X_.}. XA.}.A.H.}.}.H.Z.Z.M r.:X|.W.,XgXzXgX5X*X1X5X{.R.R.N.:.:.s.-.-.:.x.:.;.:.:.-.Y J E E Y Y : : U b n v u  .S.S.S.l.L w | 4.4.j.l.S.l.,.C A j.t.T v l w v Y.S.A L V L L , 0 * e e q v C v | S.#XoXS.#X#XY.Y.k.v $ ; , e ; I k.Y.k.S.#X#X#XS.o.| A j.#Xl.#X@XZ ; , p w 1 0 v T k.I.k.k.X.X.@XW.V.G.,XmXmXDXmXmXM.5.XX9XnXVXJXCXVXmX4.F C j.#X+X,XOXT.E.B.Z.B.Z.Z.B.B.B.B.B.Z.H.E.R.R.R.R.R.R.R.E.{.{.G.Z.Z.Z.Z.G.G.H.G.C.C.G.G.G.D.C.C.Z.G.G.H.H.G.G.G.G.R.H.H.H.R.R.H.H.H.H.G.G.",
"H.H.G.G.G.G.G.G.G.G.H.H.G.G.G.H.R.E.E.E.E.E.Q.R.G.R.E.E.E.E.E.W.W.W.{.{.{.].].E.E.H.E.G.Z.E.E.Z.W.W.Q.:X2XaXaX .C v q e e w e 9 p m.eX%XeXM.s @ $.rX%X%X%XoX0XS.w q v Z Z m I I ! - X k Q w.Q k I ~.bXhXkXhXQ.i.I.Y.T.@X~.2XdX<X~.~.<X<X<XuXuX1XfXbXgXgXgXgXsXsXsX,XsXW.|.zX|.g.{.|.W.|.>XiX1XiXzX{.aXVXGXfXV.r.H ( ( N.}.}.}.s.N.H.y.|.W : : 1 2 y x y b n H H H J E R % > u.y.;.y.-.-.-.<.:.-.-.J R :.>.a.c.d.%.d.d.n.`.`._._.C.].3XC.<.) & M F.[.[.A._.[. X'.-X-X`.`.A.K %._.`.`.[.[.;X X[.A.2.d.2.a.) -.N Y zXfXgXzXzXsXaXsXsX5X5XsX5X>X6X>X}.H.6X}.[.|.A.}.H._.].].Z.Z.U.M r.>X{.Z.W.gXzXaX5X>X9X,XE.R.E.B.y.y.s.%.-.y.B.:.:.E E E Y Y W E H H : : H v n x L S.m.l.S...w F 5.4...4.m.l.,.j.,.p A X.T l q ; V Y.l.v Z w , # * , # #   # # $ l o.#X#X#XS.o.l.#X@XP.V ; , , $ q t.k.S.S.#X#X#Xl.j.l.l.| A S.#Xk.@XY.v % # , 1 , Z I Q X.t.e.W @X@XV.Q.:XgXmXxXmXDXmXM.7.=XmXDXCXVXVXJXgXS.F f  .#XP L K.OXG.B.B.Q.*X{.E.G.B.B.B.G.R.E.R.R.R.R.R.E.R.E.E.E.B.Z.Z.B.Z.G.H.H.H.Z.G.G.G.G.C.C.C.C.Z.Z.G.G.G.G.G.H.H.H.H.H.H.H.G.G.H.H.H.H.",
"H.G.G.G.G.G.G.G.H.H.H.H.G.Z.Z.G.H.R.E.{.{.E.H.Z.G.R.E.W.W.W.E.E.{.W.{.{.].{.].].&XE.H.E.Q.R.-.|.<XdXiXr.aX7XV.C A | v e w p e f m.%XoX%XrX%XG @ g 8.%XrX%X%XeX*.w q l Z X.I ! I k - k w.w.Q Q k Q @XhXhXuXQ.I.u.I.Q.Q.@X<XpXdXpXuXdXkXdXpXdXpXiXjXjXgXgXgX5XaXgXfX5XBXy.E >XU.>X{.W.>XiX>XaXcXgXsXaXuXMXGXjXV.u.R ( ` N.[.}.}.a.N.Z.y.|.E > : 1 6 x x u n b H N N K ` E % > u.y.;.r.%.%.-.y.:.%.-.H J >.-.a.c.d.) 2.d.n.[.`._._.a.v.].s.>.J & M }.6X[.).).'.'.'.'._.`._.n.^ >.F.[.[.*X;XwX-X[.A.n.c.>.<.:.s.N Y zXgXfXzXNXzXsXsXsX8X5XzXsX6X6X>X].H.4X[.[.[.h.R.}.H.Z.R.Z.Z.Z.M y.1XW.y.x.5XfX5X,X,X9X>XG.Z.W.Z.<.s.N.%.-.u.Z.:.Y n H Y E Y E J H Y % > H n U b S.j.,.S.,.,.4.} l.l.l.oXm.l.S.j.l.| w p V w e ; v @Xj., , , , # , , l ; # ; q , , T k.#Xk.#XL q m w.k.Z # # $ , V P.Y.#XY.S.S.L | S.S.k.l.* A @XY.L.@Xt., # @ , Z k.~.k.U n v Z <XV.k.Q.,XmX,X9XxXmXDX0XK.nXDXmXMXCXJXZX7X+XC C P 7X,.L ;.u.OXT.E.=XH.G.=XOXx.x.B.G.E.R.R.R.R.R.R.E.E.E.E.R.N.G.Z.B.B.G.H.G.G.G.G.G.D.C.C.C.C.C.C.Z.Z.G.G.G.H.H.R.H.H.H.H.R.H.H.H.H.H.H.",
"Z.G.G.G.Z.Z.Z.G.G.H.R.R.G.Z.Z.Z.R.R.E.E.R.G.G.G.T.Q.R.{.{.E.{.E.&XW.&XE.E.&X,XK.+X#X+XT.T.Q.;.<XbXBXBXi.k.jX@Xv Z Z w p f f 9 *.0XoX%X%X%X0.h h 0.0.0.%XrXrX6.s p V I T Q Q ! l 4 1 Q w.Q w.q.l Q yXFXbXlXI.k.i.I.Y.Y.~.uXuXuXdXhXbXjXpXkXjXpXuXjXdXiXMXcX<X1XiXdXaXV.E N g.W.>XU.W.>XaXsXiXiXiXMXcXaXCXVXjXV.:.R ( :.C.A.}.A.a.N.N.g.W.Y < % 1 x y c c c b H N J J -.` % > u.y.:.u.-.( -.-.E E E J ) <.-.<.a.d.) 2.h.c.A.A.[.[.z.<.H.<.( J + d A.6X[._.).'.).;X'.`._.`.A.>.>.n._.-X-XqXqX[.).A.n.c.a.c.:.y.N Y zXfXfXzXMXgXgXgXxX3X}.sX5XsX6X}.}.}.8X}.}.}.N.}.Z.Z.s.s.{.N.R.M :.1X{.( ( >XNX5X,X,X,X>XB.%.J s.u.c.u.J :.x.N.` c J E 2 N Y E J Y Y % < n b b n ;.T C 0 ..XX5.*.5.oXl.4.,.,.K.j.} f C A e , l e w Y.| , , , # # l v , # l Q I , , v T k.#Xk.V ; # 1 v l - # # ; 1 l V L A v q * o.oXS.l.j.e @ Q Y.Y.k.~.w., q t.yX@X@XQ.k.x 1 E Q.k.k.T.>XgXzXzX9XmXmXNXmXmXZXVXMXBXZXSX7XnX*.C T gXaX .H ;.G.K.=X=X0XK.,.+X+XD.H.R.R.Q.E.E.E.Q.E.Q.W.E.Q.E.x.G.Z.c.H.Z.Z.G.G.G.Z.C.C.Z.G.G.C.C.Z.Z.Z.G.G.H.R.R.E.E.H.H.H.H.H.H.H.H.H.H.",
"G.G.G.G.Z.Z.Z.G.G.H.R.H.H.G.G.G.R.H.Z.G.G.G.R.Q.R.W.].E.E.&XE.&X+X,X0X7X=Xv.,.,.4.l.S.+XOXE ~.uXGXbXGXuXW uXBXQ.Y.k.L 0 s e 9 } 8.oX%X%X%X0.9.9.%X%XrX%X%X%X*.9 w V T X.X.Q m k ; m Q Q Q w.Q k Q yXFXhXkX~.I.k.Y.Y.Q.~.uXpXhXkXhXbXpXpXkXuXdXdXpXpXjXaXfX2XZ.Q.~.u.W V.W.:X~.U.Z.|.iXiXaXaXgXaXCXfX<XcXVXjXZ.y.J ) >.C.H.}.A.d.g.c.Z.|.H 2 % 1 2 2 6 x b b J N K R ;.( % > y.y.y.u.:.( -.u.;.W R H ) y.-.<.a.a.) >.>.2.H._._.c.c.z.c.>.( R + i A.-X[.n.n.).). X;X'.`.`.`.2.1.A.-X[.4X;XwX;X[.`.A.d.d.A.:.s.H R fXfXfXMXMXgXgXgX8X8X6X-X>X6X8X>X}.}.8X}.].}.N.E.{.V.( ( T.U.E.M y.>Xs.b H R Z.sX,X,X9X>X:.S S <.u.c.y.R ;.s.N.E n b 2 . 6 Y Y Y Y Y % % n b c y 2 , % * *.oX6.8.m.oXoXl.C * V C } L A | V , q , V #XZ ; # @ , q v 1 : v T v , , v , q o.Y.| , # , 1 , , : # # X : , , e e , q e o.l.t.S.| @ @ : X.k.~.Y.#Xk.P.@Xt.X.X.t.Y.k.t.k.Q.V.V.W.1XgXgXgX9X3X5XgXmXCXCXMXMXVXSXMX,XVX+X;.Z T.JX@Xj.OXB.K.=X<.7XS.,.S.j.+XE.E.R.E.{.{.E.W.E.E.{.W.E.R.s.Z.Z.N.H.G.G.G.G.G.Z.C.Z.G.G.G.C.C.Z.Z.G.H.H.R.R.R.E.R.H.H.H.R.R.H.H.H.H.H.",
"H.H.H.G.G.G.G.H.G.G.G.G.G.Z.G.G.H.Z.Z.G.R.R.R.R.E.R.{.R.E.E.&X:Xm.oXm.m. .{ *...} L  .+Xj.n jXBXLXGXLXLXX.Y.KXKXJX#X{ f } h j j 9.8.%X%X%X%X0.0.0.0.%XrX%XrXXXj A C Z T I ! k 3 q Q Q Q w.w.! 1 w.lXkXlXkXuX~.I.I.~.uXlXhXhXhXhXlXlXhXBX~.t.dXkXdXpXjXjX<XN.r.u.;.Y e.~.uX<XW.Q.Q.:X1X2X5XsXzXgXMXaX~.iXMXgXZ.s.R ( -.c.R.}.A.g.C.s.Z.Q.H x % < 2 2 1 : < y N H J ( :.E > > r.y.y.;.-.R <.B.-.E J M ) y.) >.a.<.K &.>.a.c.s.c.%.a.H.d.>.-.( & i A.[. Xn.).).n.).`.`.'.-X`.d.2.).`.-X4X*X-X[.[._.c.A.h.N.y.N.J ( fXfXcXMXMXzXfXzX5X6Xa.a.|.8X3X}.*X}.5X}.R.}.N.R.>X:.i u r.R.R.b y.{.y.6 > % :.sX5X5X5XR.R b J c.y.s.<.R -.s.s.E H u O . < Y Y H Y J > > H c x x x y < 0 j.oXoXoXm.4.m.#XP * p L  .V L | T v ; e l t.l @ $ , q q , @ q Z l , , q w e , l Z e # , , , # : , - q q ; , , , ; , q , | S.#Xk.q @ # X   q Z w.k.k.| m X.t.~.~.Y.k.V.V.u.k.Z.:XaXgXzXgX3X{.=X*X9XCXCXNXNXJXJXfX,XJXJXpX2XbXHXHXOXG.G.S.K.F  .*.K.0Xj.5.&X&XE.E.{.W.E.E.E.W.{.W.{.G.s.Z.Z.B.G.G.Z.G.Z.Z.Z.C.C.Z.G.Z.C.C.Z.Z.H.H.R.E.E.R.H.H.H.H.H.H.H.H.H.H.H.H.",
"G.G.G.G.G.G.G.H.H.H.G.G.G.G.G.G.Z.Z.R.Q.E.Q.R.R.R.W.G.E.E.E.&Xm.m.5.m.oX} p *.} } f f *.A u.GXLXGXjXGXLXQ.t.BXJX7X{ F #.*.*.} f j 9.%X%X%X%X%X0.0.0.0.%X%X%X%X{ v v I X.Q I q - k Q Q I w.Q m ~ /.hXkXkXkXhX@X~.@XuXhXhXhXhXhXkXhXbXlX@XX.T pXdXpXuX<X1XQ.V.Q.@XE E Q.Q.T.|.W.U.Z.U.T.2XsXcXfXfXMXdX<XaXGXfXZ.y.( %.-.c.R.R.A.N.N.y.Z.U.H b % , x 2 > > U e.Y H J ( :.E < % e.r.-.W -.J :.Z.R Y J H %.y.( >.a.a.K >.a.<.&.<.].%.K F.d.<.-.R & a A.`.`.A._.`.n.n.n.A.[.-X`.d.2.`.`.4X4X-X-X`.A.A.A.}.c.g.a.Z.J -.cXzXcXMXzXsXgXsX8XN.K ( <.R.6X}.*X}.8X}.H.}.N.H.{.J & % J Z.U.c :.:XZ.E N J W.5X>X5X5XE.:.-.u.R.:.s.:.( :.s.:.J J n 6 6 N E Y N Y H % 2 Y c c b n Z Z p ,.K.m.m.m.*.m.m.C , s L L p w Z v , ; ; , T v ; ; , , , # , w q ; ; e q , , , # # # ; ; # ; # # # ; w ; # $ @ $ ; ; ; , q t.j.V # ; # # # #   q Z l q Q i.k.Y.L.V.Y.Q.V.i.V.V.:XgXgXzXzX8X*X{.*X5XzXmXNXZXSXSX,X2XZXKXJXKXKXJXZX,XG.E.S.=X{ { 5.9X0X,. .T.E.].,X*X>X{.E.E.E.W.E.{.G.s.Z.Z.B.G.Z.C.Z.C.C.C.C.C.C.C.C.C.C.G.H.H.H.R.R.R.H.H.H.H.H.H.H.H.H.H.H.G.G.",
"G.G.G.G.H.H.H.H.G.Z.Z.Z.Z.Z.Z.Z.Z.H.E.E.E.R.E.W.].G.E.H.G.&X,.*.5.8.8.6...j } ..f f f p 0 @XGXLXGXkXGXLXbXW 1XHX,.F 6.6.*.*.{ } j 8.%X%X%X0.%X0.6.8.%X%X%X%X0Xm.w l T T Q I q 1 m Q Q I Q Q m k /.lXFXkXhX~.@XuXlXhXhXlXlXhXkXkXbXhX!.L.T T Y.I.I.~.~.T.~.dX<X~.E U ~.T.Y.~.U.g.W.U.V.|.:XiXaXCXfXfXaXdXMXiXV.r.( ( -.N.H.A.A.A.s.y.R.g.n n % < n 2 > > N r.` Y J ( :.-.< % ;.;.R %.( u N ;.J E J K -.<.` -.a.s.D %.a.-.) ) c.S t 2.2.<.:.) & i a._.[._._.n.>.>.f.n.).`.[.n.2.`.`.-X4X`.-XA.) >.F.}.A.H.N.Z.Y -.cXcXcXcXsXsX8X8X6X:.a M M :.*X>X>X>XsX}.H.}.A.H.{.M & 5 Y B.T.n :.,X>X{.W.|.iX5X>X9X5X{.Z.R.R.R.>.s.-.-.r.y.R H Y N N H Y ;.-.N J J % 2 U n b v U E H q C j.v.m. .0 p t , < < < p * $ e $ ; ; v o.#Xk.A w w , # # # # # ; , q q q l , # # : ; # q T T V e @ $ # ; w q , ; ; , q ; v , X # : # # # # # , q , Q t.X.t.t.t.k.k.V.V.V.V.T.aXzXaX9XzX5X{.E.3X9X5XsXDXNXAXCXG.1XZXJXHXJXJXKXVXaXW.G.G.+X .%.0X7X+X+Xj.W.W.E.,XG.&X*XW.E.E.E.R.{.Z.x.Z.Z.B.C.Z.C.C.B.C.C.B.B.B.B.C.C.C.G.G.H.G.H.H.H.H.H.H.H.H.H.H.H.H.G.G.G.G.",
"G.Z.G.H.H.H.H.H.C.C.C.C.B.B.B.B.G.H.Q.Q.R.E.E.{.H.H.B.G.E.,.L L 6.m.6...6.f 9 F f C f e C bXHXGXGXGXFXGXKXp.V.JX*.{ 8.$.G $.G f f 8.%X%X%X%X%X%Xh j $.8.%XrXeXXXL L | T Q ! 3 1 Q w.Q I I I m k L.yXkXkXuXI.!.uXpXpXhXhXkXkXkXkXkX!.t.w.Q k.uXY.I.I.I.~.uXdXpX<XE U i.Q.T.i.u.e.U.V.N.Q.g.N.V.<XMXdX<X<XcXfXU.r.R ( >.s.c.d.h.N.y.:.Z.` c n % < x 2 % X X y Y R J -.-.:.< : W ` :.y.( & & y y Y R J -.<.( ` :.a.M ) 2.:.J & < = & ) a.d.a.-.< M h.A.[.A.n.^ ) A.>.A.).`.-XA.2.)._.;XqX_. X_ t M ) _.[.}.H.}.Y -.MXzXcXzX9X5X8X5X>X>.i i ) C.|.}.>X>XsX|.R.}.H.R.{.b u H :.Z.W.M :.>X5X5X5X>X>X5X,XsX>XR.R.{.E.Z.-.u.%.-.y.y.J M H H N H Y y.-.J J Y > 6 U N b b T E U n u  .j.,.p . @ % < t < < $ # , , # $ V Y.#X#Xl.o.V , ; , ; ; X # ; 1 v v Z I v : X # # q t.k.k.t.o., @ w o.t.t. .L l , , , # X # - # #   # # # x v q T U W X.W W X.;.u.V.u.V.1XfXgX5X,XsX9XsX9XsX9X,X9XmXDXSXDXG.fXJXJXJXJXJXJXCXgXW.&X:Xx.*.=X,X,.*.j.0X:X&XE.,XB.&X&XE.Q.Q.].E.E.Z.x.N.Z.Z.B.C.B.C.B.C.C.B.B.B.B.C.C.G.G.G.G.G.G.H.H.H.R.R.E.R.R.H.H.H.G.G.G.G.",
"G.G.G.H.R.R.H.H.G.G.G.G.G.G.G.G.G.H.E.Q.Q.E.E.R.Z.B.G.H.OX,.L L *.6.....6.} 9 f f f e 9 t.GXBXkXGXGXPXGXKX@X;.gX .*.*.{ *.=.G g G } 0.%XoX%X%X8.j @ 9 j *.{ C f 0 w v Z X.Q 1 k p.p.w.! m I I k w.yXlXhXyX~.Q.uXhXhXhXhXkXkXPXkXhX!.t.k.yXkXhXkXuX@X~.<X~.~.<X~.e.i.~.iXI.;.u.V.U.Q.U.U.u.V.U.<XiXQ.i.T.jXBXQ.-.R ( -.y.<.a.s.a.-.:.N.N y Z % : x 2 > y x H E H J -.-.-.6 : E E -.-.J < % % u ;.-.R >.y.( ( :.y.b ) y.<.M . + & t ^ s.c.<.>.5 d d.d.d.d.a.5 5 K ) ).`.`.;X).f.n.A.-X4X_.[.D & 5 D [.3X*X}.|.Y ;.cXcXcXsX6X5XsX8X6Xy.( -.g.>X5X].>X>X8X{.R.|.E.E.{.R R :.N.W.W.b :.:X>X,X5X9X5X5X>X5X{.E.R.R.Z.N.:.y.-.-.:.y.R b N H H J J :.;.H J Y > 6 Y N N N W T U T y q Z q , : % % 0 t t 0 < , , # , ; L Y.S.l.O.| w * q e e v ,   @ # - ; 1 q , ; # # - U p.t.w.t.l.e * T | | X.o.t.t.Z # ; X ; #   # -   # # : v 1 q Z m U T U U T W ;.i.u.V.aX5X:X1X5XsX5XgXmXmX9X3X0X9XmXmXeXD.SXJXSXJXJXKXKXNX5X:XW.Q.:X:X=X+XJ.,.%.7X+XW.&XaX,X5X:XW.E.E.{.R.G.N.c.N.Z.Z.B.C.B.B.B.C.C.B.B.B.C.C.D.G.G.G.G.G.G.H.H.H.R.R.E.E.R.H.H.H.G.G.G.G.",
"G.G.H.R.R.R.H.H.Z.G.G.G.G.G.H.H.E.E.R.R.Q.E.E.G.Z.Z.R.E.T.E.;.L *.6.} } } } f s C f f e S.VXGXbXGXbXGXLXGXjX .j.P *.$.*.#.F g G { j g 9.oX%X6.f 9 9 9 @ a $   * , w q , v T 1 l p./.p.Q I I I k k !.hXpXkXhXuXuXhXkXkXkXkXkXkXlXkXkXhXhXbXkXuXhXkXhX<X;.W e.i.i.uXdXpXjX<XI.~.<X~.iXiX|.W.:X1X2Xr.k.Y.1XjXdXT.u.E ( ` >.>.s.h.y.J :.Z.b y H % : x 2 < x H Y H J H -.:.E u % E E E ( J c 6 < H u.r.R -.:.R R :.:.a P >.-.H M J H D ) C.A.<.<.& i ) ) K >.d.i + & ^ }.[._.;X`.n.)._.[.wX X3X&.5 i a.4X8X3X>X,XR :.zXzXzXsX*X>X8X5X>XR.H.{.E.>X|.*X,X>X8X|.}.,X{.{.{.r.y.g.U.:X:Xc ;.5X:X,X9XzX5X,X>X,X{.{.G.N.N.N.u.y.;.-.:.r.R b N Y R R R ;.` N H H & < Y H N n E U W U U q : : < y % < c t t u q q q 1 X # v o.l.j.,.| C L | v , v m , # # # - , , : ; # # X l o.o.o.o.t.e V ,.| L | | X.t.| q # : # # q Q T v # # ; , , q x n Z U Z U W X.t.i.e.:.T.{.{.1X,XsXzXgXmXmX9XK.<.<.M.0X0XK.SXSXJXJXJXJXVXMX,XR.Q.{.E.OXH.OX+XS.B.+XOXW.&XaXfXaX&XW.{.E.{.G.B.s.N.N.Z.Z.N.C.N.B.B.C.C.B.B.B.C.C.C.G.G.G.G.G.G.G.G.G.H.R.R.R.R.H.H.H.H.H.H.H.",
"H.G.G.H.E.E.H.H.Z.Z.G.G.G.G.G.G.E.H.E.Q.Q.R.R.R.G.R.E.W.K.Q.<.*.j.5.m.j... .} f p C A C pXVXGXGXbXPXGXFXGXKXk.q L *.5.%.s t G  .G *.f j s f 0 * f C F t v ,   , q q q , : m m m k.i.p.t.w.Q Q m 3 p.hXlXkXuXdXuXdXkXhXhXhXhXlXlXkXlXlXkXpX@XyXhXhXuX~.i.i.I.I.I.~.@XdXkXpXdXdXiXuXpXiXiX<XMX<XQ.T.2XdXjXdXjX|.y.E ( -.:.:.d.N.:.) :.Z.R i H > % x x : y n H Y E H >.-.E y > U Y ` H i b Y b ;.u.:.R -.:.R J -.y.c R :.( J :.c.a.&.2.s.C.s.:.5 i <.a.a.N.h.-.5 M A.4X-X`.-X'.`.`.A. X4X-X4X}.h._.qXqXxX8X3X5X` :.zXcXsX1X}.*X8X8XsX>XN.,X].>X{.{.*X3XsX3X}.6X>XR.>Xs.u.Z.T.:XW.u ;.5X>X:X,X9X>X5X>X5XR.N.Z.R.E.s.y.u.:.-.:.r.R H H R J R J -.( N J N & < J N b b U U W W U n x q v q : b b u u u q m x q # # , Z o.o...| | O.t.| q q 1 # : # # ; ; , 1 1 - X # ; w V | | V e O.t.o.| V V | o.Z e # # @ $ | o.| | v v q , # x Z Z m n U T T X.;.u.r.-.r.Q.:X>X5XsXfXgX9XnXK.{ G f f h $.oXDXSXDXDXJXJXJXgX:XW.E.Q.E.E.K.K.E.+X&XOXOXOXW.,X9X&X,X&XE.&X{.Z.s.x.Z.N.Z.Z.C.C.B.B.B.C.Z.C.C.C.Z.G.G.G.H.G.G.G.G.Z.G.G.G.G.G.G.H.H.H.G.G.G.G.G.",
"H.G.G.H.E.R.H.G.G.G.G.G.H.H.R.R.E.H.R.Q.Q.Q.E.R.W.G.R.&XOX+Xj.j.K.9X,X7Xx.%.v.,.L A C  .bXHXGXkXbXkXGXHXbXQ.,.* C L a < @ @ 0 L ,.5.*.F 9 t L A L T  .b v , # , q q e q q q m T L.p.i.p.L.k.w.I ; Z uXhXdXuXdXhXdXkXkXkXkXhXhXpXyXkXbXlX!.~.~.Q.uXuX~.I.I.I.I.I.I.~.pXhXhXkXdXdXdXjXiXiXdXuXQ.<XjXBXBXuXuXBX~.g.E ( >.:.:.s.s.y.-.c.{.r.b n : : y x : 2 c N Y J J >.-.( u % Y Y N N J i H H Y i.:.R -.:.R J ( y.M R :.( J y.N.C.>.2.c.s.s.<.> b H.H.A.d.N.g.` s.}.4X[.[.;X[.'.-X_.-X4X6XqX3X[.4XqXqXzXxX5XsX` :.CXsXsX5XE.>XxXsXsX6XZ.5X*X>X].R.,X3XsX6X{.1X1XE.5XB.Z.W.Q.:XW.i ;.5X:X:X,X5X>X5X>X>XG.R.R.{.R.N.-.y.y.-.-.-.R J R R J ( R ;.-.H J N & u E N N n U W U I I m x m x q , H v c c n x x m x # X # , w  .,.o.O.,.o.o.e ; , 1 , 3 ; # : ; : 1 , # # ; $ $ V L V V 4.t.O.o.L e e w q @ # L | w A t.o.| T X.I Q Z x U W U H U U W ;.;.e.u.u.u.x.W.,X9XgXNXgXmX9X<.*.6.6.6.G h XXrX8.m.XXgXSXSXgX&XW.W.Q.E.E.T.K.K.W.W.W.W.W.OX:X5XT.5X&XQ.E.R.x.u.N.Z.N.Z.Z.C.B.B.B.C.G.H.H.G.H.H.H.H.H.G.G.G.G.Z.B.Z.G.G.G.G.G.H.H.H.H.G.G.H.H.",
"G.C.C.F.H.H.G.G.G.G.G.G.G.G.R.R.R.R.E.E.W.E.E.Q.W.E.&X1X:X,X+X2X9X,X,X1X1X7X9X2X2X7Xt.k.bXbXbXbXkXGXbXuXT v C * @ @ @ * @ # # @ p ,.5.5.{ 9 0 v L t.L < q X # , , , ; # ; 1 k I i.k.k.t.p.p.w.Q 3 1 ^.uXuXpXdXdXjXdXkXbXBXhX@Xi.U ~.kX~.I.~.Y.k.Q.uX@X~.~.I.!.I.i.^.uXuXdXjXdXkXkXkXuXiXdX~.~.~.iXuX<X~.~.jX<XU.E E -.>.:.d.s.N.:.C.>Xs.n n : : 1 v 2 > v J Y ( R -.-.-.b > E H u E :.H i J Y N.y.( -.-.-.( ( :.H R :.` R s.N.F.>.>.d.<.a.y.& b A.N.C.s.A.N.a.A.[.4X[.`.-X[.[.;X). X-X6XqX6X4XqXmXxXxX8X6XsX` :.cXcXaX{.W.>XsXsXsX6XZ.>X|.{.}.Z.>X>XsX,X|.6X5X}.>XZ.R.{.W.:XW.u ;.5X:X:X1X5X,X,X{.].E.{.{.{.Z.N.;.y.:.-.-.-.R J J J H ( R :.-.H J M % i E N H N U W U U U ! n Z k q , H b H H Y b k m m , X # @ @ w V V o.O.o.o., : q v q k 1 ; : 3 - # # # : # $ e T o.| | l.l.t.j.j.V ; # # $ Z l.k.j.T | o.o.o.t.X.Y.I.U U W U T T U X.X.;.;.r.u.i.V.R.W.:XsXgXgXmX7Xv.M.{ $.9.6.6.oXXX6.6.m.7XSXCXgX*XW.W.R.E.E.T.K.H.E.Q.Q.T.T.W.,X5XW.gXE.E.E.B.y.a.B.C.B.Z.Z.B.B.B.B.G.R.E.R.R.R.E.E.H.H.H.G.G.G.Z.Z.G.G.G.G.G.G.H.H.H.H.H.H.G.G.",
"D.C.C.G.H.H.H.H.R.H.G.G.G.R.R.R.R.E.W.{.W.W.Q.Q.{.>X5X1X&X:X:X9X1X>X1X>X:X:X:X:X,X2X;.@XHXbXkXbXbXBXpX| e q V * # * # % % # #   @ 0  .,.{ p $ , v T Z < 1   , e e e q e x : # k Q t.t.w.t.k.k.Q 3 1 i.~.dXdXkXjXkXjXBXkXkXdX<XI.e.~.uX~.Q.^.i.k.@XhXdXdXdX~.uX~.I.^.~.~.<XdXhXjXjXuX~.jXdXg.T.~.Y.I.V.Q.@XjXfXW.Y R -.:.y.g.N.N.:.C.W.s.b N : : < 2 x O c E J E ) -.( ` b > Y 6 u H H J u u Y N.:.R -.-.;.( ( :.K R :.>.( s.c.C.2.>.h.<.s.s.< i N.h.A.A.].N.a.c.[.qX-X[.-X-X-X4X).[.;X;XqX-X4XqXxXxXxXxX8XzX` :.{.:XsX5X>XsXNXzXxX5XZ.}.}.}.].Z.*X*X5X6X}.5X5XE.5XE.W.>X:X1XW.t ;.5X:X2X5X5X>X{.E.E.{.{.{.R.Z.s.;.y.-.( -.-.J H H H J -.( :.:.J J M + i ( H Y H U U U U U U I m x q , Y n J R E v x m m 1 X   # # # @ $ | l.t.Z , q x q 1 q 1 : : # # 3 3 # : , ; A o.X.| | l.O.j.t.,.V $ # # , o.o.o.l.O.A | | t.l.t.Y.@Xk.Q w.T W X.W X.W W W ;.;.x.:X{.G.Q.,XgXmXmX7X7X9XG g } 9.{ 8.8.6.5.m.=XSXmXgX:XW.E.Q.E.Q.T.K.H.T.W.W.E.W.&X9X:X:XaXE.E.H.x.<.x.Z.Z.Z.Z.Z.B.B.Z.G.H.E.E.E.E.E.E.E.H.G.H.H.G.Z.Z.Z.G.H.G.G.G.G.H.H.H.H.R.H.G.G.",
"D.C.C.G.H.H.H.R.R.H.G.G.G.G.R.R.R.W.{.{.W.W.W.W.,X,X,X>X&X,X:X:X,X1X:X>X>X:X,X:X,X7Xj.iXbXBXGXkXdXnXY.p e V p * @ % : % : : # # # @ p  . .A 0 , - 3 3 2 q # # , Z | T Q q q U e.U v m I X.i.t.Q 3 q Y.@XbXjXjXBXjXbXBXkXdXkXuXpXuXkXpXuXuX~.V.Q.uXdXdXpXdXuXuXuXI.I.~.yXuXkXkXdXkXkXpXkXuXV.Q.T.Q.Q.I.~.uXdXuXW.Y E -.>.:.g.U.N.:.B.E.s.b N % % < 2 U 2 % H J J ( :.( E b < H & > c N ' i c N r.:.R ;.:.;.` -.:.J ( :.>.-.s.C.c.2.>.c.a.a.y.5 i N.s.c.c.C.n.c.c._.4X-X`. X-X X-X).`.4X-X;X-X-XqXqXqXxXxX5XzX-.y.>Xg.U.:XiXNXzXzXNXsXR.R.}.E.*XR.*X>X5X5X{.3X5XE.5X{.{.>X>XaX|.5 -.1X:X2X5X1X{.Z.{.E.>X}.}.Z.V.y.-.:.-.( ( ` K J J R R -.-.:.-.K J N + i ` J ( J b x H U I Q I m n v 2 E H Y R E n n U m k : X # , e # ; v o.I 1 l m q , 2 q q 1 # : 3 : #   q Z $ Z t.t.| w | o.o.t.t.L , , # w t.l.Y.l.X.t.j.l.t.k.k.L.yX!.I Q Q X.t.e.X.X.;.W ;.:.V.:X:XW.{.*X8XzXmXmXmXeX5.G *.6.*.} f { 6.*.j.mXmXmX,XQ.E.E.E.Q.E.E.R.Q.E.W.Q.Q.&X,XB.E.&X&XH.B.u.u.B.G.G.H.Z.Z.B.G.G.H.H.R.E.E.E.E.E.E.G.G.H.G.G.Z.C.Z.G.G.G.G.G.H.H.H.H.H.R.H.G.G.",
"G.C.C.G.G.G.G.H.G.G.Z.G.G.G.R.R.E.{.&XW.W.W.:X:X,X>X:X>X,X1X,X,X:X,X>X:X:X:X:X:X:X1XV.aXjXaXjXbXbXbXo.0 p A e $ * , > : # : * # , @ C j.;.L 0 , : q # 2 , @ q o.o.k.X.p T ~.dX<XI.i.W v q m Q Z , n @X<XBXGXjXjXbXjXjXjXkXdX<XdXjXkXuXY.I.~.<XuXhXdXdXpXdXhXdXlXkXkXkXhXhXkXbXkXBXjXjXBXkX~.I.Y.Y.Y.I.~.uX<XV.I.` -.-.-.:.N.Z.-.( x.{.s.b H % % > x E n % b R R ( :.` ( n 2 N < > i R H u J b u.;.Y ` -.( E ( -.J ( >.&.&.a.A.c.2.>.a.y.y.y.6 u N.a.s.c.n.A.c.A.].;X-X[.;X-X X;X).).4X-X;X X-XqXxXqXxXxX6XsX-.y.U.1X|.Z.Z.>XzXgX5X>XH.Z.|.R.3X{.,X5X5X5X{.>X6XE.,X{.>X,X>XaX|.6 -.2X:X>XiX5X>XH.E.{.,X}.R.g.g.a.-.:.-.' ' ' H H J R K ( -.:.-.K J N + i ;.R E H i x E U I I m m Z m y W J Y E ;.T n U I m , - - 1 m k 1 ; , 3 q m m q 1 k k x 2 : : # # # # q v , Z j.o.A ; e I o.t.t.L , # # v l.l. .A t.#XS.#XS.k.t.T i.t.I Q Q X.k.p.X.X.;.;.X.V.Q.R.W.:X{.E.,X9XmXmXDXnXXXF F *.m.6.} F f F <.gXmXmX,XE.W.Q.Q.E.E.E.E.Q.Q.E.W.E.5X9X&X,X,X,XB.x.u.x.C.G.G.H.Z.Z.B.G.H.H.H.G.H.H.R.R.R.H.G.G.H.H.G.G.Z.G.G.G.G.G.G.H.H.H.H.H.R.H.G.Z.",
"D.C.C.D.D.C.Z.G.G.G.G.R.Q.Q.Q.E.W.{.&X&XOX:X2X1X,X>X>X,X,X:X>X,X,X,X&X:X,X,X,X:X:X9XT.:XgXbXBXBXBX7XC e A w 9 * # 2 2 : : # # 0 : # v X.,.o.V q , ; # q * 0 A ,.o.T C k.dXdXjXuXQ.~.I.k.W q q q : X.uX<XbXGXBXbXMXbXjXjXdXiXiXdXdXpXuX~.I.V.V.~.kXdXdXdXhXkXkXhXhXkXkXkXkXkXbXkXjXkXkX<X<XdX~.~.Q.Y.~.@X<X<XV.V.E -.;.<.s.s.-.H R y.{.s.b H % : < x u b < c R R R -.E ` N > N c 6 & i 5 N N H y.;.( ;.-.E J ( r.) R >.-.&.a.c.c.2.&.>.:.y.g.u c Z.y.s.a.c.C.n.F.`.*X[._. X[.[.;XA.`.4X-XwX-X-X4XxXqXqXxX8XzX( ;.W.|.<X2XT.R.1XQ.N.Z.Z.Z.>XH.5X>X6X5XsX,X*X|.6XR.,X{.>X,X2XaX|.y ;.2X2X:X5X5X>XR.R.>X>X}.Z.g.g.y.-.r.-.E R R N N H M N ( ' >.>.K R H + c :.' R H J Y W Y m m x n Z n v ;.Y Y ` y.E v Z I m 1 - 3 1 l m k 1 4 ; l l k 1 k k q q , 1 m v , # : v x , v C , ; ; $ ; w T X.Z # # # 0 Z V e , t.S.S.k.Y.#X| # q Z Q w.w.t.k.i.X.W W ;.;.S.W.T.Q.W.Q.{.3XxXsXmXDXnX=X<.j.+Xm.0XeXoXm.5.=XDXmXnX1XOXW.T.E.E.W.W.Q.Q.E.E.Q.E.1X9XgX5X:XE.B.y.x.G.S.G.G.G.G.Z.B.G.H.H.G.G.G.H.H.H.H.G.G.G.H.H.G.G.G.G.G.G.Z.G.G.G.H.H.H.H.H.H.Z.Z.",
"Z.C.C.D.D.C.Z.G.G.G.R.Q.E.E.Q.R.W.{.&X:X:X,X2X2X>X1X1X,X,X>X>X,X:X&X:X:X:X,X&X,X:X:X:X7XiXdXMXjXbXY.0 p L w p  .u y U n x : , # : 1 X.;. .T , : : # x 0 u  .L ,.T Z V.@XpXdXfXdXW.W.W.@X~.W q , : k.pX<XdXjXBXCXBXBXdXdXjXdXjX|.<XdXdXdXpX~.i.~.kXkXdXdXjXjXjXkXhXkXdXdXkXkXkXbXjXuXuXi.p.<XkXBXkXjXkXuX~.dXpXV.Y E -.y.s.-.H R ( s.>Xs.n N O % < > % i y < J ( -.-.R ` N > b H N < & u J i ;.u.;.-.-.-.( Y ` y.( J :.` >.2.a.d.&.&.&.-.r.g.u N Z.s.N.a.c._.A.A.[.;X-X`.`.[. XwXA.`.-X[.wX X;X4XqXqXqXxX3XxX-.y.:XU.:X~.<XaXg.:.:.N.Z.Z.>XZ.6X>X>X5XxX>X5X{.5XR.>X].{.:X:X5XQ.2 e.1X1X:X5X1X{.Z.E.5X}.E.Z.R.N.:.` r.;.E Y J N N N b M ` -.>.:.R R H + c :.( R J Y E ` Y m x m Z U n v u.J E -.r.E Z U U m k 2 1 k k k m m m l m m m k x x m k 1 Z W W T H v Z w # # $ $ $ ; ; ; # ; q , # # # : $ v v q T Y.S.Y.S.Y.X.v U X.X.e.p.t.t.t.e.e.;.r.V.V.T.&XW.R.E.,X6XxXxXzXgX9XnXmXDXSXS.eXDXDXmXDXDXAXmXnXgXOXW.W.E.E.Q.E.W.E.E.E.E.Q.W.&X,XE.E.H.x.u.B.T.B.B.K.G.G.G.G.G.G.G.G.G.G.H.H.H.H.G.G.H.G.G.G.G.Z.G.Z.Z.Z.Z.Z.G.H.H.H.H.H.G.Z.Z.",
"C.C.C.C.C.N.B.G.G.G.G.R.Q.E.E.E.&X*X:X:X2X,X,X,X1X5X1X>X>X1X>X:X,X&X,X&X&X,X:X:X2XOX1X1XgXdXgXbXBXS.p p p 0 S.HXdXk.n n X. .H w q W t.V.e.n 2 v q , q q ;.k.k.,.v k.pX@XiXfXaXW.1XW.Q.W.T.V.u : 2 k.pX~.@XaXBXVXMXfXaXfXjXjXfX<X|.1XiXiXiXpXV.Y.jXjXfXjXjXjXBXjXkXkXBXjXkXkXjXkXpXuXY.I.i.V.^.uXhXuXuX~.~.dXMXV.H R :.y.-.%.<.) %.:.:XV.b n % % < < 6 i i 5 H -.( J R E N % i n 2 % u S i J u.u.r.` Y E -.` -.:.( J >.-.y.:.>.a.&.) ) :.s.s.u b N.s.N.y.s.A.A.n.`.;X-X`.[.-X-X4X_.A.`._.qX[.-XwX4X-XqXxX6XxX( J >X|.Z.V.Q.;.Y e.` y.u.g.Q.Z.>X>X>X5XzX,X5X{.sXE.,X{.:X,X|.1XU.< -.iX>X:X>X>X{.R.,X*XH.G.H.s.y.-.( :.-.E Y J H b H M H ( -.:.' ' ) D O b r.R R R E Y ` Y n n m U W n b i.` ( ` <.W H X.X.m x k k ! ! ! I I ! I I m k l x k x x x Z U U T W T n 0 # $ ; e e q e ; - X # - # # # : 1 l Z Z , X.I.@XY.k.I w.X.X.t.Q X.e.e.t.i.t.u.k.Q.Z.T.W.W.G.{.,X5XsXNXgXgXmXnX7XmXmX+XmXmXnXnXmXSXAXDXCXgX&XW.W.W.E.E.W.W.E.E.E.E.OXE.E.E.&XB.x.x.N.B.B.B.Z.G.Z.G.G.H.H.G.G.G.G.G.G.G.G.G.G.H.E.H.G.G.C.C.Z.Z.Z.C.Z.Z.G.G.H.H.H.H.G.C.C.",
"C.C.c.B.c.c.N.C.G.G.R.E.&X&X:X:X:X&X:X:X,X,X,X,X1X5X1X>X1X1X>X:X&X>X&X,X,X:X2X:X2XW.1X1X:XdXgXgXnXQ.j.L 0 q ,.u.k.i.U q w L X.H p v n T U q 1 x , x @ , X.T L 0 v k.I.<X1X:X:X|.2XQ.T.W.Q.i.n % # U <X~.I.Q.2XiXjXdXiXaXfXjXjX1XT.R.2XfXjXjX~.<XjXjXcXcXMXMXjXjXjXbXdX@X<XdXBXkXbX~.i.k.i.Y.k.i.p.I.I.Y.<XBXjXu.b R -.-.%.:.>.J ( u.{.u.b b . . 5 u i M b 5 N ( ) R R -.c % u % > 2 H b J r.:.:.-.W ` -.-.E ( -.R J -.-.-.( ( <.2.) ) <.g.N.i c s.s.C.y.a.A.A.A.`.-X[.`.-X;X-X;X).n.[.`.;X`.4X;X6X;XxXqX>XzX` Y y.Q.>Xu.Y H H H Y ` :.g.Q.R.|.5X>X5XzX6X5X{.sX].|.>X,X,X{.1XU.< ` <X:X>X5X>X{.>X>XH.{.E.N.N.x.y.( :.( Y H H H N H N H ) -.>._ ) ) D O b s.` ' H H H E U U n n U W n n V.` ( ) :.;.Y u.u.U m x Z p.Q Q Q I I Q I ! I m 1 2 x x x n H U Z Z Z v : ; , q q w v w e # , : : ; # - # l l l T q q X.k.k.e.l W t.w.X.Z Z W e.e.u.i.u.r.W.W.Q.W.{.R.{.*XsX9XgXgXgXgXS.{ ,.nXm.K.K.5X8XmXmXNXSXSXfX&XW.E.W.E.Q.Q.Q.Q.E.].E.&XE.E.E.E.x.s.B.B.B.B.B.Z.Z.Z.G.G.G.G.G.G.G.G.G.G.G.G.G.H.H.R.H.G.G.B.C.C.C.C.Z.Z.G.G.G.H.H.R.H.G.C.B.",
"B.N.B.C.B.c.N.B.B.Z.R.E.&X:X,X,X:X:X:X,X,X,X,X1X1X1X,X,X1X1X,X>X>X:X:X&XW.,X:X:X1X2X1X1X2X2XpXV.u.W.bXX.u Z t.Y.~.uXuXY.v T Y.V.t.v # 1 k q n q v v < 0 , ,   @ T i.k.Q.<X:X1X1X:XW.V.U.Q.T.e.# q v i.~.u.t.V.~.dXdXaXiXiXgXdX2XZ.T.:XaXjXjXdXdXiXdXcXjXcXBXjXcXjXbXdX~.uXbXGXhXhXI.i.Q.~.dXuXI.I.~.~.@XjXGX<XW b J R -.:.u.) H ( N.:Xr.N c . . > u i b i & M R R R R -.N & % % H b u H y.:.r.:.:.E ( -.( -.:.%.J J ( ) -.>.<.a.a.^ ) a.c.N.a b N.x.C.<.<.C.h.2.n.).).`.;X-X XwXA.n.'.`.-X).;X;XwX-XqXxX*X5X` r.` ( V.g.Y n H E Y Y ( r.V.Q.}.zX>X5XNX6X5X].5X{.|.|.>X,X>X5XZ.< -.:X:X1X1X,X3X5X{.*XE.B.s.s.s.y.;.:.E J N J N N N N H ) -.>.>.) ) K % M s.-.Y b c H E U H n n Q Q N n U.` -.R -.r.W V.i.T U m U P.w.Q w.Q Q Q I Q Q m 2 x x x x v n Z m m m 2 # , v C v l V l q , ; ; ; , , - ; ; , l X.T , : 0 v Z q Q p.w.w.I x Z W ;.u.k.t.;.V.W.W.{.{.{.{.{.3XgXzXgXDXnX5. .L +Xj.J.,XzXzXzX9XmXCXZXfX&XW.Q.W.W.E.Q.Q.E.E.].OXE.E.&X&XG.c.x.B.C.Z.Z.Z.G.G.G.G.G.G.G.G.G.G.G.G.G.G.H.H.H.R.H.G.G.B.B.C.C.C.C.Z.Z.G.G.G.G.H.R.H.G.C.B.",
"N.N.B.C.C.C.Z.Z.H.E.W.*X:X>X,X,X2X:X:X:X,X,X,X1X1X1X,X,X1X,X:X:X,X7XE.,X9X&XS.=Xv.7X:X:XiXdXI.k.dXKXKXV.V.gXHXHXHXKXKXHXU Q @Xk.t.H q v v x q : p p k.k.T C E t 0 E ;.I.:X1XW.:X|.Q.I.V.V.V.e., U Z Z @XY.I.1XfXdXdXgXfXcXcXfXuXW.>XiXiXjXjXdXaXaXfXCXCXVXGXVXGXBXGXGXjXbXGXGXjXuX~.uXdXdXhXdX!.I.yXuXkXGXkXV.n c E %.-.:.u.P S -.R.5X:.H c . + % 5 u b i & M R R J R E H . > n 6 2 J ;.u.u.;.:.;.;.;.;.-.( ( :.-.R ` ) >.d.a.d.d.&.2.c.c.s.i b N.s.N.<.2.C.a.&.d.d.f.).'.).).4Xn.2.A.n. X). X4XwX X4XqX-XxX-.:.N.Y ` y.` E ` E E R Y ( r.U.}.xX6X5XzX8X5X{.>X}.{.>X>X>X>X>XZ.< ;.:X2X5X,X5X8X{.R.G.E.{.B.<.s.;.;.-.R H H J N b b c M P ) _ >.' ) K & M s.` H u 6 H E U Z m m Q W U n U.;.y.) >.s.;.i.u.T T Z Q P.w.Q Q Q Q Q ! U m m m m x x x x x m n n v 1 # 1 V Z V v V z l , $ , , , q ; , 1 q v Q ;.X.p v w.T q Z w.e.p.I q b W ;.e.t.u.u.u.W.,X,X>X5X3X5XsXzXmXmXDXnX5.%.C <.z.9XDX9X9XzX9XsXgXmX9X&XQ.Q.E.W.W.E.E.W.].E.E.E.OX&X&XB.N.B.B.Z.G.G.G.G.G.G.G.G.G.G.G.G.G.H.G.G.H.H.R.E.R.H.G.Z.B.B.C.C.C.C.Z.Z.G.G.G.G.H.R.H.G.C.B.",
"C.C.B.C.Z.H.E.{.*X:X>X>X>X:X:X>X,X,X,X,X,X,X1X1X1X1X,X,X,X:X:X,X7Xm.5.,.*.#.*.5.%.K.7X7X:XV.dXKXKXKXKXKXHXbXbXGXHXHXGXGXp.m I.e.T Z q 2 1 q < n 0 L S.j.,.L x.j.b Z k.k.Y.:XW.U.W.Q.Q.V.u.p.W x e.X.2 u.Y.Q.dXfXdXiXaXfXMXcXaX2X2XaXfXaXfXdXcXgXgXzXzXMXCXVXVXGXGXBXBXGXGXGXBXjXkXdXjXbXGXjXFXhXuXkXGXGXjX~.u.c u H H ( y.y.J K -.Z.5X( J b . . % 5 i M i & b J J J H R N . b c & Y y.u.r.r.:.:.:.r.:.R J Y ;.r.:.R -.R <.s.2.d.c.2.c.C.c.s.i M N.s.N.a.a.A.d.>.n.f.n.).).2.2. Xn.&.2.1.).).'.wXwX[.;XqX3X8X( :.T.r.;.;.-.` ` n H R J E -.B.{.iX6X5XsXsX,X{.{.{.R.6X5X|.W.>XZ.< ;.2X1XaXaX9X3XR.].R.5XE.N.y.s.:.;.( R H H J H N b i M ) _ _ _ ' ' ) & c s.` H u u N E U H n m Q W H n V.y.g.>.<.Z.;.u.i.E U U w.L.w.Q Q Q Q Q I I m n m x k x k v b n n n v q : # # , l V V w e , , e e 0 q 1 @ q v Z ;.t.k.t.t.t.m 3 Z p.W w.W m Z Q X.X.;.i.k.k.2X5X5X,XsXgXzXCXmXgXnXmX9X .S F *.m.0XnX,X3XsX3XgXfXgX>XR.Q.W.E.W.W.E.E.W.{.E.&X&X&XE.G.u.x.B.B.C.G.G.G.G.G.G.G.G.G.G.G.G.G.H.H.H.H.R.E.E.R.H.G.Z.B.B.C.C.C.C.Z.G.G.G.G.G.H.H.H.Z.B.N.",
"C.C.Z.G.R.{.*X>X:X>X>X>X>X:X:X>X,X,X,X,X,X,X1X1X,X1X,X,X,X1X1X7XXXXX0X%X6.} oXXX5.5.4.j.OXHXKXKXKXLXKXKXHXHXGXFXHXGXbXbXt.q t.e.T m 1 , q v b v C ,.j.,.L a *.E.k.Z Z t.k.T.1X2XT.T.T.u.W ;.Z x ;.W : n V.I.:XpXdXaXjXMXjXdX1X<XiXaXaXW.Z.W.MXMXCXzX5X>X|.1XBXVXHXGXGXJXLXBXkXdXkXuX~.uXdXkXGXLXLXGXkXuX@XI.t.u u Y H H %.<.R S R s.>XJ R b . . % 5 i b u & i H Y J H R b < b + c ` y.y.;.y.:.:.y.;.Y u 6 y Y r.;.J -.) <.>.>.h.n.d.d.s.C.N.i M C.C.Z.c.c.A.d.2._.n.n.`.).2.2.'.f._ 2.1.2.n.-XqXwX[.4XxX[.}.J y.W.s.-.;.-.Y E E N Y J ( :.N.{.5X6X6X5XxX,X,XE.>XR.5X5X{.W.>XZ.< ;.1X1X5XgX5X{.*X,X>X].y.:.-.u.y.-.R ( J Y Y J N N c D ' >.>._ _ _ >.5 c a.-.J M H H Y n n n m Q T H n V.s.N.a.a.N.;.y.i.E U U e.P.w.Q Q Q Q I ! ! m x k k k 2 q v n v x x y x 2 , # : v w e e e w e q q w v q , : Z ;.k.u.e.X.X.p.m , m t.W X.X.T U T X.;.;.u.i.V.:XaX5X9XgXmXzXzXNXfXgXmX9X5.5.K.K.XX=XXX7XmX9X3XzXgX,XE.R.E.W.W.W.Q.E.Q.E.{.{.&X:XE.B.u.u.B.B.B.G.G.G.G.G.Z.Z.Z.G.G.G.G.G.G.H.H.R.E.E.E.E.E.G.G.G.C.B.C.Z.Z.Z.G.G.H.H.H.H.H.H.Z.C.N.c.",
"Z.Z.R.E.{.*X>X*X:X:X>X>X,X2X2X2X,X,X,X,X,X1X2X1X,X1X,X,X1X7X:X=XXX%X%X%XXX$.$.oX8.m.4.j.HXKXKXKXKXKXKXKXKXHXHXHXHXHXHX@XZ , v x , , % 1 q v n 0 L j.K.E.%.a *.x.Q.;.Z u b T W ;.T T T Z q 1 3 1 , 1 # y I.k.e.;.T.W.aXdXdXaX1XiX5X>XU.;.E -.U.zXgX{.Z.s.:.r.Z.Q.cXjXBXjX~.Y.I.I.V.e.e.i.i.Q.uXkXY.V.i.i.Y.V.e.u c E -.( ( R H H R N.{.H ( n   . & 5 u i 5 & u H J J H R N 6 u . & u N E ;.g.r.;.y.y.Y u n O % ` E H E R >.>.>.h.A.d.s.c.C.c.i M N.C.C.d.c.F.d.2._.).).'.'.n.n. Xn.&.n.2.f.1.'.wX X[.4X4X[.-XJ ( R.g.r.y.u.E W y.R Y J -.N.N.{.6X5X6X5XxX5X5XE.>X{.>X>X{.W.|.V.< ;.iX1X5XiX,X*X,X>XZ.s.x.<.%.s.y.E R ( J J J H N N c K ' >.1.&.>.' d.i M a.' R R ( Y H n H n m U U U n Z.s.N.s.a.s.:.u.u.E T I p.P.w.Q Q Q Q ! m m x 2 2 ~ x 2 x m x x x x y x v b v U Z * * w A L w w v v w q Q Z ;.u.u.u.;.W t.t.Z m k X.W Q Q Q Q X.;.;.;.i.V.T.2XgXfXzXzXmXzXzXgXNXmXnXeX7XeX0Xb.K.XX<.v.gX,X5XsX,XQ.R.E.E.E.E.Q.E.Q.Q.E.{.*X&XE.B.x.u.B.B.Z.B.Z.G.G.G.G.G.G.Z.G.G.G.H.H.H.H.H.E.E.E.E.E.R.G.G.G.G.Z.Z.G.G.G.H.H.H.R.R.R.H.G.Z.C.N.N.",
"Z.H.R.E.{.*X*X{.*X:X:X>X>X>X:X:X,X,X,X,X,X,X,X,X,X1X,X,X7X:XT.m.oX%X%X%X0.0.+.0.8.oXoXm.gXHXKXKXLXKXLXkX@X@XpXpX#Xj.X.w , , , * # # , % , q , C T C  .K. .S z.u.,.t.k.X.0 q v b Z H H Z v m I U U H x 2 u.i.;.E N Y ;.g.T.:XW.{.Z.s.-.Y J i J gX{.a.y.<.>.:.:.-.;.;.;.;.` u.V.i.i.e.i.i.e.e.i.i.e.X.W t.Q.Y.;.u u H u.r.y.-.H J :.{.*XH r.H . . % > < 6 < > y n N H N Y c % c 6 < < % < H -.;.;.;.e.` c n > > y H Z H J ( :.d.c.d.y.c.C.N.s.i S s.Z.H.c.s.C.2.d._.`. X X'.).).'.n.2.).).(./ 2.;X'.`.-X4X}.*XJ -.E.Z.u.r.y.;.-.y.:.Y J :.E.Z.R.>X5X,X6XxX5X5XE.,XR.|.>X{.U.{.V.< r.1XaXgX5X5X5X{.G.R.G.N.y.u.r.r.` E E J H Y J S H b R _ >.2.>.>.' h.i c y.( R R E Y H U U n m U U U c V.s.C.c.2.c.y.i.i.W U n Y.L.Q Q U I I ! m m m x x 2 x 2 k v x v v x v x b n m U v $ p o.| O.V w C Z q q t.p.p.;.u.u.;.u.k.i.m m m X.W X.W Q X.t.X.X.k.I.Y.:XaXMXmXgXaXgXgXmXgXaXaXnXnX7XeXD.*.v.XXB.z.mXzX9X5XW.Q.W.E.Q.E.Q.E.E.E.W.W.&X*XW.B.u.x.B.G.B.Z.N.B.Z.G.Z.G.G.G.G.G.H.H.H.H.H.H.H.E.E.E.E.E.H.G.G.G.G.G.G.G.G.G.H.H.R.E.E.R.H.G.Z.C.B.B.",
"G.H.G.G.E.{.*X{.>X:X>X,X,X>X,X2X,X,X,X,X,X,X,X,X1X,X,X,XaXB.<.,.XXeX%X%X0.0.6.9.0.oXm.m.j.HXKXKXKXbXk.X.o.o.t.t.o.V * * v V V , @ q # 0 v * u  .,.| t p v L y.Q.j.V.j.t.X.k.Q.Q.U.k.u.i.u.t.e.t.i.k.T 2 V.Q.i.;.H b N J -.r.y.y.:.:.( J b J y.c.-.>.a.>.<.-.S c c v n H b n W i.I.i.e.;.W e.e.e.;.T U ;.I.T.;.y q H -.u.u.%.J R N.5XW.Y i.b X . X > > > O : 2 n H n n E b O % 6 2 < 2 2 6 i N N N c b y b > % > x b b N ` -.:.s.s.:.s.B.N.y.i H y.G.B.N.Z.A.<.c._.n.}.-X_.).`.;X).n.'.'.'.] / &.). X-X4X}.}.K ( {.R.g.y.u.g.y.y.g.E H Y Z.N.Z.{.5X5XsX5XsXsX{.{.R.Z.|.{.U.R.V.< ;.aXgXaX5X>XE.H.:XE.s.:.-.:.y.-.;.` R Y b Y R J J M R &.>.>.>.>._ 2.i b a.) P K J Y Y n U Z x U U U n U.s.C.d.<.a.y.x.V.;.U Z I.@XW Q U n m k 3 n Q Q U x k x x n n m m n x x v v Z T q e | t.o. .w p V L Z , T e.e.;.i.;.;.k.I.i.m Z n w.w.e.e.t.t.e.t.t.u.k.V.W.gXfXMXcXgXgX>XaXgXgX9XfXgX9X9X0Xv.z.+X&XB.gX,X&X{.Q.E.W.W.E.E.E.E.E.{.*X:X&XE.Z.x.u.x.G.G.Z.G.G.Z.Z.Z.G.G.G.R.H.H.E.E.R.H.G.H.H.E.E.E.R.H.H.H.G.G.G.G.G.G.G.G.G.H.E.].E.R.H.Z.C.C.Z.Z.",
"R.G.G.H.E.{.{.{.{.*X>X,X>X>X,X1X,X,X,X,X1X1X,X,X,X9X,X:X&Xu.:.,.5.XXeX%XoX6.0.9.6.8.m.j.j.nXHXKXHXI.X.X.t.| X. ...} V w w w A L 0 q w v q * L X.V.S. .u v E j.t.T  .Z C T t.Y.@X@Xu.H t.k.e.i.k.k.k.T < ;.V.;.;.-.E c b H Y Y J J J M b H H S S a M S i t & + % < i b n c c y u H E W W E ;.;.W n U U W i.k.E q 2 H r.g.y.R R :.Z.1XQ.Y i.c . . O % : : : : 2 x x x c n c < : < : > < < 2 > > : : > 2 < x 2 X < x n x c J H -.:.s.u.V.s.y.r.i M N.Z.s.s.R.R.<.a.[.`._.-X-X`.).;X'.(.'.'.'._ / / n.-X;XqX[.*XK ( W.R.N.y.u.s.u.y.B.:.R R Z.B.Z.|.5X5XsX5XsX5X{.E.E.Z.>X{.W.W.Z.> ;.fXaX1X5X*XR.{.G.G.x.-.-.y.u.;.;.;.R Y H R ` R J H ) >.>.1.>.>._ >.i i :.R R P E E Y H H n x U U n n U.N.Z.s.a.c.y.x.V.r.E U ~.uXw.U I m x k x Q W Q U n x x x n W n n H v m x b n Z 0 , T ,. .w * , q v v , X.k.t.t.r.;.u.V.Y.t.x U n I Q X.e.t.i.k.k.k.i.u.i.<XMXCXMXgXiXaX1X1XgXCXMXaXaXnXnX9X7XOX<.x.B.E.&X&X&X&X&X{.{.&X&X&X&X&X&X:X:XE.Z.B.x.x.B.G.G.G.G.G.Z.Z.G.G.G.H.R.E.E.E.E.E.H.H.H.H.E.E.R.H.H.H.H.G.G.Z.Z.G.G.H.H.E.H.R.R.H.H.H.G.C.C.C.Z.",
"E.R.R.E.E.R.R.{.:X>X1X1X1X1X1X1X,X,X,X,X,X,X,X,X>X,X,X,XG.P %.j.S.eXeX0XXXm.8.{ } { ,.<.j.7XHXJXbXt.X.t.o.X.o.o.......} p p A o.C @ 0 C p * , p L *.L 0 , q v u C  .,.| |  .o.j.Q.u.W E ;.t.o.t.k.k.t.u Y i.r.u.;.;.H b b b b S N a u t t u a b d d d M M a a t u u 6 u c c y y c b n Y n b x y x n H Y e.u.H % 2 H u.u.y.:.:.y.N.:XZ.Y u.x X : < < 2 < < x n n n Z U U T Y U U U n n v x x 2 x y m U n x < o > x v y 2 c i c N J S Y J J Y y H y.V.B.g.Z.H.y.N.A.>.^ >.[.[.[.4X'.(.;X'.'.&._ ^ n.-X4XqX4X3XP ( {.R.R.x.s.u.y.y.B.y.E J s.Z.Z.>X,X5XsXsXxX>X}.}.|.R.>XW.W.R.U.< y.aXaX5X>X>X*X{.{.N.y.:.y.y.:.:.-.:.R R Y E ;.( R K -.>.1.1.>.>._ 2.M M y.R ) R J J H U H n x ! U n b U.N.Z.s.s.c.<.s.x.r.E U ~.uXe.U W Q Q W e.e.W ! m ! m m m U i.Q Y T U n c b v b 1 ; 0 V v w p p v v n v t.t.e.k.u.i.u.i.I.p.2 x 2 # - 2 v Z T W X.t.i.U.<XMXVXCXjXMXVXCXjXMXCXdXgXfXCXfXgXfXfX9Xy.G.9XQ.:XW.&X&X&X*X*X*X&X:X&X*X*X:X&XT.x.x.x.N.B.G.G.Z.Z.Z.Z.Z.G.G.H.R.R.E.E.Q.E.Q.R.R.E.R.E.R.R.R.R.R.H.G.G.G.Z.G.G.H.H.G.D.G.G.G.G.H.G.Z.Z.Z.Z.",
"R.R.E.{.{.W.{.:X>X>X>X1X1X1X2X,X,X,X,X,X,X,X,X,X1X,X,X,XS.S ;.S.1X7X9X7X5.5.m.5.s ,.XXS.k.aXKXGXVXt.t.t.o.o.l.4.O...} } A A A L L , C p p o.o.C p p * * @ , H j.,.,.S.l.j.,.A L t.u.u.;.H E t.u.I.u.;.u Y V.V.r.:.( ( H M c u i u < u J y.C.c.>.>.&.2.n.d.a.c.<.:.>.R J b u 5 y y y 6 u < < u x c n n H U W n > 2 H r.u.y.y.y.a.N.{.V.Y u.x X < 2 x x n Q W e.i.i.I.^.Q.~.~.!.Q.|.g.r.W Y W U U U W W T x 2 X y W e.` ;.E H H b c c M H H n < i :.x.Z.s.N.Z.-.( M i 5 8 ) _.[.wX-X).;X X'.2.2.2.n.-X-X4X3X3XR ( {.E.{.Z.V.s.s.y.B.N.E J y.R.Z.>X*X5XsXsXsX>X{.}.|.E.>XR.R.Z.Z.2 r.fXaX5XsXsX>X].<.<.:.;.;.:.y.s.E -.Y J Y Y -.-.( J >.>.2.>.&.&.' >.M M y.R ( J M y v U U n x n U n b U.N.A.s.c.c.:.a.s.e.Y H ~.dXY.L.!.^.i.p.e.W U ! I U U Q Q q.^.I.t.W W T U b c b v v q p C Z L L T E X.T t.t.i.i.i.I.u.Y.Y.T - # 1 m U W U ;.;.X.W ;.u.W.CXCXVXVXCXCXVXCXGXJXGXVXCXfXVXVXfXaX9X5XT.G.fX2X:X*X&XW.&X:X>X>X&X*X*X*X&X&XQ.V.x.x.B.B.B.Z.G.Z.G.Z.Z.G.G.R.R.R.E.E.E.Q.Q.Q.Q.E.Q.Q.Q.R.R.R.E.R.R.G.G.G.G.H.H.G.D.B.B.Z.G.Z.G.G.Z.C.Z.Z.G.",
"Q.E.{.W.E.E.W.&X:X>X,X,X1X1X1X1X,X,X,X,X,X,X,X,X,X,X,X,X,Xx.,X9X,X1XaXaX9X0Xm. .L ,XnXCXMXHXJXKXdXT X.e.t.o.l.l.4...} } ......} | * p  .,.S.+Xl.,.} f V p p Z |  .L | A L ,.L C X.j.G.W.r.b H X.t.H q % b Y.V.-.;.E ( J J N u 5 u ) Z.*X>X].].3X`.). X[.A.A._.F.C.Z.Z.E.R.V.-.H t < y c u 2 c v c y y u < 2 2 2 y b J y.N.s.s.g.Z.:XZ.E i.y X < x H W W Q W e.e.I.~.!.^.!.~.~.I.L.I.p.UXU U ! ! U UXUXY m 2 X b ` g.r.i.U.r.W H E g.T.W.T.u.` Y ` ;.:.-.N.W.R u i i i 7 i A.-X4XwX'.;X[. X)._.A.n.-X-X4X3X3X) ( W.E.:XZ.Z.N.g.y.Z.Z.-.R y.{.N.{.{.sXsX8X,X,X{.E.}.R.|.E.W.U.Z.< r.fXgX1X5X>XN.y.:.-.R R ( ( :.y.( ( R H E Y ` :.-.J >.>.a.>.&.&.&.>.c M :.) ` H u % c U H H m n Y n n U.V.H.c.c.C.<.s.s.r.Y U <XuX~.~.~.I.i.i.p.e.Q Q UXW q.e.i.L.!.^.I.i.u.u.U H n b Z H Z H  .H H H T ;.u.u.e.I.~.I.V.V.u.T.Q.m X 3 Q L.Y.I.i.t.k.V.i.u.t.u.V.T.W.uX<X:X:X@X1X1X1XgXaX1XgXCXMXQ.2X:X:XG.gXfX1X1X:X&XOX&X&X&X&X{.].&X*XE.B.x.x.x.B.B.B.Z.G.Z.G.Z.G.G.R.R.R.R.Q.E.E.Q.Q.E.Q.E.E.Q.Q.R.R.R.Q.E.R.R.G.G.G.H.G.D.B.D.D.G.G.G.Z.Z.B.B.Z.H.E.",
"W.&X{.Q.R.Q.{.{.>X1X5X5X1X,X1X5X,X,X,X,X,X,X,X,X,X5X,X,X,X:X9X,X5X1X5X,X1X7XgXS.;.gXnXMXCXKXHXGXVX@XuXbXnX#Xo...| ..} ......4.o.,.* p j.+Xj.j.S.#Xl.L A p L ..L  . .L | | | T  .b r.&X{.W.V.H * < Z Z < 2 W E H b R H H H M S R E.>X5X5X8X8X3X*X[.-X[.A.`.[.}.[.=X{.R.{.].{.*XR.u.E H N b b E ;.g.u.u.;.N x y y b H n ;.N.N.g.s.B.>XZ.E u.2 X 2 2 W ~.W x ! W w.i.I.p.i.i.i./.i.e.i.i.W n x x p.p.Q W U n 2 X H E E Y H ;.U N c n :.u.N.U.Z.W.W.B.y.( Y ( :.H 5 % & u 5 5 h.-X;X4X X4X X-X[.-X[.c.;X4X6X3X3X) ( {.W.:XZ.Z.Z.g.s.N.E.:.E :.{.N.].{.8XsX5X{.6X>X}.|.E.{.R.W.R.Z.< r.iXgXgX>XR.s.:.R -.-.:.:.( :.:.:.E R J ` ` -.r.-.R :.<.d.>.>.>.>.>.i M y.` ) a & > N U U U m n U n n U.N.R.c.d.c.<.s.N.y.J Y uXuXQ.~.!.I.i.I.I.i.e.Q w.p.p.p.!.!.~.yX~.I.V.i.;.E U T W T U T U U X.t.k.V.I.I.t.V.I.k.V.Q.~.k.W 3 - I p.e.i.u.e.;.j.k.r.u.i.u.u.u.V.T.U.T.W.Q.Q.V.W.1X:XW.T.Y.V.@XgXfXMXQ.OX7XOXW.W.&X&X{.Q.E.].{.].{.E.G.x.x.x.x.B.B.B.G.G.Z.Z.G.G.H.R.E.R.Q.E.E.E.E.E.E.E.E.E.E.R.R.H.R.R.R.H.G.G.G.G.G.G.D.D.G.G.G.G.Z.Z.Z.Z.Z.H.].{.",
"E.E.E.E.W.*X,X,X>X,X1X,X>X>X>X,X,X,X,X,X,X,X,X,X,X,X,X1X,X3X,X,X9X9X*X9X,X&X:X1XS.nXCXCXiX1XbXVXGXHXHXHXGXnX .L | ......*...,.,.A = C S.K.XXXX#Xl.5.*.*.L ,.j.| ..j.,.l.j.l.l.t.H ;.B.Z.u.W.Q.;.;.Q.OXH % u b b H :.;.-.;.y.Z.aXsXxXNXNX8X5XxX6X-X4X;X[.;X4X6X}.H.].F.].=X3XsX9X,X{.Z.:.R g.iXcXCXHXJXjXQ.W y 2 N E E -.g.g.s.s.R.5XU.E e.< . < < x n x U U n Q W W W e.e.UXUXW Q U q.U m x x ~.!.n m n N > % N Y H Y ` n 6 ;.` 5 b b J E J -.;.N.N.N.a.( R M 5 > c i & i d.}.;X4X-XwX X-X[.-X`.c.-X4X6X-X3X( ) {.{.:XU.Z.Z.s.s.s.E.y.( :.{.N.R.}.5XsX5X*XsX6X{.|.{.E.U.U.Z.Z.2 r.fXaX>XW.u.R ) :.( :.y.:.J ( :.r.E R R ` ` ;.y.-.R <.>.a.>.1.1.>.>.i B <.' ) 5 & b H U U U m m Z n n V.s.R.C.a.a.>.y.s.y.H Y uXpX~.I.I.^.!.!.~.!.^./.i./.i.p.I.IXIX!.^.Q.Q.g.i.e.X.X.X.T W ;.W t.V.Y.Y.V.V.Q.I.k.V.Y.Q.V.i.T x 2 q Q p.X.X.e.t.;.u.j.r.u.V.V.u.g.Z.T.Z.V.G.T.R.Q.T.:XaXiXiX:Xi.V.gXBXfX7XG.B.2Xx.G.Q.{.{.{.&X&X{.].Q.G.B.x.x.B.B.Z.B.Z.G.G.Z.G.G.G.R.E.E.R.E.E.E.E.E.E.E.E.E.Q.R.R.R.H.R.R.R.G.T.G.G.G.G.G.D.D.D.S.C.B.B.Z.G.R.R.E.{.{.",
"&X&X*X&X>X,X,X,X,X,X,X,X,X5X1X,X,X,X,X,X,X,X,X,X5X,X5X>X,X5X,X9X,X3X9X,X,X1X:X2XT.nXnXQ.j. .,.j.V.pXbXnXHX$Xo.,.4.......o...| L p * 0 ;.j.,.*.m.m.6.5...} ..#X4...4.,.,.O.l.S. .u.G.H.H.G.&X:XOX:XQ.V.E 0 ;.s.y.s.V.Z.x.{.gXzXzXZXAX5X,X8X8XxXqXqXqXwXwXqXxXxXc.-.].3X5X3X5XsXsX5X8X5X{.N.iXMXVXVXBXVXJXJXI.b y N E E ` N.N.s.N.{.sXU.Y ;.> . < x : X x U n ~ 2 ~ ~ x m m n n n n m x m x 2 3 ! Q 2 3 6 U : < N N b N J < O b E < 5 < 6 c 6 c b M R a.Z.N.g.a.R J b & & a a._.-X4X;X4X[.;X-X-X_.A.;X3X8X8XsX:.%.R.{.:XR.R.R.s.s.r.E.s.( -.{.N.Z.].3XzX5X,XsX6X}.}.}.E.U.B.N.g.> r.gXsX,XR.s.>.%.N H r.y.-.H R ;.r.E ( -.-.( :.s.>.) a.2.d.2.2.2.1.1.t M :.` P > 6 E H Z U Z x m I n b g.y.H.C.a.a.>.>.y.:.N Y dXdXuXQ.I.~.@X/.I.uX!.^.L.L.^.!.^.I.~.e.i.Q.~.~.~.i.i.i.I.V.Q.I.V.i.T.Q.T.V.V.Y.Y.I.V.V.u.T U H U 2 n Q X.W W e.;.W :.u.u.x.N.x.s.x.Z.G.G.R.R.Q.Q.T.W.OX:X:XaXfXbXW.u.aXaXQ.W.W.x.Z.R.Q.R.R.{.&XE.W.W.R.B.x.B.Z.Z.G.G.Z.G.G.G.Z.G.G.G.R.E.E.R.E.E.Q.E.E.Q.Q.E.Q.E.R.R.R.H.R.R.R.G.G.T.R.R.H.G.G.D.D.S.C.B.B.Z.R.E.E.E.].{.",
">X1X,X>X>X*XE.R.N.N.B.G.W.,X1X,X,X,X,X,X,X,X,X>X,X,X,X,X,X9X9X,X,X7X,X,X1X>X:X1XK.+X,.*.5.K.XXj.{ ,.pXHXnXl.l.l.4.} | L L | C L L < 0 * * p 5.0X#XXXoX} F ..XXl.m.oXXXoX| p C  .E.K.B.z.G.OXW.&XT.Q.E.J R :XW.Z.E.5XzXMXzXCXZXAXSX*X<.Z.5XzX6XxXxXzXzXxX-X8XxX=XH.,X5X5XxXxXxXxXzXmXzXzXxXzXzXNXVXMXZXJXKXjXY y U -.` ` N.g.s.R.|.sX{.Y E > X 2 2 < 2 y y 2 3 1 2 1 1 2 3 2 x x ~ 2 2 2 2 2 2 3 1 x : x N O < b c c b c 6 6 < < c > 6 6 i u 6 u c N -.:.<.>.R J u & + 5 M <.A.-XqX4X4X[.;X4X-X[.}.H.s.*X3XsXy.-.R.R.5XR.U.R.s.g.y.Z.U.-.( E.R.H.{.*XsXsX>X5X5X].R.N.y.N.N.u.u.< u.aXsX,XR.N.:.N i -.N.N.R S H ( :.( ( r.y.-.y.h.>.>.1.2.2.1.1.&.1.>.5 H a.` P N Y Y H n H Z n x U n b V.s.H.c.2.a.%.<.:.;.b Y gXdXdX2XiXdXI.i.~.uX~.!.~.~.!.~.^.~.~.i.e.i.~.~.Q.T.Q.W.2X@XQ.V.r.V.Q.Q.Y.Y.Q.U.k.V.u.;.U U X.W n k I I Q Q X.;.X.E  .r.u.x.N.G.R.R.Z.Z.T.Q.Q.T.:XaXaX1X2XiXdXfXBXBXW.<XQ.x.x.c.B.B.x.x.Z.Q.{.{.W.W.W.Q.T.R.W.W.Q.T.Q.Q.Y.Z.G.G.T.G.R.R.Q.R.R.E.R.E.E.E.R.E.E.E.R.R.H.G.H.R.R.R.R.R.R.R.R.R.H.G.C.Z.B.B.G.E.Q.E.W.W.&X>X>X",
",X1X,X:XQ.x.:.;.-.-.:.:.:.x.G.E.{.&X,X,X,X,X,X,X,X,X,X,X,X9X9X,X,X,X,X,X2X2X1X,X*. .m.m.*.m.XXeX0X .| nX7Xk.S.l... .,...{ F | ,.u.p u C t l.7X0XXX0XoX6.5...oX#XXXXX$X#Xl.w L K.x.K.D.D.E.T.T.Z.G.R.E.J r.R.E.zXzXNXCXNXNXZXZXCX5Xa.x.C.y.g.A.8XxXNXxX*XC.C.}.*X{.sX5X5XsXzXzXmXNXNXmXmXzXAXNXAXAXCXMXMXJXGXW 2 H W E E g.N.N.R.}.5X|.Y H % X : : : : > 3 : : : 3 : : 3 : : 2 3 3 3 X 4 3 : X 4 : : X N > O 6 & 6 > > < 5 6 < < 6 < 6 5 6 6 5 5 6 i c i b i 6 & O % 5 b D a.A.[.wXwX4X[.-X4X-X-XH.-Xy.) c.mX:.-.{.R.5XE.Z.R.s.s.y.B.E.:.-.R.R.H.R.>XsXsX>X5X>XZ.N.x.x.Z.V.u.u.< y.fXzX6X}.N.s.' >.a.s.y.R J H :.;.;.-.:.y.a.a.h.>.1.2.2.f.2.2.1.2.1.5 B y.' ) J E J H H Z Z n x U n b Z.s.H.n.a.z.%.:.:.( c H Q.iXbXBXdXdX<X<XdXuXuXuXdX~.I.I.I.~.~.^.I.I.~.uX<X:XW.T.Q.V.u.t.e.V.Y.Q.Q.U.V.k.u.u.;.;.X.t.p.X.k x I I Q X.X.X.W  . .<.u.c.N.G.].E.G.R.Q.W.W.:XaXMXmX5X2X7XgXjXMXBXjXfXW.N.x.c.x.c.N.B.N.B.W.1XaXfXjXcXjXcXMXCXMXMXMXjXfXdXgX1X:XW.Q.T.G.G.H.E.R.W.E.Q.R.R.Q.E.Q.R.R.R.R.R.R.R.H.G.H.R.R.R.H.G.G.B.B.G.E.W.&X&X&X:X>X,X,X",
"5X,X{.R.R.R.G.R.G.H.E.E.G.x.s.u.B.H.>X9X9X3X,X,X,X,X,X,X,X5X9X9X3X7X,X1X>X,X1XS.L oX0XXX*.6.eXeX0X5.p XXk.S.S.t.,. .4. .C C L T ;.b p T 0 S.7XS.XX#Xm.$XXXl.oX#X$X#XXXoX#XL ,.j.G.K.E.&XR.x.Y.V.W.G.E c Z.gXzXZXZXZXNXNXCXZXZXAXmXc.:.:.y.C.N.H.xXxX}.A.C.Z.C.A.].NXCXsXsXxXmXZXAXNXNXNXNXAXVXAXZXZXZXNXVXVX;.2 U W E E s.Z.N.Z.{.1X>XY c . . X . . X o o o o o X o o o o o X o X o o o o o o X X X n 6 . . . o o . o . + + + . . + O . O O . + % % + + & + + % & 5 M M K h.c._.wXqXwX[.-XwX4X;XA.8X6XA.( ( H R |.U.>X{.Z.E.N.g.s.N.{.y.-.Z.H.C.H.>XxXsX>X,X>XR.N.s.N.V.Z.u.u.> y.fXzXsX|.h.a.:.y.s.<.R J J J ( ( ` :.y.a.N.s.d.>.1.d.2.f.2.3.1.2.>.5 B >.` ) R ( b n U U Z x x n n n Z.s.C.z.a.c.-.-.%.R c c r.g.i.g.e.r.g.~.pXdXdXjXjXuX~.~.uXdXuX<X<XuX<XuX<X@XT.V.V.u.r.r.u.V.U.U.V.u.i.t.;.;.u.i.t.e.t.m - q m ! Q W X.X.;.E E u.u.x.y.B.>X*XE.W.&X|.:X<XgXmXgX1X1XaXfXjXjXBXHXVX2XZ.B.C.c.x.x.x.x.Q.iXCXVXJXKXKXKXKXKXKXKXKXKXKXKXJXJXGXMXMXgX2X&XQ.Q.E.R.R.R.Q.Q.E.E.E.Q.R.R.R.H.R.H.G.G.G.G.H.H.H.G.G.G.B.G.E.&X&X:X:X>X,X,X,X,X",
"1X,XQ.Z.E.>X,X,X&X&X=X&X&XH.c.a.B.B.H.E.{.*X&X&X,X,X,X,X,X3X5X,X,X,X,X,X>X1X7X,.*.eX0XXXXX} %XrX0X0XC ,.S.j.o.j.,. .} f C *.,.L u < & c < ,.7XK.XXl.XXeXXXXX$XoXm.$X0X#XXX .B.x.E.x.x.x.E t y Z E E Y %.:XgXZXNXmXmXNXCXAXAXAXZXZX*Xy.s.|.5X}.N.}.xX5XR.Z.H.H.R.>XZXZXsXzXNXNXmXZXAXAXAXAXSXZXSXZXZXJXZXZXVX;.x Y W E E s.Z.s.N.{.>X5XY 6 . . . % > > O o . . o . X o X X X 3 3 : : : : : : 3 3 3 m x X o o o : % : % & > 5 > % < > > > > > + & 5 < & < 5 5 < i b M J K ) n.n._.wXqXqX[.-X4X4X;X[.8X8XzX6Xi . ( >XU.>X{.Z.W.Z.N.N.N.{.s.-.N.R.Z.].>XsXzX,X{.>X>XC.s.s.y.g.y.u.< y.zXzXxX6XZ.y.` >.y.:.J J M R Y E -.y.:.a.N.N.h._ >.2.2.d.1.>.&.1.>.& B -.) J J J y y n W U x 2 n n b Z.s.B.z.a.z.>.-.%.R u t ( :.` -.E E -.r.u.V.I.~.I.I.i.i.V.r.;.;.V.~.W.Y.i.;.;.;.;.;.e.u.u.i.u.;.;.W ;.;.;.;.i.u.X.e.X.1 , k k Z Q Q W ;.W E E <.:.a.a.N.{.5X>X,X1X2X:X1X1XgX1X1XgXbXBXBXBXVXJXHXfXW.B.B.N.V.V.Z.{.cXJXKXKXKXKXKXKXKXKXKXKXKXKXKXKXKXKXKXKXJXHXCXaXW.G.G.G.Z.G.R.Q.E.E.Q.E.R.R.R.R.H.G.G.G.G.G.G.G.G.G.G.G.G.R.&X&X,X,X,X,X,X,X,X,X",
",X,X{.R.E.&XE.E.E.E.E.E.E.].&X,XE.E.G.Z.G.E.=X&X>X,X,X,X,X,X5X,X,X,X:X,X,X1X=XF ..0XXXoXXX} 8.%X0XeXL ,.#Xk.|  .o... .j.0XeX7X+Xj.H % % % H 2XS.L A $XeXXX+X0X4.p L ..,.,.;.B.T.B.-.J %.;.Z , % b H H u >XNXCXCXmXmXAXAXAXAXAXZXZXsXR.3X,X{.{.Z.>XzXzX}.Z.{.3X5XCXZX5XT.{.sXNXZXZXZXZXJXZXSXZXZXZXZXZXCXVXVX;.y E W E E s.Z.s.N.E.>XiXR 6 . . O > > < & X . X X X X X 3 : X ~ x 2 2 2 2 x x ~ 2 m x X o . . X : > y y y < 6 u 6 c u u u u c % u N M i i b S c H R K ' ) 2.A.n.`.wXqX4X[.;X4X-X;X-X4X4X8XzXa.5 R ,XE.,X>XN.E.R.x.N.s.E.N.-.s.].R.{.>XsXzX,XE.>X>XZ.s.s.g.N.;.r.< r.zXxX6X>XH.y.) M H K J J M R J R y.y.:.N.C.s.c._ 2.h.n.n.1.1.>.1.>.& B >.) K N b < < q n T m 2 n n b U.s.B.c.z.a.<.:.-.R < > E y.y.r.E -.;.;.-.` e.;.;.;.W W E E n n E u.u.;.U n Z T W ;.e.t.t.;.;.;.;.;.;.t.i.u.e.X.W p.Z 3 q k l Z U U W X.E E %.y.:.a.x.G.:X1X>X>X1X2X<X1X2XaX5XaXgXfXMXVXVXGXVXJXVX2XT.B.B.Z.W.1XMXJXKXKXKXKXKXKXKXKXKXKXKXKXKXKXKXKXKXKXKXKXJXJXaXR.Z.Z.Z.G.G.G.G.G.G.R.R.E.E.R.R.R.R.R.E.R.R.G.G.H.H.G.G.H.E.:X,X,X,X,X,X2X,X,X,X",
",X,X*X&X&X{.E.>XE.&X&X&X].&X=X=X=X*X&X{.].&X&X,X,X,X5X1X,X,X,X,X,X,X,X,X,X,XXXf 5.0X%XXXXX$.*.%X0Xl.V j.S.t.L L o. .l.#X0X9XeXeXmXE.C * & % v p 0 w XX7XS.0X7XL e V 0 * C x.S.:.%.( %.B.Q.Q.E # # # % u aXZXZXNXAXmXmXNXAXNXAXAXZXxX5XsX*X{.E.H.zXCXCX>XZ.{.zXZXZXzX>X{.sXzXzXzXAXZXJXJXZXSXVXAXJXJXJXCXVXMXW y E W -.R g.N.g.N.U.>XgX` y . . % > < < > O X X : : : : 2 3 X x b n b x x x y x x 3 o o o . X > 2 2 u y i i c c i b b H H N H > b -.R K J ( ;.J -.-.) <.<.n._.n._.4XwX;X[.4X4X4X4X-X6XqXqXqX-X) ( ,XW.5X,XZ.{.{.x.N.y.R.N.-.u.R.R.{.>XsXxX>X{.5X>XN.s.y.s.N.;.e.< y.zXxXvX4XH.d.:.J J R R J J J J :.y.:.s.A.N.a.A.>.2.n.n.n.3.2.2.2.>.& K >.) K N b > : < q m m 2 m n b U.s.B.c.z.z.:.-.-.R 5 % H r.N.u.r.s.g.r.;.;.;.W ;.r.e.e.e.u.e.;.;.;.W E H U H E X.;.;.;.e.u.u.u.e.r.u.i.i.i.t.X.t.X.1 : 2 2 m I I U Q W X.E :.x.u.u.x.Q.,X>X*XW.:X:X<X1X1X2XaXgXaXgXBXVXVXGXGXKXHXaX|.G.Z.Q.aXVXHXJXKXKXKXKXKXKXKXKXKXKXKXKXKXKXKXKXKXKXKXKXKXJXiXT.Z.Z.Z.Z.Z.Z.Z.Z.Z.G.H.R.R.R.R.E.E.Q.Q.Q.R.R.R.R.H.H.G.H.E.&X>X>X,X,X,X,X,X1X1X",
",X,X,X,X,X{.E.&XE.E.].&X=X=X].E.&X&X&X].E.&X,X,X,X3X9X5X1X,X1X1X,X,X,X,X7X0XK.F m.%XXXoX8.6.h 8.m. .A j.t. .L L | ..#X0XXX0X0XXXXXv.H 0 u * % v b C j.7XS.eXS.L A A v p H ,.;.J c.s.y.B.j.V.E , q W X.V.CXgXNXNXAXzXxXxXmXNXNXAXsX8XsXzXxX5X{.5XVXCXCXiX>XsXCXJXZXCXNXCXCXgXzXCXJXJXZXZXCXSXZXJXJXJXJXVXHXjXW b E ;.;.R y.Z.h.N.U.W.fX:.6 . . & < 5 6 < % X : < 2 > > x 2 : n n b b b x 2 : : X X o X % X O 6 y 2 b n S N H Y J Y R ( ( E ' 5 N s.&.-.a.N.s.( s.>.-.d.2.F.[.A._.-X4X-X[.wXwXwXqX-XqX4XxX4XxXa.R ,XE.5X3XR.{.*XN.Z.s.E.Z.:.y.Z.Z.].*XsXgX,X,XzX*Xu.G.T.|.:XZ.V.< y.5XvXxX4XA.h.c.a.>.-.J H R J R y.-.>.N.h.d.c.F.>.2.d.d.f.3.2.2.2.1.8 D >.' K N N < : 1 1 2 q 2 x n b U.s.B.c.z.x.>.%.-.E u % u E u.u.g.V.u.-.-.H H N H n v v b b b b n b b n c y 2 x c n H U W Y U E ;.e.E H H U W U T x # 3 q 2 m U I Q T E ;.-.y.x.c.x.B.R.R.W.:X:X:X1X1XiXiX1XgXfXfXMXCXVXGXHXKXKXJXfX:XT.R.1XBXJXKXKXKXKXKXKXKXKXKXKXKXKXKXKXKXKXKXKXKXKXKXKXKXHX1XU.Z.Z.Z.x.N.B.Z.Z.Z.G.G.G.R.R.R.R.R.R.R.R.R.R.R.R.R.H.H.H.E.*X:X:X,X,X,X2X2X1X1X",
",X,X,X,X5X,X&X].*X=X&X&X*X*X=X=X&X{.].E.].*X,X,X,X5X9X5X5X1X1X1X3X,X,X,X,X+XD.L 5.eXm.m.*.} F F L L ..j.#Xl.,.L A } 5.m.XXm.m.oXm. .C t u < @ n H Z  .+X0X+XV p v q u L T ;.<.u.y.:.:.x.:. .p T k.t.W t.VXNXJXZXAXxXxXxXmXNXNXAXsX3XsXNXAX,X,XZXCXNXCXfXzXCXSXZXZXZXCXVXzXgXzXZXSXZXzXsXgXCXZXJXSXCXVXZXVX<XH c Y ;.` R r.U.h.h.U.R.fXy.6 . O < 5 6 6 < % X : 2 2 < < b x % b x n n 2 O . X X o X : . : 2 > c u c H J H H R ( R R ( R -.-.` 5 M s.<.<._.].Z.:.g.<.2.A.d.A.[.)._.;X4X-X_.4XwXwXqX4X4XqXqX8XxX>.` 5X{.5X5X{.{.*Xc.N.y.E.G.<.y.C.N.R.{.sXmXsXsXNXE.Z.sX2XQ.U.V.U.< :.sXvX6X X)._.}.H.c.<.( R H J R ) ) a.g.h.h.N.c.&.2.d.n.n.2.2.2.d.2.5 B >.) K M N y , 2 2 1 1 1 k b b U.s.N.c.a.s.-.-.-.E c % , b ;.e.r.E v < > > % > % % % 2 b n i 2 y c H Y H H b n y 2 < > < > < 2 q q 2 < > q 2 < : # : 2 k 2 l Z I Q E W W ;.z.B.H.B.B.G.N.G.W.@X2XpXiXiXpXgXfXfXMXVXCXCXHXLXKXLXKXcX<X{.2XjXHXKXKXKXKXKXKXKXKXKXKXKXKXKXKXKXKXKXKXKXKXKXKXKXKXJX1XU.G.Z.Z.B.V.N.B.B.B.Z.G.G.H.R.E.E.R.H.H.G.H.R.R.R.R.H.H.E.&X:X:X,X,X,X,X2X2X1X2X",
"1X1X,X,X,X5X,X&X&X&X=X&X&X].E.E.&X].E.&X*X,X,X,X,X5XsX9X5X5X,X9X,X9X,X1X1XK.j.F ,.XXm.K.K.0XS.*.,.S.j.t.@X@XS.C 9 g 5.oXoXm.6.m.m.5.s a 0 t . u H H Z ,.2XX.p 0 q v p u Z y.z.B.v.<.>.y.x.H p H e.X.X.i.jXSXZXSXNXzXxXxXxXzXNX8XsXxXxXAXzX5XcXVXcXzXcXcXCXSXSXNXZXZXZXCXzXzXVXJXSX5X>XsXzXzXzXzX5XcXVXBXVXW.x n W ;.` E ` R.h.s.V.Q.gXZ.y . > u 5 > 5 > & % < x y > y Y 6 X b c H 2 X O % : : % % % < u 6 6 N b b R H M J ) :.>.) ) ) -.:.a.i D C.s.A.*X-X}.<.h.>.c.`.d.`.[.[.-XwXwX[.`.4XwX4X4X4XqXxXxX8XxX<.J >XE.>X5X{.R.*XB.N.s.R.R.y.>.x.N.G.{.mXmXzXCXgX{.,XR.V.T.V.T.T.< -.xX8X4X-X`.-X X_.a.-.P M b J J R :.s.s.a.A.A.h.) 2.d.n.2.2.1.1.2.2.8 B >.^ B M b c < % 2 2 1 2 2 b b W.s.N.a.s.u.-.( E E u u u , q x < % % x n U H H H Y W u.Q.~.y.` ;.r.u.e.u.i.r.i.r.;.r.E E H n Z H H Z Z E X.U U H Z n k q k m I Q W T E -.y.B.B.B.B.x.x.Z.T.Z.W.1X1XV.V.iXdXjXMXBXCXCXGXGXKXLXKXKXjXuX:XaXVXHXJXJXKXKXKXKXKXKXKXKXKXKXKXKXKXKXKXKXKXKXKXKXKXKXJXaXT.R.H.R.R.R.G.Z.Z.G.G.G.G.G.R.R.R.R.H.H.H.R.R.R.R.R.E.E.Q.&X&X,X,X1X1X1X1X1X2X2X",
",X,X,X,X,X,X,X,X>X*X=X=X&X=X=X=X{.].].&X*X,X1X1X,X5X9X9X9X9X9X,X3X&X,X,X,X7X,Xx.*.nXnXmXnXVX+XS.t.Q.+X@Xk.,.A e e 6.oXm.8.6.8.oXXXXX%.a 0 a < < H ;.T p L < , Z v b Z T L %.%.%.%.%.y.:.G.b H ,.e.X.W X.gXVXJXSXJXAX8XqXxXqX3X}.8XxXxXNXNXzXVXVXfXfXcXcXcXVXZXVXZXZXZXNXsXsXVXJXSXiX5XsXsX,X{.{.fXMXVXCXVXT.x H ;.;.;.( ` R.h.a.Z.W.fXU.6 . & u u < < < O < 2 x u < i E c % b H c % % > > : > < < < 6 u 6 6 N N H J S M D &.>.>.%.&.) >.>.a.i K A.c.A.-X-X}.d.n.<.A.[.c.[.[.[.4XwXwX`.`.4XqX4XwX4XqXxXxX8XzX<.J 5X*X,X5X*XE.>XZ.N.u.Z.H.y.:.x.N.{.3XmXmX,XmXzXQ.x.u.i.Q.Q.|.W.u ` vX4X4X X_. X[.`.C.a.>.) K K K -.>.-.( a.C.A.A.&.2.f.f.2.2.2.1.2.d.8 B >.K B M b H c > : 2 2 : q b b U.y.Z.a.a.a.:.( R J u c n x : : : n e.@XuX<XI.V.V.Q.:X<XdX<XuX~.V.g.V.g.u.i.u.u.V.V.T.V.u.;.E W W T E E E W X.;.E W t.W 2 x n U Q W E X.r.x.B.E.G.x.u.x.Z.U.T.W.<X2XV.Y.1XfXfXfXMXVXVXGXGXLXLXKXLXjXfXiXjXGXKXJXKXKXKXKXKXKXKXKXKXKXKXKXKXKXKXKXKXKXKXKXKXKXKXJXgXW.E.R.].E.E.R.T.G.G.G.Z.G.G.G.G.G.G.G.H.R.R.R.R.E.E.E.E.W.&X>X,X,X1X1X1X2X2X2X2X",
",X,X,X,X,X,X,X,X,X,X&X&X=X&X,X,X,X:X:X:X,X,X,X1X5X9X5XsX5X,X5X,X3X9X9X,X,X,X2X7X*.MXSXMXVXVXOXV.Q.2Xk.j.j.k.p 0 F 8.6.*.} h { 6.m.m.5.s 0 p p @ p Y L v < . # u 0 p V L C a s a a C y.y.H u T ,.X.Q Q T <XBXJXJXZXSXNX-X_.C.A.-X8X8X>X>XzXZXNXsXiXzXcXNXNXVXZXVXxXNXcXsXsXsXNXJXJXCXzXzXsX5X5XzXMXMXVXGXVXV.y U E ;.;.E ( U.N.s.B.W.gXW.u . . & i u u > % < 6 b c 5 b -.b % b Y > % t < > < 2 u u 6 u i 6 6 M H J H M M D >.>.&.&.>.) >.>.>.i ^ _.n._.-X-X}.d.A.d._.-XA.}.[.-XqXqX4X[.[.qXqXqXqXwXqXxXxXvXmX:.) 8X5X,X5X>XR.3XR.Z.c.R.{.x.y.N.C.9XgXmXmXE.>XzXV.:.u.x.U.V.U.Z.u ' 4X-X-X[._. X X XF.d.>.<.-.) H ) ) ) ) d.d.n.A.>.d.f.2.1.2.2.1.2.d.5 B ' R B M b Y E b , 2 q : x x b U.y.N.) ) a.:.( R H u u n x 2 2 Z I.Q.W.<XdX1XiXiXdXdXjXdX<XdXiX|.U.I.V.u.V.U.Z.T.V.i.r.W E W W Y H E E Y E ;.W T t.k.e.2 1 m Q W X.E W r.s.x.E.R.x.s.B.R.Q.W.<X2X1X@X<XdXjXMXBXCXVXBXGXKXLXKXKXkXdXjXBXBXHXKXKXJXKXKXKXKXKXKXKXKXKXKXKXKXKXKXKXKXKXKXKXKXKXKXJXaX*XE.{.{.{.{.W.E.R.R.G.Z.G.G.G.G.G.Z.G.G.R.R.R.R.E.Q.Q.E.&X:X,X,X,X1X2X2X2X2X<X:X",
",X,X,X,X,X,X,X,X,X,X,X&X&X,X,X,X1X,X,X,X,X,X,X,X1X1X5XgXaX5X9X5X,X9X,X&X:X7X7X2Xu.aXCXgXCXCX@XV.Y.t.j.pXnX+XC p } h f } } f } 6.8.5.4.a 0 t c   < E H L p # % % * V L  .*.{ { *.S 0 t u @ < W T X.X.X.W 7XBXiX&X5XAXZXc.&.>.a.H.-X5X}.H.sXNX5X>X5XzXcXcXCXZXNXsX|.iX5X6XzXzXcXJXJXJXNXgXsXsXCXZXMXCXVXJXHXu.q Y E W -.E R Z.s.a.R.W.5XT.y . . O 6 N u % > < 6 N i 5 b ;.b % n Y & % u < < < 2 Y c u i c i 6 M K R M M M ) a.>.&.&.>.) >.>.>.d ^ _.n.`.-X-X}.d.A.h.}.-XA.}.[. XqXqX4X[.-XqXqXqXqXqXqXxXxX8XNX:.) sX5X,X5X5XE.5X{.R.C.E.>XN.u.B.G.gXgXzXzXR.B.5Xx.E ;.r.u.U.:XU.< ` 4X[._._.`.;X;X-X[.A.a.a.a.<.&.P K ) <.d.2.c.c.>.d.n.2.3.2.2.1.1.1.8 B >.^ D M N Y ` E n n n n v c b {.g.s.D D y.:.( R H c y b x 2 2 X.pXuXQ.~.@XuXjXdXuXuXuX|.~.Q.~.<XT.V.g.u.U.W.T.U.u.;.;.;.E W W Y Y E E W ;.W E E i.t.X.x 3 x T W E W :.x.N.u.x.G.R.E.W.Q.:X2XiXiX1XiXdXjXjXjXMXCXGXGXGXGXKXKXKXdXkXGXLXHXGXHXGXHXKXKXKXKXKXJXKXKXKXKXKXKXKXKXKXKXKXKXKXKXKXKXJX5X*XW.{.].{.{.{.W.E.Q.R.H.G.G.G.G.G.G.G.G.H.H.H.R.R.Q.E.W.:X,X,X1X,X,X2X,X:X:X:X:X",
"1X,X,X1X,X,X,X,X,X,X,X:X,X,X,X,X,X,X,X,X,X,X,X1X,X1XaX1XaXgX1X,X,X,X,X0X7X2XT.7Xt.1XaXbXMXBXQ.S.t.j.#XnX0X,.F F F f f 9.9.{ { } *.5.m.L t < b % % H L ;.H . % @ L j.m.m.5.*.*.6.%.%.b   # q X.W T T X. .@X@XT.V.W.5XAXa.) ^ ) d.3XsX}.Z.sXxXE.E.6XsXsXzXcXAXxXR.Z.}.|.6XsXzXcXZXJXJXgX|.,XsXzXzXMXCXVXJXHXu.y Y W ;.;.( J N.a.g.R.E.,XZ.t O X O > N > % < 6 6 H c 5 b :.b % N N & % < t 2 y u ` b u c M i i M J ( D M M >.2.1.&.&.1.&.>.>.2.M ) `.A.[.-X3X|.N.A.h.}.6XF.[.-X[.4X4X4X[.-XqXqXqXqXxXxXxX8X8XmX-.( sXsX1X5XsX{.5X*XR.Z.{.,XZ.s.Z.R.5XsX5X5XG.u.{.Z.u.:.t.Y.<XW.g.i ' qX[.A.).'.4X;X;X-XA.d.c.C.N.d.-.K ) >.>.2.c.d.d.f.f.d.3.3.1.&.>.1.8 B >.) K M J E -.W W E Y U n c b Q.s.y.M M <.y.-.E J S c b n 2 x I.kXjXpX1X1XiXjXdXuX1XiX<XQ.Q.~.U.I.Q.U.V.<X<XQ.Z.u.r.e.e.u.;.W ;.e.e.;.e.;.T X.;.e.t.u.m : q Z Q E ;.u.Z.R.Z.x.G.>X1X1X1X1X1X5XiX1X1XaXaXiXjXCXCXBXMXjXjXGXLXLXkXGXKXKXHXGXLXHXLXJXJXHXKXJXKXJXKXKXKXJXKXKXKXKXKXKXKXKXKXKXKXHX>X{.{.=XE.W.W.W.W.W.W.E.Q.G.G.G.R.E.E.R.H.G.G.G.H.R.E.&X&X,X,X,X,X2X2X,X2X:X:X:X:X",
"1X,X,X1X1X,X,X,X,X,X,X,X,X,X,X,X,X,X,X,X,X,X,X1X1X,X1X1X5X1X2X5X9X&X7X,X2XB. .+Xu.1X1XaXfX2Xu.j.j.7XpX7XS.F F *.h { *.8.6.8.8.*.*.4.5. .u % c <   p T t.H   . u j.j.5.*.*.*.*.6.#.5.x.C % p T L T V Z T Y.i.Q.@X:X:XNXH.P S ) c.-X3XA.C.*X}.N.Z.>X5X6XvXcXNXsXg.g.g.}.6X,XsXCXZXJXZX5X,X5XxXNXCXZXVXGXVXGXu.y H W ;.` ( R Z.s.H.Z.E.5XR.u % X X < 6 % & u 6 u N M i M :.M & N u % . % i u v n E N i b N b i H ' -.B i M 2.>.2.&.&.1.&.1.2.a.M ) }.A.[.3X6X XA.H.N.}. XA.}.-X|.4X4X4X-X4XxXqXqXqXxXxXxX6X8XzX( ( sXgX5X5XsX{.5X*XE.R.{.3XC.a.Z.R.5XsXW.W.V.u.s.x.y.Z.:XT.V.V.y.u ( vX[.A.`.;XwX;X-X[.A.n.A.A.N.a.<.) K ) &.a.h.n.f.f.2.2.2.2.1.&.1.>.& B ' R H M J :.:.R E E Y n n u i g.:.:.D D >.y.>.( H S b n U b n uXcXdXuXaXaX<XiXdXaX<XW.W.T.<X<XV.U.|.U.U.<X~.U.g.u.i.u.u.I.r.e.V.g.u.u.u.E Y ;.;.;.u.i.m : q m U U -.u.x.G.R.Z.E.aX1X1XiX1X1X1XaX1X1X1X1XaXBXVXjXdXaXjXBXcXBXBXBXLXKXLXGXLXKXKXKXKXJXGXKXJXKXJXJXJXJXJXKXKXKXKXKXKXKXKXKXKXKXVX:X{.&X*X].W.{.W.W.W.W.W.W.G.G.H.E.&X&XE.E.R.R.R.R.Q.W.&X&X,X,X,X,X2X2X2X:X:X:X:X:X",
",X,X,X1X1X,X,X,X,X,X,X,X,X,X,X,X,X,X,X,X,X,X,X2X,X:X:XaX5X2XaX,Xx.b.+XS.,.j.u.k.Y.7X1X1XgXG.,. .S.7X7X0X5.{ } *.f 9.6.6.} { 6...F f p C p 2 y y . % b v % < b  . .L F F F } *.6.6.}  .,.= p p b L p v T j.k.Q.@XW.:XgX>XP K >.>.A.}.}.}.A.a.N.Z.|.>X6XxXzXNXvXh.a.s.H.{.{.5XNXCXzXzXgXzXzXzXNXZXSXSXVXVXGXi.q n E E ` R ( H.g.}.R.R.,XZ.2 . X % < % % > u < i M i i M :.M < H u 5 & + u b c H ` J c N N b c H :.:.M a D 2.>.2.>.>.>.&.1.d.h.M ) [.F.}.-X*X|.Z.H.A.[. XA.|.6X>X8X4X4X4XqXxXxXqXqXxXmXzX6X8XzX) ( gXgX5X1XsX{.>X*XE.E.{.>XN.y.B.H.5X5XG.T.V.s.-.:.E :.V.u.i.u.r.5 P 4X[.).'.wXqX4X X[.A.F.A.c.N.A.a.&.P ) &.d.d.n.2.d.3.2.3.2.3.1.2.1.& D ' K N M J :.r.R Y T Y H b c u V.y.a.P ) -.<.-.R K b b H ;.U T <XdXiX|.cXfX:X:XgXgX:XV.U.W.~.Q.U.W.:XT.Z.:X|.U.N.u.i.N.T.U.i.u.i.u.;.e.;.;.;.W ;.t.u.V.n q m v n T ;.N.N.G.G.Z.W.gXgX2X:X1XiX1X5X1XaX5XaXBXMXfXaXdXjXcXBXGXcXBXLXLXKXLXLXLXKXLXLXKXLXGXJXJXJXJXJXKXJXJXJXKXKXKXKXKXKXKXKXKXKXjX:X:X:X*X{.{.{.{.{.{.{.&X{.E.Q.E.{.*X=X&X{.W.E.E.W.W.&X&X&X:X>X:X:X:X:X:X:X:X:X>X>X",
",X,X1X1X,X,X,X,X,X,X,X,X,X,X,X,X>X,X,X,X,X,X,X,X,X1X:X5X,X,X1X;.<.XX+X,.C  .,.o.T.2X:X1X,XB.,.L +X#X+Xj.l.5.} 6...*.9.6.*.*.*.} C C A T Z x y b . . % % L j.x.<.%.{ F p s j j h 8.5.{  .C 9 0 C j.l.S.,.T k.V.k.Y.W.aXJX:.K >.%.d.].xXzX].a.A.A.}.}.>XvXvXxX8XN.<.N.N.N.}.aXzXNXzXfX5XaXiX,X5XsXCXVXVXVXJXk.2 b Y U E Y ;.R.N.].{.G.{.V.< o % > % . > 2 6 5 i M M i B -.M 5 M i H J & & b i H ;.R b N N M b J y.s.H M P 2.>.1.>.2.>.&.2.h.A.M ) }.A.}.[.[.}.N.H.N.}.>X}.>X5X6XsX5X8X6XqXxXxXqX4XxXmXmX8XsXzXR -.zXsXiX1XsX{.>X>XE.{.{.,XZ.s.R.].>X{.R.Q.G.s.R :.:.W ;.;.u.u.-.5 K 4X`.n.'.;XwX;X-X[.A.A.h.d.c._.A.a.&.&.>.a.2.2.2.f.2.3.1.2.3.3.2.1.8 K -.R H M J ( -.-.E Y H H b u c U.N.a.J R -.<.-.R J M S H ` U u.cXfX1XQ.aXMX<X~.fXjXaXT.Q.iXU.V.W.<X:XW.V.V.Q.Q.W.T.Z.T.|.T.U.i.u.i.u.u.r.u.;.E X.e.i.~.U 2 Z v Z ;.x.G.B.Z.G.{.:X1X1X>X5X5XiX2X,X>X5X5XgXfXdX1XiXfXMXjXjXjXkXkXLXLXKXHXLXLXLXGXGXLXGXGXKXKXKXJXJXJXKXJXJXKXKXKXKXKXKXKXKXKXHXaX:X:X:X&X*X&X*X&X{.{.&X&X&X*X&X&X*X*X&X&X&XW.W.&X&X&X&X&X&X:X:X&X&X:X:X:X:X:X:X>X>X",
",X,X,X,X,X,X,X,X,X,X,X,X,X,X,X,X:X:X>X,X,X,X>X,X,X,X,X,X,X,XG.<.XX0XeXl.} ,.m.| ,.:X:X:X9XS.L ..0X0Xl.4.m.4.f ..m.6.6.6.6.6.6.4.C , q C U Z 1 x # X . Z S.5.*.P L F L F F F f s f ..*.{ C C l.m.#Xl.XXS.C j.V.j.T.:XmXJX8X>.S ) <.].xXxXN.<.H.}.A. XsXvXxXxXqXh.) 2.h.s.}.6X>XzXsXsX5X5X1X>X,X5XgXMXVXCXGXT.q u H Y E J s.N.a.H.G.Z.W.V.< X > % # % % 6 i u i H M d D d.M & i M K K M O u i H r.R b H b N M K a.C.K M &.2.2.2.2.2.2.>.d.d.A.d ) }.A.H.F.H.].A.A.A.|.>X].*X8X3X5XxX8X8XxXxXxXqX8XxXmXxX3X5XmX-.-.cXcXsXiXiX5X1X,XR.>X>XsX{.N.{.>X>XR.{.|.Z.V.y.;.r.;.;.;.` E -.u K 4X_.A.`.wXwX;X;X XA.n.n.n._.A.).A.2.>.>.>.1.d.d.f.2.2.1.3.3.&.1.&.& D >.K B M R ` ` ` ;.W T H n 6 N }.Z.s.K ) ( :.-.) K M M R R Y V.jXfXuXdXdXjXuXT.<XfXiX1XaX~.V.Q.Q.<X<X~.u.;.T.2X1XW.U.Q.|.W.T.g.u.y.u.y.g.u.E E E u.i.Q.U : H H Y u.<.B.Z.R.{.{.:X,X5XaX1X,X:X5X5X>X5X5X1X1X<X<XdXfXjXBXGXkXdXGXKXLXKXGXLXLXGXGXHXKXBXGXJXKXKXJXJXHXJXJXJXJXKXKXKXKXKXKXKXKXMX2X&X:X:X&X*X*X*X&X&X&X&X&X&X*X&X&X&X&XW.&X&XW.OXOXOX&X&X&X&X:X&X&X&X:X:X:X:X:X:X:X2X",
",X,X,X,X,X,X,X,X,X,X,X,X,X,X,X,X,X:X,X,X,X,X,X,X,X,X>X,X,X,XOXK.eX%XXXoX} L l. .,.&X,X&X=X,XXXL oXoX4.m.m.*.f *.8.8.6.8.8.6.6.4.f 0 v u n Z : 1 X . # F m.5.*.{ L f F L  .*.*.C * 0 C p 0 } m.oXm.oX0X0XoX5.,.u.G.:XgXVXSXzXC.>.:.N.Z.s.:.N.}.A.}.-X8X8XvXxXmX6X>.>.a.a.a.a.Z.sXsX>X].>X5X|.W.2XgXCXVXMXMXW.x y u n H E V.N.y.H.G.V.Z.u.> X > : % > > u c c b H M d K y.c & 5 M c K i & b H J :.R M R J Y H K a.A.K M 2.d.2.2.1.f.f.1.2.d.n.d ^ _.A.H.H.H._.A.H.N.|.>XR.}.6X>X8XxX8X8XsXxXxXqX8XqXmXxX8X8XNX-.-.MXcXfXsXsXiX5X1X{.5X>XiX{.Z.:X>X{.R.R.{.T.Z.Z.s.R E E Y Y Y -.6 M 4X`.f.).;XwX;X X X).f.d.f.A.A.h.f.>.>.&.&.2.2.2.f.3.3.1.3.3._ 1._ & D >.K B M R ( ` ` W W Y N b 5 N Z.g.s.J ) :.:.-.J K M D R R J U.fXjXiX<X<XdXdX<X<XdXjX<XW.Q.T.:XW.:X<XW.i.r.T.1X<XT.T.2XW.Q.|.V.Z.N.u.i.V.e.E W ;.i.V.Q.U 1 n H E ;.<.x.x.R.*X1XaX1X:X:X:X&X&X,X5X5X1XW.Q.W.1XdXjXjXBXBXBXkXkXBXGXKXGXdXGXbXGXLXGXBXGXJXJXHXHXJXHXHXJXKXJXJXKXKXKXKXKXKXKXJXgX:X&X&X:X&X&X*X*X&X&X&X&X&X&X&X*X&X&X&X&X&X&XOXOXOXOX&X*X&X&X&X&X&X&X:X:X:X:X:X:X2X2X",
"1X1X1X1X1X1X,X,X,X,X,X,X,X,X,X,X,X,X,X,X,X,X,X,X,X>X,X,X:X,X1Xv.M.8.6.{ L 5.+Xv.j.B.,X&X,X,X7Xl.5.m.m.XXoXm...} 8.oX6.6.6.6.6.{ w v 0 0  .T , 2 #     0 u.XXS.m.j.m.5.*.} C f s p ,.V @ @ e f } 6.oXXXXX+XL ;.j.S.W.1XVXJXJXAXNXsXG.>.) :.g.h.N.A.}. X6XvXqXxX4XA.>.>.-.>.g.>XzX5X,X>X|.>X>X|.iXiXzXCXfXMXaXU b c H E y.Z.s.y.Z.H.s.g.;.% X > : > > > u i a b K B M J y.c % & < M i % & y n Y ;.( N ( R ( J K y.A.K D d.c.2.2.>.2.2.1.d.d.A.d ^ }.F._._._._.A.A.N.{.>X}.*X5X,X8XsXsX8XsXxXxX8X4X8XxXxX8X8XNX-.-.MXcXfXfXfXsX5X5X:X5X>X5X{.R.>X>X:XR.Z.E.U.U.R.Z.;.Y W Y ;.E ;.u M }.).n._.;XqX-X'.`.).f.f.2.f.f.2.2.1.1.&.&.2.1.1.2.3.3.3.3.1.&.&._ & B _ ^ K D ) ( ( E W T U n b 6 N N.s.s.J R ( -.) K K D J -.R J Q.aXjXiXuXdXjXjXjXdX1X~.I.Q.<XQ.Q.<X<X1X:XT.V.g.V.<X1X|.:X|.|.2XQ.Z.g.u.e.u.u.;.W ;.i.I.Y.U : q H ;.;.<.:.y.E.1X5X,X&X:X1X,X:X,X>X&XW.Z.V.G.W.iXfXBXBXGXBXjXdXpXbXBXI.e.<XpXbXGXGXGXGXHXGXBXHXGXGXJXKXKXJXJXJXJXKXKXKXKXKXKXVX1X:X&X&X:X:X*X:X&X&X:X:X&X&X&X&X&X&X&X&XOXOXOXOXOXOX&X&X*X*X&X&X&X&X&X:X:X:X:X:X:X2X2X",
"1X1X1X1X1X1X1X,X,X,X,X,X,X,X,X,X,X,X,X,X,X,X,X,X,X1X:X,X,X&X1X,XG =...*.*.K.0X2XQ.T.1X&X,X&X,XS.*.m.oXm.5.5.*.f } 6.6.6.6.4.6.4.V * * q T H , * % .   * *.j.XXXXm.m.oX6.C F F A ,.A * * e w 9 0 f p ,.+Xl.S.j.V.j.W.fXJXSXSXZXmXNXNX5Xa.-.>.<.>.h.A.}.[.[.)._.}.>._ >.-.y.R.NXJXaX,X,X>X5XfXiXsXzXfXcXcXCXcX;.Z H ;.y.N.B.y.y.R.R.y.u.` % X : : > % > c c i b K B M Y y.u > 5 . % % % x y b E u.:.H ( ( ` J K <.C.P ^ d.d.2.2.1.2.2.>.2.d.n.M ) }.F.A._.}.}.}.H.N.{.|.E.>XsX5X5X8X8X8XxXxXqX6X4X8XxX8X5X5XNX-.-.MXcXzXfXzXsXiXiX|.aX,X5X{.R.,X1X>XZ.s.U.Z.Z.U.Z.g.E ;.W r.` -.u M H.n.(.).;XqX X`.A.n.2.n.2.1.d.2.2.2.1.1.&.2.>.&.3.3.3.3.3.1.&._ _ + B >.^ K K ( ( E E E U U n b y H N.g.s.J R -.:.-.J K S J -.E W :XdXfXuXiXjXMXjXiX|.Q.Q.W.<XW.Q.~.<X:X<X:XW.i.r.r.T.1X:X:X1X<XiXQ.g.N.V.e.r.u.W W X.i.I.Y.Z . % : b  .;.u.B.:X1X&XR.E.,X1X&XW.T.x.u.s.x.V.Q.T.<XdXBXbXjXjXjXjXBXuXV.e.e.I.dXBXBXBXGXGXGXVXVXGXGXGXHXJXJXJXJXJXJXKXJXKXKXKXKXMX:X&X:X&X&X:X*X&X&X:X:X:X:X&X*X&X&X*X:X&XOXOXOXOXOX&X&X&X&X&X&X&X*X*X&X:X:X:X:X>X2X2X2X",
"1X1X1X1X1X1X,X,X,X,X,X,X,X,X,X,X,X,X,X,X,X,X,X,X,X,X,X,X:X1X1Xj.5.z.+X0X7XQ.gXaX1X1X,X,X&X:X9X..*.6.m.m.6.*.{ f F 5.5.{ ....,.} e 0 , p X.b . @     @   p <.K.m.m.5.......C L ,.A $ $ e e e e A ..} f j.K.7Xt.u.u.W.fXCXCXSXJXAXmXZXAXsXH.s.c.s.a.a.2.a.h.h.c.A.d.) ) a.6XzXZXCX,X{.,X5X5XgXiXiXgXgXfXMXVXVXV.U Y ` u.s.N.:.s.{.R.y.y.E % . % X # X 2 b b i M K M M E r.6 < c % > 6 c b x b E u.<.J -.:.:.R K :.c.^ ^ 2.2.2.d.1.2.2.1.2.2.h.M ) }.F.H._.}.}.].R.Z.{.*XR.*XsX5X5X5X9X9XsXxX8X8X8X8XxX8X5X5XzX( ;.CXcXzXfXgXzXsXsX>XsX,XsX>XE.>X>X|.N.g.R.R.Z.N.Z.x.E ;.E ` W -.6 i _.d.f.(.;XwX'.).n.2.1.f.2.1.n.d.2.2.1.f.>.>.&._ 1.3.3.3.3.1.&._ _ + D >.) K K ( ( E Y Y Y U n b y Y B.g.y.H K ( >.( J K K ( -.H ;.2XfXdXuXdXBXjXjXQ.Q.~.~.~.Q.W.W.<X<XW.W.:XW.g.r.;.N.:X2X2XuX1XiXN.V.W.V.r.r.;.W X.;.V.I.Y.n X : : 2 u p E ;.x.G.H.H.G.B.x.u.u.u.V.Y.T.Q.Q.V.W.@X<XgXbXBXjXdXGXpXi.Y.jXiX~.<XGXLXGXBXGXGXGXBXBXGXLXGXGXJXJXGXJXKXKXKXKXKXKXJXfX:X:X:X&X&X*X&X*X&X:X:X:X:X:X:X:X:X:X:X:X&XOXOX&X&X&X&X&X&X&X&X&X*X*X*X:X:X:X,X2X2X2X2X",
"2X2X2X2X2X2X,X,X,X,X,X,X,X,X,X,X,X,X,X,X,X,X,X,X,X1X:X,X,X:X&XE.&X=X,X7X7X7X2X1X1X,X,X1X:X,X:XF *.....5.4.6.....C f F } } f p * , w q w p p H L P <     * ,.S.m.*.F f } f f L w $ , w p e e A L } 4.F ..7X#XX.u.V.W.iXZXJXZXZXAXCXNXmXNXzXxXsX}.[.N._ ' >.A.}.3X-XH.R.6XCXCXCXNX,X>X5X>X>XiXaXiXfXMXVXVXCXVXT.n H J ;.u.s.:.N.}.Z.r.y.E % X # X X : y i u u M K M M E ;.2 2 x y y x b n b H X.:.:.K -.y.r.( K >.h.K ^ d.2.1.2.1.d.2.2.f.d.n.M ) }.}.}.}.].}.R.R.H.{.>XR.{.5X5X5X5X9XsXsXsX8X8XsX8XxX5X5X6XzXE -.MXcXcXfXzXzXsXfX>XsX>XsX5X{.>X>X{.N.Z.{.E.Z.N.T.U.-.;.E E E r.6 i c.2.3.(. X X(.f.n.3.&.d.1.1.n.f.2.f.1.f.1.1.1._ &.3.3.3.3.1.] _ / + D >.' K K ) ) R Y Y U H n c y R N.s.>.M H ( >.) K H M R ( b u.2XfXaX1XdXdXfXfXV.V.Q.W.<XW.W.W.1X<X<XW.W.T.u.` ;.T.1XiXaXaX:XZ.V.Q.V.U.U.r.W E X.;.V.I.I.n # : y b q p b a b S H E -.y.B.B.Z.Y.W.W.Q.W.:XW.V.Q.~.<XdXGXGXBX<X;.k.dXpXjXjX<X@XkXLXGXGXbXGXLXGXGXGXHXHXGXGXLXJXKXKXKXKXKXKXJXaX:X:X:X&X&X&X&X&X:X:X:X:X:X:X:X:X:X:X:X:X:X&XOX&X&X&X&X&X&X&X&X&X&X*X:X:X,X,X2X1X1X1X2X",
"2X2X,X,X,X,X,X,X,X,X,X,X,X,X,X,X,X,X,X,X1X,X,X,X,X:X>X>X&X,X&XB.=X9X&X:X1X&X:X2X:X,XaX,X:X,XT.C } } f } } 4.*.4.m.f $ * * * C  .| v , 0 w  .K.S.9Xj.0     0 L p C f f C f C e * $ q w , * e v C } *.5.} S.,.q E V.W.<XcXZXJXAXzXmXAXSXSXAXxXxX4XmXxX3X-X3XqXxXxXmXmXmXNXCXzXNXNXzXzXaX>XaXcXfX1XiXcXCXVXVXGXuXH b H -.u.s.:.N.H.N.;.y.E > X # # % 2 c c i i M D M M E ;.2 2 y x x c H U n Z ;.:.:.J -.y.:.( K ' a.K ) d.2.1.1.2.f.d.2.n.n.A.M ^ _.}.}.}.}.}.}.E.Z.E.{.R.{.5X5X5X5X9X8XsXsXsXsXsXvXvX6X8X5XxXR -.MXcXMXcXcXcXsXzX:XsX>XaX5X|.,X:X{.Z.Z.{.W.Z.N.T.Q.;.` W W W r.5 i 2.2.2.n.(.(.3.1.f.1.&.2.&.1.f.2.1.f.1.2.2.3.3.&.1.3.3.3.3.3.&._ _ + D >.' ^ K P R R E Y Y H b u 6 R g.a.>.D J ( :.( K D M R R b V.aXMXfXiX|.V.<XjXQ.V.T.<X~.i.V.<XdXW.W.W.Q.u.E ;.V.:X1XaXaX2XV.W.W.V.Q.aXW.V.;.E E ;.k.I.Y.Z : : q v q b ;.:.,.{ S S E <.B.G.W.Q.T.Q.W.~.@X~.T.W.@X2XbXHXbX@XU Y.uX@XdXhXdXBXdXuXuXkXHXGXBXbXGXbXBXGXLXGXGXJXHXJXKXKXKXKXKXGXiX:X:X&X&X&X&X:X:X:X>X:X:X:X:X:X:X:XOXOX@X:X:X:XOX:X&X&X&X&X:X:X:X:X:X>X,X1X1X2X1X1X1X1X",
"2X2X,X,X,X,X,X,X,X,X,X,X,X,X,X,X,X,X,X1X1X,X,X,X,X:X*X,X2X1X,X5X5X,X,X,X:X2X2X2X2X2X,X:X,X2XOXb F } F C } 4...*.j.| 0 0  .S.+X7X@XX., , p L V.S.K.+Xj.0   @ * * 0 C p 0 0 * 0 * @ , , , e w p V } ..l.l.p * , X.i.:XgXCXZXAXNXxXmXAXAXAXAXmXxXAXmXmXxXmXzXmXxXxXmXmXAXAXCXzXMXCXZXZXzXgXMXMXaXiXaXzXcXMXVXHXjXH u Y -.g.y.:.H.Z.s.-.r.E : X X # : y y i u i D K M D R e.< < b x n Y U E T H ;.:.y.R :.y.:.) K ' 2.^ &.d.2.2.3.2.n.d.2.f.h.A.M ^ _.}.}.}.}.}.}.H.s.N.Z.R.:X5X,X1X5X9XsXxXzXsX8X8XxX8X>X6X,XsXR -.MXcXCXMXMXNXgXcX{.gX5XsX5X>X5X,X{.R.Z.{.{.T.U.T.V.E ;.;.;.W g.6 i A._.1.3.3.3.3.3.2._ _ 3._ &.f.1.1.f.1.&.f.2.2.&.&.3.3.3.1.3._ &._ & B >.' ' ) ^ R R E Y Y H b c u ( s.y.-.D R ( >.) K K S J H n V.aXfXjXfX~.u.I.uXW.I.Q.W.T.U.<XuX<XU.Q.:XQ.u.;.T.1X1XiXaXW.V.Q.|.W.aXgX<XW.U.U.u.;.i.I.~.!.U X # 1 n n p  .%.B.m.x.j.;.L E ,.V.T.T.W.@XT.Y.Y.Q.<X<XuXuX@Xt.n ~.pXGXkXhXbXGXkXpXY.t.i.Y.uXdXGXbXBXbXjXbXGXLXLXLXLXKXKXKXKXKXGX1X:X:X&X&X:X*X:X,X,X,X,X>X:X:X:X:X:XW.W.@X:X:X:X:X:X&X&X:X:X:X:X>X:X>X,X1X1X2X,X,X,X2X2X",
"2X,X,X,X,X>X>X,X,X,X,X,X,X,X,X,X,X,X,X,X,X,X,X,X,X>X>X:X2X,X:X,X>X,X,X:X2X1X:X2X:X2X2X1X,X:X1XE a L L { S.,.L  .L p $ | pXpX@X@X@Xj.v e C ,.j.$X+X9X7XS.*   % @ @ 9 @ @ @ * p 0 , $ 1 # * v C V A  .4.XX .0 ,.,.:.:XaXNXZXAXJXAXmXmXSXAXAXNXNXxXxXNXmXxXmXmXxXmX8XmXmXzXsXsXsXNXMXzXmXVXJXMXcXCXcXCXVXVXVXVXjXE N E ` s.:.-.N.N.r.;.u.;.> X X # : , y c t i K ) D K ' ( > 2 v x b n T W Y J -.<.a.R :.y.:.R K ( >.) &.2.d.d.2.2.d.n.2.f.c.c.M ^ }.}.[.[.}.|.}.Z.s.N.Z.Z.R.sX|.T.{.{.,X5XzXxX8X5XxXxX|.*X>XzXR :.CXMXZXMXcXVXcXcXR.5XsXaXgXaXiX>XW.R.Z.|.W.R.W.T.x.;.e.;.e.` g.6 6 N.f./ &.3.(.3.3.1.&.1.&._ &.3._ 1.f.3._ 3.f.3./ _ 1.3.3.1.] &.3.&.& B >.' ^ ^ ^ ) ' R Y H n v v < ` s.:.( K ) -.:.) K K J ) c b 2XjXBXjXuX~.V.u.T.Q.~.~.<X<XiX<XT.T.T.:XdX1XiXiXgX<XaXaX:XU.Q.W.1XjXVXaX:X{.:X2XU.V.V.Q.~.~.Y # % , Z H < E T.S.K.E.B.x.j.%.C b Z H n Z c x U t.k.e.U i.~.e.m W e.i.e.W T U U e.k.~.@XI.k.i.i.k.^.uXkXdXdXuX@X~.~.uXGXKXLXKXVX<X:X:X*X:X:X:X:X2X1X2X,X,X2X,X:X:X:X:XW.OX@X:X:X:X:X:X:X:X:X:X>X,X,X,X,X,X,X2X2X,X,X,X,X",
"2X,X,X,X,X,X,X,X,X,X,X,X,X,X,X,X,X,X,X,X,X,X,X,X:X,X,X,X,X:X&X:X>X:X2X>X2X:X:X2X1X:X2X:X1XaX:X1X,.,.Q.nX7Xj.t.t.t.Z u T Y.Y.Y.@XY.o.A p | +X,.j.0XeXnX7Xb . @ . $ $ $ p o.k.X.q 0 # # # @ q C A A *.,.,.l. .t.;.t.W.1XzXCXNXAXAXmXmXmXAXZXAXNXqXxXmXxXxXxXqX4XqX3X8X6X3X5XgXzXzX,X>X5X,XaXzXNXzXMXCXCXfXVXVXCX;.c Y ` u.( -.g.y.y.r.;.W > % X # : 2 x v u b K P D K ( ( > 2 b x Z H E ;.E H ( <.a.) <.y.:.R K ) >.) &.2.d.d.2.2.2.f.2.f.h.h.M ^ [.}.}.}.}.|.|.}.g.g.V.Z.T.2XZ.y.R.Z.Z.>XsXsX8X8XxXxX|.*X,XzXR -.VXMXCXMXcXVXcXcX|.fXzXsXzXfXgX>X:X{.R.{.{.E.{.W.Z.-.;.;.e.` g.u 6 ) K _ 3.(.(.3.1.1.&.&.&./ &.3._ 3.f.f.&.3.2._ / / &.3.3.3.] 1.3.&.& B >._ ' ^ ^ _ ) J Y H b b c 2 -.s.:.) H ) ` >.) K D P R i R aXBXBXBXiXW.V.V.W.~.uXdXfXiX<XQ.V.U.~.:XiXdXiXaXdX1XdXaX:XU.W.iXMXGXfX:X:X2X:X:XW.U.Y.Q.~.~.Y X # % q y < L Q.,X+XK.+XG.S.S.Q.H % : u H E e.i.k.e.m x pXLXGX~.X.Z v 2 , 2 U I.dXkXBXGXbXjXpX<XI.I.Q.~.Y.~.<XuXuXuX@X~.~.@XdXdX<X:X*X&X:X:X:X>X2X1X2X,X,X2X,X>X:X:X:X:X:X:X:X:X:X:X:X:X:X,X,X,X,X,X,X,X,X,X,X,X,X,X,X,X",
",X,X,X,X,X,X,X,X,X,X,X,X,X,X,X,X,X,X,X,X,X,X>X>X,X,X,X,X:X,X7X2XW.1X:X1X2XgXaX1X7X2X,X,X:X:X5X,XaX2XbXHXS.j.V.k.i.;.X.v Z ,.,.t.t.j.A C t.0XXXp F j.+X<.* @ # @ * $ H +XaXbXk.q , v # % #   v T V  .l.S.S.o.C b ;.t.&XsXzXmXmXmXxX8X}.3XmXmXmXxXmXxXqXxXqX`.A.[._.*X*X].R.5XsXsX>X{.>XE.Q.>XgX1XV.B.T.T.dXGXVXy.c Y ;.r.R y.s.:.y.u.` E > % # % : 2 x c u M K K D K ) E & 6 b b Y Y E y.:.R ( :.s.-.a.y.>.) B K >.&.>.2.2.3.1.d.2.2.2.f.h.c.M ^ }.}._.}.}.}.E.{.N.g.N.B.y.g.y.:.U.N.s.{.5XsXsXsXxXsX}.[.,XzXR :.ZXMXCXMXMXZXMXcXiXcXMXfXzXzXfX5X,X>XE.{.{.W.W.W.Z.;.e.;.;.` V.u i K M &.3.).).3.&.&.&.&._ / 1.2._ 1.f.f.1.3.3.&./ / &.3.3.1.] 1.3._ + B >._ ' ^ ) _ ) J J H b b u 2 ` x.:.( J R -.-.) K S P J u ( fXGXBXiX<X1X<X|.<XiXdXfXfX<XU.Q.T.T.<XiXiXdXpXuX1XiXfXaX:XT.2XGXVXCXaX1XaXgX2X1X|.U.:X<X~.<XW : : X % q q 0 t.,X,XaX7X2X,Xx.H u n t.Q.iXdXdXGXGXuX@Xe.e.I.~.i.W W ;.;.i.~.dXGXBXbXBXbXbXbXGXLXLXGXbXbXbXGXLXGXGXJXGXjXjXBXBXfX:X:X&X&X*X:X:X,X2X1X2X2X,X,X,X:X:X:X:X2X2X:X:X:X:X:X:X2X,X,X,X,X,X,X,X,X,X,X,X,X,X,X,X,X",
",X,X,X,X,X,X,X,X,X,X,X,X,X,X,X,X,X,X,X,X,X,X,X,X,X1X1X,X,X2X,X2X1X7X:X2XQ.S.S.K.OX:X2X:X1X2X:X1X:XdXfXiXt.u.k.k.Y.k.k.T v v q C l.l.A | S.$X0Xp @ * < * . * @ @ , X.7X2X2X@XOXX.p t.Z   . @ @ , p L t.#X#XX.v T E H G.,X].8XxXqXxX6XF.=XxXxXqXqXxXqXqXqX4XF.n._.].-X[.A.C.>X5X,XG.G.].B.N.{.gXfXZ.x.V.V.2XCXVXN.c Y r.;.E y.y.:.y.s.` Y : X % : < y c i u M K K D K _ ' & y n b Y Y E y.s.E ) >.c.>.s.a.:.( B K >.&.>.1.2.1.>.d.3.1.1.f.h.n.B ) [.[.}.}.}.|.}.E.N.g.Z.g.E Y -.u.Z.s.:.U.5X5XsXsXxXsX}.}.6XzX( r.ZXMXVXMXMXZXBXCXfXcXcXzXMXzXfXiX>X>XE.{.{.R.T.Z.x.;.r.;.W W V.i M ' K _ 1.3.(.1._ _ ] _ _ / 3.1._ &.2.f.2.2.2.2.&.&.1.3.1.&.] 1.3._ + D >._ ' ^ ^ ) ) R H H n v y y E x.:.( J ) -.` P K D K H 5 ;.dXBXdX@XuXdX<XT.~.dXdXiXaX|.V.I.I.I.~.iXdXuX<X|.|.iXfXaX2XQ.1XGXVXMXgXiX5XaXaXiXW.T.<X<X~.@XW . X q H H L , < ;.j.j.x. .J c p t.Q.uX2XuXdXuX~.~.pX<XiXe.n W e.~.uXkXkXjXGXBXbXbXkXbXbXGXbXGXGXGXGXGXGXGXGXLXLXGXLXHXKXKXKXCX1X:X&X&X&X:X:X,X,X,X,X,X2X,X,X2X2X2X,X2X2X2X2X2X:X:X:X2X2X,X,X,X,X,X,X,X,X,X,X,X,X,X,X,X,X",
",X,X,X,X,X,X,X,X,X,X,X,X,X,X,X,X,X,X,X,X,X,X,X>X,X1X,X:X9X:X:X7Xu.U L L H ;.+XK.V.:X7X2X:X7X:X>XuXaXgX2XY.T.Y.T.k.k.k.X.L C p L @Xj.T ,.#XpX2XC @ * < % @ 0 <   < 2XpXpX7X7XpX@XT p q . v t.t.Z 0 * p j.OXT v L H Z Z.=XC.].;X;X*X*X].-X4X4X-X4XqXxXqX;X-X-X[.[._.*X}.C.N.{.3X*X].b.x.B.N.Z.R.sXgX:X:X:X2XfXMXV.c Y ;.Y ` y.:.y.u.u.-.Y % X : : 2 y x u 5 b K K K ^ ' ` > u N b H R -.g.s.R R :.c.:.s.s.:.` D P >.&.&.1.d.2.1.f.1.&.1.h.h.n.D ^ }.[.}.R.Z.>X|.{.B.V.Z.g.Y J ` r.B.y.:.N.>X,X5X6XsXsX}.}.5XsXR r.SXCXZXMXcXZXCXZXcXzXcXzXMXcXgXsX>X>XW.|.{.R.Z.Z.x.;.r.;.W T g.u N >.B D &.n.3./ _ ] ] _ _ / 3.&._ &.3.f.3.f.3.2.&.&.&.1.&.] _ 1.3./ + K >._ ) ^ / ^ ) ) H N b y y u R x.-.J P ) -.( P K D J H < ;.dXBXpX|.<X<XW.Y.~.dXdXiXdX2XV.I.u.V.U.~.iX<XQ.W.W.aXgXaXiXT.|.VXVXMXgXaXiX1X5X1X:X<X<X<X@XuXW # : v U T ,.A * 0 b S J p < Y t.V.Y.V.Q.<X~.~.Y.~.I.Q.~.t.V.jXBXGXBXBXjXjXdXkXBXjXkXBXGXGXBXbXjXbXbXGXGXGXLXLXGXGXBXGXJXKXKXCX:X:X&X&X&X:X:X,X,X,X,X,X,X2X2X2X2X,X,X,X2X2X:X:X:X:X:X2X2X,X,X,X,X,X,X,X,X,X,X,X,X,X,X,X,X",
",X,X,X,X,X,X,X,X,X,X,X,X,X,X,X,X,X,X,X,X,X,X,X,X1X>X,X>X,X,X1XV.X.j.L < * C o.Y.t.,.:X7X,X2XaXx.1XaXiXV.V.T.Y.k.u.i.k.k.X.C p o.XX4. .,.#XpXS.q t C C v < , v   % b j.aXnX7XY.#Xj.,   q +XnX@X@X@X .* @ 1 0 q n b J R.=XJ.F.F.F.}.[.*X-X-X*X).`.;X4X;X[.-X-X=X].F.[.].H.J.3X8X3XG.P b P -.y.<.Z.1X,X1XgX1XMXVXT.c Y E Y ;.y.y.N.y.:.-.Y > X : : 2 x c u 5 M P ^ ^ ) ' ` > i J N S ( :.g.s.( R <.s.>.a.s.:.( K K &.&.&.2.f.d.f.n.1.&.2.n.h.A.K ^ }.}.}.R.H.>X{.{.U.V.Z.s.( ( :.y.U.Z.V.Z.>X6XsX6X6X6XR.}.5X5XR :.ZXMXZXMXcXVXCXVXcXcXMXzXMXNXMXgX>X>X{.:X{.W.R.Z.V.r.u.;.;.E i.5 M a.^ D &.(.3./ ] _ _ &./ / 3._ ] &.3.2.3.f.3.3._ _ &.&.&.] ] ] 1./ + K >._ ^ K K ) ) R J b y q y u J s.-.J J R ( ) ) K J J M 5 ;.pXBXdXiX~.U.Q.u.V.I.Y.~.pXdXT.V.u.i.V.T.<X~.Q.:X1XfXgXdXiXU.T.GXCXfXfXgXaX1XaX1X:XiX2XuXuXuXW # # v t.,.b 0 0 t :.V.E < H ;.r.u.t.u.2XpXT.~.uX<XT.Y.I.e.Q.BXBXbXbXjXjXjXjXjXbXBXBXGXGXBXbXBXGXGXGXGXGXGXLXGXBXGXGXKXKXJXJXfXW.:X*X&X:X>X,X,X,X,X,X,X,X2X2X2X,X,X2X:X:X:X:X:X:X:X:X2X2X,X,X,X,X,X,X,X,X,X,X,X,X,X,X,X,X",
",X,X,X,X,X,X,X,X,X,X,X,X,X,X,X,X,X,X,X,X,X,X,X,X,X&X1X,X&X2X2X;.@X#XL e , L  .S.7XV.7X2X7X,X,X1Xi.2XgXT.V.S.V.u.V.k.k.t. .v A S.S...,.j.#X+XC * p L T E b * L q # < p +X7X7X+XS.j.j.k.o.Q.uX@XY.~.pXe.#   2 q H b -.G.R.].F.C.z.) ) &.>.c.A.F.n._.`.`.`.-X_.A._.-X-X[.-XxXzX=Xc.S s t a K <.) S u.T.W.W.:XgXMXV.x Y J Y ;.:.:.u.:.;.;.;.> % : > 2 x v u t S ^ ^ K ) ' -.< c E J R ;.r.g.V.:.R :.a.>.a.s.>.( K K _ ) &.d.f.2.f.n.2.&.d.n.h.A.K K [.-X{.}.>X{.g.{.U.Z.U.s.-.r.s.g.|.>X>X{.5XsXzX5X6X6XH.}.5X5XY r.SXNXZXMXMXVXCXSXCXcXcXfXcXMXMXcX>X>X>X>X|.{.|.E.B.u.u.;.e.W i.2 6 a.d.>.1.(.3.&.] ] ] &./ / 2.] ] _ 3.3.1.3.3.2.&.&.&.1._ ] ] ] 1._ & / 1.>./ D K / ) R H c y q y y M c.:.R P J K J ) K K K c 5 ;.T.uXdXdX~.g.I.V.Y.Y.Y.~.<XaXQ.i.i.V.V.W.<X~.<X1XaXfXaXfXiXU.Z.cXCXMXgXiX2X1XgX5X>X2XuXiXdXuXU # : q b q 0 L  .p H H % H Z.u.X.u.e.Q.MXT.V.<X<XI.Q.V.V.;.:XjXfXMXMXjXMXjXdXjXGXBXBXbXbXbXBXBXkXkXBXGXBXBXBXGXGXGXJXJXHXHXGXiX{.:X:X:X,X,X,X,X>X,X,X,X,X2X2X2X,X,X2X:X:X:X:X:X:X:X:X:X2X,X,X,X,X,X,X,X,X,X,X,X,X,X,X,X,X",
",X,X,X,X,X,X,X,X,X,X,X,X,X,X,X,X,X,X,X,X,X,X,X,X>X>X>X:X,X:X1XS.#X,.L V L +X@Xj.l.7X2X7XOX:X,X5Xi.W.1XaXj.V.k.k.Q.k.k.t. .v | 7XS.,.j.S.7Xt.* * p C T ,. .< H Z @ q ,.7XnX#X+X+XS.#X@X7Xk.Q ~.@X@XuX~.k # q y n b W V.G.=XJ.D.%.M M a a S ) b.a.c.F._.`.`.F.F.[.*X*X].3XxX*X%.a i 5 a S S %.%.E %.T.OXQ.:X1X1X;.y H N E ;.( ( ( -.( :.r.> % : < 2 x c u 5 S ^ K K ) ` :.5 c -.E ;.:.y.s.Z.y.R -.a.<.a.h.>.` ) K &.) &.2.d.2.d.f.2.&.d.n.h.A.K K |.-XH.{.3XZ.-.W.Q.U.W.g.r.g.V.g.{.iXiX>X>XzXxXsX5X6XR.{.sX5XR y.SXMXZXBXBXZXCXVXZXzXzXfXfXzXcXMX5XiX1XiX>X>X5X{.Z.u.t.r.u.W i.u 6 P >.3.n.(.3.] ] ] ] &./ _ 3.] &._ 1.3.1.3.3.f.3.3.1.1._ ] ] 1.&._ & / 1.>.D d K K ) R N c u y y u H N.<.J J H M K ) K K S u < Y r.<XjXiXT.i.i.T.<X<X<XuXuXdX~.V.U.W.<X~.W.<X<XiXdXaXaXjXaXT.Z.fXVXVX1X1XgXgXaX5XfXgXdXiXjXiXb % < # # u X.k. .p & % Z :.k.k.V.u.k.<XdXT.Q.~.T.V.T.V.i.-.1XMXMXjXfXfXMXCXBXjXaXBXjXdXjXbXGXGXbXbXGXGXBXBXGXLXLXHXJXGXVXJXVX>X:X:X:X,X,X,X,X,X>X2X,X,X,X,X2X2X,X2X,X2X:X:X:X:X:X:X2X2X,X,X,X,X,X,X,X,X,X,X,X,X,X,X,X,X,X",
",X,X,X,X1X1X1X1X,X,X,X,X,X,X,X,X,X,X,X,X:X,X,X,X,X,X,X:X2X2XI.X.V | l.L A #X$X#XS.l.#X+X:X,X,X,X1XW 1XaX1XT.V.k.V.Y.k.t.Z L j.@Xl.j.,.#Xl.p * 0 p L T  .;.p % t 0 ,.7X7X0X+X+XK.S.+XOX@X@Xv , I i.I.T : o - x x b p.T.Q.Z.G.x.>.) ) P P ^ K ^ -.) P &.<.>.c.F.C.c.z.=XmX].K S S t i b a S H -.y.u.Z.&XV.Q.W.I.H c Y H E ;.-.( ( ( ;.g.g.< % : 3 2 x c u a J P ^ ^ ) ' -.5 u ( -.:.y.s.s.Z.R c :.d.a.a.h.:.) &.K ) _ _ 2.f.d.f.f.3.3.n.n.c.A.K B }.}.}.{.{.N.Y U.W.W.W.V.u.Z.V.U.{.iXiX>XiXdXzXcXxXsX}.>XsX,XY :.JXVXVXVXCXVXVXVXVXzXMXgXfXiXMXCXaXiX5XgX>X>X5X>XZ.u.u.u.i.;.V.u b &.K _ f.n.3._ / / / &.] _ 3./ _ _ 2.1.&.1.3.n.2.1.3.&._ ] _ 1.1./ & ' 1.>.^ d B K ^ Y N u 6 6 u c H {.y.J b a K ) ) J H b u > H e.u.~.2XdX~.~.~.I.uXdX~.~.<X<X<X<X1XiX<X:X<X<XuXdXiXgXdX1XZ.x.zXNXgX1X5XgXgXgXjXgXMXMXaXjX@Xy # : < v E ;.L @ < b J u.u.r.u.V.u.Y.dXdXV.Q.~.U.V.T.V.u.W W.dXMXMXgXjXVXfXdXbXdX@XQ.Y.Q.@XbXGXkXGXBXBXGXGXGXCXMXCXGXJXVXJXCX:X:X:X:X,X2X2X2X,X,X,X,X,X,X,X,X,X,X,X2X2X:X&X&X&X:X:X:X:X,X,X:X:X,X2X2X,X,X,X,X,X,X,X,X,X,X",
",X,X,X,X,X,X,X,X,X,X,X,X,X,X,X,X1X,X,X,X2X,X,X,X,X,X:X2X1X@Xk.p A o.l.t.| k.#X@X#XS.#X&X&X,X=X,X2XV.i.1XgXfXS.j.t.S.k.T H ,.X. .,.,.t.S.p * e q C |  . .%.H = t u.7X7X+X+X+XK.+XY.#X@X@X@XQ #   : - o o X - 2 k x e.i.u.V.x.:.( ( %.R ) R ) R M t 5 t a i a S S a J ].xXy.i M b u a i u S :.B.Z.&X:X:XQ.:X|.i.2 y H H E -.` ( ( -.:.Z.Z.< % > > y x c u b P ) ) K ) ) -.5 u -.;.y.s.c.N.C.R M <.a.a.a.N.2._ &.K ) &.&.d.f.d.f.f.f.3.n.n.n.A.K M *X}.{.{.{.s.J B.|.W.~.Z.g.U.Z.U.|.uXiX>X5X5XsXfXxXvX}.>XsX>XJ :.VXVXHXJXHXVXVXVXHXcXMXfXfXaXcXVXfXaXiXsXiX>X>X{.Q.V.i.u.i.;.g.c b <.^ ^ 1.2.3.] / B _ 1._ 3.&./ _ _ 3.3.3.3.3.f.3.1.1.&._ ] _ &.1./ + ^ 1.>.) M M D K Y N u 6 u u i N |.y.J b M K ' ) R J n x 2 > U E e.Y.<XuXI.i.I.iXdX|.~.uXuXuXuX1XiXuX<X:X<XjXjXdXfXaX:XQ.*XCXMXsX5XaXaXgXcXjXdXgXdXjXMXu.: # < H u.t.L , q ;.t.E :.x.u.i.V.V.~.dXiXV.V.T.V.U.Y.k.i.W :XMXMXcXfXjXMXjXbXdXQ.k.S.Q.Q.Y.<XkXBXBXGXGXGXVXCXBXVXVXJXJXVXJXMX:X:X:X2X,X2X,X,X,X,X:X,X,X,X,X,X1X1X,X,X:X&X&X&X&X:X:X:X:X,X,X2X2X,X2X2X,X,X,X,X,X,X,X,X,X,X",
",X,X,X,X,X,X,X,X,X,X,X,X,X,X,X,X1X,X,X,X2X,X,X,X1X,X:X2X2X2XQ.p A o.l.j.| S.#X#X#XY.S.:X:X,X,X:X1XaX;.1XaXiXdXV.i.t.H T W Z p e L l.l.T * * v C A  .,.,.:.,.u < u.7XK.S.+XS.j.T k.+X@X@X@Xk.3 # X   o X X o # : o < y y b H R R E Y H -.-.( J i t < 5 t t i b S H %.,XgXy.i b i i M b b J u.T.Q.T.:X:XT.U.Y.e.< 6 n N E -.` ( :.y.s.T.Z.2 % > < y x c y c J K ) P ) ) -.< u ;.:.y.x.N.s.c.` J a.d.d.a.N.a.-.>.^ ) &.&.d.d.d.f.n.f.2.n.f.n.A.D M *X{.}.{.{.g.J g.:X:X:XT.U.|.Q.Q.|.1XdXiX>X>XiXsXsXsX}.|.5X{.J r.JXJXVXHXVXVXGXVXJXMXMXzXgXdXfXVXcXgXgXgXgX1X|.{.W.U.V.i.i.e.g.u b >.^ D &.2.3.&._ D 1.3.] 3.&._ &.&.f.3.3.3.3.f.3.&.1.&.&.] _ &.&./ + ^ 1.>.' B d B K R J c 6 u c c N {.y.J b H K ) ) ) R n v v X q U W ;.r.V.u.I.uXdXuX~.Q.<XuXuX<X<XW.~.Q.@XfXdXfXgXgXaX5X5XxXCXNXgX5XaXgXgXcXMXBXfXjXjXV.y X , p E ;.c % v u.u.W X.V.V.k.V.k.<XpXdXuXV.V.Q.U.T.U.V.V.X.Y.fXjXMXMXcXbXfXpX@XV.V.T.Q.Q.~.uXjXGXBXBXBXBXBXBXVXVXCXCXCXVXJXNX:X>X2X2X2X,X,X>X:X:X:X,X,X,X,X,X1X1X,X2X:XOXOX&X&X:X:X&X:X2X,X,X2X,X,X,X,X>X,X,X,X,X,X,X,X,X",
",X,X,X,X,X,X,X,X,X,X,X,X,X,X,X1X1X,X,X,X2X,X,X,X,X,X1X1X:X2XV.b | | ,.t. .S.#X#XS.S.S.1X&XW.,X:X2X1X{.;.aXfXdXpXX.n v v v v p p 0 ,.T , 0 q V C T  .,.,.,.<.H < 0 H L C p p % @ ,.S.S.Y.pX@Xv # # # #   o o o X . o . . X X > 2 t t u H H M H J M M b M a N S J R x.aXgXZ.H b u H N c H ;.W.W.W.V.V.x.u.i.V.W < x n n W ;.` -.s.s.a.N.Z.y % > , y x c y i H K ) ^ ) ) ( < u -.:.u.s.N.a.h.y.-.a.A.h.a.c.a.&.>.) ) &.>.2.2.2.f.n.f.f.f.f.n.A.K B *X*X|.{.|.x.Y u.:X:X>X|.W.2X|.|.|.1XfXsX5X>XsXfX5XsX}.{.>XE.H ;.JXVXGXJXJXJXVXVXJXMXcXzXgXdXaXVXcXdXMXcXgX5X>X>X|.Z.V.V.i.u.V.u N :.^ D &.2.3.1._ _ 3.3.&.1.&.&.1.1.f.1.3.3.3.f.3.&.1.1.1.] _ _ _ / + ^ 1.>.) B d M K J N c 6 6 c b b E.s.J M N K P ) R R b b H , o 2 H E ;.u.Y.uXjXjXdX~.V.Q.<XuX~.Q.~.2X@XW.iXgXgXaX5XgXgXgXzXNXNXzXgXfXMXzXgXfXMXfX1Xe.y % % < Z ;.E < % T X.H T ;.V.T.V.u.I.iXdXdXdX~.T.Q.V.Q.V.V.k.E u.jXMXMXcXMXCXjX1X~.I.I.Y.Y.Q.<XkXBXGXGXBXBXBXBXCXBXCXMXMXNXVXJXNX:X2X2X2X,X,X>X:X:X:X,X,X,X,X:X:X2X2X:X:X&XOX&X&X&X&X:X&X:X:X:X2X2X2X>X:X:X:X:X>X,X,X,X,X,X,X",
",X,X,X,X1X1X,X,X,X,X,X,X,X,X,X,X1X>X>X,X2X,X,X,X,X,X1X,X2X2X;.C  .l.Y.S.o.S.Y.#X+XS.OX:XW.OXQ.2X:XaXaXt.W.aXaX<XZ p m Z v w q w , C C p v C Z L | ;.,.,.u.u.;.u v # . * , < @ $ C S.Y.k.Q.@XQ # # # #   X   X X # # # X %   < H c y < % % < a S H S S J J R K J ( g.s.;.J b u 2 n Y E H U ;.t.t.;.` ;.W Y c > > v n n E ;.-.-.y.a.y.N.Z.c # : > y x c u i K K ) ^ ) ) ( < u -.:.x.a.g.s.N.a.>.s.A.N.a.h.a.-.>.) _ &.>.2.1.3.3.f.f.f.n.n.f.A.B M >X6X,X{.|.B.E u.<X1XiX:X<X1X>X:X>X>XiXiX5X>XsXsXsXxX}.E.{.Z.H ;.VXVXGXJXJXJXHXJXJXMXgXzXdXaXiXcXcXiXCXCXgXaXsX5X2XZ.i.i.u.u.U.c M 2._ K 1.(.3.1._ 1.2.f.3.3.&.&.1.3.2.&.1.1.1.2.3.1.1.1.1.] / _ _ / + ^ 1.>.) D B i B J N c 6 6 c n c Z.s.J i M K J ) R J b b U 2 X : > 2 c n H W u.W.dXdX1X<X:X~.~.<XaXdXiXiXaX1X>X>X>X*XH.H.].].3XzXmXgXaXgXMXiX2Xe.u > # # X % y n q , n E Y ;.T.i.r.k.i.V.@XdXkXdXdX@XT.Y.V.U.Y.Y.u.X.u.bXbXfXfXMXCXbXfXpXT.V.Y.Q.@XdXBXGXGXGXGXGXBXCXMXMXBXMXCXVXJXJXmX>X,X>X>X>X:X:X:X:X,X,X,X2X:X:X:X:X:X:X&XOXOX&X&X&X&X&X:X:X:X:X:X:X:X:X:X&X&X&X&X:X:X:X:X:X2X",
">X,X,X,X,X,X,X,X1X,X,X,X,X,X,X,X1X>X,X,X2X,X,X,X1X,X1X:X:X1XE T l.#X#X+X+X .Q.#X@XQ.:XOXOX:XQ.OX:XW.:X2Xu.1X<Xt.T t.X.T v x C v v C T ,.T Z T L  .;. .P y.;.;.L v H # . C H u 0 0 T t.I.Y.Q.e., , ; X   X X o X X X # X X . v ;.;.;.r.H < . + + & = & t i M b M M b 5 % % > > % 5 b n 2 > < u c x y x v 2 % X < x n n E :.:.:.:.a.y.N.T.v # : < y x c y c J K ) ^ ) ) ( < u -.:.s.s.N.s.c.s.<.s.N.h.a.N.s.>.>.^ &.>.>.2.2.2.3.f.f.f.n.n.n.A.B M >X5X5X{.>XU.;.V.iXiXaX2X2X<X2X|.>X>X5X5X>X>XiXsXsXsXR.Z.R.Z.H ;.JXVXGXHXJXJXHXVXVXMXgXfXgXaXiXgXcX5XcXVXzXsXfX1X1XT.V.g.i.i.g.i b >._ / f.).f.3.&.3.3.3.f.3.&.1.1.1.3.&.1.&.1.3.3.1.1.1.1./ / _ _ / + / 1.>._ K K c M H M i y c c n i Z.N.N i M K P ) ( Y Z n H y X y H ;.y.g.y.;.E H E V.1XdXgXiXaXjXcXfX2XZ.r.J M b M R >.<.<.b.v.G.*XsXgX*XB.-.v % . 2 H H < > X X . c ;.u.i.aXbX1XV.e.t.i.k.~.@X~.@X~.Q.Q.T.V.U.Y.u.t.t.aXBXfXjXMXMXfXBXfXW.I.W.2XpXjXbXBXBXGXBXBXCXCXCXMXbXMXCXVXJXJXfX:X>X:X:X:X:X:X:X:X,X,X,X2X:X:X:X:X:X:X:X&X&X:X:X&X&X&X&X&X&X:X:X:X&X*X&X&X&X&X&X&X&X:X:X:X:X",
":X:X:X,X,X,X,X,X,X,X,X,X,X,X,X,X1X,X,X2X2X,X,X,X>X,X1X,X:X:X;.X.k.Y.@X7XOXOXj.S.Q.+X2XOXOXW.OXOXOXW.:X:XV.OX2X,.@XY.o.Z n Z m p C L ,.t.X.H L H  .*. .,.u.;.;.T 0 Z v @ < E H < < p T k.k.e.Z , ; # X # # # o   . . X . % < Z H Y E ;.%.M t 5 t t t 5 & + + + + + + + & = + % + . % % . . . % > 2 y v b 2 : 2 m x n b E r.:.:.<.a.y.c.Z.c % > < y x c y b J K ) ^ ) ) ( < u -.:.s.x.N.y.a.g.a.a.h.g.a.N.h.<.>.^ >.>.1.2.2.f.f.f.n.(.n.A.n.).B M >X6X1X{.2XU.r.U.aXaXiX2X1X1X1X:X<X:XiXiX5X>X5XsXsX8XZ.c.Z.N.H :.VXVXVXVXVXVXVXGXJXMXiXzXzXsXgXiXcX1XiXVXMXfXfXiX5XW.U.U.I.i.i.y M -._ >.).(.f.3.1.3.f.2.3.3.&.3.3.1.2.&.1.&.1.1.1.1.1.1.1./ _ _ _ / + / 1.>._ / K M M N M 6 6 b b N i B.Z.M i M M J ( ( Y H H Z < c r.W.gXzXaXW.Z.Z.;.Y Y E u.R.2X2XQ.u.E b u t i M K S S S S S S S D S M b t = . . % u H ;.t.;.W y X y i.Z.{.Z.MXMXCXaXW.Q.u.e.u.i.i.I.Q.Q.T.Q.V.V.k.u.u.E V.BXjXMXcXfXgXfXgX:X@X<XjXBXBXbXbXGXBXBXbXBXCXCXMXfXNXCXCXSXSXsX:X>X:X:X:X&X&X&X:X:X:X:X:X:X:X:X:X:X:X&X&X&X&X&X&XOX&X&X&X&X&X&X*X&X&X&X&X&X&X&X&X&X&X&X&X&X",
"&X&X:X:X>X,X,X,X,X,X,X,X,X,X,X,X1X,X2X2X2X,X,X,X1X,X:X:X|.2XV.j.:X2XOXOXOX:XQ.S.V.T.:XW.OX2XT.T.T.+XQ.+Xj. .,.Y.BXpXX.U Z Z U Z H ,.;.,.,.X.H L L L  .,.;.;.,.;.E 0 C b @ * C p < : q Z Z l # # , l Z Q q     , v T Z < , < q , < p u i i i M P 2.d.1.B 8 8 i t 7 7 t 7 t t i M H J R J c < O . . % 2 v 2 : x x c b b ` y.:.:.y.y.<.s.Z.c % : : < x c t c J K ) ^ ) ) -.< u -.:.s.s.g.:.a.s.<.a.N.N.a.c.s.<.>.) 2.>.1.2.2.n.f.n.(.n.f.f.f.A.M M 6X6X1X|.2XU.r.Q.aXiXiX<XuXiXiX<X|.:XiXsXiX|.,XsXsX5XN.a.N.N.S ;.JXVXMX1XW.:XcXJXJXcX5XzXcXgXcXiXfX5X5XZXVXcXzXzXfX{.W.W.U.i.V.x i ' >.1.A.).n.3.1.f.f.f.3.3.1.3.3.1.2.&.1.&.&.&._ &.1.1.1.] / / ) ^ & ^ 1.&.) ^ K K N M M u x b N H i x.Z.H i c M K R R Y H T n n U.1X,XzXzX-.J -.N.u.N.N.R M b c a u t u u M :.B.C.H.D.D.v.C.v.<.z.z.%.i & 5 b H T E Y < u i.V.i.H % H R.>X:XG.>XzXmXzXfXmXgX:XW.U.i.u.V.V.V.U.V.V.i.u.u.H T V.dXbXfXgXfXfXiX@X1X~.@XdXBXBXbXjXBXBXBXBXCXMXMXbXVXVXCXVXCXaX:X>X:X>X:X&X&X&X:X:X:X:X:X:X:X:X:X:X&X&X&XOXOXOXOXOX&X&X&X&X&X*X&X&X&X&X*X*X&X&X&X{.OXW.OXOX",
"&X&X*X:X:X,X,X1X1X1X,X,X,X,X1X1X1X1X2X2X,X,X,X,X,X>X:X:X:X:X:X:XOXOXOXOXOX&X:X2XV.&X:XW.W. . .j.j.C e p q p C T.OXk.W t.;.t.E  .i.j.u.r.u.;.E  . .E E ,.,.X.T  .u.Z < T p   0 n < , , : # ; # q I T | t.o., # ,.@XV.Y.k.T 1 1 q > 5 i t s t 7 8 / n.3./ / _ &.&.3.1.&.1.2.d.n._.-X-X*X-X*Xs.) u O . X > : 1 x x x b c ` s.:.:.y.a.<.y.s.N : : , 2 x c y b J P ) _ _ ) ( 5 5 -.r.r.y.s.<.a.a.a.y.A.N.:.C.h.<.&.>.2.>.>.d.d.2.n.n.n.n.n.n.n._.M M 6X>X|.R.|.U.r.W.aXdX<XU.iXiX<X<X|.|.sXiX>X,X{.5X5X>Xs.:.N.s.n ;.VXVXCX2XW.:XgXfXJXCX5XfXfX5XfXaXdXiX>XBXVXcXzXiXsXiX|.Q.U.I.i.u c -.>.2.n.).n.3.2.n.n.d.3.>.1.d.3.3.1.&.1.&.&._ _ &._ 1.&./ / / / / & ^ 1._ ' K D ^ H N b 6 6 n n n c N.R.N 5 i H M J R J H U H e.1X:XgXmX<.a ( y.a.:.%.<.a.a.J S S ( a.C.s.a.=X4X4X=XH.H.`.D.D.F._.H.a.<.z.].3X9X,XR.x.H < i.V.` S . J N.*X*X*XE.{.{.*X>X9X,X1XaXaXiXW.V.x.x.i.;.;.E X.E T T E 2XjXgXgXjXbXuX@X@XQ.2XbXBXbXbXBXBXBXBXbXMXBXBXMXMXVXZXZXVX5X:X:X:X:X&X&X&XOXOX:X:X:X2X2X2X2X:X&X&XOXOXOXOXW.W.OX&X&X&X&X&X&X*X*X&X&X&X&X&XW.{.{.OXOXW.W.",
"&X&X&X:X:X,X,X,X,X,X,X,X,X,X,X,X1X1X2X2X,X,X,X,X>X:X:X:X:X:X&XOXOXOX&X&X&X&X&X:X,X1XW.,X .T j.t. .p p L p V e A T.Q.jXVXgXi.:.Y.T.T.V.<.r.:.%.%.E  .;.X.%.;.T T T H v < n 0 . % @ X : : : # w T | | | w.o.w w S.Y.S.Y.Y.I.U : , < u t M &.&.D d ] 3.3.3.8.(.(.3.8.3.n.).).n.). X'.wX4X*X-X3X3XZ.;.c % X X 2 m m b n b -.y.:.y.g.a.y.s.x.H % : < y x i 6 c J K ^ _ %.%.-.5 5 ;.y.s.s.g.y.a.a.y.:.N.N.>.h.h.>.&.>.2.>.>.2.d.f.).A.(.(.n.n.n.}.B M 6X>X>X|.1XQ.u.:XfXfXW.g.iXaXuX<X|.|.iXiX5X>X5X5X3XZ.-.<.N.:.c r.JXcXfXgXgXCXMXaXcXSXfX1XfXaXiXcXfXiX>XfXZXcXcXzXzXiX|.|.|.U.i.6 b >.>.d.).).f.3.3.n.n.f.1.&.1.f.1.1.&.&.1.&.&._ _ &./ 3.1./ / / / ^ & / 1._ _ K K P K H M c c b N N i s.R.J 6 i H H J R J J Y H i.1X5XNX3XP M <.F.z.>.>.a.C.}._.c.c.H.H._.].-XmXNXmX8X4X8X4X=X].].=X=X=X>X3X5X3XgX9X1Xx.:.i u.:.;.J > R B.].=X>XE.].}.].=X,X{.{.:XQ.T.x.u.x.x.Z.Y.;.y < p X.u.X.2XbXgXaXfXbXfX<X@X@XpXbXbXBXbXbXBXBXBXBXVXCXMXMXMXCXZXZXVX5X:X:X:X:X:X:X&X&XOX&X:X:X:X:X:X:X&XOXOXE.W.W.W.W.E.W.&X&X&X&X&X&X&X&X&X&X&X&XW.W.{.{.OXOXW.W.",
"{.&X&X*X:X:X:X,X,X,X,X,X,X,X,X,X1X,X,X,X,X2X2X2X>X:X&X{.&XOXOXW.OXOX&X*X&X&XOXOXW.W.*Xj.H t.,.o.p V | L A L T v 2XCXJXJXfXQ.:XaX1X2XT.r.:.y.<.<.:.,.<.E  . .T T W T  .u y p # # 2 q x : # ; V T T | o.| A 9 e o.j.k.k.k.t.v # : < t i K >.1.&.3.(.(..X3..X'.'.'.8..X(.'.'.(.'.wXqXwXwX4X4XwXqX[.{.T.E y O : x N n b c ;.y.>.y.y.a.a.N.g.H % : < q y u 2 i H D P &.) ) -.5 u :.y.s.g.g.y.y.a.a.y.h.N.<.d.d.>.&.<.2.>.>.2.2.n.).n.(.(.n.n.n._.M M >X|.>X>X5X{.N.2XfXgXQ.r.uXdXiXiX|.T.>X5XiX>X5X>X5XN.( <.Z.:.b :.1X>XaXcXaXfXfXiX1XzXNXfXgXzXdXfXcXdX>X>XCXcXcXzXcXiX|.|.Q.i.u.6 c -.:.h.).).f.1.3.n.n.f.&._ 1.2.&.&.&.&.&.&.&._ _ &./ 1.&.] / _ / ) & ^ >._ / D K K K H b c b b H H u r.E.R u c M K J P J E Y Z V.2X8XmX_.) &.c.}._.C.c.c.A.`.=X`._.`.H.[.8XqXqXmXmXmXmXDXDXxXxXxXqX9X8XxXzX8X8XsXgX9XG.x.;.u.;.:.( t J N.].J.C._.}.[.].[.=X].].E.-.R R ;.x.:.u.W.Q.W u v X.V.T W.dXpXdXjXdXdXuX<XpXbXbXbXbXBXBXBXBXbXBXCXCXCXGXVXJXJXVXMX2X:X2X:X:X:X:X&X&X&X&X:X:X&X&XOXOXOXOXW.W.W.W.W.W.E.E.{.{.&X&X&X&X&X&X&X&X&X&X{.{.{.{.OXOXOXOX",
"{.&X&X&X*X:X:X:X,X,X,X1X1X1X,X,X1X1X1X1X,X2X2X:X:X*X{.{.{.W.W.W.W.OX&X*X&X{.W.W.OXW.&XOXL V | V w f A C  .L l. .T bXBXHXfXaXaXgXgXaXW.y.:.a.v.H.v.<.:.;.T C  .j.k.t.X.U q : % < 1 2 1 X   q T w.o.t.l.t.| w w | o.S.,., : # # % < 5 D ^ &./ 3.(.(.(..X3.3.'. X'.(.(.'.'.'.'.;XwXn.2.-XqXqX;XwXqX5XsX1XU.n X 1 n H n H r.y.-.y.s.s.x.Z.N.J % : < 2 y u 2 u M S ^ &.) ^ ( 5 u r.y.y.s.s.:.<.a.a.a.d.N.<.d.a.<.-.a.d.>.>.2.2.f.n.f.n.n.).A.A.).M B 6X>X>X>X5X{.U.1XfXfXT.-.<XdXdXiX2XU.iXiXiX5X>X|.>XN.( :.V.;.b ` :X5XMXMX>X>X>XiX>X>XMXNXgXfXfXiXzXfXiX|.cXVXBXfXzXiX<X|.I.p.i.y i :.<.h._.`.f.2.3.f.n.f.1.&.1.1.&._ &.&.&.&.&./ &.&._ &.&.] &._ ) ' & ^ >._ ^ D B K K H c c c b H H 6 ;.W.-.c b M K J R J W E H U.1XxXxXz.>.c.A.}.`.n.d.n.*X-X-X;X[.F.).;XqX4X8XqXxXmXmXmXDXDXmXmXxXxXxXxXzXxXxX5XxX,X{.Z.Z.x.;.( -.M J v.].=XH.F.`.`.F.C.D.H.].B.H S M R u.:.x.x.T.i.H b Z Y.;.V.<X2XdXfXdXbXbXbXbXbXbXbXbXjXjXbXbXBXVXGXVXVXHXJXKXJXHXbX:X:X:X:X:X:X:XOX&X:X:X&X&XOXOXOXOXOXE.W.W.W.W.W.W.E.E.W.{.{.&X&X&X{.{.&X&X{.&X{.{.{.{.OXOXOXOX",
"&X&X&X&X&X&X&X&X&X:X:X,X,X,X,X,X,X,X,X,X2X2X:X:X*X&X{.W.W.W.W.W.E.OX&X&X&XOXOXOXW.E.E.,Xo.w w V r A V A  .V ,.S.< OXJXjXiXCXgXfX1XaX,XG.C.D.v.B.B.<.%.L L  .k.Y.k.t.T Q v % u x # X . # # ; v A O.l.j.4.| } A |  .l.,.0 # # - # t i K ) >.&.3.3.3..X.X3.&.3.'.'.'.'.'.'.;X;X;X'./ K ^ d.4XqX4XxXxXsXzXGXQ.n : x H H Y y.:.( y.N.a.s.Z.N.Y % > < q y i 5 u M D ) &.^ P ) 5 u ;.;.a.a.y.:.<.d.a.:.a.N.<.h.a.<.) <.d.>.>.2.2.d.n.f.2.n.n.n.A.}.B H 5X,X>X5XsX|.W.dXcXcXQ.` <XdXfXaXuX~.iXiX>X>X>X5X{.g.( y.N.( c ;.5X5XiX>X>X>X>X>XiX>XiXzXfX5XiXdXiXiX>XQ.1XVXBXdXMXfXuX<XQ.I.I.6 u :.:.h.)._.f.1.2.c.n.f.>.&.2.1._ _ &.&.1.1.&./ &._ _ 3.1._ 1._ ' ' & ) >._ / K B K K H b c c b N N 5 ( E.:.M M M K J ) H W Y H |.5XzXxX2.1.2.c.F.=X-X-X*X;X*X-X-X[.A._.4X4X;XxXxXzXmXmXmXDXNXxXmXxXxXmXNXNXmXxXsXgX9X,X{.R.Z.%.-.x.%.R C.R.[.}.F.`._.n.z.b.F.E.s.S J H H r.u.G.i.r.u.,.X.b k.;.t.pXgXbXdXfXbXdXbXbXbXbXjXjXjXbXVXBXBXbXfXaXgXCXHXJXKXJXjX2X<X2X1X1X1X2X:X:X:X:XOXOXW.W.OXW.W.W.W.W.W.W.W.W.W.E.E.E.].&X{.{.E.E.E.E.E.OXOXOX&X&XOXOXOXOX",
"&X&X&X&X&X&X&X&X{.&X&X&X:X:X>X,X,X,X,X:X:X:X&X&X&X{.{.{.{.{.W.E.E.OX].&XOXOXOXOXOXE.W.&XX.w V V p A A A A V  .2X .U HXBXBXVXMXcXgXgX>XB.C.F.v.b.<.;.%.F E S.Y.k.t.X.Z Z q , v X X . X # : $ $ $ O.S.l.O.} 4.| } 4.| o.L # # # < y H ) %.>.3.1.3.3..X.X&.[ / 3..X'.'.'.'.'.).2.&.^ &.>.&.F.8XqX8XxXNXNXcXGXQ.6 < H Y E <.-.( :.y.y.s.Z.x.J % : , y u i 5 i D K ) ) ^ ^ ( 5 5 -.:.a.a.:.:.<.g.y.>.a.h.a.h.a.<.) >.h.2.>.1.2.d.n.n.n.n.n.n.A.[.H b >X>X|.5XsX|.{.sXfXfXQ.e.<XgXdX<Xi.Q.1XiXiX5X>X1X{.Z.s.C.Z.R c r.5X>X>X|.>X1XiXsXsX5X{.5XsX|.>XzXdXiX1X>X>XcXCXcXMXfXuX<X~.~.U.6 u ` -.d.A.A.2.1.2.n.n.2.&.&.2.1._ _ &.&.&.1._ / &._ _ 3.1.&.2.&._ _ & ) &._ / K D K K H N b u c N N 6 R G.s.J M B K J R J E H E iXfXzX6X2.2.2.n.6XqXqXqX8X4X*X=X`.[._.[.qXqX4XDXmXmXmXDXmX8X3X8XNXNXNXNXNXNXmXxXzXzXsXgX5X&X{.:.;.u.( J C.F.].].A._.A.d.b.v.H.J.x.H M S E B.j.;.%.:.j.V.Q.T X.W H Y.pXBXbXjXBXBXkXbXBXbXbXbXbXBXMXfXiX:XW.Q.@XaXBXBXGXGXaX2XpXdXjXMXfXgXaX2X:XOXW.W.W.W.OXW.W.W.W.OXOXW.W.W.W.W.E.E.].&X{.{.E.E.E.E.E.&XOXOXOX&XOX&X&X&X",
"&X&X&X&X&X&X&X&X{.{.{.&X&X&X&X&X&X&X&X&X&X&X&X&X{.W.].].].].&XOXE.OX].].&XOXOXOXOXW.:XOXA V A z V w p V p C L +XY.q Q.GXBXBXHXjXzXzX>XB.C.J.c.<.%.%. .E j.S.j.t.X.T Z w 1 y 2   # # X   # , , , l.l.l.O...4...} 4. . .T , : : q y ( >.%.^ 1.3.(..X.X3.&.&.&.&.3.n.(.(.).).A.d.&.2.n.F.c.A.4XxX8XxXmXNXzXBXjXW < c E ;.:.-.R ( :.N.N.B.u.H % : , y y c t i S K ^ ^ ^ ) ` 5 5 ` ;.:.y.y.:.<.d.y.<.a.s.d.a.a.a.&.>.c.h.2.2.2.f.n.f.n.n.n.n.A.[.M i }.>X|.1XsX{.{.iXfXfX|.g.>XdXuXQ.;.Q.|.Z.|.sX>X|.}.{.R.H.Z.R i y.iX>X5X>X{.{.>XiXiX,X|.5X>XW.5XcXcXcXsXiX>XfXcXcXMXfXiX<X~.~.I.2 c -.>.a.A.c.2.2.2.n.n.1.&.&.1.&.&.&.&.&.&.>._ / _ _ _ &._ &.n.1.&.>.8 ^ _ _ / K K K K H M b c b N H u R C.Z.-.N K P R J R E N ;.iXNXAX[.&.2.n.`.*XxXxX8X8X9X4X4X[.[._.`.4XqXqXmXmXmXNXNXxX*X].3XxXmXAXAXNXzXzXzXxXzXgXzXiX5X:Xx.:.x.-.H C.c.C.F.n.n.d.2.n.C.`.E.R.Y b E V.:XB.E u.W.Y.k.Q.X.C T H k.2XpXpX<XpXjXbXBXbXjXbXbXdX1XW.W.W.Q.Q.Q.@XiXbXbXBXBXiXuXfXBXBXHXVXMXfX1X@XOXOXOXE.OXW.W.W.W.W.OXW.E.E.W.E.E.E.E.].&X&X&XE.E.E.E.E.E.OX&X&X&X&X=X&X&X",
"*X&X&X&X&X&X&X{.&X&X{.{.{.&X&X&X&X&XOXOXOXOXOXW.W.E.E.].].&X&X&XE.E.&X].&X&XOXOXOX+XW.S.p | V w z p V A w A L S.7Xv U HXBX<XiXaXsXzX5XG.H.].B.<.<.%.P T Q.Y.k.X.T Z Z q # , % . : - . # # , # v l.l.O.| O.4.O.A ..| o.o., # x 2 y E :.) ^ &.3.(.3.3..X8.(.(.8.(.(.`.).).c.c.n.n.F.`.*X}.-X3X8XxX8XSXmXsXcXJXU.y i R E %.( ) ( -.Z.N.s.:.H : : > 2 y c t i S K ^ _ ) ) -.t 5 E -.-.y.a.<.>.a.<.a.a.s.d.:.a.<.>.>.d.c.d.2.d.c.n.2.&._ >.f.A.}.M i {.5X>X5XzX>X|.dXiXdX>XV.|.dXfX<XU.|.g.N -.{.|.6X}.>X}.H.Z.Y u y.cX>X>X5X{.>X,X,X5X5X5X>X|.Q.>XcXBXVXcXzXiXsXcXcXVXfXdXiXuX<XV.2 c :.:.2.h.d.2.1.d.A.n.1.&.1.1._ _ &.&.&.1.1./ / &._ _ 1.&._ f.1._ >.8 ^ _ &._ D K B D H c c b n N H u J N.E.<.M J ) R J E E c ;.sXNXmX_.=.&.7.F.xXmXxXxXmX3X4X-X`._._.=X;XqXmXxXmXmXNXNXmX9X3XzXAXNXNXmXxXsXgXmXcXMXcXcXzXgX>XV.:.x.-.S C.C.C.C.c.c.a.c.F.F.=X=XQ.u.;.Q.aX1X2XW.E.:XQ.Q.Q.t.p v Z t.@XQ.Q.V.T.Q.@XuXpX<X@X@XQ.Q.W.W.W.W.W.W.:XpXjXbXGXLXdXdXbXBXVXHXVXjXfX1XW.:X&XOXOXW.W.W.W.W.W.W.W.E.E.W.{.W.{.{.&X&X&X&X{.E.E.E.E.OX&X&X&X&X&X&X&X&X",
"&X&X&X&X&X&XW.E.E.E.W.W.{.{.&X&X&X&XOXOXOXE.E.E.E.OX{.E.E.E.{.OX&X&X&X&XW.W.E.&X&XOXOXQ.u L L V e w ..| e L L | @X,.q dXJXBXdXuX5XaX5X5X*XH.E.<.%.:.S H V.t.X.Q Z m e , , < : X X : X : : : q o.4.O.A f 4...| } | |  . .: : m x y b :.-.) 2.n.n.(.).'. X'.).n.`.).n._.).n.A.d.d.F.n.`.}.-X3XqXxXxXxXNXsXcXVXgXH 6 Y E ( R ) ( ` y.y.) -.Y : : > y y u 5 i K K ) &.) ) -.i 5 R -.-.y.y.>.>.s.a.y.a.2.h.a.a.<.2.%.2.h.d.2.d.d.d.>.&.2.n.2.n.].d H 6X5X>XsXsX|.|.cXfXiXuXV.~.dXiXiX<XU.Z.c Y >X1X6X6X*XE.R.R.E u g.zX>XsX5X>X,X>X5XiXiX>X>X:XQ.<XcXcXGXGXMXjXiXcXcXVXcXaX1X1X<XU.> c -.y.a.d.n.2.1.2.).n.d.&.1.&.^ / _ &.&.>.1./ / &._ / &.] / 3._ ^ 1.8 K &.&.D d M K M M N b c b N b u R s.Z.g.S R ( ( Y ( H c V.zXAX4Xn.2.1.>._.5XsX9X9XxX8X-X*X].]._.=X9XxX8X9XsXxXmXmXNXCXAXZXCXCXAXCXsX*X>XgXZXCXZXBXcXcX1Xs.r.N.s.H u.s.a.a.z.C.D.F.].=X>X>XW.R.Z.OX1X,X:X1X:XR.x.R.2XQ.E v E x E Y.~.Y.T.T.Y.I.Y.Q.Q.~.Q.@X@X@X~.Q.:XdXVXJXKXKXKXKXGXBXbXjXBXGXBXbXaX:XOXW.W.W.W.OXOXOXOXOXW.W.W.W.W.W.W.{.{.{.*X&X&XE.E.&XE.E.OX&X&X&X&X&XOX:X:X&X",
"&X&X&X&X&X&X&XW.W.W.{.{.{.&X&X&X&X&XOXOXOXE.E.E.E.OX{.E.E.E.{.{.&X&X&X&XW.W.].&X&X&XOXS.< V T L V p ..A 9 p w C Y.+X, e.JXKXJXJXCXMX2XQ.H.E.&Xx.E E u b T T T w v q , * * : # X X X # : # % T j...A 9 w 4.4.O.A | | T Z # : m n n n ` :.a.A.).`.'. X'.-X-X[.[.-X'._.`._.A._.`.[.A.n.A.a.c._.4XqX8XqXzXzXxXCXMX` 6 Y :.-.( ) J K J ( ) r.E > : > y c i t b J K %.&.) ) -.i 5 J -.:.<.:.:.:.a.:.>.>.2.s.<.a.a.a.>.2.d.2.>.2.d.2.2.n.)._.A.`.}.M K 6X|.|.sXxX|.5XaXcXfXdXU.~.uXuXdX1XQ.B.H ` {.|.6X6X3X|.R.U.E c s.cX1XsXsX5X5X1X5XaXsXiX5X1X:X<XjXcXVXVXMXjXiXcXcXBXfXiXiXuX<XV.3 c -.y.d.n.n.1.>.2.n.f.3.&.1.1._ D &.1.&.&.1./ / &._ ] ] ] ] 3._ ^ 2.8 K &.&./ M M B B M M i u c n N i E u.E.N.K ( ) ( R E N c Z.zXxX;Xn.3.&.2.-X8XzXmX8X9X8X-XF.n.F.J.=X4X8XxXgXzXmXNXmXNXNXCXmXgXMXCXNXgX,X5XzXJXZXCXMXMXMX5Xx.y.x.B.S :.u.Z.R.G.G.E.*X,X>X&X5XW.Z.W.aX5X1X1XR.N.G.W.1X,X:XV.c X.e.b n u.Q.Y.Q.T.Q.Q.Q.Q.~.W.W.W.@XiXbXGXJXKXKXKXKXKXKXKXJXGXdXdXiX2XaXaX2XOXW.OXOXW.W.OXOXOXOXOXW.W.W.OXOXW.W.W.W.W.&X&X,X,X*X&X&XE.E.H.H.W.&X7X,X&X&X",
"&X&X&X&X&X&X&X&X&X&X&X&X&X&X&X&XOXOXOXOXE.E.E.E.E.OX{.E.E.].{.{.E.OX&X&XW.W.E.].E.E.&Xx.0 C v V p ..S.o.e w o.$XnX@Xu q pXKXKXHXKXKXnXj.;.x.S.<.C 0 C  .Z S.@Xo.q : # : , < # % X X X : # : C T v e $ w j.j.| w A Z v w 1 1 m n b b Y <.c._.`.;X;X;X X;X[._.-X-X;X;X-X`.[.-XqX4X4X-X-XA.c.d.*XxXqX8XxXNXxXCXJXg.6 H y.:.-.( J K J -.<.Z.;.> : < y b a u S P P ) &.) ) -.i < J -.:.<.:.:.:.y.:.-.-.a.h.<.a.:.a.c.a.2.&.&.2.d.d.n.).).A.).}.}.M K 6X|.|.iXsX|.sXfXzXiX<XU.<XjXdXdX|.U.V.E -.|.6X6X-X6X-X{.{.Y u u.cXiXsXsXsXsXsXiXsXfXgX>X:XuXiXMXcXGXGXGXMXdXcXcXcXfXiXiX1X<Xu.: x ` r.s.A.A.2.d.2.n.f.1._ &.&./ / _ &.&.1.2./ / &._ _ _ _ / 1._ ^ 2.7 ^ &.&.^ D i i M M M u y c n H c J s.{.N.R ' ) ( E E b N >XNX3X_.2.>.&.n.*X8XsXxXxXxXqX*Xv.z.F.].=X=X3X8XxXxXzXNXzXmXgXzXgXgXzXCXNXgXgXzXCXVXZXVXCXcXfXaXZ.u.N.Z.R E x.Z.Z.Z.*XaX,X,X5X,X*XR.R.:XaXgX7XaX:XW.{.Q.&X1X:XS.Z E W.@Xp.U ;.Q.:XQ.@XW.W.W.Q.W.Q.T.Y.V.Y.W.@X<X:XdXMXHXKXKXKXKXjXiX:X~.2X1XOXW.OXOXOXOXOXW.W.OXOX&XOXW.OX&X&XW.W.:X:X*X&X&X=X].H.&XE.=X&X,X,X,X,X:X&X:X,X",
"&X&XE.E.OX&X&X&X&X&X&X&X&X&X&X&XOXOXOXOXE.E.E.E.E.OX{.E.E.E.].].E.E.&X&XW.W.].].*X&XOXx.w T t.#XnXnXnXnXo.| j.S.+Xk.L 0 b @XbXpXpXY.j.L A { F f 9 * C p * C @XpXn 1 # : < 2 % : % o o X , : # : $ , , e o.| e $ q , # , 1 2 x n x b E N.A._.-X;Xn.2.n. X;X;X4X-X`.[. X-X4X;X4XqXxXqXqXxX4X_.-XxXxXqX8XNXxXcXJXW.i N r.:.:.:.>.-.:.y.N.W.;.> : < y c i u H J K ) %.^ %.-.i < J %.-.:.>.:.:.:.:.-.>.a.N.a.a.-.<.c.d.d.>.&.1.d.f.A.`.).).[.}.}.M H {.>XsXsXiXU.|.iX>X:X~.U.|.jXpXdX<XZ.U.;.r.5XsX6X-X3X6X>X|.Y y y.cXsXsXsXsXsXzXsX5X5XiX>XiXfXaXfXGXZXLXHXGXjXcXcXcXcXcXdX<X<Xr.O c ;.r.a.n.n.2.2.f.).n.3.&.&._ / / / &.&.1.1./ _ _ _ / &.1./ 1._ / 2.i ' >.&.^ K d i M M N c u c N b i J s.R.-.( -.) ) R Y c R zXsX*XF.2.>.&.n.-X8X5X8XxXxXqX-XH.}.-X4X;X=X3XxXmXmXzXxX5X8XsXzXNXMXNXNXCXNXMXMXVXNXCXCXMXNXMXgXZ.y.W.W.y.b u.s.E.{.&X,X&X:X,XT.x.:XgXfXgXgX1X1XgX,XQ.u.x.Q.;.Z E E k.2X<XQ.;.H Y i.u.y.j.x.r.;.W E i.Q.1XgXgXcXdXjXBXKXKXJXKXKXBXjXdXiX1X:XW.W.W.OXOXOXOXW.W.W.OXOXOXW.W.W.&X&X{.{.&X*X&X&X=X=X=X=X=X=X=X=X&X:X,X:X,X1X,X",
"E.E.E.E.OX&X&X&X=X=X&X&X&X&X&XOXOXOX&X].OXOXOXE.E.].{.E.E.E.E.].E.E.OXOX&X&X].].E.&X&X2Xk.nXKXbX$Xl.l.#XS.| A ..l.l.j.v q v v T L | 4.o. ...} F 0 t V 0 * @ C k.w 3 # : , , X : < X # # : # % # # ; , # ; ; $ , , - - 1 1 k m I Z H ;.R.}.-X-X2.D / f.`.[.[.`.n.A.[.wX4X4X4XwXqXxXxXqXxXxXqXxXxX4XqXxXNXzXsXZX5Xb M ;.-.:.:.a.d.a.<.s.Q.:.< : > c b i i J J K ) %.^ %.-.i < J E -.:.>.:.-.:.<.>.>.<.c.a.<.-.2.a.h.h.2.&.&.2.f.).).n.).`.).}.i M |.>X5X>X5Xu.g.{.5XdXiXQ.|.fXdXjXU.;.B.y.N.>X6X6X4X8X6X{.{.` c y.cXsXsXsXsXsXzX5X>X5XgX5XaXfXiXgXVXGXHXZXGXfXcXBXBXGXVXcXuX<Xe.X c -.y.d.A.A.2.2.n.).f.3.&._ / D / ^ >._ 1.1./ / / &./ _ &./ 1.^ / 1.t ' &.&.^ K K M M M N b u c n b y Y y.y.H >.&.) ( E J c ` CXqX-Xn.n.=.&.2.`.3X9XxXxXxX8X;X*X*X-X;X-X*X8XxXxX9X9X8XzXzXzXgXzXMXNXNXCXCXNXMXNXMXNXMXMXCXCXzXT.y.W.:XB.i H J r.x.B.:X5XaXgX2X1X2X1XaXaX<X<XaXdX:XT.W.V.L H ,.T.H X.Y.,.Y u < i a b H H S H ( u.>XmXVXSXVXCXJXJXKXJXJXJXVXHXJXCX2X:XW.W.W.W.OXOXW.W.W.W.W.W.OXOXOXOXW.E.W.&X&X&XW.R.Z.B.B.v.v.D.D.H.E.=X9X9X,X&X,X1X,X&X",
"E.E.E.E.&X&X&X&X&X=X&X&X&X&XOXOXE.E.].].OXOXOXE.E.].{.E.E.E.E.E.E.E.OXOX&X&X&X&X&X&XOXOX2XbX@XY.S. .C  . .} ,.oXj.7X@X .Z b # p 4.l.4.4...| *...C { ..,.C e $ , , 2 q 1 # . . # y 2 % : : , : # # X - , - # , ; , 1 q m k k m I T E V.{.-X-X).^ d &.-X4X;X4X;X4X-XwXxX4X4XqXxXxXxXxXqXxXxXxX8X6X4XxXmXAXNXzXVXgXb N -.-.:.-.<.h.<.:.s.R.r.< > < c b u b P K J %.) ^ ( -.u > H Y -.:.:.>.` >.<.-.' <.c.<.) ) a.d.h.c.d.&.&.d.n.).f.2.).`._.[.M c {.iXiXiX|.-.g.fXdXfXiXU.|.dXdXiXV.E Z.Z.}.6X6XxX6X8X5X>X|.r.x r.cXsXsXsXsXsXzX5X,X8XzXsXsXsXiXjXVXVXZXVXCXdXdXMXGXGXGXBXiX|.e.O c ` r.a.c.A.d.d.n.n.2.&.&./ / B D ^ &.&.3.1./ / _ &./ _ &./ 1.^ K >.7 ) &.&.) / K M i c b b 6 u n c y R s.R K <.%.) -.E J b ;.NXmX;Xn.n.1.&.1.F.8XsXxXxXxX4X*X;X-X4X4X4X4X4X8X5XsX9X3XsX9XxXgXmXzXCXNXzXzXNXNXNXNXVXCXMXMXNXMXT.u.W.aXW.;.u b J H Y ;.u.V.|.1XiXgX2X2XfX1XpXgX1X2XOXu.L C t.Q.V.T Z n H :.u.x.Q.&X*X5X*X{.,X9XNXSXAXmXmXCXCXJXJXJXJXJXJXJXJXJXVXaX@XOXOXW.W.W.W.W.W.W.W.W.OXOXOXOX&X&X{.&X&X&X&XR.B.c.B.B.v.v.v.y.<.<.<.z.G.=X9X,X:XOX&X",
"E.E.E.&X&X=X=X&X&X&X&X&X=X=XOXOXE.].OXOXOXOXE.E.E.].].E.E.E.E.E.E.E.OXOX&X&X].&X&XE.OXOX2XQ.I.bXnX7X,. .L | oX7Xl.j.S.S.t.b v p w A | 4.,.*.} f ..oX .S.,.o.L $ q Z Q T v 2 %   , x # X % , . # # , : ; , - , q 1 q k m k k x I U ;.Q.>XJ.A.d.&./ 1.-X-XwXwXwXwXxX4X-XqXqXqXxXxX[.A.d.A.}.3X8XmXqXxXzXzXxXzXNXsXJ N -.-.y.>.&.d.<.<.s.W.r.< > < c b u S J K K %.^ P ) -.u = S R ( -.-.-.) &.-.) ) <.N.<.) ) a.d.c.h.d.&.&.n.).A.f.2.).).).}.M i |.5X5XiX>Xy.U.aXiXdXiXQ.:XiXfXcXU.:.U.U.R.>X6X8X6X6X5X5X5Xu.u r.cXsXzXzXxXxXxXsX5X9X5XsXcXzXaXsXVXVXZXCXMXiXaXBXVXVXVXBXdX|.i.: c -.y.s.h.A.n.n.n.n.3._ _ / / D D / >.1.2.&./ _ &.&./ &._ / &.^ ^ >.7 ) _ &.^ K K B i i b c u c N u 6 R y.M -.<.%.( -.E J b %.zXqX[.n.).2.2.F.;XxX8X8XxXxX6X-X-X-X4X4X4X-X].F.C.,X9XsXgX5X9XgXNXNXCXNXzXNXZXVXNXZXVXMXMXCXVXzXu.V.iXaX:XW.Y U.5X:XU.g.;.Y J ;.V.U.u.k.~.2X2X<XQ.I.X.T t.T.T.;.b b W ;.V.R.W.,XgX9X9XsX9XsXzXNXSXAXAXSXSXJXSXSXJXZXJXJXJXJXJXKXJXdX@XW.W.W.W.W.OXW.W.W.W.OXOXOXOX&X&X*X&X,X,X&XW.G.B.B.B.D.B.v.z.z.z.<.%.%.%.j.&X1X:XOXW.",
"&X&X&X&X=X=X=X&X&X&X&X=X=XOXOXOXE.E.E.OXOXOXE.E.E.].].E.E.E.E.E.E.E.OXOX&X&X].].E.&XW.&X7X@XbXbXnX#X#X$XO.j.$X7X0XS.Q.T.,.< b j...w e f f V p f l.#Xl.l.#XS.S.w # , p Z Z U n :   y v . #   . v q , : X # , v Z v m m 2 3 1 x I b H -.y.a.d.&./ _ 2.'.;XqXqXqXqXwXqX4XxXxXxXqX`.&.) >.2.C.a.s.F.4XqXxXqX{.5XzXsXE M -.-.a.:.) a.<.>.y.R.u.6 % > u c u S P K P -.P P ) -.t & H E ( R -.-.) >.-.R -.>.h.s.<.>.2.d.A.c.h.&._ f.).n.f.2.n.).).}.M 6 U.iXdX1XZ.` V.1XiXiXiXQ.1XaXfXzX1Xg.Z.R.}.6XvXxX>X3XvX5X1XZ.c r.cXsXcXzXxXxXxXsX5X5X,X,X5X1XaXMXVXVXVXBXMXiXsXVXcXVXVXcXfXuXV.: c ` y.N.A.}._.A.n.n.2.^ / B D / D _ &.>.d.1._ / &.1._ &./ / &.^ ^ >.7 ) _ _ / D K D c i b i u c b c < R R i <.:.-.) -.R H b R 9X4Xn.n.).n.n.-X3X8X9XxXxX8X4X4X-X[.[.}.*X6X3XJ.v.H.5XzX9X{.*XsXZXCXNXNXVXJXZXVXMXNXNXNXCXMXMXaX;.i.jX:XdX:XY ;.;.H b u y < 2 H ;.Y y 2 b H U W T Z < E S.j.L u Z x.V.i.T.1X9X5XsXsX8X3XmXSXSXSXAXSXSXSXSXZXSXZXZXZXJXJXJXJXJXKXJXMX2X&XW.W.&XOXW.W.W.W.OXOXOXOXOX&X&X:X,X5X9X:XQ.G.B.B.v.v.v.b.b.D.M.v.b.z.=.%.<.OXOX&X&X",
"&X&X=X&X&X&X&X&XOX=X&X&X&X&XE.E.E.E.&XE.E.E.E.E.E.&X=X].E.E.E.H.E.E.W.W.W.E.E.E.E.=X&XOXOXbXHXHXpXY.pXnXj.+X7X7X7XV.j.;.v T @ T oXS.4.A s 9 s 5.l.oXS.| S.pXt., # $ , , # * , %   . 0 < @   , H q @ @ ,   , q m m m x q 2 x I U H E y.<.>.) B D &.n.n.[.qXqX4X;X4XqXxXxXmXqXA.a.s.A.A.}.-XA.) P ) d.8XxXR.6XmXsX-.M -.( a.N.<.<.a.a.s.Z.N.y O < y c i H D D ^ %.^ ) ) -.5 < H Y E %.( ) %.>.-.( a.A.A.N.F.<.>.>.A.A.n.>.&.n.n.n.f.f.A.`._.}.M 5 |.iX|.U.V.r.V.uX1XiXiXW.>XiXsXfX>XR.{.R.}.5XsX8X[.>XsXzX>X|.H r.cXzXfXiXsXsXsXsX6X8X{.Z.E.5XzXzXBXVXCXZXMXiX5XZXcXZXBXcXdXuXI.> x e.y.N.F.-X}.A.A.n.2.^ B B / / / _ &.1.2.>._ / &.2.1.&._ ^ _ K ^ >.7 ^ _ &.^ D K M M i c c u c c u < R b H s.>.) -.-.J b b %.8X-X1.1.).).`.wXqXxXxXxX8X4X8X*X_.A._.-X;X*X*X=XH.].9XsX*X>XsXzXzXzXVXCXZXZXzX,XmXZXVXCXCXCXfXaXH n r.k.;.E H b u t v Y ;.y.;.Q.aX2XV.H 2 H T.@XY.V.E y v q 0  .u.u.V.R.,X9X9X5X9XsXxXNXAXSXSXSXZXAXSXSXSXSXSXSXSXJXJXJXJXJXJXJXJXJXgXW.OXW.W.OXOXW.W.W.W.W.W.W.W.E.W.&X>X,X,X&XE.H.G.C.v.v.v.v.v.v.z.b.v.v.z.<.P B.K.S.G.",
"&XE.E.OX&XOXE.J.J.J.E.E.E.E.E.J.E.E.E.E.E.E.E.H.E.E.&XE.E.E.].E.E.E.E.E.W.W.E.E.].&X&X2XS.jXHXbX2X2XnXnXS.@XnX#XpXS.p p L OXp 0 V ,.oXXXl.4.,.l.j.m.K...L k.Z * # # # , , * , p V v 0 0 , $ p q @ 0 L k.X., Z Q U m k m n m m n X.j.*X].[.[.A.n.n.A.2.2.`.`. XqXqXwXwXxX4X`._.}.[.4X}.d.&.' <.A.>.K ) d.].sXZX5X:.b ( >.a.s.<.a.d.s.s.U.N.u % < u c b J M D ) ) K ) ) %.< < J E ( -.) K P -.-.J a.A.A.h.A.a.>.1.A._.A.>.>.A.n.f.f.f.).`._.H.M 5 >X:XQ.W.Q.i.V.<X1XiX1XQ.>XsXfXsX5X}.}.}.>XsXvX6X-X6X6XiX|.|.Y r.VXzXzXsX5X5X6X,X3X5X}.Z.Z.>XfXfXZXZXVXSXVXsX>XcXBXGXBXcXiX<XU.> x r.y.N.A.*X}.A.A.n.d._ ^ ^ _ _ ^ &.&.1.2.>._ / 1.2.&.1._ _ _ K ^ &.5 K ) ^ K D K B M b i i u c v c 2 H c ) a.:.&.-.( J M b R 4X4Xd.1.n.`.;X4X8XxXzXmX8X4X4X-X*X`.`.*X;X>X*X*X,X3X9X8X5XsXmXMXzXMXgXzXVXzXZ.x.,XmXgX5XfXMXfXiXb v b H n H ;.W.W.W.2X1X:X:XW.W.aXgXbXaXi.H W ~.uX@X<Xt.q v X.V.;.T.:X5XgXgX9X5X3XxXNXAXSXSXSXSXZXAXZXSXSXSXSXZXSXAXSXJXJXJXJXJXJXJXMX&XOXW.OXE.E.OXW.W.W.W.W.W.W.E.W.{.&X&X&XW.E.H.H.G.B.v.v.v.v.b.b.b.v.b.v.z.%.b.E.K.K.",
"&X=XE.E.E.E.H.K.H.H.H.H.J.J.J.J.H.H.H.H.E.E.E.E.E.E.E.E.E.E.&XOXE.W.E.E.E.E.E.E.=XE.E.:XS.Y.pXpXpXbXbXbX@XY.bX7XgXu.0 H 7XHXj.t $ 0 C { 5.5.,.m.j.7X7XS.p , , , * , , , , w o.0X+Xj...C p * e 9 L 4.j.S.T.C v U m m I T U Z Z T ;.Z.*X].[.-X[.-X-X4X[.A.A.c.n.[.}.-X[.[.`.[.-X[.A.s.-.:.s.g.N.N.a.d.C.2.A.5XzX8Xy.b ( :.a.s.a.a.a.N.N.}.N.u % < i i M J b D ) ^ P -.( %.> < H E ( -.R J ) ) ( J <.A.H.a.h.d.>.a.A.F.A.1.>.A.n.n.f.n.)._.F.}.M 5 W.|.Q.|.U.u.V.~.1X5X>XQ.>XfXzXsX1X{.>X|.6XvXxX6X-X6X>XiX|.>XE :.CXzXzXvX5X6X,X>X>X3X{.R.Z.{.sXsXVXZXZXVXBXiX>XcXcXcXcXfXiXuXQ.2 6 e.y.Z.H.*X|.H.A.A.A.2.>.>.1.1.>.2.>.2.d.1._ _ 2.2.&.1._ _ _ D K ^ 8 K ^ ^ D B K D B b i u 6 c v i 2 u u :.-.-.%.%.R H S M J =XqXn.3.`.).-X-X*XzXsX8X5X6X6X-X-X*X[.3X4X3X8X9XmXsXsXgXzXNXmXzXMXgXgXgXgX1Xu.r.Z.G.H.Q.5XgXgX<Xb Y Y H E V.:XaXaXiX|.W.W.2X1X1X1XaXgX2XW.i.b b Y.@X;.b v ,.j.T.:XaXmXgXsX8X5X9X5XxXAXAXAXAXAXAXZXSXJXSXSXSXSXZXZXSXSXJXJXJXJXJXJXJXVX1X&XQ.&XE.E.OXE.W.W.E.E.E.E.E.E.W.E.OX&XE.E.E.E.K.D.B.v.v.v.b.b.b.b.z.v.v.<.<.G.G.K.",
"&X&XOXE.E.J.H.H.H.H.H.H.H.J.J.E.E.H.H.H.E.E.E.E.E.E.E.E.H.E.E.E.W.W.W.W.E.OXE.E.H.H.&X1X7XV.p.Q.nXbXpXnX7XS.nXnXnXj.p T.VXmXgX,.0 0 * 0 { m.+X4.{ j.#Xj.p , 0 # # * ; e A l.+X+Xm.l.5...F 0 * e | *.*.j.S.o.q Z Z W e.t.T U T W ;.Z.].].*X-X[.;X4X[.[.;X X`.'. X}.[.[.[.4X4X}.F.d.A.s.H.xXzX6Xc.2.c.}.C.A.*XNXgXs.c -.:.a.c.s.a.a.C.g.Z.y.i % > c c N J M K ) ^ P %.-.-.< < H Y R %.R J ) ) ) ) a._.}.a.<.s.>.2.h.A.n.1.>.A.A.A.3.n.).A.A.}.M < s.W.:X|.V.i.V.V.U.U.R.Q.iXzXzXzX>X>X5X6X6XsXxX6X}.}.}.5X|.>XW ;.CXsXzXxX5X5X6X3X*X3X>X*XU.{.fXsXCXZXZXMXzX>X|.zXzXMXgXsXgXiXU.6 y r.y.H.R.-X|.A.A.A.H.d.2.2.d.d.2.c.a.2.h.2.&.&.2.2.&.>._ _ &.D d K 8 D K K D D K D N M i i y c v u < < i -.H J ) %.) J H S S ].;X2.2.`.n.).`.].*X5XsX8X4X-X-X-X}.[.3X3X3X8X9XxX9XsXzXmXmXgXzXNXgXgXMXzX2Xx.u.Z.Q.*X1XfXfXfX@XZ H H ;.V.:XiX1XQ.:X1X:X{.R.1X>XT.R.W.Z.V.W.;.q x n y y U u.W.7XaXgX9X,X1X5X5X5X8XmXAXAXAXSXSXZXSXZXSXSXSXJXSXZXSXSXSXJXJXJXJXJXKXJXJXgX{.W.E.E.E.W.W.W.E.E.E.E.E.E.E.W.E.E.E.E.W.E.T.H.D.v.v.v.b.b.b.v.b.z.v.z.<.;.S.D.S.",
"&X&XOXJ.H.H.H.H.K.K.K.K.H.J.E.E.E.E.H.E.E.].E.E.E.E.E.E.H.E.E.E.E.E.W.E.E.E.E.E.H.].H.&X2X:Xt.pXnXgXpXVXCX@XnXpX:Xj.y.1XS.v.<. .0 f s C 4.XXj.p @ e w * e , 1 , , * : T #X7XXXXXm.m.m.5...} e A s p f L ,.L q v Q t.k.i.W U W X.u.Q.{.=X4X-X-X;X[.[.4X-X}.[.4X4X4XwXqXqX4XF.}.}.}.8X6X|.5X6X}.A.d.A.2.c.*X{.mXzXy.i -.-.s.N.h.2.d.A.s.y.-.c > > i c M H M K ) K P ) ) -.< 5 H E R %.( R P ( &.:.A.}.H.a.<.N.a.>.d.n.A.2.>.n.n.f.3.).`.A.A.}.N & y.|.1X:XV.U.g.e.-.;.g.U.sXzXzXsX5X6XxX6X6X8XvX6X XR.A.|.U.|.` ;.CXzXzXvX5X5X5X3X-X3X6X5X}.|.zXiXcXMXMXzXsX{.g.U.>XfXgXsX1X~.I.x x r.y.R.R.>X|.A.Z.Z.A.s.h.c.N.c.d.c.a.a.c.2.-.-.d.2.>.1.>.&.>.D i K 5 M B D K K K D K M c i y i c y > % c R a S -.-.( J K S S A.-Xn.n.n.n.7.n._.=X3X3X3X-X3X4X3X`.=X3X4X3X8X5X9X9X5XsXzXzXzXzXMXMXMXgXaXiX1X:X:XsXsXsXaXaXgXV.b J H i.2X2X:XG.J r.>X1X,X>X,X-.y.R.W.W.T.W.Y.H % y q Z k.Q.2XaXgXaX>X{.{.*X3X8XzXDXAXDXAXSXAXAXSXZXSXSXSXSXZXZXZXSXSXJXJXJXJXJXJXJXJXNX&XW.E.&XE.W.W.W.W.E.E.E.E.E.E.E.E.E.E.E.E.Q.E.E.K.G.D.v.b.v.b.b.v.z.z.v.v.u.K.D.S.",
"&X=XE.H.H.G.K.H.G.G.G.G.K.H.H.J.E.E.E.E.].&X].E.E.E.E.E.E.E.E.E.E.T.T.E.E.E.J.J.=XJ.H.B.Z.OXV.GXbX7XnXVXbXY.k.t.C S.9XK.S.+XK.p 9 p F *.l.4...,.l.p $ $ $ , , 0 0 , # 0 L t.XX#X0XXXm...*...F 5.....L * < , v Z T i.I.k.W T X.e.Y.>X{.=X4X4X4X4X;X4X4X[. XwX4X-XxXqX-X4X}.A.4X}.[.6X|.}.}.C.c.H.F.c.a.c.Z.*XmXxX-.5 -.-.g.N.a.<.a._.H.r.E u & > u c M M M P ) P ) -.` ` & < H R ( -.:.-.) -.:.N.].}.A.s.a.g.h.>.1.n.).d.>.A.n.3.3.`.`.n.A.}.M < U.2X1X<XU.I.-.Y r.:.g.W.sXzXzXzXvXvXxX5X6X8XvX>XA.a.N.|.U.|.` ` cXsXxXsX5XiX5X6X8X3X-X5X>X|.fX5XCXMXMXCXcXiXg.g.B.R.5X5XZ.V.I.c x u.u.R.R.>X}.H.C.C.A.s.h.A.A.A.s.C.a.a.c.a.>.>.a.a.>.2.&.1.&.D i ) 5 i M K ^ K K K K M c i 6 i c u & % N J c M -.-.) J S K S d.;X).(.n.).&.%.C.3X>X].].-X8XqX-XH._.[.*X*X=X>X3X9X5X8XgXzXmXNXMXzX1X:XiXgXfX1X1XaX9XaX1X5XfXi.b J r.W.W.V.u.x.r.Z.*XE.R.{.-.K H.Z.*XR.G.R.V.W : v n W Y.aXiXaX9XsX5X>XE.{.,X5XxXmXDXNXAXAXAXNXAXSXJXJXSXSXZXZXZXJXJXJXJXJXJXJXJXKXJXVX:X&XE.&XE.E.OXE.E.E.E.E.E.E.E.E.E.E.E.E.E.E.E.E.&X&XJ.D.M.z.5.7.z.z.z.v.D.B.+XB.B.",
"&X&XE.H.H.G.K.H.H.G.G.G.H.K.H.E.E.H.H.E.].&X].].E.E.E.E.E.E.E.E.E.T.T.T.E.E.H.H.J.H.=XE.H.T.S.gXCXnXnX+Xj.Z v v H Q.,X+X9XnXXX{ 5.4.} ....} l.#XnXS.A w e , q , q 2 , * @ $ p p F 5.6.6.oX} 4.j.5.m.+XC @ , Z n Z t.I.i.W e.e.;.Q.&XR.].;X4XqX4X-X[.-X;X4XqXwXqX-X}.-XwXn.a.[.}.A.].|.A.H.H.A.Z.h.2.<.a.C.*XsXgXN < ) >.a.N.a.:.<.].>Xy.Y u % > c b H H D ) &.^ ) %.) ( % 5 J E -.-.y.a.>.-.y.N.].[.A.d.a.<.>.a.1.h.).f.1.A.n.f.&.).).c.A.H.M i iX<X1XdXU.i.E W U.Z.W.|.sXzXzXzXxXvXxX5X6X8XvX>X>.P s.|.U.|.` ( sXsXsXiXsXxXsX5X8X3X>X6X5X{.iX|.CXcXcXCXcXiXg.g.N.N.E.{.V.Z.U.b b g.V.R.R.*XZ.Z.B.Z.H.c.s.N.A.H.c.C.a.s.C.s.<.>.>.>.>.>.) &.^ D d >.t i M ^ ^ D K K K B c u 5 i y u > % J R H S ( ) ( K b J S <.-X).).`.).=.=.`.].].].=X9X9X4X*X[.*X=X>X=X].3X,X5X5X8XxXzXzXMXmX5X{.5XMXMX1XQ.,X>X,XgX5X7XgX;.b Y r.Z.j.-.( r.r.y.C.N.u.y.b P C.Z.x.y.G.x.u.:.u 2 Z u.V.:X1X2X&X1X1X3X>X,X3X*X>XqXmXDXAXAXAXAXAXAXSXSXSXSXSXSXJXSXJXJXJXJXJXKXKXKXKXJX5X{.E.].OXE.E.OXOXOXE.E.W.E.E.E.E.E.E.E.E.E.Q.E.E.E.J.D.D.b.z.b.v.v.v.D.D.S.K.x.x.",
"&X&XE.H.H.H.H.E.H.H.H.H.K.H.H.E.G.G.H.E.E.E.E.E.&X&X].E.E.E.H.E.H.K.T.T.E.E.H.H.J.J.H.J.G.OX1XgXgX+X,.Z  .o. .L x.aX7X7X7X0Xm.oXXX$X5.{ { } ..l.m.7X#XV w q q q q 1 # # # @ $   p m.XXoXl...m.XXS.+XS. .@ 1 q x v w.Q.k.X.u.e.u.{.{.R.[.6XqXwX;X-X[.4X;X-XqX4X_.d.h._.[.h.A.N.d.c.N.}.}.}.-X}.N.A._.d.c.A.].mXH.5 < J -.y.N.c.<.<.A.|.:.Y u % < c c H S S ^ &.P ^ -.-.( % 6 J E ;.y.a.s.<.>.N.Z.}.].h.<.a.>.) 2.a.d.).n.2.n.f.n._ n.A.n._.R.H H gX:X<XfXQ.g.E g.|.W.>X>XsXzXzXxX5XsXxX8X5X8XxX6Xy.P g.{.V.Q.` R sXzXzXsXxXxXsX6X8X-X|.6X5XE.>XU.CXCXcXMXsX|.s.Z.{.Z.Z.Z.T.Q.Q.b c g.Z.W.E.>XZ.H.Z.G.H.c.c.C.A.C.C.N.a.s.N.s.2.>.) &.1.&.^ ^ ^ K D 2.i a K ^ ^ M K K K M b i 6 u 2 u > & E :.( K ( ( -.J b J S >.;X`.`.`.).`.-X3X=X].G.].3X4X8X-X-X6X-X*X].E.,X{.>X>X5XsXgXfXfXgXaXgXMX1XgXCXgX5X>X,XfXaXgXfX-.H E u.V.u.;.W E J J -.<.<.:.-.-.a.z.y.y.N.u.<.u.W x n i.V.W.:X:X:X:XQ.{.>X5X,X{.*X3X8XmXDXAXSXSXAXSXSXSXSXZXAXAXSXJXJXJXJXJXJXJXJXJXKXJXgXW.&XE.&XE.E.OX&X&XOXE.E.E.E.E.E.E.E.E.E.Q.Q.E.E.H.H.J.J.H.H.H.J.E.J.H.G.S.S.j.B.",
"=XOXK.G.G.K.K.G.K.K.K.K.K.K.K.H.H.H.H.H.H.E.E.E.].].].E.E.E.E.H.K.K.K.K.E.E.E.G.H.J.H.H.H.E.2XS.OX7XOXS.bXJXnX7XaXDX9X0X7XXXK.XXXX0Xm.} *.6.m.6...XXeXL * , e , q q ;   # # # @ T +X+XS.,.oXm.S. .,.+XC # < 2 x x w.~.I.p.p.e.V.*X-X}.*X4XqX4X;X-X;X4XwX4X-Xn.d.A.A.c.h.c.}.A.A.>XZ.H.-X6X}.C.d.n.[.).`.].-XmX:.< u S u.a.N.a.2.&.].{.r.Y c O > u N K D P &.&.^ ) &.>.Y . c J ` :.y.s.c.s.s.R.}.H.}.N.a.a.>.) :.A.A.h.).f.f.f.d.&.).A._.`.C.M ` iX1XfXfXW.V.g.Q.iX5X1X1XzXxXxXxX5XsXxX6X6XvXxX>XA.N.N.Z.N.{.` ` cXcXcXzXcXcXxX6X6X>XR.6X5XZ.R.Z.sXVXVXCXcX>XN.R.5X>X,X>XR.U.Z.n c i.Z.{.].>XE.H.Z.Z.H.g.N.R.C.B.N.Z.c.s.h.s.2.>.' >.>._ ^ ' ) ^ K d.d i K K ^ M K M S M i u 5 6 y y % t J -.-.-.) %.-.P M P P ) -X'.`.`.`.*X4X4X3XC.C.,XzX5X3X8X*X*X*X=X].*X>XE.,X:X{.:X>X:X5XgXMXfXW.V.Z.MXMXfX5XaXgXiXgXfX-.H ` u.N.x.:.-.-.J Y :.u.s.>.>.<.a.a.:.C.N.r.r.u.W 2 v i.i.k.Q.V.W.u.b J ;.r.T.1X>X9XzXDXAXSXSXAXSXSXSXSXSXAXAXSXSXJXJXJXJXSXSXJXJXKXKXJXMXW.&X&XE.E.E.&XE.OX&X&XE.].].E.E.E.E.E.E.E.E.OXE.H.H.H.K.J.=X=XJ.E.&XE.K.S.S.S.S.",
"=XE.K.G.G.K.K.G.K.K.K.K.K.K.K.K.H.H.H.H.H.H.E.E.E.E.E.E.E.E.H.H.H.K.K.K.E.E.E.H.J.H.H.=XH.G.5XgXVXaX7XCXZXVXVXVXVX7X0X0X0XoXm.%XXXXXoX..6.oXoXoX4.5.#XoXV e , q v w w ; X   X @ v t.,.F p S.S.l.9 * p , # < x m m e.@XI.i.i.u.R.-X3X*X*X4X4X;X;X'.;X4X4X'.n.d.`.3XA.>.d.c.H.c.C.3XZ.A.}.].h.d.c.A.`.`.`.*X3X>Xb < b M :.y.C.a.>.2.}.>X:.E n % < c N K D P &.) P ) -.:.H O i Y ( :.a.y.c.N.F.}.}.A.].N.a.a.:.) ) d.A.d.A.f.f.n.n.&._.)._.A.c.M ` 1XiXiXdX1XR.Z.>XsXsX5X5XzXzXxXxX5XsXzX6X6X8XqX|.}.s.s.Z.a.R.-.` cXcXcXzXzXzXxX6X5X6X6XxX8XZ.Z.Z.sXZXVXcXcXiX{.iX5X1X5X:XT.U.I.b x i.Z.W.{.>XH.H.H.Z.H.g.c.H.C.Z.C.R.C.s.c.d.2.>.>.>.>.&._ _ ) ^ K d.d t D K ) D K M M b i u < 5 6 t & i R -.>.>.&.&.>.P M P ) ^ `.-X-X-X=X*X*X*X,X>X5X5X9X8XsX5X8X3X>X{.{.,X5X,XsX1X>X>X:X,X1XgXMXgXT.Z.W.gXcXMXcXgXgXaXdXaXY n E y.u.u.r.W y.y.;.u.x.:.:.<.b.b.C.A.H.x.:.:.y.u.y y i.i.X.i.k.T.V.;.;.X.u.W.:XgX9XzXNXAXSXSXSXAXSXAXAXAXSXJXJXSXJXSXJXJXSXSXSXJXJXJXKXMX&X&X=X&XOX&X&XE.E.E.OXE.].].E.E.E.E.E.E.E.E.E.E.G.G.D.D.D.K.H.H.E.E.T.G.K.S.S.S.",
"J.K.G.D.G.K.K.K.K.K.K.K.K.K.K.K.H.H.H.H.H.H.H.E.H.E.E.E.E.H.H.H.J.K.K.G.H.E.E.].J.H.J.H.H.E.,XW.,XT.2XHXVXVXJXSXMX7X7X9XXXj.m.+XoX$XoXoX5.6.#XXX#XoX#Xl.p p A T T C p : @ @ @     , @     t.+Xj.%     @ % , v v x X.~.I.i.i.u.{.>X-X-X=X;X4X-X-X-X;X-Xn.n.c.n.-X[.d.2.H.A._.s.h.}.C.A.}.h.-.-.2.c.).-X*X6X8Xx.& t n b -.y.g.a.2.a.}.{.:.-.H % < i N K D ^ &.) ^ ^ -.:.H O u E ` y.N.c.N.C.R.H.}.F.}.A.a.a.<.` J :.h.d.h.f.f.n.f.1.'._._.A.h.b ' {.1XiXfXiX|.>XzXsXzXsX5XzXzXxXxX5XsXzX6X6X8XqX3X|.N.s.s.r.E.` ` zXsXcXzXcXxXvX5XxX5X6XxX8XC.s.s.>XCXVXcXCXcX>X5X5X5X5X{.Z.Z.U.b y i.Z.Q.{.>XZ.R.H.N.Z.N.N.H.N.Z.Z.R.C.g.c.a.2.2.>.>.>.&.) ) &.^ K a.M i K K ) D ^ D M b i u < 6 2 2 & M ( -.<.>.-.>.<.P M P ) ^ _.[.-X`.].[.=X*X3X5XsX3X,X5XsX5X>X{.{.*X,X5X5X5X9X:X,X,X1XaXgXfXfXgXW.Q.|.zXCXNXVXMXMXfXgXdXY H E i.V.r.:.;.x.B.u.r.x.x.B.c.C.J.].{.>XR.<.u.x.i.c : e.t.W t.V.V.Q.U.Q.:XQ.W.:X>X5XsXzXmXAXSXAXNXSXAXAXAXSXSXJXJXJXSXSXJXJXJXJXJXJXJXJXMX*X&X&X&X&X&X&X&XE.E.OX&X&XOXE.E.E.E.E.OXOXOXE.E.G.D.D.B.v.v.B.D.E.E.H.K.E.K.K.S.",
"K.G.D.G.G.K.K.G.G.G.K.K.G.G.G.K.H.H.H.H.H.E.E.E.E.E.E.E.H.H.H.H.J.K.K.G.H.J.].&X=XJ.J.H.H.E.5X5XgXDXMXgXCXMXgXgX9X+X7X0Xm.m.8.m.oXoXoXoXoX4.m.$XoX0X+X .v C o. .T T v , , # # X @       . v Y.,.* #   # % : v x x W Y.I.V.i.N.:X*X>X6X}.-X4X-X-X-X-X_.z.A.).A.n.2.d.[.A.a.*X}.a.C.C.A.H.a.>.>.2.c.`.-X4X8X8X>.& c H n E s.g.<.<.a.A.Z.r.u.J % < c H K K ^ &.) K ) &.>.J . u E r.g.N.c.N.G.R.d.A.H.}.R.s.N.s.:.K >.n.d.f.f.f.n.2.1.`.`._.F.C.i J B.W.1XzX1X>XsXNXzXzXsX5XzXzXxXxX5XsXzX6X5X5XqX3X[.N.s.y.:.}.-.-.zXsXcXNXAXcXxXvXxXxXxXmXsXN.:.s.|.VXCXzXcXcX>X5XsX5X>XW.V.Z.U.n y u.Z.W.W.{.Z.R.H.N.C.c.C.R.N.Z.C.H.s.s.c.a.2.a.d.>.>.&.) &.>._ D a.M i K K ) D K D M i u 6 > 5 < 5 < J ( :.<.>.%.-.<.P b P ) ^ [.;X-X`.=X*X*X4X3X5X8X5X5X3X3X3X5XE.G.{.5X5X,X5X>XW.,X1X5XgXgXgXfXMXfX5XgXCXCXfXMXCXVXMXjXfXY Y Y ;.U.V.u.V.B.Q.G.B.B.G.J.=X].=X].H.C.c.u.y.x.:XU : n V.t.V.Q.2X:X:X:X:X:X:XiXgXgXgXsXzXZXSXSXSXSXSXSXSXSXSXSXSXJXSXJXJXJXJXJXKXKXKXJXMX&X=X&X=X&X&XE.E.&XOX&X&XOXOXE.E.E.E.OXOXOXOXE.H.G.D.D.B.B.v.v.B.H.E.E.E.E.K.K.S.",
"D.D.D.G.G.K.G.G.G.G.G.G.G.K.K.G.H.H.H.E.E.E.E.E.E.E.E.E.H.H.H.H.K.K.K.H.H.J.].].=XJ.J.J.].,XmXSXCXDXJXSXDXCXMX7X7XK.K.K.j.5.5.5.$X#XeXoX#X4.A l.F | p * 0 0 q 0 , 0 , , , @ : , %     # .   n q   # . X X X x x n X.~.Q.V.i.Z.>X,X5X3XJ._.*X[.-X-X`.F.d.d.d.n.n.d.f.4X[.a.c.[.d.N.A.N.<.) >.d.h.A.[.;X4X4XxXy.5 t M S J s.N.<.>.d.A.N.u.N.Y O < c N K K ) &.) ^ &.>.-.J O b ` y.a.g.g.N.Z.Z.:.s.}.}.].a.c.a.<.) 2._.h.n.A.n.A.d.2.`.`._.F.C.i N u.U.|.fXiX>XsXxXzXzXiXiXzXzXvXzXsXvXxX6X4X8X8X3X>Xs.a.s.:.R.-.-.VXcXcXzXNXNXzXzXzXzXzXNXzXN.R s.{.ZXVXcXzXxX>XsXsX5X>X{.U.U.U.n y u.Z.W.R.{.H.Z.R.C.C.s.N.R.Z.R.N.Z.a.s.C.a.a.a.<.&.&.^ K ) >.^ B 2.M 5 B K ' K K D M c u 6 > 5 6 t < -.-.:.>.%.&.>.<.J a P ) ^ *X;X;X=X*X*X=X-X3X9X9X3X3XE.{.xXzX3X{.>XsX9X,X>X5X:X5X1X1XgXgXgXfXMXVXCXCXMXaX>X:X5XgXMXMXcXE U H H u.V.i.x.B.{.&XZ.B.R.].].F.=XH.c.c.Z.N.-.x.MXI.x , u.I.W.V.k.u.i.1X:XQ.1X:X2X5XgXgXzXZXZXZXSXSXSXSXSXSXSXSXSXSXJXSXSXJXJXJXKXKXKXJXfXW.W.&X*X&X&XE.E.E.E.E.E.E.E.E.E.E.E.E.E.W.W.E.K.G.S.B.B.B.B.B.S.T.E.OXOXK.K.K.K.",
"G.G.G.K.G.G.G.G.G.G.G.G.G.G.K.G.H.H.E.E.E.E.E.E.E.E.E.E.H.H.H.E.H.H.H.H.J.J.`.J.J.J.J.J.,XmXSXCXSXSXAXZXDXZXDXDXmXK.,.m.5. .4.5.oXoXXXoXm.,.w p * 0 0 p  .,.,.*.w @ @ $ # # # , : # # X # o X   . # X X X X 2 n x T Q.Q.V.s.W.9X5X3X{.C.c.F._.=X-X[.-X_.2.>.2.d.n.A.4X4Xd.&.C.a.<.a.<.&.` >.d.2.A.).-X;X;XxX*XM 5 b J J N.C.y.a.c.J.N.s.V.Y % < i N K K ) &.) ^ &.>.:.R % c ` r.:.a.N.C.N.s.&.a.A.H.}.N.C.s.<.-.c.}.n.A.A.A.A.h.2.`.[._.A.N.u N r.Z.Q.iXsX5X5X5XfXsX5XsXzXzXsXxX8XsXvX>X8XvXxX4X>XA.N.a.:.{.:.` cXzXzXzXNXcXsX5XNXNXzXsXzXN.H :.U.CXZXNXNXzX|.6XsX5X5X>XQ.T.U.n y u.U.{.U.].H.Z.Z.N.Z.c.N.R.Z.R.N.Z.y.g.A.a.a.a.<.&.&.^ D ) >.^ B >.i & M K ) K D M a i u < > < y t 5 >.-.y.>.( -.<.a.J a ^ P P *X-X-X`.`.`.=X*X3X3X*X*X=Xx.Z.zXzXzXzXsXsX1X:X{.5X,X5X5XaXmXNXmXMXMXMXCXNXgX:XQ.G.W.1XfXMXfXW E H x E i.R.W.5XgX,XQ.C.c.C.G.J.H.C.c.c.<.R ) {.CXVXW : Z u.T n Z H H Y.2XQ.Q.u.-.V.5XzXmXzXaXsXgXZXSXSXAXSXSXSXSXJXJXJXSXJXJXKXKXKXKXJXgXQ.Q.E.&X*X&X&XE.E.E.E.E.E.E.W.E.W.E.E.E.W.E.T.H.G.B.B.B.v.B.S.G.T.OXE.E.K.K.K.K.",
"G.K.K.K.G.G.G.G.G.G.G.G.G.G.G.G.H.E.E.E.E.E.E.E.E.H.H.H.H.G.H.E.H.H.H.J.`.`.J.H.J.J.J.>XmXNXJXSXAXAXAXAXNXDXmXmX9X%.P ,.5.j.l.m.m.} m.oXS...w 0 C ,.+X7XnXgX7X#Xo., $ @ . @   # X . #   X # o # X # X X : - 1 U b H Q.T.i.x.E.>X,X{.A.c.c.c.n.).-X-X;X_.d.d.n.F.`.`.[.4XA.>.c.}.<.) >.C.}.].c.>.c.`.-X;X4XxXmXR < b H S s.a.>.2.c.R.s.V.N.H % 2 b J J P %.&.^ ^ ) >.y.Y % c ` :.y.a.s.s.c.s.<.y.A.A.}.A.c.y.<.d.A._.h.n.A.A.A.c.>._.[._.A.N.u M r.V.U.|.iX5X5X5XsXsX5XsXzXzXvXxXsXsXvX>XvXzXxXqX*X[.A.-.:.6X:.` MXzXsX>X5XxXzXsXcXCXNXgXzXN.b -.h.cXCXcXcXcX[.6XsX5XiX5X|.Q.U.n u u.U.{.R.E.Z.Z.C.N.Z.N.C.Z.N.H.N.Z.a.N.A.a.s.a.>.&.) ^ D ^ &.^ K >.i & D K ) D K B M b u 5 < < i t 5 -.:.s.:.-.-.<.s.) a P K %.8X;X`.`._.=X=X>X-X].].=X].a.Z.xXzXNXZXzX>X&X:X:X,X1X5X9XfXmXgX1XaXgXgXgXgXgX1X:X>X,X1XgXMXjXW b Y H Y ;.V.G.W.>XsX*XC.C.Z.c.D.D.x.%.a i R G.fXMXHXbXH % 2 c H ;.k.u.r.Z.:Xx.J S :.aXNXaX,X,X5X>XsXCXSXSXSXSXSXJXJXJXJXJXJXJXJXKXKXKXJXaXQ.Q.G.C.H.E.&X].E.E.E.E.W.E.E.E.E.E.E.E.E.T.K.K.G.S.B.B.B.G.K.K.E.E.E.K.K.K.K.K.",
"G.K.K.G.G.G.G.G.G.G.G.G.G.G.G.G.K.H.E.E.E.E.E.E.E.H.H.H.H.G.G.J.J.H.H.`.=X`.J.F.J.J.].sXJXSXJXCXSXSXSXAXAXAXAXmXE.P P <.j.XX+Xm.*.p 4.#XXXL 9 L 7XnX7X7X+Xj. . .A , ; $ ; , q m q # #   X % . # # X X X : : : U n n Y.U.V.R.,X5X*XH.c.c.c.2.2.c.F.'.-X[._.[.`.-X-X4X4X3X3X4X-X8X*X2.2.[.xX3X`.n.n.4X-XqXxXqXxX%.& M J b a.a.a.a.c.R.y.Z.N.n X 2 b J J P &.&.^ ^ &.>.>.R % c E ;.r.a.s.y.<.<.a.s.H.}.-XH.N.<.-.g.F.A.d.h.A.n.A.h.>.A._.H.A.N.u b y.g.U.|.>X5XsX5XsXsXiXsXzXcXsXzXsXvXvX>XvXzXxX4X4X}.H.-.:.6Xy.` cXsXs.b M N.iXiXzXcXNXzXzXR.b J r.zXVXCXcXzX[.3X5X5XaX5X|.Q.U.N y g.U.E.R.R.N.Z.H.c.N.N.C.Z.N.Z.N.Z.a.N.N.a.s.a.<.>.%.) K ) &.) ) <.a 5 K ^ ^ D K M i i 6 < < < c t u -.y.c.<.-.>.<.<.) a P K <.mX;X_.F.`.=X=X].>X=X=X_.C.C.,XNXmXNXCXmX,X{.:X:X>X5X9XsXgX1XT.r.V.Q.:X1X5X5X1X5X9X5X:X1XCXGXW > 2 x v u n H M -.{.9X*X*X].H.c.) a t S Z.9XzXZXCXMXHXe.q W ;.;.;.V.u.r.V.2XZ.Y J u.gXgXQ.R.5XgX&X,XNXJXJXJXJXSXJXJXSXJXJXJXJXJXKXKXKXCX5X{.&XG.x.z.D.E.&XE.E.E.E.E.E.E.E.E.E.E.E.T.K.K.T.K.G.S.D.K.J.E.OXOXW.K.K.K.K.K.G.",
"G.G.G.G.G.G.G.G.G.G.G.G.G.K.K.K.H.H.H.E.E.E.E.E.E.J.H.H.H.H.H.J.J.J.J.J.J.J.J.J._.H.3XAXSXJXJXSXSXSXAXAXAXSXmX4Xv.<.z.z.<.<.j.%.F C p *.,.q e L j.S.7XS.,.,.,.o.T q , q v w e x Z v # . o # X X X X X X o X : 2 U x u.:X:X:X5X3X*X}.C.c.z.2.1.n.`.-X-X'.[.-X-X4X4X4XwXqXqX4XqXxX4XC.>.H.-X-X[.[.[.-X-XqXDX4Xa.b < b R M :.s.c.a.C.N.y.R.;.n O 2 b J J ) >.&.^ K &.>.<.( % u E ;.y.y.s.y.>.>.s.A.[.].}.H.N.<.) 2.A.A.d.A.).A.A.h.&.>.d.C.A.c.5 N g.V.Q.|.|.iXsX5XzXsXsXzXzXzXsXvXsXsX8X>XxX8XxX8X4X}.[.) :.>Xa.( cXiXU.Y N r.sXNXfXZXJXZXNX8Xi i y.zXVXNXcXzX|.6XiXsXiX5X|.Q.U.H u N.Z.R.R.Z.Z.N.N.N.C.s.N.H.N.Z.N.Z.s.s.Z.s.C.a.a.a.>.%.^ ) &.&.) a.a 5 K ^ ^ D K D i i 5 < < < c 5 t :.s.x.<.>.>.<.:.J P ) K a.qX*XF.`.`.=X=X=X].D._.].c.a.*XAXzXmXCXgX:X:X,X:X1X5XzXgXaXW.V.x.B.x.Z.2XfXfXzXzXmXzXgX1XMXBXV.u % : y H E -.E R H J y.>.) H P K t :.>X5XzXzXzXMXMXjXU H <Xi.H ;.V.k.B.T.R.-.b J T.aXgXV.Z.W.{.R.T.MXJXSXSXSXSXJXJXJXJXJXJXJXKXKXKXJXmX:X{.>XH.a.<.<.<.z.v.E.H.&XK.S.G.E.K.H.E.K.T.H.K.K.T.K.K.K.E.E.E.+XE.E.T.K.G.G.G.K.",
"G.G.G.G.G.D.G.G.D.D.D.G.G.K.K.K.E.E.E.E.E.E.E.H.H.H.H.H.H.H.H.H.H.H.J.J.J.F.J.J.J.J.5XZXJXJXJXZXSXSXSXAXSXSXmX8X].F.J.J.z.<.<. .C F C 0 0 p 0 * * 0 C +X7X#X4.| | w e A C C 0 q w x 2 # o o X o X o X : X 4 : : U n W W.2X5XsX*X-X*X}._.).n.n.n.'.;X'.`.[.-X;XwX4X4X4XqXqXqXqXxX3XC.d.d.c.-XqX4X;XwXqXqXA.^ ^ ) < a H b ( y.y.<.s.a.y.x.-.v % 6 c H J ) >.>.^ ) &.>.<.( % 6 Y ` r.y.s.s.%.-.c.R.*X_.].}.H.y.) a.A.A.d.n.A.)._.A.' ) >.c.F.N.< M V.V.{.U.U.sXsXiXsXsXsXzXcXzXvXzXsX5X6X6XxXxXxX4X4X[.[.) <.6Xs.( fXzXfX{.Z.>XCXNXVXVXCXCXNXsXi 5 a.zXcXcXzXxX|.5XzXsXiX5X:XQ.U.N u g.Z.E.U.Z.c.N.C.N.N.a.c.Z.x.G.c.N.c.s.Z.s.N.N.a.a.<.) ^ &.&.&.) <.i > K ^ ^ D K D i i < < < < c y u y.a.x.<.<.<.<.( S P ) M c.mX4X-X-X3X-X>X].c.z.H.].a.c.8XsXAXZXZXxX*X*X5X5X5XgX5XW.:X,X,X&XZ.V.V.|.fXNXCXNXNXCXNXCXMXdX2X;.< < H V.2XW.G.9XN.K 5 t M -.>.S <.*X3XsXzXsXzXMXHX<Xp t.1Xu.H E u.Q.W.W.u.b H r.W.1X5XV.:.x.W.R.E.NXJXSXSXSXJXJXJXJXJXJXJXJXKXJXKXSXgX>X&XE.x.%.) ) P P P %.<.D.E.K.H.E.K.G.E.H.T.T.K.K.K.K.K.T.E.E.E.E.E.K.H.H.G.G.G.G.",
"G.G.G.G.D.D.G.G.G.G.D.D.G.G.K.K.E.E.E.E.E.E.H.H.H.H.J.J.H.H.H.J.J.H.H.J.J.F.J.J.J.].sXJXJXJXJXJXSXSXSXSXAXAXDXqX-XJ.J.`.C.y.%.H b C L p u w * < 0 * p 7X7X#Xl.l.L e A  .L V q v v q # : # o # : X   X 1 X X 3 O x H E Q.1X1X9X5X-X4X4X-X`.).n.`.;X;X'.`.;XwXqXqXqX4X4XwXqXmXmXxXxX4X[.C.`.qXwX-X;XwX;X2.M D d.C.t u S M ( x.a.a.c.s.s.r.` u % 6 c J J %.>.>.^ ) ) &.:.-.% < H E r.<.u.a.-.-.g.A.}.A.H.*X].a.-.2.n._.d.n.A.).).A.K ^ >.c.F.c.5 N U.Z.|.u.V.sX5X5XsXiXzXzXcXzXzXxX5X6X6X6XxXxXxX8X4X3X[.) :.6Xs.( MXZXcX>XW.sXNXzXzXCXZXZXZXsXu u y.sXcXcXNXxX|.5XzXsX5X1X>XW.U.N u s.N.Z.N.N.a.N.C.N.N.s.N.N.s.R.x.N.s.s.Z.N.c.N.a.y.<.&.) >.&.&.' <.i 5 K ) ^ D K M i c < < < < c u i a.s.c.<.y.<.%.K b ) ) d C.qX4X;X4XqX4X=X<.c.F.]._.z.F.xXxXNXAXZXzX{.E.>X5X1X5XR.R.1X5XaX&XT.Q.{.aXMXZXVXzXmXmXzXVXVXMX<Xn > 2 n ;.Z.Z.Z.5XgXsXR ( N.s.s P ,XgXmXzXzXxXsXZXGXV.c ;.iXY.H r.u.x.&XR.x.u.B.G.{.{.,X:Xs.u.x.Z.8XZXSXZXSXJXJXJXJXJXJXJXJXKXKXJXJXCX9X&XC.<.%.P P P ) %.%.P P <.S.G.K.K.K.K.H.K.K.K.K.H.G.K.K.K.J.E.E.K.K.G.G.G.G.G.G.G.",
"G.G.G.D.D.D.G.D.K.K.K.K.K.K.K.K.E.E.E.E.E.E.J.H.E.H.J.H.H.H.J.J.J.J.J.J.J.J.J.H.F.E.sXZXJXJXJXJXJXSXSXAXAXDXDXDXDX9X`.C.z.u.:.E L L C v Z X.T u 0 q t.nX#X+X#XS...A O...4.L A C V v * q 2 . X o # o X 3 X o : < X q T V.:X{.>X5X*X-X-X`._._.`.-X'.`.n.n.'.4X4XwXwXwXqXxXxXxXzXxXqXxX-XA.`.-XxXmXqXn./ d ^ >.H.8XM 5 S H ;.N.g.N.N.a.s.` E y % 2 b J R -.>.&.^ ^ ' _ :.-.% < n Y y.y.s.y.>.<.g.H.A.A.H.|.H.s.&.>.n.`.n.n.A.A.A.n.D ) d.c.A.c.u H Z.Z.>Xy.Z.sX5XiXzXsXcXzXcXxXxXzX6X6X>X8XxXxXxXvX4XqX>X' <.>Xg.' zXCXcXsX>XQ.` H g.zXCXCXZX8Xu c a.iXcXcXNXxX|.6XzXsX5X1X2X|.U.b u g.Z.Z.N.N.y.a.c.x.N.c.B.N.a.Z.c.N.y.u.Z.N.x.N.y.y.a.>._ >.&.&.) >.i 5 K ) ^ M K M i c 5 5 < < c u i s.s.C.<.<.&.) M a ) ) M z.n._.;X;X4X4X].>.%.F._.a.<.F.xXxXzXmXNXmX5X{.{.>XW.Q.Z.E.>X&X:XW.x.W.5XgXzXcXcXgXmXzXNXMXMXVXV.% > v n H i.E.W.>XgXmXc.a.3XP a H.&XsXzXmXxXsXcXCXV.n b H V.:.c H %.;.B.Z.&X9X9XE.E.>X{.,X5X*XZ.aXNXJXSXZXJXJXJXSXJXJXJXJXJXKXKXKXJXzX&XC.<.%.%.%.%.<.z.z.z.<.R %.z.G.K.K.E.K.H.H.K.K.K.G.G.G.K.K.J.E.J.K.K.G.G.K.K.G.G.G.",
"D.D.G.G.G.G.D.D.K.K.K.K.K.K.J.E.K.K.K.H.E.E.H.H.E.J.J.H.H.J.J.J.H.H.J.`.`.`.J.H.R.{.sXVXKXKXJXJXJXZXAXAXAXDXDXDXSXmX=Xv.x.K.V.r.Z Z L +XbXVXgX@XT , k.pX7X#XoXl.l.4.j.4.l.O.p $ 0 v u y v o : X # X . : : X # 2 : X x ;.U.:XsX>X*X*X*X[.-X-X-X'.'.).f.n.'.4X4X;XqXqXqXqXqXqXqXxXqXxXxXqX4XwXwXn.&.D D ^ &.d.-XxXJ < b M ;.s.s.N.c.<.-.R E y % 6 b J ) -.>.&.^ ) ) ) :.-.% < b Y r.:.s.-.>.>.a.}.A._.H.|.H.c.>.%.n._.n.f.A.A.A.n.' _ 2.h.F.A.i H B.V.>Xg.Q.cXiXfXcXsXcXzXzXiXsXvX8X>X[.8XxXxXvXvX4XxX6X:.a.6XN.( CXcXzXfXsXB.c N :.sXNXzXZXzXN i g.sXcXzXcXxX>X6XzXsXiX5X>X|.U.c u s.Z.N.s.y.<.y.x.a.c.s.N.N.y.Z.s.N.<.y.Z.x.N.B.a.a.a.<.) >.>.:.J >.u & K ) ^ M K d i i 5 6 5 < c u i s.s.Z.y.y.&.) M M ) P M &.P >.-X;X;X-X*XH.>.%.%.%.<.J.8XzXAXzXxXNXmXxX5X3XG.Z.Z.Z.W.aX5XQ.{.aXzXcXcXMXMXMXmXzXZXMXfXjXu.: q n Z Y V.W.R.].3X8XC.y.-.b -.,XaXgXgX,X*X{.cXZXg.2 u b H b H p < a M %.=X*X>X3X,XR.{.9XsXzXNXCXCXSXSXSXJXSXJXJXSXJXJXJXJXJXKXKXVX9XE.j.P P >.b.2.z.z.<.<.<. .%.m.J.J.K.J.K.K.H.K.K.G.G.G.G.G.K.K.J.E.K.K.G.G.K.K.K.G.G.",
"G.G.D.D.D.D.G.G.G.G.K.G.K.K.H.J.K.K.K.K.H.H.H.H.K.H.J.J.J.J.J.J.G.K.J.`.`.`.J.J.E.*XgXVXKXKXKXJXJXZXSXSXSXAXDXDXDX8X,XE.G.E.,.H u C v ,.@XbXgXbX@X0 S.2X7X#XS.l.l.l.oX4.j.O.| A p 0 * < n . % # . X X : 2 # o > > # X y E u.R.{.-X3X-X*X[.*X-X-X-X-X`.`.-XwXqXqX4XqXxXqXqX4X4XqX4XqXDXDXAXqXd.D ^ / ^ 2.n.A.-XmX-.& u c -.y.s.N.N.:.%.E W t % 6 b J ( >.>.&.^ ) ) ) :.-.% < b Y r.y.s.( <.<.g.>X}._.A.[.}.A.a.>.n.).h.d.F.A._.A.f.1.>.n.F.A.M H V.V.|.U.>XcXdXcXzXsXcXxXzXiXsXxXxX|.H.8XxXxXqXvXqXxX8Xa.a.>Xs.( VXcXfXiX5XU.H r.{.NXNXzXZXAX-.u N.fXcXcXcXcX6X5XzXsXiX5X>X|.U.i c g.Z.y.r.-.<.N.C.c.N.y.a.s.y.N.s.C.y.u.N.a.C.Z.y.s.a.y.&.>.<.<.P :.i & P &.) D P M i i 5 u 6 < c u c s.a.N.:.y.&.P a M ) P S &.M D A.;X;X*X*X-X=X2.&.<.=X3X*XxXzXxXxXzXNXmXzXzX5Xx.<.B.&X5X>X5XzXMXzXzXcXcXcXgXzXmXNXCXCXCXu.: 2 b b E T.E.R.3X9XmXy.b b Z.x.<.G.B.W.G.R.R.,XNXCXW u ;.i.u.;.H S S b J H.&X{.*X,X=X,X5XgXzXzXMXZXSXZXSXJXJXJXJXJXJXJXJXJXJXKXKXMXG.:.%.%.=.z.b.b.2.a.b.z.<.%.<.m.+X+XJ.OXJ.E.E.H.K.K.G.G.G.G.G.K.K.J.K.K.G.K.K.K.K.G.G.",
"G.G.G.G.G.G.G.G.K.G.G.G.G.G.K.G.H.H.K.H.H.K.H.H.H.H.J.J.J.`.J.J.G.K.J.J.J.J.J.J.E.:XaXVXKXKXJXJXJXSXSXSXZXAXDXmXmXH.*.L p v p C V.@XT w  .@X7X+Xt., t.@X$X$X#X#Xj. .l.l.l...4.j.,.0 0 0 b . . . X X # # , # o : % : .   @ % 6 S ) &.a.c.n.c.2.&.2.c.n.n.)._.`.-X4X;X_.2.) K K ) 2.`.qXqXwX`.>.&.2.&.&.2.n.`.wXmXy.& 6 i ` r.s.N.s.:.( W -.< % 2 M R -.>.&._ K ) ^ ) >.( % < N R :.y.<.%.<.<.N.[._._.A.}.}.A.c.2.n._.f.d.A.A.}.).).d.2.A.F.H.M N V.U.|.>XaXfXdXdXzXsXzXzXzXsXsXxXxX}.A.vXxXxXqXxXqXqXvXc.s.|.y.Y cXBXMXdXiX1XV.:XcXZXzXzXNXAXZ.M U.cXCXcXAXcX6XsXzXaXiX5X>XW.U.c c N.V.a.y.:.a.N.G.Z.Z.y.y.a.<.N.u.N.u.s.x.s.N.Z.y.s.a.a.<.<.a.<.R y.a 5 ) &.^ D ^ B i i 5 i 6 6 c i b x.s.N.:.y.-.K i M ) P S >.d d >.`.*X].].=X=X3X>X=X4X9X}.}.*X8XxXxXzXzXzXxX,X{.N.y.x.R.R.5XMXmXgXfXMXMXMXzXNXCXMXcXjXBXi.: 2 b n X.Q.W.Q.3X3XsXu.< P gXB.J u.G.x.Z.R.V.E.sXMXU.n ;.V.x.;.;.;.E %.%.z.E.J.].,X=X3X9X9XsXzXNXSXSXZXSXJXJXJXJXJXJXJXJXJXKXKXJX&X-.R %.%.z.b.b.2.2.z.7.<.<.%.*.v.J.OXXXOXJ.J.K.K.K.K.K.G.K.K.G.K.K.K.K.K.G.G.G.G.K.K.G.",
"K.K.K.K.G.G.G.G.K.K.G.G.G.G.K.K.H.H.H.H.K.H.H.H.J.E.J.J.J.`.`.J.H.H.J.J.J.J.J.E.>X1XfXGXJXKXKXKXJXSXSXZXAXDXAXAX9X%.C C p A ;.@XgXS.Z A j.@X7XY.H * q v A #X#Xl.,.* V l.+Xl.l.S.,.a E t s . < i % X # o # # . # : X X % > t 5 < + & 5 d K K S a & 5 t i M D S D ) ^ D K &.&.&.>.2.2.>.1.&.&.&.&.&.7.).`.'.A.c.-X:.% < u ( y.s.c.:.-.( -.;.2 % y b J ) -._ _ K &.^ ) -.( % 2 H E :.s.y.:.<.:.N.}.).}.A._.F.c.A.2.h.}.A.f.A.).[.}.}.n.2.F.F.}.H c g.U.~.iXcXcXcXiXzXsXcXcXzXxXsXxXvX}.}.xXzXqXvXDXqX4XxXA.d.|.r.Y CXZXBXfXdXgX1XcXcXVXzXzXNXzX>X:.>XVXVXcXcXzX6XsXzXiXiXiX|.R.Z.c c V.a.:.:.<.c.N.C.G.H.y.<.s.y.N.<.s.y.s.N.N.N.B.a.c.<.a.<.y.s.y.) y.i 5 ) %.^ K K S a i u c 6 6 c u b x.c.C.>.:.) P M b ) ) S >.M d ) n.F.H.=X=X].=X4X9X=X_.[.[.H.3XxXzXNXNXxX3X,X9XW.B.Z.x.u.:XMXzXgXzXMXMXMXCXCXmXMXgXiXjXi.: < b b Y V.R.R.,X3X3X-.& -.B.B.u.H u.x.T.:XR.s.>XCX2XH T u.u.u.-.E -.>.u.u.y.B.H.].,X3X*X,XsXmXNXAXSXJXJXJXZXJXJXSXJXJXJXJXKXKXVXN.P P %.<.v.b.b.b.2.2.z.<.<.%.<.D.XXXXK.K.K.J.K.K.K.K.K.K.K.K.G.G.K.K.K.K.K.G.D.D.G.G.G.",
"K.G.G.G.D.G.G.K.G.G.G.G.K.K.G.G.H.H.H.H.H.H.H.J.E.=X].`.J.J.J.`.`.J.J.`.=XG.H.>XgXNXVXGXJXKXKXJXJXZXZXSXAXAXDXmX,X .L C L L C L T  .l.l.t.7XnXpX7Xv #   * u.+XY.X.    w T t.k.L * t ,.a < < K H x , : % % # o X % 2 H W ;.;.%.R J M 5 5 i J ) R M b H M M M K ^ 1.&.&.&.f.A.2._ n.n.2.1./ &.1.2.).n.n.n.2.) P -.J % < u E y.g.N.:.>.J r.E 2 : 6 b J -.%.>.&.K %.P ) -.( % 6 H E y.s.N.y.a.s.A.|._.A._.A.H.h.d.d.h._.n.d.)._.[. X)._.A.A.}.}.D i V.Q.|.dXcXcXzXdXfXsXcXsXsXsX6XxXxX}.}.xXxXxXxXxX4X4XqX].A.>Xg.J BXCXBXcXcXzXdXzXcXcXzXsXZXCX5X}.sXCXVXNXNXxXsX5XsXsX5X>X>XR.Z.N b N.a.-.&.d.d.c.F.F.F.N.<.<.y.y.:.s.:.y.u.s.c.c.y.s.y.s.a.s.s.:.J y.a 5 ) _ ) ^ ) P M i i i 2 2 c y b Z.c.Z.&.>.-.P i 5 P P K 2.M d K 2._.].J.H.>X9X9X3X3X=X`.-X<.a.xXNXNXgX=X*XaX1XaX1X1X*XG.W.gXgXzXgXMXNXzXCXmXgX1X5XiXjXV.% 2 v v Y r.Z.{.>X8X3XJ & S a.x.y.S b :.u.V.{.N.U.VXaXb u -.s.x.-.P %.<.j.v.x.y.<.E.{.&X&X,XgXgXNXZXJXJXJXZXZXJXSXJXJXJXJXKXKXKXMXu.) P *.b.z.b.v.v.b.2.<.z.<.%.=.K.J.XXJ.J.K.K.K.K.K.K.K.T.K.G.G.G.G.K.K.K.K.D.D.K.G.G.G.",
"G.G.G.D.G.G.G.G.G.G.G.K.K.G.G.G.H.H.H.H.H.H.H.J.E.&X=X].J.J.J.J.J.J.J.`.=XH.E.1XmXmXMXJXHXjXfXCXSXJXJXCXAXZXmXDXK. .L C ,. .e q V S.7X+X#XS.pXnXbXL u p @ Z I.Y.H # # @ @ * , # @ % C S t a J a Z v y , : # o % q H u.Y.Z.T.Q.x.y.:.( J i t i S J N J ( ( >.>.2.2.1.d.).n.f.2.1.f.3.&.&.&.1.3.3.&.^ K D M M S H b % > c ( y.A.N.y.-.J u.W 2 % y b J -.) &.>.K ) J R ` ( % y Y ` r.s.c.s.a.>.h.}.F.A._.A.F.h.2.2.2.c.d.n._.[. X[.).`.A.A.}.}.H i g.R.>XfXcXcXzXzXgXaXzXfXsX5X5XxXvX>X8XNXxX8XxXxX4X4X8X{.}.NXU.R BXVXCXcXMXcXdXfXCXcXzXsXCXCXsXiXNXAXAXAXAXxX5X>X>X5X6X>X>XU.V.N b N.a.&.>.c.d.c.C.z.H.H.s.<.:.:.:.s.y.a.a.a.s.a.<.y.y.c.s.r.r.:.J s.M t ) ' ' K ) P M i c c 2 y c u M N.s.C.>.:._ K i 7 P K S d.K M D ) A.F.b.F.3X*XH.J.*X=X=X`.%.%.3XmXsX5X,X5X5X:XaXfXaX,X,X5XaXgXNXzXcXfX1X5XgX,X:X{.:XCXQ.< < b n U u.U.:X,X3Xc.P P J H i S a t i R E r.U.T.aXMX-.u H u.:.%.J %.<.<.<.<.B.x.u.Z.&X,X9X9X3XmXZXVXVXJXJXJXJXJXJXKXJXKXKXKXKXiX-.P D %.v.b.<.2.b.z.2.2.z.<.%.<.J.J.J.J.J.XXJ.J.K.K.K.K.K.H.G.G.S.D.D.G.K.K.G.D.G.G.D.S.",
"G.G.G.D.D.G.G.D.G.G.K.K.K.K.G.G.K.G.G.G.G.G.H.H.J.=X=X=X].J.J.H.J.`.].].].E.E.,XaXfXfXaXaXdXjXCXVXJXJXSXJXJXCXJXS.L V L #XS.v V l.7X$XS.$Xt.t.nXnXZ @  ., % b b % # # . @ @ @   @ @ * b t t S H b 1 1 % : # X : v E i.T.V.|.gX1X*XZ.y.<.-.R N i i 5 b R ) -.>.<.>._ &.d.1.K d d d d d d D D B i t d M d i b N b u % > c -.y.N.s.y.( R s.E 2 % y b J %.^ %.&.P ( J J ( E % 6 Y ` :.s.s.g.a.>.c.}._.A.}.F.A.c.>.a.>.a.d._.). X;X[.). X)._._.}.K i g.Q.1XfXcXfXzXcXfXzXfXsXiX>XsXsXsXvXxXxXxXzXzXxXxXxX3X3XsXJXZ.R ZXSXZXBXCXcXiXsXMXCXcXNXVXZXzXzXAXAXNXNXAXvX6X}.>X8X|.{.>XU.V.N c N.<.&.1.n.2.2.b.2.n.C.c.y.-.-.<.y.<.y.:.:.a.s.y.y.y.s.s.y.y.` J s.M i &.-._ K ^ K M i b c y i b u N N.a.N.<.>.) ) M i ) ^ S c.%.D K %.n.A.v.F.`.].F._.`.F.`.F.^ P =XmX8X,X5X9X,X9X9X9X9X8X9X9X9XsX9X>X,X5X5X9XW.H.E.Q.:XCX<Xq : x b Y r.g.{.>X*X>.a.G.C.<.-.) i < & u i R y.N.~.fXy.% < b J J b Y ;.T Y E Z Y :.Z.,X{.:X,XsXNXVXVXCXCXJXJXJXJXKXKXJXKXKXJXVX1X>.>.%.%.2.7.<.<.z.z.z.z.z.=.%.j.OXOXJ.J.E.OXE.K.G.K.K.K.G.G.G.G.D.D.D.D.G.K.K.K.K.G.D.S.",
"G.G.D.D.D.G.G.G.G.G.K.K.K.K.G.G.K.G.G.G.G.G.K.K.J.E.=X=X`.J.J.H.J.=X=X].].J.E.&XE.*X1XaXaXaXgXfXzXfXZXJXJXJXZXVXx.L L l.7X#XL w #XnXS.#XnXt.q ,.,.u @ Z H . @     # # # $   $ 0 L P C 0 < t a 0 % @ % # # : : : H e.T.W.Q.1XzX5X5X5X>X].N.a.<.) b & & 5 u M M M 5 & & 8 8 8 7 t S D _ 1.n.2._ i & & 7 i i i c N y % < c %.y.s.a.y.R ( x.Y y : x b J ) P ) %.K ) J J ( ( % 2 J ` r.s.g.g.c.a.A.}._.F._.F.A.A.2.d.>.1.n.}.n.}. X`._.'.n.).A.R.K i N.W.iXfXcXdXzXzXzXcXcXsXiX>XiXsXxX6XsXzXNXzXzXxXqX}.N.xXNXZXN.R CXCXBXcXcXzXiXdXCXZXcXcXcXNXxXNXVXNXNXzXNXsX6X{.8X5X|.>X|.V.g.c N A.a.<.d.n.2.2.z.2.<.2.c.<.) :.:.:.>.:.-.:.a.s.s.:.:.y.a.-.( H J s.M M a.>._ K ) J M i b b u c b u N s.a.C.<.&.) ) D i ) ^ M 2.&.D ^ &.n.`._.`.=X`.F.`.`.M.n.2.P D `.xX3X>X3X3X3X8X9XsXsX5X3X5XgX5XE.{.,XsX1X{.H.E.&X5XMXGX~., : x x U E ` B.N.P >.C.<.C.F.=X].<.) K 5 & t u H E V.g.n u > u < % > % % < y < > 6 i R x.>X5XgXMXzXVXJXJXJXKXKXKXJXKXKXJXKXJXNX>Xy.<.%.%.#.<.2.2.b.v.v.z.=.%.%.v.&X=XOXOXOXOXE.K.G.K.E.K.G.G.G.G.G.K.G.G.G.K.K.K.K.G.D.S.",
"K.K.G.G.G.G.G.G.G.K.K.K.K.G.G.G.K.K.G.G.G.G.K.K.J.J.J.J.H.H.J.J.J.J.].].].].].].=XE.].>X*XW.:XaX5X1XgXgX<XiX2XS.x.,.o.+X7XS.T L S.nX+XnXnX .$ v p q * * E q % . . # @   u  .j.XX7X+X,.t * 0 p , , % # # # : : y W V.~.|.1XsXfX5X8XxXzXxX>X}.H.a.a.D 5 + + 5 & = 5 5 & 5 P C.[.*X-X4X4X`.n.2.2.3.D & . + u i c n < % < b :.s.a.a.y.R ( x.J u > y b J ) ^ ) ) J ) K J -.;.> < Y ;.r.s.N.C.Z.c.C.].F.A.A.A.h.F.2.h.2.a.}.`.A.}.[._._.).n._.A.H.K c g.|.iXdXcXfXcXfXzXsXzXsX5X>XiXzXxX6XxXvX5XxXNX6XA.2.a.xXNXSXs.H sXfXfXgXcXzXsXfXMXZXBXMXcXMXsXsXVXZXVXzXzXxX6X>X8X6X>X5XW.u.y.i H Z.<.2.n.n.2.d.n.&.^ 1.c.^ ) a.y.-.-.<.y.u.x.a.:.:.:.r.r.r.y.;.( Z.N H y.-._ K ) P M i M N i b b u N s.s.C.2._ -.) S a ^ ^ d 1.2./ / ^ n.).7.n.%.%.^ %.=.2.n.>.D P F.4X;X4X8X3XqX8XqX8X3X,XsX8XsX>XE.,X5X>X{.{.>X9XmXVXGXMXi.< , : , n b E r.b J 2.>.%.C.9X8X*X*XZ.>.K M i t > u b N E J N H y 5 u 2 > H V.V.;.% = & t b K %.a.Z.W.aXfXfXVXJXJXJXJXBX1XW.R.*XE.<.<.z.v.2.2.2.z.2.7.<.%.P K %.b.E.E.E.E.OXOXW.E.K.K.K.K.G.D.G.K.K.K.K.K.K.K.G.G.K.G.D.S.",
"K.K.K.K.G.G.K.K.G.G.K.K.K.K.G.G.K.K.G.G.G.G.K.K.H.J.J.H.H.H.J.J.].].J.J.].=X=X=X=X=X=X].E.E.&X{.aXaX1XT.V.Y.Y.x.S.,.j.#Xl.| | ,.o.#X7XnXS.w p p 0 p % . p Y % . .     Z OXnX0X0XK.{ 0 * * @ * p A Z q % # : : n ;.Z.W.W.sXsXzXzXxX8X5X6X6X4X4X_.n.2.K & + > < i :.H K A.AXNXxXAXmXqX-X_.n.n.)._.`.1.i . . O % % % , u H u.s.a.<.s.J ( N.J i > y c J ( ) &.) K ) S K -.;.< < Y ;.y.s.B.Z.A.c.c.}.F.A.A.F.c._.d.c.d.h.[._._. X[._.'.).).[.F.}.J c g.|.iXsXzXcXMXfXsXiXiX|.{.|.iXzXxX6X>X}.sXsX-XC.a.>.s.xXAXzXH b 1XiXiXiXsXsX1XiXzXVXBXVXCXCX5X5XcXVXCXzXzXsX>X6X8X-X,XiXW.g.r.6 H N.>.d.A.n.2.n.n./ d D K a >.H.a.-.-.<.x.N.N.y.y.-.r.s.y.-.-.-.E U.N J >.' ' K ) P c u M M i b b u H s.c.N.<.%.>.) S M ) ) M >.n._ _ &.2.2.=.=.^ / D d D ^ 1.&.&.2.=X4X4X8XqX4X3X4X-X].].3X8X5X{.{.>X,X,X5XsXMXzXaXgXiXT.r.y % q v , , Y ` c i d.d.>.c.}.qXqX-X3X*X<.P >.>.%.K H c i b c c S J H E %.E Y E Y.E u <.s.:.:.<.>.-.-.-.r.r.` R R Y ;.;.u.T.:XQ.E.D.b.v.v.v.b.z.<.<.<.*.#.P K K P j.E.E.W.OXOXE.E.E.K.K.K.K.K.G.G.K.G.G.K.G.K.K.G.G.K.G.G.S.",
"K.K.K.K.G.G.K.K.K.K.K.K.K.K.K.K.K.K.K.G.D.G.G.K.K.J.J.J.H.J.J.J.].`.`._.`.=X=X=X=X].=X=X].].=X&X|.@XW.Y.Q.~.@X7X#Xt.o. .| A A | A  .7X$X .w p 0 0 L v < < Z u . . . # E 7XK.*.{ *.5.{ s * * 0 e C  .X.v % # : n e.T.|.>XzXzXsXsXsX-X3X8XqX4X;X).n.f.) 7 + + % H ( R Z.mXzXzXAXqXqXqXwX4X-X;X;X-X X4X}.H . o % : : 2 u H :.a.a.<.c.J R V.Y x > 6 c Y ` ) &.%.J R M H ` ;.< < Y ;.r.s.N.C.A.s.N.]._.n.F.F.A.A.c.d.d.A._.A.[. X[.`.'.A._.}.A.H.K i g.|.iXsXfXcXcXgX5X|.W.R.}.}.5XzXsX}.}.sXAXR.:.<.<.&.:.xXzXZ.6 H iXiXiX1XsXsX5XiXcXCXMXMXCXCXiXsXzXNXzXzXxX8X}.6X8X-X>X,XW.N.;.< H A.2.n.F.F.z.n.&./ B B d D 2.n.<.-.>.y.N.N.x.:.:.:.x.N.r.;.E N N g.b J :.) ^ B ) J i u M N i b c u J u.N.N.a.-.>.) K K ^ ) M ^ n.&.&.&.1.1.1.1.&.^ &.^ ^ ^ &.=.n.).-X;X-X-X-X`.F.F.H._.>X>X{.,X|.|.1X>X>XiX5X,XZ.r.:.r.W x % : q W H > 6 < u y.C.c.2.c.[.-X*X-X*X6X`.>.c.H.c.d.C.>.-.R -.R -.-.-.R ;.x.:.Z u 2 -.F.].=X3X4X9X8XmXmXmXzX5XZ.N.s.W.W.W.&XR.c.D.C.D.v.b.7.D.D.b.<.<.%.P P P K E j.=X&X&X&X&XOXOXE.K.K.K.K.G.G.G.G.D.D.G.G.G.G.G.G.K.G.G.D.",
"K.G.K.G.G.G.G.K.G.K.K.K.K.K.K.K.K.K.K.K.G.G.K.K.H.J.J.J.J.J.J.J.J.H.J.`.`.].=X=X=X].=X=X].E.].E.W.~.1XaXjXCXBXHX+X,. .L ..L L oXS.L C o.A V p w T V. .b < % H c X @ . % < $ t j.#XXXoXm. .F | } e V | Z 1 # 2 T u.W.>XsXcXNXvX5XsX8XxXqX4X X;X`.`.2.^ i M 5 % M R R.mXNXmXxXxXxX4XwX4X;X;X4X;X X;X X6XH.N % : 2 2 q x u J y.a.s.C.R R V.Y c > 2 c Y ( ) &.&.R R b N W ;.2 < Y ;.:.s.N.C.A.s.C.C.).c.).n.h.d.d.>.a.A.n.n. X}.`.`. XA.[.}.A.}.K i g.|.1XdXfXcXzXdX>XU.N.>XiXU.>XzX>XA.8XZX6X>.-.a.>.>.:.-X}.y.b N MXcXjXfXVXSXVXVXfXcXcXCXZXCX5X5XCXZXzXNXzXsX].8X3X3X>X{.R.x.( < H A.2.n.A.n.2.2./ &./ D d &.c.n.) ) <.a.N.x.u.:.-.r.x.u.E ( E H Y g.c Y y.' ' K ' P i u N H i c c u H y.C.C.a.&.>.-.) P ) %.M S F.1.^ / / #.#.&./ ^ 7.`.n.&.&.2.'.).).`.F.F.n.7.v.v.]._.J.*X3XsXiX>XiX2XQ.u.-.( ( Y E y.E % : x v H U 2 % % -.c.a.2.c.c.A.[.-X-X-X*X`.d.n.[.`._.*Xn.c.d.d.c.J.E.G.z.<.y.:.:.b E <.>.a.[.-X=XqXmXmXAXNXNXNXmXAXSXzXT.x.H.E.D.F.M.v.z.v.v.b.b.D.b.<.#.P P P K P <.&XOXW.W.W.W.W.E.E.K.G.G.K.K.G.D.G.G.G.G.D.G.G.G.G.D.D.S.",
"K.G.G.G.G.G.G.K.K.K.K.K.K.G.G.K.K.K.K.K.K.K.K.K.K.K.J.J.J.H.J.E.E.E.].].].J.=X3X=X=X].].].J.H.H.V.W.jXBXdX2XdX@Xt. . .o.L | #X+X#XS.C j.j.L T C t.T.t.A C u % T b .   @ @   ,.0XXXm.oXm.oX5. .l. .$ 0 v 0 @ v X.u.:X5X8XzXxXsX6XxX8XqXqX4X-X X;X-Xn.) M ) J & 5 y.sXmXAXmXxXxXxXqXqXwX;XwXqXwX'._.-XA.}.U.y < 2 2 q n x n g.d.A.N.J -.Z.E b : x c J -.) >.) R J c N -.;.y < H ;.r.s.s.Z.A.d.C.A._.n._.a.C.1.d.>.d.A.h.c.[.}.[.n.).).[.}.F.A.D c Z.|.5XdXiXcXzXsX{.U.>XZX{.g.>XsXN.>XzXAX}.:.a.&.) a.>.<.>.N.N H iX:XQ.U.:X1XgXVXCXgX|.1XiX>XsXCXJXNXzXzXsX6X>XxX8X*X{.{.R.V.-.< S C.>.n.n.2.n.2.1.1./ D ^ n.).2.^ >.c.c.x.a.u.-.:.x.g.-.E ;.;.Y Y g.b J y.` ) K ) K i u M H c b b u H <.H.J.<.>.>.-.%.%.P %.D i A.`.3.&.&.^ / ] 3.n.).'.'.n.2.7.`.).=X`.F.`.`.`.J.J.`.=X,X,X5XfXiX|.U.r.E E -.;.u.u.V.u.2 % x y : , % % % Y N.<.-.2.c.d.[.-X;X[.n.).[.F._.-X).n.[.`.n._._.}.4X*XD.H.J.C.s.u.b S &.%.C.`.F.-XqXxXxXxXxXmXmXDXAXAXmXQ.j.z.z.<.z.z.v.M.F.F.v.z.v.D.D.<.%.P P P <.D.+X&X&X&X&XOX{.E.J.J.J.J.K.K.K.D.D.D.D.G.G.G.G.D.G.D.S.S.",
"K.K.K.K.K.K.K.K.K.K.K.K.G.G.G.G.K.K.K.K.K.K.K.G.K.H.J.J.J.J.J.E.].].].].=X=X].].].E.H.E.].=X].R.:X1XjXdX2XBXbXX.Z T ,.o.| Y.7XS.S.pXt.o.j.| L w j.2XS.j.t.v % % H n X .   t +XXXm.m.#X0XXXm.5.5.S.V   $ @ # H E x.*X5XsXsX8XsX8X8X8XqXqXwX4X;XwX4XA.^ D ' -.5 b 5XNXxXxXxXmXDXqXqXqXwX4XwXwX;X`.;X`.n.}.W.W > 1 2 k U n b s.h.H.g.Y >.T.` b : y c J -.%.>.) ) H u M ` ;.y 2 E W r.s.s.Z.A.c.c.A.F.n.A.2.c.>.c.2.h.A.d.A._.}.).f.).A._.A.n.Z.D c B.|.5XsXiXfXfX5XT.:XfX5XN.{.5X}.R.sXAXNXH.a.s.>.>.>.) D ` a.N H :XN.r.;.u.Z.<XcXVXVXcXiXiX5XMXNXZXCXNXzXxX8X6XzX8X*X*X>XW.Z.:.5 S A.>.n.c.2.z.2.n.n.&./ 2.).n.&.) c.v.x.a.c.a.-.y.:.;.E E e.r.E H g.N ' a.` K D ) J i u b H N N i u H :.H.J.<.>.>.) >.>.P %.P t &.).).).n.7.n.n.).'.;X;X;X'.'.;X=XwXwX-X;X;X=X*XJ.D.].5XsX9X,XW.N.-.E -.e.u.g.Z.Q.S.e.y X % > : X # y H y :.g.<.c.c.d.A.-X4X-Xn.c.).-X-X[.`.).n.).n.-X[.*X-X6X4X3X3X4X3X,XR.R a S ) n.*X-XwXqXxXAXDXqXqXxXmXDXDXzXW.u.<.=.<.<.<.2.b.v.v.v.D.D.v.v.<.%.P K K %.j.K.OXE.W.T.R.Q.E.K.K.D.B.D.K.K.D.D.D.D.G.G.G.G.D.D.D.S.S.",
"K.K.K.K.K.K.G.G.K.K.G.G.G.G.G.G.K.K.K.K.K.K.G.G.H.J.E.E.E.E.].].].=X=X].].=X].E.,X*X].H.H.E.,X9XjXVXJXGXBXGXdXj.T A L T L Y.gXnXpXS.C C j.,.C V j.S.k.k.;.q # . % H v #   C 0Xm.XXXX0X+X#XoXm.l.l.T   @ . 0 T W E.>X,X9X5X3X8X5X8XsXxXqX4X;X X;X X2.D K ) R < J mXqX3XqXqXxXxX4XqXqXqXqXwX;X-X-X-Xn.A.>X>XZ.2 , 2 x T U b y.Z.R.s.R y.R.;.n : y c R -.-.&.) K i 5 u Y e.y < W E ;.y.s.Z.H.A.C.A.A.c.A.2.d.>.d.>.h.c.d.}._.`.).f.).)._.A.h.A.K c Z.|.5XdXsXzXfX1XV.>XzXR.y.E.}.U.|.xXAXzXA.A.A.a.a.a.P i ) :.N J VXcXgX1XiXMXHXZXJXJXJXJXJXZXSXzXVXZXCXzXxX3X3XxX-X].=X{.U.V.r.5 H A.2.n.n.2.2.2.n.).&.&.(.`.1./ 1.C.n.z.c.a.>.) <.-.-.;.-.-.W Y Y N.N E r.` K K ` ) i i M H N c u u H >.R.R.>.-.>.) -.%.P -.-.i S d.`.-X'.'.;X'.'.'.'.;X;XwXqXqXqXqX4X4XqX8X3X=X=XJ.G.Z.x.:.R J N H E r.g.V.V.V.x.-.t . : % # X : v k.:XH N >.s.d.c.n._.;X;Xc.c.A.[. X;X`.).'.`.-X-X;X-X-XqX*X8XC.c.C.E.5X5XN.K K &.n.;X;X;XwXDXmXqXqXmXmXDXAXSXNX&X<.=.%.<.<.<.<.<.<.<.<.v.v.v.D.z.%.P P L P %.m.K.OXOXE.E.OXH.J.J.K.B.B.D.K.D.K.G.G.D.G.G.G.G.G.G.D.S.",
"K.K.K.K.K.K.G.G.K.G.G.G.G.G.G.G.K.K.K.K.K.K.G.H.J.E.&X=XE.=X&X&X].=X=X=X].].&X].&X&X*X:X5XgXmXMXJXVXbXBXGXpX~.2X7Xt.v q < ,.7X2Xk.L ,.T v T A L +XY.Y.OXt.v , # X % p <   * S.2XeX0X,.0 j.0Xj.5.j.L @ @ % n E u.1X,X>X3X3X>X5X5X8X8X8X4X4X;X-X;X X2.K K ) M = ) -X].-XxXxXxXqXxXxXqXqXqXwX4X;X4X`.f.`.4X6XR.H 2 2 v X.E H y.H.R.<.R y.E.;.H : y c R >.%.&.) M > 5 5 b ;.y < E E ;.y.s.Z.].A.N.A.A.d.A.>.>.>.>.>.2.>.d.A.A._.).f.n.A.).n.h.A.K c Z.|.5XaXsXzXzX5XU.>XaXZ.B.}.}.H.>XvXNXxXA.}.}.A.h.>.a i >.s.Y Y JXJXKXKXKXKXKXJXJXJXJXSXSXNXNXsXiXcXzXxXvX>X6XxX3X].{.R.Z.V.u.u H A.2.n.d.2.2.3.n.).&.&.`.(.&.^ 2.c.2.n.c.&.%.>.-.-.;.y.V.u.E H H V.H ` y.-.K K ( K i i b N b c i u H :.R.H.>.) >.%.%.P ) :.-.a 8 ^ c.n.).=X'.).;X;XwXwXwXqXqXqXqXmXxXxXqX8X*Xa.%.( J J H S S J ( Y J E :.u.;.E u % % v b X X 2 , H Y.T.H b y.H.c.c._.-XqX[.d.`. X;X[.`._.-X;X_.A.2.a.H.3XxXxX{.) -.( ) :.G.N.R D >.`.-X4XwXwX4XqXqXxXDXDXDXDXDXmX=X<.%.*.<.<.<.<.<.<.=.<.<.<.b.v.<.#.P P P P P P ,.B.OX&XE.E.E.D.K.K.D.v.v.B.D.G.D.G.G.G.G.G.G.D.G.D.D.",
"K.K.K.K.K.K.G.G.G.G.G.G.G.G.K.G.K.G.K.K.K.G.K.H.E.].].].].&X=X=X=X].].=X=X&X].W.Q.:XgXMXJXHXVXMXgXbXGXBX<Xp.e.k.Q.Y.i.X. .V.dX@XH ;.nXpX,.v b L pXOXQ.S.L q , @ X o @ q %   p t.Y.,.p   p K.+XS.j.u   # u Y E Z.1X,X*X,X8X5X5XsX8X8X3X4X4X4X4X4X XA.&.^ %.t 5 >.].*X4X8X4XxXqXmXxXmXxXqX4X;X4XqX[.n.[.3X>XQ.r.2 1 b e.E Y y.Z.Z.>.R a.R.;.Y > y b R >.%.&.) i 5 i 5 6 Y 2 2 ;.E ;.y.x.Z.J.N.a.c.A.2.A.>.>.>.>.>.>.>.A.A.A._.).n.n.n.n.h.d.}.K M U.|.5XiXaXzXzX1XZ.5X5Xs.Z.}.}.H.|.5XNXvX}.>X[.}.c.&.i M y.N.;.J JXJXJXJXJXVXVXJXZXSXCXcXzXZXZXzXR.sXzXxX8X}.6XsX-XR.].R.Z.V.g.i S C.2.n.2.z.2.2.n.n.1.3.`.2./ &.2.2.2.2.>.%.<.a.^ :.s.V.T.V.;.Y n N.H E -.( D D ) M u u c b c c u 5 J y.Z.A.<.-.<.>.( ) -.u.:.J = t ^ ^ _ &.1.1.&.1.7.F.`.'.F.z.n.c.<.:.-.J M a b i b S H J R ( ;.R H M M c 2 & % @ b ;.n % : U T x X.Z.S :.H.C.C.A.[.qX[.d._.-X-X-X-X`.-X4X`.1.%.>.>.>.A.3X-Xy.>.%.-.-.( -.r.s.J P H.qXDXqX4X;XqXqXqXmXDXDXDXDXmX&X<.=.=.<.%.%.%.%.%.>.<.<.<.z.v.<.#.P K L P { L P %.b.J.&XE.K.D.B.D.D.B.v.B.B.D.D.D.G.G.G.G.G.G.G.G.G.",
"G.G.G.G.G.G.G.G.G.G.G.G.G.G.G.G.K.G.G.G.G.G.K.H.E.].].E.].&X=X=X=X].].&X&XE.&X5XmXVXJXJXJXHXGXVXVXBXBXjX~.k.u.i.k.k.k.@XbXHXKXGXbX2X:XOXnXk.q H @XT.Y.i.Z u : # X % . # < %   # 0 # , @   C V.t.p #   # n E ;.W.,X5X5X5X8X5X5XsX8X8X8X8X8X4X6X-X`._.<.^ ^ & M H.*X6X3X-X4XqXqXmXxXxXqXqX6X4X8XqX-XA.-X6X}.|.V.2 : n t.W R r.N.C.-.) N.R.;.E < 6 c R :.%.&.K i M M < < Y 6 y ;.E ;.y.s.N.A.h.a.C.h.2.h.>.>._ >.&.&.2._.A.n.`.n.f.A.f.d.d.h.}.P H Q.,XiX5XsXgXzX>XV.gX5Xy.g.Z.|.R.}.6XzX4X[.8X4X}.c.&.M ) d.N.g.J VXKXKXJXJXJXVXMXCXZXNXcXzXJXZXNX{.sXNXzXsX|.>X}.}.H.E.R.Z.U.N.i M c.2.n.d.n.n.n.n.n.2.n.).&./ &.2.2.>.^ ^ <.d.>.%.<.c.x.V.T.u.H c i.H ` ;.) M D R M u 6 u b u u u < J g.Z.H.a.>.<.>.%.%.%.s.s.E t + i M d t i d g / &.=.>.%.^ K K S a u 5 < u u t t u i i i i i i t & = & = % . & < H X.v X < e.k.U < H R R.Z.d.A.[.-X4XA.n.-X4X4X[.-XqXwX`.2.=.<.b.v.>.J <.s.>.<.a.C.:.-.( %.:.R J N.3XxXxXqX-X'.;X4XxXmXmXmXmX9XB.%.*.%.P P P P %.%.%.%.=.<.5.v.7.%.P K L L P  .P P %.y.x.B.B.D.D.D.D.D.D.D.D.B.D.D.D.G.G.G.G.G.G.G.G.",
"G.G.D.D.D.G.G.G.G.K.K.K.K.K.G.G.K.G.G.H.H.G.H.E.E.].].].].=X=X=X=X=X&X&X&X&XgXVXKXKXKXKXKXKXKXGXHXCXMXBXjXpX~.~.I.I.Y.@XbXGXGXHXVXJXmXQ.W.OXX.L OXS.u. .Z v , : %   % . : 2 % .   < v @   . , #     . # H ;.i.1X>X5X8X8X5X5X5X5X,X8X8XqX8XqXqX-X}.A.) ^ D 8 &.[.=X-X-X;X4XxXmXmXmXqX6X8XxXmXxX8X-X[.4X4X>X,X|.b > Z r.;.E y.N.c.` ( C.R.:.E 2 y c R >.-.) K b H b > u ` y y ;.W y.u.s.c.A.c.d.A.d.>.c.2.:.) _ ) ) d.A.c.d._.f.2.A.3.>.d.h.}.J H Q.>XiX5XsXfXsX|.T.aX>Xy.a.N.H.A.H.>XxX4X-XxX4X}.h.) D >.N.{.E.H VXJXJXKXJXGXVXMXzXNXcXsX,X5XsXcX5XsXzXzXxX6X>XZ.].].*XR.R.Q.Z.b M c.2.c.2.n.n.n.n.A.2.n.n.&.&.2.&.&.G S ^ d.2.%.&.a.C.x.<.u.u.;.H V.J ( :.( K P K b 6 6 i c c c u 5 J N.N.R.a.-.>.-.>.%.%.<.:.b 5 o + i d a S K &.=.1.2.2.<.%.P i t i b u % % 5 i N K J -.:.y.c.a.y.%.J M b b u % % , b x # x I.I.E > J s.a.a.H.-X6X4X*X-XqX4XqX4X-X-X4X-Xn.2.z.z.<.z.%.J S P x.].H.].D.<.J S J y.-.s.5XzXxXqX4X-X6XqXqX8X9X3X,XB.>.P P P S S K %.<.>.P P P { %.%.%.P P P K G G P P P P P P %.<.z.v.D.D.D.D.D.D.D.D.D.D.G.G.G.G.G.G.G.G.",
"K.K.G.G.G.G.K.K.K.K.K.K.K.K.G.G.K.K.H.K.K.K.E.].].&X].].].=X*X=X,X=X&X=X,XsXVXKXKXKXKXKXKXKXKXJXHXGXVXBXBXGXpXuX@XuXpXkXGXHXHXBXMXCXVXfXOXS.Q.t.V.T.X.n x , , X < H ,. .Z q , #   1 x . X X   o o # X X W u.g.:X>X>XsX8X5X5X5X{.*X5XxXxX8XxXqX[.}.h.M D d a A._._.;X;X-X-XqXxX4XqXqXqXxXxXqX8XqXxXqXxX3X6X>XiXY % b ;.-.J y.c.a.) ) C.G.;.W 6 y b R -.) ) ) M i u < b ;.< 2 ;.W y.u.a.N.H.C.a.c.h.>.A.<.>.) ) ) ^ d.n.d.n._.n.2.n.1.&.f.A.}.R J U.|.5X1XiXsXaXW.Z.5X|.y.:.:.a.A.}.>XqX4X6XxX4X_.d.&.P a.N.5X>XH JXJXJXMX1XfXVXMXzXzXzX5X5X5XiXzXxXzXzXsXsX6X|.g.].*X>XZ.R.W.U.M M s.>.d.1.n.z.n.A.A.2.n.3.&.2.2.&./ g D &.2.^ ^ <.z.c.<.E Y X.r.E V.H ( :.( M S K M 6 u u 6 u N u u E Z.N.H.<.) >.>.-.R %.:.-.i i 5 . + < M ) %.<.2.2.2.2.%.K M P s.*X5X{.:.E N.|.6XxXxXvXxXzXxXxX3XC.2.<.a.c.<.%.t % % < % , W u.b < :.G.c.c.-X*X4XwX_.A._.-X-X-X4X[.A.F._.F.C.v.z.%.S a M S %.].D.H.E.>.S S R s.s.:.R.*X8XxX4XqX-XH.v.C.D.v.<.>.%.%.%.P #.%.P P %.%.R  . .P G P P G K S S G P P P P P P G P  .=.b.D.D.D.K.J.K.D.G.G.G.G.G.G.H.G.G.G.G.",
"K.G.D.K.K.D.G.J.K.K.K.K.K.K.K.K.H.T.H.H.H.E.E.E.{.{.].].{.*X*X=X=X&X=X&X,XCXJXKXKXKXKXKXKXJXJXJXJXJXJXVXVXBXBXbXbXdXdXBXVXGXVXMXVXVXCXHXCXY.j.j.t.t.E H q , # v u.S.+XS.,.Z , % X 1 2 o . X o o o . o % W i.T.>XsX5XiX6X>X8XsX{.=X3XzXxX8XqX4X`.[.^ i P i K ].].;X`.4X[.-X-X*XxX8XzXxX8X8XqXxXqXwXqX-X4X3X5XaXr.: n ;.E -.N.N.a.) >.Z.N.;.;.< c v H -.) ) ) -.a & < H ;.% 2 ( ` :.y.s.h.F.C.a.h.h.>.a.y.:.R K P ) c.A.d.n.A.n.2.f.&.2.n.h.H.P K R.{.sX5X5X5X5XE.R.2X2XZ.B.H.{.E.{.].3X4X6XqX4X[.c.>.&.a.Z.zX5Xb Q.gXfXU.E ;.{.sXzXxX6X6XsXxXsXCX5XmXmXNX,X|.>XR.*X>X>XR.R.W.U.b b s.<.2.2.n.7.n.).n.3.2.&.2.n.2./ D D ] &./ / &.n.2.^ D P J H W ;.Z.H -.;.J N H H c < & i i % u u c ` U.x.R.:.%.>.-.>.%.-.a.:.H J c % .   X i J &.=.2.%.d a P c.3XqXxX6X8X6X[.A._.[.;X;X-X-X;X;X X X).`.-X X'.n.c.v.J % & X . H H % Z r.x.c.].=X}.*X2.D K d.[.[.).n.A.F.A.F.n.<.=.<.%.K P P S P H.=X>X].c.a.v.C.C.{.s.c.:.Z.C.3X3Xv.v.v.z.v.b.z.z.x.<.5.z.b.b.7.<.z.y.<.x.z.v.v.v.z.<.%.G S S K P P P P P P P P P %.=.<.5.7.b.D.D.K.G.G.H.H.G.G.H.H.H.H.",
"S.S.D.K.K.D.B.S.S.D.G.G.G.G.G.S.G.E.E.H.R.{.&X*X{.E.E.].*X*X*X>X&XOXE.R.1XHXKXKXKXKXKXKXJXJXJXJXJXJXVXNXCXCXBXBXBXjXMXVXVXCXMXcXJXJXHXHXHXHXl. .,. .E H < x v , 0 v C p p e , 0 1 1 :     .   o o X o X E g.Q.,XiXiX5X6X6X3X3X3X9X8XsXsXsX4X4X[.n.) M ) i %.-X-X-X;X;X4X8X3XxXF.C.8XxXxXxXqXqXqXqX4X`.*X3X5XgXV.> H ;.` -.g.h.d.' 2.A.N.:.-.> y b H -.) ) P -.M < u R r.> u ;.:.y.<.a.s.H.C.s.c.d.>.a.<.<.) K ) ) h.h.d.n.n.f.2.2.1.n.c.d.}.) K E.{.5X5X1X1X,XE.W.aXaX:X5XgXsX>X].].-X8X4XqX4X_.n.2.>.C.Z.xX5Xn Q.iXgX|.y.( y.H.sXxXsX5XsXNXzXAX5XsXzXNX>X{.{.R.>X}.E.E.{.{.U.N M g.a.a.c.n.7.n.).n.2.1.2.n.(.1./ d / 1./ / &.3.3./ D D P ( J c J U.J ;.` H N H N 5 % & B K & % y c ` R.g.R.<.&.) %.:.-.-.y.:.H Y H x % X   X % & t t < a &.].4XxXxXxXqXwX-X-X_.`.-X;X;X-X-X;X;X X X XwX;X'.'.-XF.C.>.S b q % H c < ;.x.s.J.*X[.[.d.^ K 2.*X-X[.).2.&.&.&.>.<.<.z.%.S K ) =.) <.=X>X*X*X*X9XxX9X*X3XH.R.sX*Xu.E.].z.z.7.7.b.z.z.z.b.j.5.7.7.b.7.<.z.a.<.z.z.b.v.z.v.v.<.%.P S S K P P P P P { { P P P #.%.%.%.%.<.v.B.v.B.G.G.G.B.B.G.E.",
"G.G.G.S.D.K.H.K.D.K.K.G.G.K.K.G.H.K.H.H.H.G.B.x.c.x.x.B.G.E.].=XB.x.x.r.:XHXJXKXJXKXKXJXJXJXJXJXJXSXCXCXCXCXVXVXVXCXCXNXCXMXMXNXMXCXCXbXpX+Xl.,.T L T U q H 2     , A C w 0 p 0 , , % # , %     o X o # Y V.W.>X1X5X5X6X,X>X,XsXzXsX5X6X5X>X4X;X_ K K P i a.3X*X-X4X6XqXqX4X-X<.].8XxXqXqXqXqXqXqX X).`.3X,XiXN.< H ;.` ` s.s.a._ a.A.x.:.` > y c b ( ( ) K ) S & a ( :.% y -.-.y.:.a.s.A.c.a.s.d.>.a.y.<.( K ) _ d.d.2.d.n.d.2.d.f.n.d.2.}.) M Z.E.{.>X,X>X5X>X:XfXgX5XaXsXsXzX*X*X3X4X3XqXwX_.c.d.h.A.Z.sX>XN iXVXCXfX5XR.Z.{.>XvXvX6XsXAXAXNXsXsXzXmX|.|.{.E.>X*X{.{.|.{.Z.i N c.a.2.n.n.n.n.).n.3.1.3.).n.&./ / &.] D / 3.&./ K D P J J H y H T.H -.( H N H b & i i 7 5 & & u i -.W.s.Z.:.-.) -.<.) ( :.:.J E Y Y u X % % . + + & K v.;XqXDXqXDXqXqXqX4XwXwX;X4X4X;X;X;X;X4X X;X;X;X'.).).).F.H.c.) J Z % v < t x.B.x.].*X}.A.) ^ 2.n.`.`.c.2.2.>.>.%.%.<.<.v.P S S >.v.c.b.F.=X3X8X8XsXmXzX5X8X].N.NXCXfXB.G.z.z.z.z.v.z.z.z.b.z.z.7.7.z.z.<.z.z.<.z.z.v.b.z.v.v.7.%.#.P S S S S S S P P P P P P P P P P P %.<.<.<.u.B.H.E.G.B.B.G.",
"j.b.B.B.S.K.K.S.G.K.K.S.S.G.K.G.G.G.B.x.>.%.%.>.-.>.>.-.:.a.x.y.<.>.:.-.,XJXJXKXJXJXJXJXJXJXJXJXJXSXSXSXSXVXVXVXHXCXMXMXCXMXCXZXCXVXgXj. .V p C L L H q q X.X @ , o.S.,.L w w e e w @ q t.X.<     X . # U V.{.>X,X,XiXsX,X,XsXgXxXsX5X6X6X[. XA.^ K K B 5 y.9X-X-X;XqX8X4X8Xa.C.qX8X4X4XwXqXwXwX'.`.).`.6X5XiXu.< H ;.( ( a.d.<.) h.Z.s.:.W > y v b ( -.` K -.D > S -.:.% 6 -.-.y.y.d.c.A.h.a.a.h.>.y.a.<.( K P >.n.d.2.d.n.n.d.2.2.n.c.c.}.M & H Y E -.-.E >.-.y.g.Z.W.5X5X>X5X5X6X8X3X-X4XqX_.d.c.n.H.A.sX>XN iXVXMXgXzXfX5X>X}.6X6X6XsXAXNXmX5X5XmXsXE.|.{.}.{.>X{.{.{.U.g.u M s.y.<.c.n.n.n.).n.2.2.n.n.1.^ 1.&.&.D / &.&.D D _ >.>.( J H N H W.H ;.R N b H i % ( >.M 7 5 5 u u ( E.u.Z.:.) ) -.>.) ) -.:.Y Y H Y H % & & & t K <.H.4XmXqXqXmXwXn.n.7.2.2.`.-X;X4X;X;X;X;X;XwXwX;X'.-X;X;X`.`.J.J.C.x.-.< p n E V.x.C.].[._.d.a.c.n.c.d.d.d.n.n.c.n.c.c.a.K S S K P z.=X>X].].*X9XzXmXzXxXsXNX>XsXs.>XaX<.G.x.z.z.z.z.z.z.z.z.x.z.z.7.z.z.z.<.z.z.z.z.z.z.z.<.z.7.<.*.*.%.%.#.P K S K P P P P P %.%.%.#.{ { P  .%.%.%.,.u.v.B.s.u.a.",
":.<.<.z.b.B.S.G.K.K.G.G.G.K.G.v.<.>.%.-.-.%.%.%.%.%.%.%.%.:.<.<.%.%.,.<.gXJXJXJXJXJXJXJXJXJXJXSXSXSXJXJXJXZXNXCXNXNXMXmXNXmXmXMXCXgX<...j.4.p * p L H % < y # @ q j.l.j.j.| p 9 w e $ V ,.j. .@   X X X n V.|.,X5X,X1X5X,XsXgX9X3X5XsX6X6X>X).^ ^ ^ B i 5 ( =X3X3X4XqX4X8X[.<.6XqX-XwXmXxXqX;X'.`. X`.[.8X5XgX;.> H ` E Y y.g.a._ C.A.s.e.;.< u b b ( -.%.J -.K 5 K :.r.> 6 ` :.y.y.d.a.N.d.y.a.s.>.:.a.y.( D R &.A.n.h.n.).A.d.d.f.n.f.2.Z.K M g.Z.R.{.Z.s.H.E.W.>X5X1XgXSXZXmX8X-XqX-X[.4X4XA.d.c.c.H.H.sX5XH iXMXMXMXCXcXsX8X}.[.>X3XxXNXmXmX5X5XzX5XH.}.}.E.*X{.{.{.T.s.:.u c a.<.>.d.c.n.n.).2.2.n.n.2._ &.(.] d / / ] B d ^ >.&.' -.E H n Y ~.J :.Y M c b u < a.}.d.' M i t 5 R Z.s.Z.:.( ) ) -.-.-.:.:.E E J E Y y & i J y.c._.[.4XqXwXxX;X/ d 7 8 8 s D 2.).'.'.;X;X;X'.).n.n.'.;X;X=X).A._.=X>X,XB.p c i.V.Z.x.Z.].[.[.`.-X-XA.c.n.A._.[.[.}.`.C.[.=X<.S K K P a.=X,X].=X3XsXxXzXzXxXxXNXZXfXW.N H x.B.y.a.z.z.z.z.z.v.z.z.z.z.7.z.z.z.v.z.x.z.z.z.z.z.z.v.z.<.<.=.=.=.<.%.%.P P K K S K G P P P P { P %.%.%.%.%.R R %.:.:.<.u.",
";.%.%.<.u.<.<.x.B.x.x.x.S.B.z.<.%.R P J J P ) %.%.%.%.%.%.-.:.<.,.:.<.x.mXJXJXJXSXSXSXJXJXJXJXJXSXSXSXJXSXZXNXmXzXMXMXNXMXfXfXmXVX+X*.4.m.l...f $ 0 H y * < .   Z S.l.O.j.4.} f } L e p L ,.,.*   . X # b V.:X>XaX:XR.W.,XsX9X*X>X>X5X5X6X4Xn.B ^ B M i 5 R <.3X8XqX;XqX4Xa._.qXqX4XqXqX;X X'.n.;X;X_.`.-X5X5XY < H E Y J y.s.:.>.C.Z.y.r.;.2 y c b E ( ( K ) K 5 J :.r.> 2 E -.:.y.s.a.s.a.a.d.d.:.>.a.:.) K ) &.n.n.f.f.A.A.d.n.f.n.d.d.[.:.( R.W.>X,XR.x.E.>X>XzX5X( R E.CXZXzX-X8X*X[.-X-XA.c.n.h.A.H.sX5XH dXMXBXCXZXCXzXxX-X}.-X8XzXzXmXmX5X5XxX5XR.}.R.}.{.].E.Z.s.:.-.u i a.<.>.2.d.n.n.).2.2.n.n.1.] 1.2./ d ] ] D d / _ ^ M i M Y J u Y U.H ;.J N b u < u R.4Xn.&.^ M 5 5 R B.s.N.:.( R ) -.-.-.:.y.( E Y Y Y 6 u E N.J.[.3X-X;XwXwXmX8./ / 8 8 d h / 3.n.).).).).(.7.n.7.2.2.n.n.n.n.F.-X4X>X3X,XJ H V.k.Z.N.C.*X*X[.4X}.[.[._.).).[.-X-X3X*XC.F.].z.) %.P P <.B.].c.{.sXNXzXsXzXNXCXZXzXcXT.c Z.aXG.y.z.z.z.z.z.b.v.b.z.z.z.7.z.z.z.x.z.z.x.z.x.z.b.z.z.z.z.z.z.z.z.<.z.<.=.%.%.%.%.{ P P G K K P P P %.%.%.P P P P %.%.:.y.",
"s a S  .,.,.*.<.:.<.<.<.<.<.%.%.%.%.R %.,.<.<.<.y.z.x.z.y.<.y.x.B.B.x.D.NXSXJXSXSXSXSXSXJXJXJXJXSXSXAXAXAXAXNXNXCXCXCXCXNXNXCXVX9X,.m.5...*...F p t p C , q .   v Y.S.4.m.m.l.4.4...f C L | ,.v   . # % b V.:X>X,XZ.Z.{.,X5X,X=X>X*X6X6X6X4Xh.D _ d i t < R J H.4X8X4X4XA.2.6X8XqXqXwX).2.2.n.n.). X`.`.{.5X2XN 2 n J Y R s.g.>.:.c.N.y.r.;.2 y c c R -.-.K ) P i R :.y.< 2 E -.y.a.g.d.A.h.a.c.a.<.-.:.-.) K &.>.n.f.d.2.n.n.d.f.n.).n.2.}.<.) R.U.>X:XZ.N.{.8XfXVX,Xb i -.5XCXAX*X*X-X}.[.[.A.A.A.d.A.A.5X1XH dXCXMXcXCXAXzXxX6X3X8X8XxXzXNXzXsX5XzX>XH.R.Z.R.F.B.N.y.<.u.:.i i y.&.&.>.2.2.n.(.3.7.n.3.&.] 3./ d / / / B / / ^ M i 8 > M J N H y.b ;.H b b c & i [.wXd._ / M 5 > Y s.s.x.-.R R ( -.( ) -.:.E E Y H Y c r.N.C.3X-X[.;XqXqXqX;X3.3.8.d / 7.3.7.2.7.n.7.7.7.(.(.).'.'.).n.n.2.7.`.*X4X3X3X:X .J u.u.Z.x.s.}.[.}.4X*X-XqXmX4X'.qX4X*X4X8XqX4X].2.P P <.a.G.H.5X*X*X5XsXsXzXCXNXNXCXNXJXg.` JXJX1Xx.z.y.z.z.7.7.7.z.2.7.7.7.7.<.z.<.y.B.H.H.H.x.x.b.z.a.z.z.x.z.z.z.z.z.<.<.<.<.a.<.=.%.P K K K K S L P K L K L K S S J P ",
"S S b C S E %.*.<.j.z.<.,.*.*.:.<.<.<.y.j.y.z.z.b.D.H.B.x.x.v.B.G.Q.D.E.AXSXJXSXSXSXSXSXSXSXSXSXSXSXAXAXDXDXAXAXNXmXmXCXNXZXSXDXj.F *.4.F F h f p f 0 t < y % # # o.#X+Xm.,.m.oXl.4.F | j...,.o.# X X # x V.:X5XW.s.Z.5X5X,X5X*X=X{.-X5X6X4Xd./ _ M i M 5 R J %.-X*X8X*X>.C.6XqXqXxXwXA.2.n.2.3.n.'.4X*X{.sX:Xc < b H Y E s.h.<.>.h.Z.y.r.;.< 2 c c Y ( -.H ) ) i ( :.u.5 6 ` :.y.a.g.c.A.h.y.s.a.<.` -.( ( ) <.2.A.c.c.d.n.n.2.2.n._.n.d.*X<.J E.Z.>X{.N.N.>XxX:XaX:XJ b J c.sXAX}.H.4X[.}.).n.A.A.d.A.A.,X>XN fXZXZXCXZXNXxXxX4X4XxX6XvXmXNXxXxXxXzX{.Z.}.H.R.F.a.y.:.y.u.:.i i <.) ) &.2.2.n.2.3.(.n.3.&.&.3.d / ] B d / / d K K ^ M 5 c H Y H E 2 ` H b b b < M }.6X2./ d i 5 & J u.x.s.%.E J ( -.( R ( :.J J J Y Y E R.R.{.=X-XA.-XqXqXwX8.3.3.'.&.#.'.2.7.n.n.n.7.3.2.(.'.'.(.'.).n.2.2.7.`.3XqX>X=X,Xy.Y u.V.N.s.s.H.3X6X-X3XxXxXqXDXmXmXmXqXDXmXxX=X_.F.<.P <.=X,X=X,X3X3X,X5XsXNXZXNXZXcXVXMXu.T.HXJXaXB.x.y.z.z.z.b.7.7.2.7.7.7.z.<.<.y.c.*XgXgX5XG.B.z.z.z.z.z.z.z.z.z.z.z.z.z.x.z.a.z.z.j.*.P L K S K P %.%.%.%.P P P L J K ",
"B.x.<.R P %.%.%.%.<.y.:.>.<.z.x.v.z.j.z.v.B.D.G.G.K.H.H.H.E.].E.H.T.G.H.AXJXSXSXJXJXSXSXAXAXSXSXSXAXAXAXmXNXNXmXCXmXE.&X&X:XR.:.L g F F f f h F f f 0 * < < u .   , T o.w $ 5.$XoX6... .S.t.k.j.#   X # u i.>X5X{.N.>XiX3X>X5X*XR.R.>X6X>X-X2.&.&.M M K 5 i y.J F.=X=XF.a.*XxXqX4XqX[.c.2.n.2.n.`.-X-X}.>X9XV.2 > x H R R s.s._ >.h.A.` y.E > y c y Y :.-.K ) ) M ( :.u.6 < ( ;.r.a.a.s.N.s.>.a.a.>.-.-.-.-.` <.<.A.n.c.f.n.n.d.2.n.).n.d.}.:.K Z.}.>X>XR.Z.5XzX5XgX5Xy.R ( -.5XSXH.) -X[.h.d.2._.n.n.A.s.}.1XH sXZXZXZXCXzXmXxX4X[.qX6X8XzXxXxX8XxXxX{.].].|.C.a.<.a.a.s.y.r.b u :.) ) >.1.f.2.3.1.).).&.&.3.&./ ] ] d d D d t d K ^ K M M J R ( E < ` N c n c < c 8X[.&./ B d 5 > H y.x.s.E Y H ( ( S J -.-.E Y Y R J u.Z.{.3X;X`.&.3.;X%X'.3.3.'.wX'.=.n.;X;X2.7.;X;X(.8.3.(..X3.3.8.3.1.&.n.;X3X3X4X3X9Xu.R u.x.x.N.Z.}.3X-X4XqXmXmXmXDXAXAXmXxXDXmXH.^ <.v.<.S M <.>XE.{.5X3X5X,X,XaXcXNXCXVXJXVX;.<XJXHXCXE.x.z.b.7.b.7.7.b.b.7.<.7.z.z.z.s.&XaXMXNXgX{.B.z.z.z.z.z.z.z.z.z.z.z.z.z.z.z.z.z.z.z.<.<.%.%.%.*.j.v.v.z.z.z.<.<.z.b.b.",
"S.G.B.<.%.%.%.>.*.<.<.<.y.v.v.v.v.v.v.B.S.D.G.G.G.G.G.G.G.H.H.G.G.E.H.E.DXSXSXJXSXSXAXSXJXJXJXSXDXmXDXAXAXmXzXmX{.-.S S %.;.;.L C f f *.6.*.6.8.} 9 = e < % p %   @       @ 5.XXm.m.l.C ,.S.+XW     # # 2 u.>X1X5X{.5X6X,X>X*X,X].*X>X>X-X[.1.&.&.B M M 5 < -.-.>.3X].C.=XxX8X-X4X4X-XA.d.2.n.).;X`.`.=X3X>Xi.< 2 c Y N -.N.d._ >.d.g.' r.W < 2 c y H ( ( H ) ( H -.:.u.6 5 ( :.:.a.s.s.h.s.:.s.<.>.-.>.-.-.` a.a.A.h.2.2.c.f.d.2.n.).n.&.}.:.H Z.R.{.>XR.U.5XNX5X9X5Xs.N N :.3XxX}.>.A.[.n.2.d.n.n.A.c.a.{.>XJ sXCXZXZXCXmXmXqX-X}.4X4X4XzXxXzX8X8XsX].>X*X*Xc.c.a.a.b.c.a.y.b i <.) ) &.&.2.2.3.1.(.n.1.3.3.&./ &./ d d d d D / / D D S P J H y.y.6 Y b b b y < b 4X[.>./ D d 5 < J :.u.s.E Y K -.( H H -.:.( E Y E R s.Z.*X-X;X`.2.n.n.=.3.3.(.(.;X;X'.=X;Xn./ 1.;X;X'.'.3.3..X3.3.3.&./ #.3.`.4X4X4X,X9XB.W u.x.x.c.H.-X4X4XqXmXmXxXxXmXDXDXAXmXmX=X^ <.J.`.z.P a P E.3X>X*XsX8X5X,X1XgXMXVXZXVXCX;.<XJXJXJX,XB.z.v.z.b.b.7.7.z.b.b.z.z.x.N.N.>XdXjXMXgXW.B.z.z.z.z.z.z.z.z.z.z.z.z.z.z.z.z.<.z.z.z.z.z.v.D.K.K.D.D.v.b.z.j.z.b.b.z.",
"D.D.B.z.z.v.v.j.D.b.<.z.b.D.v.v.D.D.D.D.D.D.D.D.D.D.D.D.D.D.D.D.G.G.H.&XZXJXJXJXSXJXJXJXJXSXSXZXDXAXDXNXmXxXgX*XR R :.E E r.j.L f ..5.m.oX8.oXoX6.F L { t   * 0 @ .   @   @ *.+Xl.l.5.$ $ L X.#     # @ < r.>X5X5X5X6X>X9X5X{.F.c.{.6X6X|._.&.&.^ K D M M < J u.R G.3X].xXxX3X-X-X-X*X).A._.`.`.-X-X*X,X>XT.;.< 2 v H b s.A.d._ >.d.N.( r.W > 2 c i H -.-.H R -.K -.:.y.6 5 ( ;.:.a.a.a.N.g.y.a.y.&.-.-.;.:.-.<.a.A.c.2.2.n.f.2.1.n.A.d.K A.<.K Z.R.{.{.T.Z.3XzXsX>X{.T.R M >.*X*XJ.A.A.F.n.2.c.A.A.A.<.-.Z.>XH sXCXZXZXNXzXzXqX4X[.wX4X4XxXxXxX5XsXsX].>X{.{.c.c.a.c.v.x.s.s.M u -.) K ) %.>.1.1.2.'.n.2.3.2._ / ] d d D B D ^ &.^ K S S ) R H y.s.< H J n c y % i *X`.&.D D D 7 & H r.u.r.R R J H b b H -.:.E E E E -.N.H.>X-X'.n.(.).8.3.8.(.8.(.;X;X;XwX;X=.d / (.wXwX'.8.3.3.3.&./ d s / 7.-X4X4X3X3XsXR.W :.u.u.N.R.*X4XqXmXDXmXxXmXmXmXAXmXxXAX9Xc.H.3X].v.x.<.<.E.,X3X>X5XaXaX5X>XiXMXJXJXCXMX;.1XJXJXJXfX&XB.v.b.z.z.z.b.z.z.z.z.z.z.x.V.|.aX2XT.2X:Xx.x.z.z.z.z.z.z.z.z.z.z.z.z.z.z.z.j.z.z.z.z.z.v.D.D.D.D.H.H.D.v.z.v.v.v.b.",
"D.D.B.D.D.H.K.D.v.z.y.v.v.D.D.K.D.D.K.D.D.D.D.D.B.D.D.D.D.D.H.H.K.K.H.E.NXJXSXSXSXSXJXJXSXAXAXAXNXAXmXmXmXmX{.J R r.r.<.;.u.,.H F m.0XXXm.m.XXoXm.l.m.j.F % @ p <   & C *   C 0X+Xm.{ $   @ # . o . # X , ;.>X5X,X5X|.6X3X=XJ.c.c._.*X-X[.`.&./ B &.K M H 5 u u.:.J >.a.c.N.Z.}._.[.3X-X-X;X-X[.*X3X3XG.<.r.W < < b N R N.N.d.&.>.h.Z.-.y.;.< 2 b b H ( ( H J :.R >.:.y.t < E -.:.a.<.a.N.h.a.:.y.>.-.-.-.:.-.:.2.A.n.2.1.f.d.2.1.n.).f.D c.<.K Z.R.{.{.R.Z.>XzX5X|.W.,XR.:.a.{.].c.[.A.2.c.2.d.n.c.2.-.` :.>XJ dXCXZXCXzXxXxX4X4X`.-X[.-XqXxXxX5XxXsX*X{.{.].N.z.z.v.c.y.a.s.b 5 ) J M K ) &.&.>.n.-Xn.2.7.3./ D / d D D D ^ K / ^ ^ M a K J H -.r.> N J n c u & c *X).2.&.) B 7 & J u.u.;.H J N i b b J -.-.J Y ` E -.R.].3X8Xn.n.'.'.3.8.8.).(.'.wXwX;XwXwXn.D / 1.n.(.3.3.3.3.3.3./ d d &.).4X3X-X-X5X9XW.( -.r.s.C.}.[.4XzXxXmXDXDXAXAXmXmXmXqXmXqXH.%.<.>.<.x.H.].5X5X3X5X5XsXgX5X>X>XgXZXJXVXgXr.uXJXKXJXcX,XG.z.z.x.z.b.z.z.v.D.J.E.Q.R.T.:XaXW.g.W.&Xx.x.z.z.z.z.z.z.z.z.z.z.z.z.z.z.z.z.j.z.z.z.z.z.v.D.D.D.D.K.H.D.v.b.v.v.v.",
"D.D.D.K.G.D.D.D.K.D.J.J.J.D.D.D.D.D.D.D.D.K.D.D.D.D.D.K.K.H.J.J.E.&XE.E.mXSXJXJXJXJXJXSXJXJXSXAXmXNXmXzXzXsX-.i :.V.:.u.S.x.T C ,.j.m.oXK.m.XXXXoXj.4.4. .* * % H % . i a . 0 0X0X5.s $ , q # o o . X . % E >X{.*X>X|.>X5X].C.D.].}.[.}.-X;Xf.&./ &.D M H u = J B.-.S R ( y.y.:.<.a.C.}.[.-X-X-X=X].s.:.u.V.E < 2 b Y s.N.A.d._ 1.h.A.-.y.e.2 6 c b M R ( K J -.R &.:.s.u < R -.:.s.a.d.A.g.a.<.>.-.-.( R -.-.y.a.A.h.1.&.d.2.2.2.n.`.A._ A.y.H Z.E.>X>XE.U.{.sXiX5X{.T.Z.s.a.N.c.d.[.d.&.f.&.2.n.2.&.&.:.K :.N sXBXZXNXzXxXxXqX-XA.A.).[.qXxXvXsXxX5X|.*X*XR.c.n.v.C.c.:.y.u.i 5 R H i M ) &.) &.n.n.7.2.3.1.D / d d D D B M i i d S S b K H H ( r.< c b c u y & i -X}.1./ M i 5 & J r.u.:.J M u H :.J J -.W H J E R y.].}.8X4X`.(.'.).).'.'.;X%X-XwXwX;XqXqX;X&.1.3.3.3.3.3.3.3.(.(..X1.] 3.(.4X3X;X-X3X:X{.:.E u.N.R.|.3XxXmXxXmXmXDXAXDXDXDXmXqXqXDX_.%.K d J a.H.H.3X8X5XsXsXfX1X{.:X|.1XMXJXZXgXu.<XGXHXHXGXgX&Xx.y.x.z.B.&X,XgXMXZXSXSXVXfXjXjXiXW.Q.V.x.x.z.z.z.z.z.z.z.z.z.z.z.z.z.z.z.z.z.z.b.z.z.z.z.S.G.G.D.D.K.H.K.b.v.v.B.",
"J.D.v.D.K.D.D.D.D.D.J.K.J.B.D.B.D.D.D.K.H.J.G.D.D.D.K.K.K.K.H.H.J.E.E.E.gXVXZXZXJXSXZXZXSXSXAXNXmXxXzXzXmXE.N J :.S.G.V.T.S.T C <.,.,.b.XX=XXX5.5.S.j.j.L * *   i N O X p * @ L L 9 @ 0 q q X   o . X . . J W.Z.}.>X-X*X3XN.-.c.].-X[.}.6X X2.3.1.>.K K H u % < s.G.x.s.*X*XC.R.A.A.H.J._.[.*X[.H.c.x.Z.V.e.Z < 2 y ;.B.g.A.d.' >.a.Z.;.y.r.2 y c b H R -.K J -.P -.-.s.u < E :.r.a.a.d.N.h.y.:.:.-.-.) R -.-.<.a.n.d.>.&.f.2.2.2.n.`._.2.A.y.H Z.R.>X>XW.R.{.sXsX5X>XN.s.s.a.a.%.d.}.2.^ d.&.n.A.2.^ >.a.i < i sXBXZXNXmXmXxXqX;Xn.n.A.-XqXxX8XxXsX3X}.>X*X].N.C.C.b.a.<.a.y.i u R M t M ) ) ^ #.2.2.2.1.&._ d d d d B B M i 8 & 5 i b b H M N ( ;.< u y 6 2 6 & u }.A._ ^ M 6 < % H ;.i.:.H i i E s.R R :.W H Y Y ( Z.}.-XxX-X`. X;X`.'.;X;XwX;X;XwXwXwXDXwX).&.3.1.3.n.8.(.(.(.(.'.;X'.3.3.n.;X3X4X>X>X,X>Xu.E y.Z.}.-X3XqXxXmXmXmXDXDXNXmXNXmXxXmXmX].<.g s S C.9X=X*X,X8X9X5X5XW.R.:X,X1XaXVXJXaXV.~.jXGXLXBXfX2XZ.<.y.B.,XNXSXJXJXJXJXKXJXJXJXJXMXOXB.j.b.z.z.z.z.z.z.z.z.z.z.z.z.z.z.z.z.z.z.z.z.z.z.z.z.x.D.H.D.D.G.D.D.B.D.D.D.",
"H.D.D.D.D.v.B.D.H.K.J.D.K.D.K.D.D.D.D.K.J.J.K.D.D.D.D.K.K.K.D.D.J.H.H.H.:X5XaXgXzXzXNXmXzXzX9X8XxXzXmXAXZXN.S J ;.V.W.W.Q.k.Z 0 | v.j.5.m.K.,.0 p 4.l.,.p , * % % N c . % < @ @   * 0 p 2 : o X # X X # . M T.N.Z.6X8X|.A.K S a.[.}.H.}.[.n.&.&.2.&.K K i > = % i s.>Xs.{.{.H.H.}.{.*XR.F.].}._.E.H.Z.G.u.H > 1 < 2 ;.s.s.N.d.) ' d.H.:.y.r.2 y v N H R ) H K -.R -.:.x.i 5 E :.r.a.a.a.h.c.y.>.y.-.-.) R :.-.<.>.d.d.>.&.f.2.d.2.n.).).d.A.:.H Z.R.{.{.{.{.{.5XgX5X5X{.Z.a.-.J ^ c.[.2.^ d.1.n.n.2.^ >.a.u + c dXMXZXNXmXNXxXqX;Xc.d.A.-X8XxX8XxX8X6X}.*X}.].A.A.F.c.c.a.s.:.b 5 J i 5 a ) K D ^ =.&.^ ^ ^ / d i d B M d d i 5 5 5 7 M S S H H J R & 6 6 2 > 5 5 5 h.d.B 7 8 5 > % J ;.g.;.b u b H R R -.:.E M Y H -.{.*X8XxX[.). X X;XwXqXxXqXwXqXwXwXqXwX).2.n.7.3.2.n.8.(.'.'.(.).;X'.3.1.(.-X;X4X3X5X5X:Xu.-.y.Z.{.>X-XqXmXDXDXDXDXDXmXxXxXmXNXmX*Xv.P S P J z.*X*X>X3XsX,X3X{.{.>X>X1X,X*X5XVX<Xg.V.<XkXjXkXiXQ.W.u.y.E.NXJXKXJXJXJXKXKXKXKXJXJXVXQ.z.b.b.z.z.z.z.z.z.z.z.z.z.z.z.z.z.z.z.z.z.z.z.z.v.S.S.B.G.H.D.B.B.B.B.D.D.D.B.",
"D.D.D.D.D.D.D.D.K.K.K.D.D.D.D.D.K.D.D.D.H.H.K.K.K.K.K.K.J.J.H.K.G.D.H.K.E.&X1XmXfXzXNXzXgX5X*X{.*XZXSXZXgX;.E H ;.T.V.V.OXk.C p C k.S.K.+X+X,.0 @ p L p * 0 0 < O % Y 6   & < @ = 0 0 ,     X X -   # : . b T.H.H.3X>X}.a.M -.[.[.A.`.[.A.1.&.2.n.&.d i > & % . . u ( T.R.N.].*X>X{.].].].].A.c.H.E.G.V.;.n < 2 2 2 E y.N.h.d.' >.d.R.:.r.r.2 y u b M R R K K ) ( &.>.N.i < R -.:.a.s.a.s.h.y.:.:.( -.( R -.-.a.>.a.2.&.&.d.2.2.2.)._.`.h.H.>.M U.R.{.{.{.{.{.5X5XsXgX5X*XG.c.-.-.C._.&.) d.>.c.n.c.%.a.s.u > i sXcXCXzXzXmXqX4X'.1.1.c.[.6XxXxXxX8X*X{.*X}.A.c.F.H.c.C.c.a.:.N < H u 5 i R M a ^ %.K B B D / d d i d B d i i i 5 & > i N b M S N J O > 2 6 % > < & ` >.i & & & O > E ;.g.:.S 5 i M S -.;.;.E H Y H -.{.,XxXxX-X). X XqX;X`.;X;X4XmXxX;X`.2.7.n.n.n.n.n.n.(.(.'.;X'.'.wX;X3.1.'.`.*X4X3X5X1XT.;.;.N.{.*X}.-XxXAXmXDXDXDXAXxXqXqXmXDXmXxXD.P S S %.%.-.B.8X5X5X5X>X{.,X5X:X,X9X{.Q.MXT.-.W i.I.V.u.W H u.u.u.&XSXKXKXJXJXKXKXJXJXKXJXJXJXgXG.b.z.z.z.z.z.b.z.z.z.z.z.z.z.z.z.z.z.z.z.z.z.x.D.G.G.G.G.G.D.D.D.D.D.D.D.G.G.",
"D.D.B.D.D.D.D.D.K.K.K.D.D.D.D.D.D.D.D.D.D.D.D.D.D.H.H.K.=XE.G.H.F.K.G.G.E.E.R.W.5XgXgXgXfXgXmXJXMXKXJXT.W ;.E E X.t.k.e.;.;.I.uXpXpX,.E ,.V.+Xu * @ % $ * q : , % . < Y % . % < %   .     # X X - - 1 X X u Z.Z.a.[.-XA.D ^ C.H.A.[.-X[.A.&.f.2.f.&.i & < > & % & & % H B.{.E.Z.C.R.R.G.R.].H.H.G.Z.x.:.c < b b q 2 E ` y.s.h.^ _ d.H.y.;.r.6 6 y c b J J S H ) ) >.:.s.c < R -.-.a.<.a.c.N.y.:.:.` -.E H ` &.<.>.d.&.) &.&.2.c.2._.`.).A.].-.M U.R.|.W.{.>X>X,X5X>X3X8X5X{.].Z.A._.d.P ) 2.d.A.c.2.P c.-.M R i sXzXNXNXmXzXxXqX`.1.2.c.[.8X8XxX9X3X].{.].}.H.A.`.M.C.z.a.s.y.J > i 5 i u M M i P ) D M d M M d i c M i i i 6 < 6 6 > u H H M u c N % u 5 > % > & % M ( u 6 < < < % Y u.V.:.R i i N -.:.-.;.E H N N :.>X3XxXxX`.`.[.'.qX2.d D D ^ &.a.2.=.2.n.n.d.2.F._._.-X;X;X;XwX;X'.;Xn.&.n.-X-X4X*X*X1Xr.J :.B.{.*X=X;XxXmXAXDXmXmXmXqX8XmXAXmX3X3X<.a S P <.E.) %.*X,X5X5X>X>X2XiXzXsX,X{.2XMXu.B.W.<XjXuXU.H <.v.<.<.1XKXJXJXJXJXJXJXJXJXJXJXKXKXJXaXG.x.v.z.z.x.x.z.z.7.z.7.z.<.2.z.z.z.z.z.x.v.D.D.D.J.J.K.D.D.D.B.B.B.D.B.B.D.",
"D.D.D.D.D.D.K.K.K.K.D.D.D.D.D.D.D.D.D.D.D.D.D.D.G.H.H.H.=X=XH.G.K.F.H.H.H.H.H.].E.G.H.,X5X1X1XaXHXJXJX2Xr.W E ;.t.e.e.E i.kXKXJXHXI.T X.X.n b , , # , , , , 1 2 % X % c J % . c 2   .   @ % X X # # : - X 2 g.N.a.d.c.&.d &.F.A._.[.;X-X2.1.1.f.f.^ M 5 < 5 > % c J b > i H K i t K :.y.>.R J ) H b t < % > u b x 1 H W :.:.s.' ' d.}.y.-.:.6 6 c 2 c H ) ( ) _ ) ) -.s.i < R -.>.:.-.<.a.N.y.-.:.` ` E J -.-.>.&.a.>.>.) _ d.d.f.).[.`.}.[.-.M U.Z.{.|.{.|.1X1XgX5X*X5XxX8X*X8X].[.c.&.1.d.d.c.2.<.) c.:.C.N.H sXzXNXNXmXxXxX4X'.3.1.d.[.3X3X3X3X,X].].].[.`._.A.n.C.a.a.u.;.Y % 6 < u 6 b c u B D M i i i i i M c c i u 6 6 < 5 6 5 < 5 i c i c H % < N N c J R R ( y.g.s.( Y i > E g.T.y.-.J H R -.:.;.;.Y N H N s.,X8XNXxX}.-X;XqX).d s t d d D &.<.<.<.n.F.=X_.F.`.`.=X`.`.'.[.-X-X-X3.&.).qX3X-X,X5XR.-.b -.B.E.].].4XmXmXmXDXDXmXmXxXxXmXSXsXC.z.<.<.%.S <.,X:.P G.,X5X>X>X5XiXgXzXzX5X>X1XCXx.*XCXJXKXKXiX2Xv.<.<.<.5XKXJXJXJXJXJXJXJXJXJXKXKXKXKXHX7XR.x.v.v.x.z.z.z.7.<.7.z.z.z.z.b.v.x.v.v.D.D.D.D.J.G.D.D.K.K.B.B.K.H.D.D.D.",
"D.D.D.D.D.D.D.K.D.D.K.K.D.D.D.D.K.D.D.D.D.K.K.G.H.J.K.J.=X=XJ.K.F.F.H.H.H.H.G.H.H.z.z.D.H.E.:X:XW.Q.gXbX:Xr.u.V.i.u.E i.GXKXJXGXBXt.X.t.X.b , # # % # , v q q q X X . X E c . < @ o . , 0 $ @ # # - # X X < u.s.-.S d M K 2.6X}.[.[. Xf.1.2.3.2.2.D K d 5 5 % < Y R c % + % + + % i J ( ( R J ) R Y R H u : : y v 2 b W ( :.d.' ) d.}.s.` ;.6 y y 2 c M -.) ^ %.) ) ` s.c < R -.-.%.-.:.:.y.:.;.r.` ` E J -.' &.:.>.>._ &.>.>.d.c.).-X[.[.*X' M Z.R.R.R.Q.:X5X2XgXsX5X3X{.*X{.J.J.c.2.a.c.d.A._.d.<.&.s.N.sXZ.H sXzXNXmXzXxXqX4X).3.&.d.[.-X-X-X8X*X].*X].F.C.A.n.n.A.c.x.:.Y H O < > 6 6 c i 5 M M i i i i i i i i 5 i 6 6 i u u i b b c M K R y.-.c J Z.}.N.c.H.s.D D g.-.i u > > ` g.U.u.:.J J ) ( %.;.-.H b N N U.>X3XmX3X;X[.;XqX&.d d d d D &.n.n.v.b.n.`.*X-X`.D.b.b.F.-X4X-X'.).n.2.n.=X3X[.=X3X,X;.E b r.E.].].].-XmXxXxXmXAXmXAXAXAXmXAXAX].v.&X,X<.a S v.z.<.E.,X>X>XsXgXsXsXgXzXaX2XjXGXu.R.CXVXcXI.V.:Xy.<.<.<.1XJXJXJXJXJXJXJXJXJXJXKXKXJXJXJXMXaXE.K.B.x.z.x.x.x.7.z.z.b.v.v.C.D.D.D.D.D.D.B.D.D.K.D.v.D.D.B.v.D.H.D.D.D.",
"D.B.D.D.D.D.D.D.D.D.K.K.D.D.D.D.K.K.K.K.H.H.H.H.K.K.K.H.=X=X=XJ.K.K.D.H.H.H.D.v.D.D.D.H.D.J.&X&XdXY.u.t.;.H E E n H i.BXKXKXGXjXuXk.e.;.W b q , 0 p q v v 0 0 - X o o X x E t % #   < ,.,.| w # # # # % # : H H M i 7 i B _ _._.`. X).&.3.1.3.3.3.D / D i 5 + u H 6 < H -.-.R R a.B.{.>X5X9X5XsX5X,X>XW.:.n : % x v c E J r.a.' ) a.}.g.` -.2 y 6 c c b ( K K _ ) P P :.i > J R E -.:.:.-.:.;.r.;.` -.( J -.` &.-.<.a._ ' >.:.d.c.A.-X[.[.*X) M Z.{.R.Z.W.:X5X5X5XsXaX,X5XZ.C.F.c.c.A.A.A.[.4XA.c.2.>.c.*XsXZ.H sXmXNXmXzXxXqX4X`.2.3.n._.`._.[.6X*XJ.}.J.A.C.C.A.c.C.Z.x.J b y > < % > & 5 6 < u i 7 i i a b b M N K -.:.:.:.r.R.5X,XN.y.:.>.-.y.y.<.a.N.Z.h.<.a.&.t 5 ^ K i 5 & 5 :.u.V.s.y.) J R R ( ;.-.N b b M {.,X5XNX[.[.-XqX;X2.&./ &.&.>.F.;X_.z.n.A.`.F.a.b.2.F.F.*XqX4X-X[.F.`.`.[.-X-X].*X5XG.b J i :.H.*X=X].3XmXmXDXmXxXqXxXDXSXJXZXAX5Xx.<.v.*.s t S P >.B.{.,XzXfXfXsXsXgXgX5X:XfXGXx.G.JXGX~.;.aX,Xv.z.5.z.aXVXJXJXJXJXJXJXJXJXJXJXJXJXJXVXMXMXCXzX9X1X&XG.y.<.z.7.z.v.D.D.D.D.G.D.v.v.v.D.H.=X=XH.D.D.K.D.v.v.D.D.D.D.",
"G.B.D.D.D.D.D.D.D.D.D.D.D.D.D.D.D.K.H.J.H.K.K.K.D.D.D.H.OX=XOXJ.H.D.D.D.D.D.M.v.D.J.=XF.K.J.J.E.iXdXuXY.e.U U U E V.GXKXHXGXiXuXpXi.;.H n Z q : , q @ q p q q # . . o : : E H = * , v j.,...V @ @   % , % @ i b M i i 7 i D _ n.'.'.1.&.3.&.3.3.(./ ^ ) M 5 > c > N y.{.5X>X5X5X*X>X8XsX5X*X{.,X8X8X5XsX2XV.U < : x x U H -.y.' ' a.R.g.` ` < 2 y c n S J M M ^ ^ K J >.i < J J E -.;.;.R y.y.;.-.( -.E J -.>.:.:.>.' ' ) ) a.2.d.).-X`._.*X-.M Z.{.W.U.|.:X5XaX>XsX5X,XsX>X3X=X_.H.[.}.[.[.*XA.c.:.<.N.*X8XZ.H zXNXmXmXzXxXxXqX_.n.1.n.n._.A.[.}.}.A.H.A.].].A.C.C.C.Z.r.b c 2 % < < 6 i H -.;.a.g.a.y.s.a.a.s.c.C.Z.].}.Z.a.N.{.{.N.a.:.) ) &.-.:.y.d.<.a.a.>.&./ 7 7 B M i 7 & < -.g.U.s.r.R R R R -.:.-.N c c H {.,XgXAX3X4XqXqXn.).n.&.1.A.).;X4X_.&.2.n.M.z.>.F.].4XF.-XqX*X*X=X[.4X;X-X*X-X=X*X*X-.i H 2 :.G.,X=X*XqXAXAXNXmXAXAXAXAXNXzXZXSXmXv.%.%.<.P a s s S >.*X3XzXsXsXgXgXzXsX>X>XfXVXV.u.CXMXr.|.fX5X&XB.v.B.aXVXJXJXJXJXJXJXJXJXJXJXJXJXJXVXcXgXMXCXCXNXaX,XB.z.x.<.<.<.b.v.v.v.z.7.<.<.=.<.<.=.=.<.b.v.K.F.D.D.D.K.H.D.",
"H.D.G.D.B.D.D.D.D.D.D.D.D.D.D.D.K.H.J.J.H.K.D.D.D.D.D.D.H.J.H.H.K.K.K.D.D.M.M.F.F.D.v.M.J.J.J.&XiX~.i.i.V.Y.~.dXiXBXKXKXKXBX~.W.T.k.W E H n , # , 0   @ , w ,     X X X < b p * @ $ C S. .C | | o.L C < . . t a K D B D ^ / / 3.(.3.3.3.3.3.3.8.(./ / &.M > & < b Z.gX3X>X{.*X*X5X8X8X3X>X{.Z.c.C.H.}.sXzX2XV.;.> > y n J ` a.>.) a.R.N.-.` < 2 2 u n M Y D 7 M K D K -.i & H Y E ( ( R c Y r.` -.( -.E Y -.:.:.-.>.) P D H J <.d.).-X`._.-X>.M Z.R.W.U.{.1X:XT.5XaXaXsXsX5XxX*XF.}.[._.}._._.A.A.<.N.].{.sXE.H zXzXzXzXxXxXqX4X`.n.>.f.f.`.A.[.}.H.C.A.a.<.s.N.c.C.N.s.E c x 6 < c N ` V.>XiX>X}.>X}.Z.C.N.c.C.c.C.H.H.H.h.-.:.s.s.<.-.) _ <.' R i M ) ) ) _ &._ D i d B i 7 7 6 6 :.g.U.s.y.-.) R %.:.;.E n c i E {.>XsXxX6XqX-X3.2.`.).3.&.`.qXxXmX4Xz.z.F.A.F.F.*X8X4X_.4X*X=X;X-X*X3X*X-X-X-X*X*XB.b u H t u.E.5XE.J.qXxXqXxXsXxX5X}.}.}.R.E.>XsX=XB.b.z.S a K K S R {.>X9XgXsXgXgXfXiX5XiXBXVX2Xr.zX>Xg.fXfX1XE.v.z.v.gXfXJXJXJXJXJXJXJXJXSXJXJXJXJXVXcXgXgXgXdXiX:X1XE.x.x.z.<.<.<.<.z.z.7.7.z.z.z.b.z.<.=.<.<.=.<.b.v.D.D.D.D.v.",
"G.B.H.G.B.G.D.G.G.D.D.D.D.D.D.D.K.H.J.H.K.D.D.K.D.D.K.K.D.K.H.K.K.K.H.K.D.M.D.%XM.b.z.D.=XJ.].,XW.V.i.~.dXjXdXfX1X<XfXgXdXiXV.V.u.U.u.;.T y q T j.,.T A w w , @ # X o X y * * 0 * @ | *.f ..l.l.j.l.j.L = @ t s a K K D D B / ] / ] 3.(.(.3.3.3.3.1._ >.^ 7 & u a.*X5X>X{.>X*X8X8XsXxX5X3X,XH.s.s.a.g.E.5XT.V.~.W 2 2 n Y ` g.>.) a.R.Z.-.` < q u b c u Y R i K ^ K D ` a & M J H Y J c % > Y e.-.( :.( J ` ` -.` r.) i R ) 6 M 1.A.-X`._.-X:.M Z.E.T.Z.W.W.r.r.x.1XgX5X9XzXsX].].}.*X}.a.) _ K :.y.c.{.{.5XR.H sXzXzXzXxX8X4X-X`.z.2.c.f._.n.A.-XF.a.>.J H R :.y.u.;.Y c y 6 6 b ` y.Z.R.}.|.R.H.[.}.C.s.a.c.}.A.C.c.a.d.2.2.d.a.<.>._ ' ' ' K i & & i ^ _ _ K D B d i d i i 7 & 6 r.g.U.u.r.R ( ) -.:.:.E b v c -.{.*XzXxX[._.z.&.n.'.'.1.2.qXDXmXDXDX-Xn.`.`.=X4X6X4XJ._.3X].F.-X9X*X=X*X3X=X=X].E.<.u b b v ;.N.E.Z.].xXDXxXsXG.y.:.y.Z.R.E.N.N.R.<.P P b.) K K S s P *XsXzXgXfXfXgXsXaXfXcXGXMXdX:.Q.G.fXmXaXE.v.v.v.B.,X>XVXJXJXJXJXJXJXJXSXJXJXZXVXCXMXfX1X|.W.|.W.gX:XD.v.z.z.<.=.<.<.2.z.7.7.<.<.z.b.<.<.<.7.7.b.b.z.<.2.7.7.<.",
"x.x.H.H.G.J.H.E.H.D.D.D.D.D.D.D.D.K.H.K.D.D.D.H.D.D.K.K.D.K.H.K.D.K.K.H.H.D.M.XXv.7.b.H.J.H.*X1XV.Y.iXCXjXiX<X:X:X1XdXcXgX:XW.Q.V.T.V.;.H 0 V.@X+Xj.,. .A p w A , .   . < * 0 p * @ p f } 6.{ ..4.,.L t . @ a t a S ) ^ K / / _ / / / 3.(.(.(.3.3.3._ >._ i > Y R.C.*X*X=X=X3X5X5X3XsX5XH.x.c.J.F.a.s.C.,XZ.u.<XuXn 2 H J -.g.) ) a.}.Z.` E < q > y > . % 5 i ) 2.&.P -.M & b J Y H < X % X b -.` ( :.( J ( ` -.` >.H H a.( % & &.n.`._._.-X:.M Z.{.Z.Z.{.g.b :.E -.>X5XsXzXxX].A.=X3XC.) <.A.M K C.N.E.{.>XZ.M sXzXmXmXxX8X4X X2.%.>.2.d.n.d.d.}.C.-.R H J R J J J c < > 2 2 c E :.:.<.s.A.H.h.h.c.d.>.>.&.<.A.a.s.a.>.>._ >._ _ &.) K ^ _ ^ D & M M & M K K M B d i i 7 5 i 7 > 6 -.y.Z.s.y.R ( -.-.-.;.Y b b i ;.{.*XxX8X].`.`.;X).`.n.&.`.DXAXmXDXDXwXn.-X;X-X4XqX3XC.C.F.J.].,X3X=X].=X,XG.N.y.s.-.u b q b -.u.x.N.Z.R.H.y.J H %.x.G.R.{.>XR.{.>.i a a ) >.S i P %.B.*X3X5X5XsXgXfXzXMXBXGXHXGXfX-.:.B.gX,XQ.B.v.v.z.v.H.,XgXVXJXJXJXJXJXJXJXJXSXCXNXNXCXCXfX:X|.:XW.1XE.B.v.v.b.7.2.2.<.<.<.<.<.*.*.<.z.<.<.7.b.b.7.<.%.%.%.#.%.%.",
"<.<.J.=XJ.E.H.=XH.D.D.D.D.C.v.b.v.D.D.D.D.D.D.D.D.D.K.H.K.K.K.K.K.K.D.H.K.K.v.D.v.b.v.G.&X*XaXT.i.aXjXaX<X2X:X:XaXfXMXMXMXfXsXgX1XW.T.u.;.H ,.t.m.oX,...} f C L 0 0 $ @ 0 p  .5.*.C 0 f *.} h  .L 0 * , % % b < M D K K _ &.&.3.3.3.] / ] 3..X(.8.3.D ^ &.i & :.{.*X-X=X].=X3X4X3X8XxX*XH.C.a.}.A.d.c.c.{.x.:.U.<X;.< v J y.s.) _ -.R.Z.-.J < < 2 y > . & u K 1.A.2.^ %.b < H H H U < % % X N ` ( ( ` E J ` ` ( ` -.' b 6 & . + &.n.).)._.[.y.a N.Z.Z.Z.W.E < H i H Z.5X5XsXsX}.].-X-Xa.K H.d.5 i y.N.{.Z.{.N.M vXNXzXzX4X-X4X&.t t &.>._ 2.>.) g.a.( H H N i 6 & % > y b ` ` U ( y.>.-.2.2.d.d.1.>.&.' ) ^ ) _.d.n.>.2.1.&._ _ ^ t B _ >.K D K M h.B & i B B B B B i 7 7 5 & 7 < 6 ` u.V.y.r.R %.) %.-.:.E v c i y.E.5XxX3X[.F.;X`.n.F.n.^ ;XmXDXDXmXDX4Xn.`.-X*X-XqX3X].].{.R.>X8X*XB.E.>Xu.J b J :.:.n c > < J Y R J >.` R H M ( u.Z.W.W.{.R.R.*X%.M S a a a M S S J.3X*X9X5XgXzXgXzXVXVXcXVXGXHXVXr.J G.&XR.S.v.v.v.v.v.B.&X{.aXJXJXJXJXSXSXSXJXCXNXVXVXMXMXcXfX1X|.:XaXH.B.v.v.b.b.b.b.7.<.=.=.=.=.*.=.<.<.7.7.z.b.7.*.P P ^ P P ^ ",
"%.>.G.=X].J.D.H.D.D.D.D.v.z.z.z.z.v.D.H.K.D.D.D.K.K.H.H.K.D.K.K.D.K.H.J.H.B.z.D.v.v.G.&X,X1X1XV.Q.2X:X<X|.1X1X1XgXMXVXMXzXzXzXNXzXaXG.u.:. .S 0 f 5.4...F C { { L T $ *  .,.5.XXm...s f f h e p 0 @ # % O . c 6 i S M B ^ 1.f.f.(.3.3._ 1.3.] 1.'.(.^ ) %.i < R.6X{.J.=X4X8X8X-X>X8X8X=XC.c.a.A.2.>.>.c.*XB.;.T.dX;.< u H y.s.%._ >.}.N.-.H > > y b u & u K >.>.>.&.) &.b < Y Y Y U u y 2 x ;.;.` ( ( ( ' ` ( ` >.-.' u . . . > &.n.).n.A.=Xa.b N.Z.V.Z.Q.J O % > c y.{.,XsXxX*X}.}.H.c.K 7 & + & :.N.R.c.}.N.H xXzXzXxX4X[.4Xh.i S a.a.) >.) H R b u 5 > > u u M J r.;.r.e.;.N > b ) ' _ _ _ _ _ _ ^ K ) K K c.F.>.M >.1.&./ D t & M _ ' ^ ) _ >.' i c ^ D B M M N i 7 5 & & 5 > 6 ;.u.x.r.<.E R R ( ;.:.Y c v n x.{.>XxX-X[.F.=X`.F.).).3.;XDXDXmXmXDXqXM.`.`.*X4X6X;X3X,X=X,X,XN.N.Z.N.;.S i b R u.u.n x < % < H Y H ( ` ( R J ;.y.x.Z.Z.T.Z.Z.T.u.M S a b P S a a b.,X].B.{.zXMXcXcXCXBXBXGXGXBXCXE x.G.B.B.v.B.v.v.b.D.D.&XR.1XVXJXJXJXSXJXJXJXZXZXJXNXcXCXjXfXjXCXSXVXE.B.v.v.v.b.b.b.v.b.7.7.7.<.<.<.<.<.b.7.7.b.z.<.=.<.<.=.%.%.",
"%.%.z.J.J.J.v.D.D.D.F.M.b.z.7.z.5.z.v.D.F.F.D.D.F.H.H.H.H.H.G.K.D.D.K.J.G.x.y.C.C.H.:X5X2X<XQ.u.:XW.Q.:X:X1X,X{.5XzXmXmXAXCXxXsXsXgXE.x.<.E a t ,.m.*.*.F { 4.,.j. .@ 0 5.M.8.m.m.*.} } f f f f 0 : % 2 & O 5 N N M S K ^ _ 3.(.(.3.3.f.3./ 7 d 3.n.&.^ ) u u >X*XC.a.].8X4X4X-XmX4Xv.<.<.<.<.<.c.A.A.].H.s.:.I.k.H < q J s.>.) &.a.}.y.;.H > > y n b i M ) 1.&.^ ^ ^ &.i > Y E Y Y v v b Y r.W ( E ' ( ( J Y -.:.:.' u . % > M >.A.n.2.d.].a.a y.Z.s.Z.:XE < . O c u.W.5XsX8X}.}.[._.c._ t + . i s.C.H.C.6XH.H xXzXxXxX3X}.4X-X}.N.C.>.H R K i > < 6 b J ` r.g.y.:.:.;.;.Y b c i & M ^ / / ) ' ^ / K ^ ) M i ) A.&.B 1.) D B d 5 d ) K B ^ ' ' >.R N R K i i c i i 5 & & + & & + < -.i.x.:.<.R R R ( -.:.J b b b x.E.*XxX4X-X`.=X;X;X-X-X).-XDXDXmXmXDXwXn.).`.-X;X4X8X3X3X{.{.N.:.u.:.Y b b P E ;.u.:.n u y u > , < i n J Y N J W :.u.g.V.T.Z.R.W.&X:.>.-.P J K S b H >.N.>.y.gXNXVXVXMXcXVXJXVXMXMX-.&XH.B.D.B.S.B.B.v.v.B.=X&XW.sXZXJXJXAXJXJXJXSXSXVXcXfXCXCXMXJXKXKXVXG.v.v.v.v.b.b.v.M.M.M.M.M.v.b.7.2.2.7.z.z.b.z.b.v.b.b.b.<.%.",
"%.%.=.z.v.J.F.F.F.F.F.v.b.z.z.b.z.7.7.b.M.D.F.D.D.F.H.H.H.H.H.G.H.K.J.J.D.x.x.G.E.&XaXaX<XuX~.~.1X:X&X1X1X:X&XE.>XgXmXmXNXzX8X3X5X8X{.u.;.H C ,.XX,.,.5.4.m.l.5.m.p @ P b.5.m.oXXX5.6.6.*.h F  .0 % u H 5 + > J :.-.<.&.^ _ / &.n.(.3.3./ 8 8 7 &.).&.K H t 5 y.{.*XC.=X3X=X4X8X4Xa.K K >.c.c.c.A.A.A.c.u.-.E W E n < 2 -.s.) ) _ s.}.-.;.H < : y c b M K ^ _ / _ ^ ^ ) u > Y J E Y v n H E ` E E E ` ( E M M :.>.r.' c 6 M c ) 2.).n.>.2.}.a.i :.H.s.Z.:X:.E u c -.Z.R.>X8X6X]._.A._.A.c.>.K i K C.Z.].Z.-XA.D sXxXxXxX3X}.4XxX8XC.Z.y.) N 6 > N Y ;.g.N.y.;.` -.-.E E H N c c ( 6 c K K K / K ^ B K ^ K M i N c.) M P M i i i i ) ^ B B K K c c i 6 6 6 5 8 O O O + . + . + + . > -.i.x.:.<.( R ( ( ( ;.H b c b V.R.,X8X4X[.`.;X;XwX;X-X).).qXDXDXmXDXwXn.`.-X-X*X-X4X8X8X{.N.:.;.-.H H H H E Y :.t.U 2 % < T H % , J -.Y b y H H E ;.r.V.Z.T.Z.G.W.W.x.B.x.<.R S b i ( ,X,X5XzXcXNXMXcXcXMXMXcXHXMXaX,X&XE.G.G.S.B.B.D.B.v.H.,XH.E.zXZXJXJXSXJXJXJXJXJXfXgXVXJXJXKXJXSXmXG.D.v.v.v.v.b.v.M.M.v.M.D.M.v.z.z.2.<.7.b.b.b.C.D.v.C.D.b.<.",
"<.%.%.=.z.F.J.J.J.F.D.b.b.7.7.b.b.7.7.7.b.M.F.H.D.D.H.H.H.H.H.G.H.].3X9X9X>X:X5XgXfXMXgX<XuXI.T.1X,X,X,X5X{.>X,X5XzXzXxXsX8X3X3X{.9X5XN.;.L L S.K.4.XXoXj.+XoXS.;.% @ %.b.m.%X%XoX8.5.6.8.*.C { S < b c i . + i ( ) <.%.K ^ D B 3.).1.D 7 8 8 & K A.^ u i u < 5 y.8X3X3X5X3X9X9Xv.%.%.<.c.F.c.z.c.d.&.:.y.:.Y H E n < c r.y.) &.-.h.A.( ;.H < : > i N M D ^ _ / &.) K R u < Y H E Y u b H Y ` ` ` ( ;.E ` H M -.:.:.` M H ) H ( 2.).n.2.d._.2.i y.].N.Z.W.g.U.;.:.W.1XR.{.6X3X_.A.d.F.[.F._.N.a.&.c.C.].A.}.N.B 6XxX8XwX3X}.-XxX-XA.N.:.J 6 u Y E Y E r.-.( -.( ( J S c c b u & > 6 c M B K B B K M M M M M i i ) M i M a i 7 7 N M i i 5 & & & + . o O O . O + . o + + + + + + + < ` u.x.<.<.) ) ( ( E -.H c u M Z.E.3X4X-X`.`.;X4XxX;Xn.2.2.;XDXDXmXmXwXn.).`.`.[.*X-X8X{.c.s.s.:.R J E Y Y E :.V.i.b : % 2 E q 2 E u.y.u.r.E N M S E ;.u.x.V.R.W.{.W.<.u.N.s.H M R -.s.>XsXgXcXMXVXCXcXBXGXVXVXGXU.:X:X&XB.Z.Z.&X:XK.B.v.v.D.&XQ.G.&XNXJXJXSXJXJXJXJXJXMXzXSXJXJXJXJXSXmXG.v.v.v.v.v.v.M.v.b.v.M.D.D.v.b.z.z.<.<.b.v.v.v.C.v.B.G.C.z.",
"z.=.%.%.<.M.D.M.D.M.b.b.b.b.b.b.7.z.b.z.z.v.D.F.D.D.D.D.G.G.G.H.H.3XCXSXJXZXCXMXgXgXfX1XW.:Xe.i.W.&X>X>XaX*X,X,X>X5XsX8X8X3X=X].].5X9XE.:.E H ,.K.+XK.L p l.7XS.p @ @ p D.=XoX6.oXoX6.*.m.oX*.0 L t J H b O . + u 5 t M M B i t _ _ d 8 8 5 8 & M <.M & < < % . ( 3X5X5X8X5X5X>XF.c.F.F.a.z.<.a.c.s.:.a.:.:.E E E y > H y.r.` _ >.N.a.( r.H 2 % % u H M B K _ / _ ) D K u < Y H U n y n H J r.` -.( :.( :.' M -.y.-.-.H J ) R ' >.n.n.d.h._.>.t s.].B.Z.W.Z.1XU.g.5XgX{.>X8X3XA.A.A.A.[._.}.}.A.<.c.C.].A.}.h.M 3XqX4X4X6X}.[.3X-Xc.a.` i > b H 2 6 c N H J H M i u i u y > > % o O + & & & + & & & & & > < < < i M M i 5 & % % < % + . . + % u 6 . o > 6 > < 6 O . > > & % O % O < ` y.N.y.y.J R ( ( E ;.J p t b x.{.,X8X-X[.`.;X;X8X;X2.2.n.;XDXmXxXqX=X2.n.n.n.n.=X4X3XN.<.:.:.W E ` H H ;.V.T.k.W 2 : , : y % Z r.;.e.U.U.g.r.( J J E :.u.N.&X:X,X1XZ.-.-.N.<.H ( N.R.Z.5XzXzXcXCXNXMXVXVXVXGXr.u.gXgX:XZ.%.-.Z.1X5X&XD.v.v.G.:XG.x.>XgXNXCXVXVXZXSXJXZXCXSXKXJXJXKXJXfXD.v.D.v.b.b.M.v.v.v.v.D.D.D.v.v.v.v.z.<.a.b.b.v.D.C.C.D.C.v.",
"M.<.%.%.=.2.7.b.b.b.b.7.7.2.2.7.<.7.b.b.b.b.b.v.v.v.D.D.H.H.H.H.].gXJXJXJXJXVXCXJXVXfX2X@XaXt.V.Y.R.&X1X5X:X*X{.Z.{.5X5X>X{.{.}.3X,X*XZ.:.%.H H E C 0 * $ q T L # . . ,  .f 9 f XXoXm.*.*.m.+XC a t b M N i . + % % & t t i 7 8 d d i 7 i 8 & & & 5 + . % % % 2 T.sX,X3X>X,XsXsX=XH.J.c.<.C.H.A.c.:.-.:.R E E H Z 2 2 E r.;.' ' >.A.:.` ;.b q : > y H H K _ _ / ^ ^ D K u < Y H H b c H E E r.` ` ` -.( y.-.K -.:.' ' K ) R ^ >.2.A.A.d.n._.>.t s.R.T.Z.W.Z.>XT.N.5X5XE.>X8X4X_.`.A.n.[.}.}.}.A.>.A._.`.c.A.>.M  X4X6X3X4X_.[.}.*X2.>.P 5 i b & X < 2 2 i M i 7 i u 6 < > > < y O . o . . . . + . . . . + . + % > u > O . o . .   . % & i i 2 6 b > . 6 n 2 y 6 > O > < < & & % + < -.y.g.y.:.R ( ( E E ;.E u 2 b x.E.*X>X=X`.A.b.`.3X4Xn.&.7.4XDXDXDXxX'.2.n.7.2.>.F.4X].a.>.( -.` e.r.H ;.Q.@Xu.W c > : # o < E H Y y.g.U.Q.Z.V.x.s.u.N.u.r.u.r.V.&XW.{.%.H J ( u i ;.N.:.R.MXCXNXNXVXVXVXfX|.Y y Q.jX1XT.:XW.{.2XaXgXaXH.v.v.B.OXQ.u.x.R.&XgXgXgXzXzXCXJXVXmXVXmXmXSXSX9XG.D.D.M.v.v.v.v.v.v.D.D.D.D.D.D.D.D.z.<.<.a.c.C.F.C.C.C.C.C.",
"D.7.=.%.%.=.<.7.b.b.b.7.<.<.=.=.=.<.7.b.b.b.7.2.z.v.C.H.J.J.H.G.].sXJXJXJXJXKXJXJXMX1XW.<XMX;.t.Q.T.W.1XW.W.{.W.R.T.E.{.{.*X5X5X3X=X&Xx.;.;. .H u * * p u % #   # X o < < @ @ } oX8.6.f 9 f F p O % a N R c . + % % < < & 7 5 7 i d B i 7 & > > % % . . > < > > V.T.s.u.-.a.R.E.>X*X>X].F.3X*Xa.-.R ( ;.E H H U < < b ;.r.;.) -.<.Z.-.` ` u y < < c Y K ) 1.&._ ^ ^ B D t > H n H v c J u.-.` ` ` ( ` -.s.:.P ' -.-.' ) >.) P >.f.).A.d.n._.>.i s.Z.E.U.|.R.>XW.B.,X,XE.>X3X-X`.}.n.`.-XF._.}.).2._._._.A.c.) i [.6X-X3X4X_.[.[._.d.>.M & N u % O % O O % 5 t 5 < < > & % X < N . > 5 & % % % % > 5 c n n H H c c i . % < 2 c y 2 < 2 u M i i u H x % x U x x x 6 O > 5 u 5 5 & + 5 :.y.y.-.:.( ( ( R E ;.E u < Z V.G.R.C._.F.n.P ^ >.=X=X7.n.4XDXDXDXDX;X7.n.=.<.2.F.=Xa.) K R r.r.u.;.H u.Y.t.X.E q : , X % U Q.X.Y V.i.V.|.~.Z.U.T.T.W.T.U.:XW.N.;.-.Z.y.:.E u > % u E J J J y.Z.Q.W.Q.N.;.H x U |.Q.W.<X2X2XaXfXMXMXaXG.v.v.B.S.&XH.y.s.N.:X>XaXaX1XfXJXNX5X&XT.Z.:XfX,XK.D.D.D.D.D.D.v.v.C.v.v.v.v.v.D.D.D.z.%.%.z.v.v.v.v.v.C.C.C.",
"M.b.<.=.%.%.=.=.<.2.7.b.z.2.2.2.2.7.2.2.2.7.7.<.2.z.v.D.J.`.J.D.=XgXJXJXJXJXJXJXJXBX2X:XdX1Xi.e.Q.W.W.T.V.V.Q.W.|.T.N.:XgXgX5X9XfX1XW.u.:.,.E P H b p u % v < # # o . % . = * 5.m.l.l.w * @ # # . O c ) c 5 o O O % > % % & i B M i 5 5 & > 5 O O O . . % < > . H u.r.( J J J H ( >.:.<.y.<.) a S H E i.;.E U < . x n e.;.-.) >.<.N.-.;.H b y > < u J J &.1.3._ ^ ^ D K u < b n Z p H -.u.y.;.-.R -.-.` :.>.` ^ ' >.-.' >.) ) 1.2.).A.f.d._.>.5 y.R.E.N.{.E.,X>XZ.{.6XR.].}.4X_._.A.`.-X_._.A.}.c.}.}._.c.a.P t |.6X3X4X4X_.[.[._.n.>.t + b & . < 6 > > % + % % > > % # % < y n % c H u u i < % t :.u.V.I.W y < u u < b H H H b p 2 2 b y u c v H E < b n n n y 6 + 5 5 i i 8 7 & 7 :.g.u.:.:.` ( R R J -.E v 2 b u.:.x.B.H.H.z.P ) K <.*X*X8XDXmXDXmXqX_.2.c.<.z.v.=XF.J i H :.u.V.V.-.E X.b Z X.H % : % . % ;.V.Y.;.Y Y p.I.pX2XW.U.Q.|.1XiX2X5XW.Q.E v b b c < t > i <.y.:.S Y S b H n b t v y i.iXV.W.<XiXgXCXBXMXfX,XG.b.D.D.B.G.OXK.j.<.j.Z.T.aXaXMXJXaXW.W.Z.V.B.>XR.C.C.D.D.D.M.M.D.D.D.F.M.v.D.v.b.v.v.F.<.%.<.z.v.b.z.v.v.C.v.",
"2.=.=.%.#.#.^ P ^ #.%.=.<.<.<.<.2.7.2.<.=.=.=.<.2.a.z.b.v.H.`.J.&XmXJXJXJXJXJXJXJXjX2XuXkXjXQ.W i.u.r.;.W Y W e.r.;.u.Z.Q.R.Z.W.G.j.B.u.y.u.-.E Y b J H q u , X o . % % @ * 0 l.oXS.j.w * # # o O % & N R N . . . % % % 6 i d M 7 5 5 5 & & O . . . . . O . X X O H r.-.H ( ;.R R E J H J R R P r.r.r.;.Y H < X % v N e.:.( ( -.<.y.( ` b n y > > i H K ) >.&._ ^ ^ B H u > n b Z b H ;.u.r.:.` R -.-.( >.-.' P ' >.&.' >.' ) >.2.n.n.f.d.A.-.5 a.Z.R.Z.}.R.5X5XH.|.8X}.{.[.4X}.C._.}.-X).A.`.}.h._.}._.c.<.K t }.-X3X4X4X_.'. X X).2.d + < % 2 Y Y N H c & . . % % # % , u b H % H ;.R H S i t t b E ;.;.H , . < q < v n b x x 2 u b c b v N n Y ;.u n H H H v y + u i 7 i i 7 & i :.N.s.y.r.-.( R R J -.E b q q Y ;.V.Z.R.H.:.J J P >.].qX8X3X4X4X4X[.2.2._.-X>X-X*X<.M c Y ;.u.s.u.W b q H ;.b # . % @   % E ;.k.V.;.H ;.i.uXjXiX~.<X1XcXcXdX>XU.W.<X;.< < c Y u.E i :.N.-.J Y r.;.E b n V.Y.2 E <XT.1XgXfXCXMXMXbX7XW.S.B.D.B.D.D.B.G.E.W.W.Z.G.:X2XfXJXaXQ.W.&X,X&X,XG.C.D.D.D.D.M.v.v.v.v.b.b.b.b.z.b.b.7.F.<.%.%.=.<.<.<.<.2.z.z.",
"2.2.2.2.<.=.%.%.#.^ ^ ^ ^ %.%.%.^ #.%.=.%.%.%.=.<.z.a.<.z.v.M.v.H.mXJXJXJXSXSXJXJXdXuXjXkXuXI.p.i.I.Q.~.~.I.V.I.i.V.X.b c H J b t v b H E u.;.E Y H Y v u y % #   . % X % , < L t.j.L $ , % # # O + + 5 R i + % X X % u b M i i t 7 t & + + . & & & % O O + + . % O u J -.:.-.-.y.y.<.y.y.a.c.c.u.%.Y J b < . X : x H e.u.( >.-.a.:.R R u n y > > i H K ^ &./ / ^ K a M i < b x n n E ;.r.r.:.` R -.` -.>.-.-.K ' >.>.' >.&.&.2.2.n.n.n.c.F.-.5 a.N.R.U.{.R.5X5XA.{.sX}.|.}.4X}.A.}._. XA.n.[.[.h._.}.}.n.<.K t _.*X-X4X6X_.'. X_.A.d.) & . % b Y E H J Y H u < > < y y u v v n % H :.-.R R J S H Z i t q < < 2 2 p < u y 2 < u t t b b H b b n Y ;.u n H H H n u & i i i B d 7 & i :.N.N.u.r.W R R ( E ;.W b u % y u.U.T.G.Z.:.H J -.R B.xXH.%.2.2.n.c.2.c.}.4X].].a.b b H J H H J b < < H H p % . @ % u < * H X.u.T.V.u.i.i.@X1X2X1XdXaXCXVXVXcX1X2XfXZ.c u n ;.u.;.b ( R J -.R.S.n H I.fXJXaXW y e.Q.@XiXCXVXBXjXfXaXQ.B.v.v.v.b.v.v.v.v.B.D.&XOX:X,X1X5X9X5X:X,X,XE.G.x.z.z.z.b.v.v.b.b.b.b.z.b.b.7.b.v.M.7.7.=.%.%.%.%.%.%.%.%.%.<.",
"=.%.%.%.%.%.%.%.<.=.%.^ ^ #.%.%.K K G ^ %.=.=.=.2.z.z.<.7.7.2.<.y.gXJXSXSXSXJXJXVXbXgXdX<X~.~.uXhXkXjXbXBXbXkXjXGXdXW 2 H 2X1X;.c ,.j. .b b S H Y H H u 2 y : X o X X X q q 0 q p 0 * @ # # , , X % + % i c O . . o % 2 u i 7 8 & 8 & + + & & t i M M M H M u % . . % & i H R -.%.P ) >.>.>.>.R S S b i > . X - 1 v T e.y.( -.-.a.%.( J u H x > > c H P ^ &./ / ^ K i M c < x < x n E -.;.r.r.` R -.-.:.:.-.>.B ) 1.>._ 1.2.1.d.2.).).A.n.}.>.5 y.Z.U.R.{.E.5X6XH.}.5X].|.[.4X}.`.[.). XA.h.`. Xc._.}.}.n.d.^ 7 H.*X-X4X4X_.'. X).A.d.<.M & u J R ( H Y R H H H n Z H b x u u c % S :.:.%.-.( J E Y H ;.H p n H q Z < < t 2 y y t i b b b u b H H ;.y n H U H n c O N J 7 d d i & i :.s.s.r.:.E R ) ( E ;.W b y > > E i.Q.T.Z.r.b S R J -.G.<.&.^ ^ &.<.d.C.J.].3X8X:.< i c i y t < > < b :.c @ < = < C P E a 0 L r.i.Y.<X@XW.aX1XW.1XMXMXGXHXGXfXuX1XQ.V.Y Y Y Y Y J i M R <.E.7XY Z V.dXBXMXVXgXx.W ;.<X2X@XdXBXbXjXfX,XK.D.M.M.v.M.K.B.b.v.B.B.v.v.S.D.v.v.v.B.B.v.z.<.<.=.*.<.<.7.7.2.2.7.2.7.2.2.7.7.z.7.<.7.<.=.=.=.=.%.%.^ %.%.%.",
"%.%.#.^ ^ %.%.%.%.%.^ ^ %.%.%.%.=.%.P P ^ %.%.=.<.2.<.<.z.7.<.7.<.9XSXSXSXJXJXSXzXaXiXiX~.uXhXuXlXuX~.i.W T i.hXhXW 2 y k.JXBXnXu. .G.:XV.Y u < p b v 2 : 1 # o X X o : q x m m x , : : # X 1 2 > % O > M J > O O . . . . . + 8 t i 7 8 7 d M K ' >.d.F.F.d.>.) u & & % + = t a S M a M a s i i t t & O . X : 3 x m W e.;.( ` >.u.E ( S u H x > > c J P _ &./ ^ ) ) b N c > y : 2 b Y E -.r.a.` ) >.` :.>.>.>.M K 1.1.&.2.f.d.n.f.)._.).A.}.>.5 y.U.Z.H.|.{.,X6X}.}.3XA.}.}.4X[._.[.[.-X).n.). Xc.`.[._.n.n.) 5 A.*X3X4X4X).`.'.`._.d.d.&.K ) %.( -.J H H b b Z Z b b u 2 < t b % H y.:.%.-.%.P P  .E J t H ;.b < S u < u p b u t a C H a u u H H ;.2 n H U n v x . N N.D i i t 8 M >.y.y.:.r.-.( ( ( R ;.W n x 2 o < E T.:XV.R b Z J J -.c.>.:.%.P S M M S -.c.{.,X-.< y 2 6 2 < 5 i M y.Q.u.b = p t s F %.C 0 v ,.u.x.Q.W.aXgX:XQ.1XfXjXMXGXVXGXaXQ.;.E H E r.J R Y H N N.{.9Xu.2 ;.1XW.~.~.<XfX2XQ.&XW.V.<XiXdXBXMXfXgX,XH.M.v.M.M.b.7.z.v.y.<.<.=.%.=.<.<.<.>.%.%.=.*.=.=.<.<.<.<.<.<.=.=.=.=.=.=.=.=.%.%.%.=.=.%.%.=.<.=.*.%.%.%.%.",
"#.%.%.#.^ #.%.%.%.%.%.#.%.%.=.<.z.2.>.#.G P ^ #.%.%.=.<.z.7.2.2.2.9XSXSXSXSXAXgXaXfXfX<XQ.uXuXi.Q Q U Z n Z T X.n n t.u.Y.aXgX2XnX,.t b H Y S < < u q , , , X X # X # , 2 q m Z m v : X # X : 2 2 . . % H Y < % : X X O . & B &.1.1.^ ^ ^ &.1.n.n.A.`. X[._._.}.s.-.K M S a t & & i t 8 8 & = = + = & u 2 X 2 2 k m e.e.` ( ) :.:.R E b u Y y % > c K J ^ ^ ^ / ^ ) N H u % 2 , < x Y Y ` r.s.-.R >.` :.:.>._ M K 1.1.&.2.n.n.A.n.(.).).A._.>.5 y.U.N.Z.{.|.,X5X}.].3XA.H.H.3X-XA. X-X XA.A.). Xc.`.[._.A.H.>.5 A.*X3X4X4XA.).`.`._.c.d.2.>.<.-.>.:.J M H H H n b u u u u q u b = H y.-.R %.%.E  .%.H p u ;.E 0 < b p < 2 p b p s S E ;.H u p n H E < b n H b x x O 6 {.d.7 5 7 & M :.s.s.:.r.-.( ( ( R -.W n x x X o < H ;.Y b b b b J Y b t a S P J S c t t i N H c < < < 6 2 u M J ( %.>.:.P a t = = a f a F p H y.j.V.T.W.Z.i.x.2X2XiXdXBXCXjX|.;.J J H N J N r.:.R N ( E.:Xu.E H U E T n W u.&XH.T.&XQ.:XW.1XjXzXfXmX,XD.v.b.v.v.7.=.%.P P P %.*.*.%.%.*.%.=.%.%.=.=.=.<.5.<.=.=.=.<.<.<.<.<.<.2.<.<.=.=.=.%.%.%.=.=.<.=.=.%.%.^ ^ ",
"%.%.%.%.%.%.%.%.%.%.%.%.%.<.<.z.z.z.z.<.%.%.%.%.%.%.%.=.<.<.<.<.7.`.DXSXDXxX9X3XzX,X@XY.W n U W I.~.pXbXgXY.L @ p K.7XQ.B.z.K.,X+XS.L p < 0 0 q y p v v v x , . 2 X : 1 q k k m ! x 3 - % # # # : > % % u H >   > > > > O b c.c.1.&.&.2.n.n.n.n.`. X[.[.[.[.-X[.}.*X}.[.6X[.F.F.n.[._.v.A.A.2.^ S &.c.E.Y % q 1 k ! e.e.-.R R -.E J H c c W u < > i H K K K ^ D D K N H 6 O y 2 2 b Y Y ` r.s.>.P -.) :.>.>.' D ) 2.1.1.d.n.n.).n.).).A.A.).>.5 r.N.g.Z.}.|.1X5X[.}.-XA.F.F.-X-XA. X[.[.n.n.). Xf.[.-X`.A.`.>.t A.[.3X4X4Xn.A._.).A.v.a.<.<.<.&.<.-.H H b c x v c q q q u y p c % R s.:.( ( R J S E C t L :.p . 0 u t < < t u i b %.:. .b u b H n Y < x n n n v c O & g.:.& 8 7 & M :.c.s.:.<.-.R ) ( R ;.W n y x - X X % < > > 2 u < u t < & + < b K J J H a i 5 6 u c c b J ( :.a.a.c.2.v.<.) P t t s a s < = 0 t ;.V.Z.G.B.:.r.i.W.:X1XgXdXpX:XV.E n E E Y J R U.}.a.-.H u.V.j.aXV.H n W u.W.Q.OXS.K.OXG.R.:X:X1X9X9X9X=Xv.v.v.b.b.v.<.P G P %.%.%.%.%.%.%.=.=.*.=.=.<.=.=.=.=.=.=.<.<.<.<.<.=.=.<.<.=.=.=.=.=.=.=.=.<.<.=.=.=.*.%.%.",
"<.<.<.=.=.<.<.<.=.<.z.x.v.v.v.v.z.a.2.<.<.=.<.=.%.%.%.%.%.=.2.2.2.v.8XAXqX3X3X9X,XOX:XV.v Z Q.BXbXBXgXfXaX+X,.s p F P %.L *.j.v.0XS.K.C C S t < 0 p v v Z H q : v . 1 1 x n x m m k : X - # X % # < v p H b < # < < % > > J c.2.2.n.).`.).n.n.n.-X-X-X[.-X;X4X*X3X4XxXqX-X-X4X4XqX4X4X4X-X;X4X[.).*X=XC.J > < 2 2 n e.e.-.J ( >.R Y H c c ;.y > > i S K D D K D M H N N < X y x x n Y E ` r.g.>.) &.) -._ >.>.^ _ 2.1.1.f.n.f.).(.).).n.n._.>.5 :.s.s.U.R.{.6X6X|.].*XA._.}.4X-XA.}.).[.).n.A._.d.`.-X`.A._.>.t C.[.3X4X4XA.n.`.[.n.n.2.<.<.>.<.) ) H H b u u x u q y y p p p p % R N.<.-.%.) R J S t 0 L b < < < < < t t < u t J %.Z p 2 u b n b H > y v b n v c O + Y s.i & 5 & M :.s.s.-.<.-.( -.:.-.:.;.H m m : X : % < > < y c u b i M R J R R R J ( R b N < < 5 b Y g.Z.5XxXAXxX6XqXqX4X-X=X<.S t 9 t t 0 < p r.V.G.V.Z.u.r.x.:X2X2X1X1XiXW.V.t.H ` Y -.g.>X_.R.N.<.R M ;.:.Q.2XI.<XjXfX1XE.B.B.B.B.D.x.B.B.G.G.v.v.v.v.v.v.b.z.<.=.=.%.*.%.%.%.#.%.=.=.=.=.=.<.=.=.=.=.<.=.=.<.<.<.<.=.=.=.=.=.<.<.=.=.=.*.=.=.=.<.=.=.=.<.<.<.<.",
"D.M.v.v.v.v.v.v.v.v.D.H.J.H.D.v.v.b.z.7.<.<.<.=.=.>.%.) %.<.%.<.<.<.C.3XJ.9X9XJ.v.OXOXG.j.OXbXnXbXCX9X7X9X0XD.b.*.5.5.b.D.=XM.=.XXS.m.a  .m.,.L p < p p C L q u u . : 2 x x m m m x q # . # , % q j.gX7X2XV.| 0 , , < , b y.2.n.`.`.n.).`.n.).'.[.[.-X-X3X4X3X6X8XxXxX8X3X3X4X4X;X4XqXqX-X[.`.-X`.-Xc.) N < 2 2 k Z e.X.E Y >.( H Y c b c ;.2 & > i M H M K D d M H c c > . x x v H E E ` r.N.( ' &.^ &.&.&.2.) 1.f.1.1.f.n.A.).).`.).A.).A.>.& :.:.g.H.Z.}.>XvX[.}.3X[._.[.wX4XA. X`. XA.1.).`.2._.-X).F.A.2.t A.|.6XqX4XA.).-X`.F.c.c.2.=.%.) K K H b p c y u H n n H n b p b & %.u.>.-.%.K S S b 0 < p & & t < < p u b i < t b t < y y u c b b U < u q x x y 6 O o 5 r.M & > & N -.s.:.-.:.<.( a.y.:.r.e.U Z n 3 o , b H U E E E ` ;.%.;.( -.:.-.-.-.:.:.E J i 5 b y.Q.sXCXZXAXxX-X;X`.8X4X=X-X=X=.a = s t t s S ,.u.T.Q.W.Z.i.u.T.OXW.Q.W.@X@XT.T.Y u.Y -.B.A.s.:.N.c.%.t S V.Q.aXQ.V.1XaXaXE.D.B.v.x.v.v.v.z.v.b.v.v.v.v.z.z.5.7.<.=.%.%.%.=.=.=.=.=.=.=.=.=.=.=.=.=.=.=.=.<.<.<.<.<.<.<.=.=.=.<.<.<.=.=.<.=.<.<.<.=.<.<.7.b.b.b.v.",
"D.M.C.B.B.B.C.D.D.D.=XH.=XG.H.D.D.D.M.b.7.<.2.<.<.z.a.%.%.) =.=.<.>.<.b.b.H.v.D.J.=XB.G.S.OXfXgXBXfXgX0X0X9X0XXXXX0X=Xm.K.=X=XM.m.XXm.f t { F *. .0 * p p q < b < % : 1 1 k k n m n k , # # , q Y.nX7X+Xl.,.j.T # , < & R c.c.`.`.`.`.'.'.`.'.-X-X;X4X3X;X4X8X9X8XqXxX8X6X4X4X4XqXqXwXqXqX-X[.;X`.n.) ) R i : , 2 Z e.W Y Y -.R N H c c b y.2 > 2 i N H D D S M H N i u : . x x b Y E E ` :.N.) ) ) K _ _ &.1._ 3.f.1.1.f.(.(.).).'.).).).A.>.5 :.:.s.Z.h.Z.|.6X|.}.3X}.).[.wXqX).4X[.`.n.2.).).1.).-X).A.F.2.t A.[.3XqX4XA._.-X`.F.d.2.<.%.%.%.P M b b p b v v H Z H J H H c a & -.a.:.>.%.K S J H t = = = < < < < p t u S 2 y y 2 < y 2 2 y u n H < u 2 , 2 6 2 % . . M M > + % H ;.y.r.y.y.>.>.y.y.:.:.;.H n n : - v Y ` ;.r.;.y.x.Z.T.{.{.R.{.{.R.N.y.;.R R ` r.B.5XzXCXAXNXmXF.2.`.F._.n.z.n.d.<.=.^ S 0 = u p ;.u.j.S.Q.S.V.;.u.:X:XT.Q.W.Q.~.1Xr.V.;.H R K R ' y.-.) ) S ;.Q.:XV.u.r.U.:X{.G.v.v.v.v.b.z.b.7.b.v.z.b.x.a.<.<.=.=.=.<.=.=.=.=.=.=.=.=.=.=.<.<.<.<.<.<.=.=.=.=.=.<.<.<.<.<.<.<.<.<.<.<.<.<.<.<.<.<.<.<.7.b.v.v.v.v.",
"M.M.M.M.M.M.D.D.D.D.G.v.,X&X&XH.F.F.D.M.v.b.z.z.B.B.v.<.%.%.%.%.=.>.b.D.<.<.F.0X9XXXK.K.K.+X:XnXaXgXnX,X=X0X0X0Xm.K.0X9X=XXXXXK.m.j.j.g F F F F L t @ * * % O Z < < < 2 q k x I Z m m % @ , # v S.t. . .| f A ,.< * % > -.c.v.F.[.[.-X-X-X'.[.`.[.;X4X3X>X3X9X8X8XzXxX8X6XqXqXwXqXqXwXqX4X`.`.A.2.1._ <.<.R 6 < q U e.T Y Y E H N N i i n u.2 % 2 u N S S M M M N c y 6 % . y b n Y E Y ( >.s.( ) ) K ' _ >.2.&.f.n.1.1.2.(.(.(.).'.).).).n.>.5 ' >.a.A.s.a.|.4X[.[.3X}.A.}.4XqX_.wX X).n.2.n.n.&.).'.`.A.n.>.t H.[.>X4X4XA._.-X`._.c.z.<.%.%.%.J M S b p p v C b b Z H H H b b & -.c.<.%.%.P K S J b < < u p 0 t u b i b S b u u y < 2 2 2 2 2 x n < y > X : 2 2 % X o + + . + % S :.r.-.>.s.a.:.<.:.:.r.;.Z b x : x W u.V.R.W.iXgXsXzXzXmXzX5XsXxXsXsX6X{.R.R.>XsXsXzXMXZXmXzXxXz.&.2.n.n.n.n.[.-XA.`.3XC.%.E b u ;.V.V.V.V.Y.W.i.t.W.@XV.Y.@XT.W.:Xr.x.x.b u u K &.c.a.<.a.J u k.Y.;.H n i.1X1XE.B.v.b.z.M.M.M.7.5.<.<.a.B.G.<.=.*.=.=.=.=.=.=.<.<.<.<.<.5.5.5.7.5.<.<.<.<.<.<.<.<.<.<.<.<.<.5.<.<.<.<.<.<.<.<.<.5.5.7.7.b.v.v.v.v.b.",
"M.M.M.M.M.M.D.D.D.v.J.&XE.=X,XD.F.F.F.K.J.H.D.D.H.:.v.z.<.<.%.=.%.:.OX3X>X=XM.D.=XK.m.S.,XOX1XOXj.7XgX0X0XXXXXK.,.7.0X7XXXm.K.+Xm...F f 5.5...L L t = p C p = S < % % , n I m x l q q , , * , 0 C p A | C w V L , % @ u s.C.].`.4X-X-X;X-X[.[.`.[.*X*X3X3X3X9XsXxXxXxXxXxXqXqXxXqXqXqX4Xd.^ >.2.3.1.1.h.a.-.c > 2 U e.U Y Y J N N b i u N i.6 % > y b b N N M i u y 6 y : . y n n Y Y J ( >.s.) ) ' ^ &._ >.d.2.n.n.1.1.3.n.n.(.).'.).).A.n.&.& ) -.a.N.<.( }.8X[.[.-X[.A.}.4XqX).4X-X_.n.2.2.A.^ n. X'.A.n.>.t H.[.-X4X-Xn.).'.).A.2.<.%.P P K S a S b u t c b b b H Z S b C H < -.s.<.=.%.) P P J S t t a i t u b S S H b H i u u < 2 2 2 2 q x b , < > X : : 2 % o . X . . O 2 H :.u.E ( u.y.:.:.-.:.y.W b v 2 n i.~.uXaXfXsXzXsX3X8X8XsXzXxXxXsXsXxXxXxXxXzXzXxXsXxXNXmXsXxXxX[.c.>.2.[.qX4X4XqX;X*X=XJ.E.G.%.H :.T.Q.V.S.Y.Q.W.S.u.t.k.Q.@X@X@X:Xu.V.|.J b t S ) 2.<.%.P P J T r.Y H ;.Q.aXaX{.H.H.b.v.b.7.2.<.=.%.<.B.:XE.<.<.=.<.=.=.=.=.<.7.b.b.7.7.7.7.7.7.5.5.<.<.<.7.5.7.<.5.<.<.<.<.7.7.7.5.7.7.7.7.7.7.7.7.7.b.v.M.M.M.M.M.",
"M.M.M.M.M.M.M.D.D.D.B.H.E.,X=XG.D.D.D.D.H.J.G.T.E.:.B.v.x.<.7.<.y.E.,X9XJ.9X3XH.K.j.j.S.:XT.V.:.;.2X7X0X0X0XXXm.m.b.XX9X9X,. .j.j.*.s C ,.{ F { g 9 s *.,. .s u & X : : m T Z v Q t.t.,.L , v p w * w A C p p e $ , % H N.G.{.*X-X}.*X-X-X*X*X-X-X}._.-X8X5XsXxXxXsXsXxXxXqXqXxXqXqX'.2.^ / 1.3.n.f.A.d.<.:.Y < < n W U Y Y J N N i c i H N.u % > 6 c b n b c 6 y 2 2 6 : . 2 n b H J J ( -.d.' ) ' _ 1.>.1.f.n.).n.1.1.1.2.f.n.(.).n.(.n.n._ & ^ -.<.n.:.K }.4X[.`.-X X).}.4XqX).;X4X[.`.(.f.n./ n.`.'.).n.>.t A.[.>X6X-Xn.A.`.`.A.2.<.%.P P J S b H b b b J  .T E E H Z b H R t :.c.<.>.=.%.^ ^ R S b a a i a b M J J J H b M t y 2 y y 2 2 q q c , , % . X % : X o # % . . . % H r.u.-.E :.-.-.<.:.:.r.Y c v 1 e.dXjXfXfXsX8X8X3X5X8X8X8X3X6X5X4X8XsXvXvX8X4X8X-X6X8XsXsX8XxXxXmX-Xd.n.;XxXxXmXxX4X-X-X*X3XC.J E r.V.Y.I.Q.OXQ.I.@Xk.;.t.~.@XV.@XaXV.V.:XY b a D %.a.>.%.%.%.u.b J J E u.Z.zXZXgX9X5XC.c.2.<.=.#.%.<.B.G.R.Q.<.=.=.=.<.<.<.<.5.7.b.7.7.7.7.7.7.7.2.2.<.5.7.7.7.5.7.7.7.7.5.<.7.7.b.b.7.7.7.7.7.b.b.b.v.v.M.M.v.v.v.M.",
"M.M.M.M.M.M.D.M.B.D.D.B.B.H.=X,XJ.H.].H.K.H.S.K.B.u.B.K.v.x.b.z.D.,X,XK.=X3X=X,XJ.K.K.T.S.j.E E S.T.+X+X7X0Xm.oXm.K.m.0XnXj.s C L f p  .*.F *.} f f F { { *.p t % . : : : q 1 C Y.Y.S.S.,.L V V p $ $ w | l.l.T * # X H -.c.*X*X{.].}.*X*X*X*X-X-X`.A.[.6X8X8X9X9XgXxX8X8XmXxXqXqX4X2.^ 1.n.n.f.n.n.`.2.>.s.y.u > n E U Y Y J N H c b c E N.c % > < c b c u 6 6 u 2 2 2 : o 2 n n J R R ( ` s.-.) _ &.d.1.3.(.(.).(.1.&.3.2.f.n.n.(.n.A.n.f.' & ^ >.>.A.2.K }.-X`._. X-XF.`.4XqX).;XwX X-X;Xn.n.D 3.n.n.A.c.&.7 N.[.>X6X3XA._.[.n.n.2.<.%.P P J S b J b S E <.y.:.u.u.%.L C J %.t >.c.<.>.&.%.^ K P K S S S a b S b P P P J a H c p y u u u q q 2 b < > # . X X X X @   . # . % : U ;.Y Y Y -.-.-.y.y.:.;.Z c b 2 I.GXVXCXzX6X-X8X3X4X8X4X8X-X-XqX-X}.-X4X8X8X8X}.F.[.[.|.3X8XxXqXxXwX X;XwXqXxXxXxXmXqX3X*X}.N.R -.;.i.Y.S.Y.Q.V.k.OXW.V.k.V.V.k.:XfXY.V.2XW b a K P %.^ %.<.>.P ;.b i E :.Z.NXJXgXsXsX>XE.<.<.<.<.<.=.H.<.R G.<.=.<.=.=.<.<.5.7.7.7.7.7.5.5.7.7.7.2.2.5.7.7.7.7.7.7.7.7.7.7.5.7.7.M.M.M.b.b.b.b.v.M.M.M.M.M.M.M.M.M.M.",
"M.M.M.M.D.D.D.D.D.H.D.B.E.H.H.=X,X&X=XE.H.OXW.+XT.7X,X:XD.v.7.v.OX,X9X=X9X=X=X=X,X:XOXj.V.2XT X.7X+XK.+X0Xm.{ XXXXoX5.S.7XK.C F L C p { *.} } f f F { F L L < & > X % : # # @ p t.,. .,.t.o.C | +Xj.e w oXoXS.l.T @ @ Y R y.R.R.E.R.}.[.*X*X[.-X[.`._.`.-X6X3X-XsXsXsXzXxXxXqX4XqX`.d.n.).).n.(.).n.).f.n.A.g.c > Z W U H Y Y N N b N i ` N.u % > 2 c b c 6 2 6 y y 2 2 : . y H H Y R R ) ' s.-.^ &.>.f.2.2.).(.).(.3.&.3.n.3.n.n.(.n.n.f.f.' & K -.&.A.d.^ _.[.A.A.[. Xn.).-XqX). XqX X;XwXn.n./ 3.2.2.c.2.) 5 d.[.6X6X3X_.[.[.).).d.2.<.%.%.L L S H H %.x.B.x.x.B.x.u.:.E E %.t %.<.<.<.<.%.P K ^ K S S a a b S a P P J K b M p u p u y c u c u b > X X o X X X X X   q W ;.X.X.W n b H H R :.%.:.<.:. .C b b v W.MXfXzXsX3XqXxX4X-X-X-X;X-X;X-X).).-XwX4X6X-X}.F.}.H.}.-X4X3X4X4X4XqXmXxX4XxXxX6XxXqX[.*X*Xa.a i c H U E t.V.,.S.Q.V.V.V.i.;.i.Q.W.V.i.1X;.b S G i a d ^ <.<.) B.i i ;.y.Z.NXNXJX,XzX5Xs.B.].B.D.D.v.=Xx.;.x.7.<.v.<.<.<.7.7.7.7.7.7.7.7.7.7.7.7.7.7.7.7.7.7.7.7.7.7.7.7.7.7.7.7.M.M.M.M.M.M.M.M.v.v.M.M.M.M.v.v.v.M.",
"M.M.M.M.D.D.D.D.H.D.D.H.D.D.G.H.&XB.x.u.z.T.E.OX&X,X,Xz.&Xv.v.OXK.=X=XOX=X9X,X7X,X:Xu.i.OX@XW t.Q.Q.S.m.+X..f 8.m.8.j.4.XXj.F 0 a s f f f f { F f }  .p 0 0 @ % < % % % % % @ 0 t.S.l.S.#X4.V o.#XoXL e l.oXt.l.l.# , e.u.N.R.*XR.R.].[.*X3X-X;X[.-X-X[.[.4X3X}.sXsXgXxXxXqX4X;X*XA.).'.).`.).n.).'. Xn.A.H.Z.N > H W U N Y W H N N N u ;.N.u > < y c b u y 2 < 2 y 6 y > . u Y Y Y R R ( -.g.-.K _ &.d.d.2.).n.(.(.1.&.3.n.2.3.n.).n.n.f.c._ & K -.&.A.d.^ A.).n.n.`.[.n.A.-XxX).'.qX;X;X;Xn.n._ 2.2.1.2.>.) 5 d.[.6X6X-X_.[.'.).).n.2.>.) %.P P b C P <.j.x.Z.B.G.Z.G.Z.u.;.%.t %.<.>.%.=.%.P P %.P K S a b S b b P %.S J b b b p a i c H c u b b > X X o 2 n V ,   # v X.k.V.Y.H v E ;.b H :.-.-.<.:.E Z n x b 1XCXcXzXxX8X4X-XA.c.[.-X-X-X-X[.).}.4X4X-X-X4X-X[.|.A.H.}.-X3XqX4X;XqXzXzXxXxXxX3X3X-X[.3X8X3XJ i p p b E j.k.,.S.k.u.e.k.k.r.t.V.k.u.i.7Xr.S *.P s g s ^ %.2.%.<.;.b b u.:.E.NXzX3X5XsXZ.H <.%.S -.9X9XK.OX;.v.7.F.5.7.7.7.b.7.7.7.7.7.7.7.7.7.7.7.2.7.7.7.7.7.7.7.7.7.7.8.b.b.b.b.M.M.M.M.M.M.M.v.v.v.M.M.M.M.M.M.M.",
"M.M.D.D.D.D.D.D.M.M.v.v.v.D.D.B.G.1XB.r.;.;.K.E.+Xj.P E +XE.S.7XmX7XK.OX7X7X=X&XG.;.j.OXW.k.X.Y.@XT.+XS.j.F f XXoXm.5.l.,.} F *.S.5.%.s 9 f h { ,. .j.p # . % % c % < > % % ,  .S.S.$XS.j.O.A S.S.#XoXf l.l.o.|  ., > u.N.N.s.=XR.}.*X}._.[.[.[.).[.[.[.-X-X*X8X5X3XsX8X8X6X-X_._.).'.'.).'.'.). X;X;X`.A._.*XR > n W U U Y Y H J N c u ;.x.u > 2 < y u 6 < 6 u u u u c < . b Y Y Y E Y E J E y.P ' _ 2.2.2.(.(.(.(.3.3.3.3.(.(.(.(.f.(.d.d._ & ) -.>.A.2._ ).).n.n.).;Xn.n._.qX(.'.wX'.'.;Xn.)._ 1.1.&.f.&._ 8 h.}.|.[. XA.[.`.A.).n.z.2.%.%.%. .S p H :.:.j.S.H.E.Z.G.B.N.r.J < E -.) %.%.P P K P K K S S a M S S S J J H b u i b b a b M t i b n , . . < ;.k.l.t.w w  .o.X.T v C ;.X.;.H -.r.( ( -.;.T Z n 2 Y jXBXMXzX8X[.A.n.n._.-X`._.}.3X[.}.-X-X6X4XvX4X[._.}.].}.}.[.-X4X3X6XxXxXmXmXmXsX3X3X8XxX5X5X8XJ < S p H t.u.k.k.Y.T.uX<XV.k.V.u.r.t.r.x.aXj.p *.<.g t g %.v.<.,.S.S.T v Y x.;.3XsX{.F.3X_.%.d i t u.NXmX=Xb.%.b.S.D.v.7.7.7.7.7.7.7.5.b.7.7.7.7.7.7.7.7.7.7.7.7.7.7.7.7.b.b.b.M.b.M.M.b.M.M.M.M.M.M.M.M.M.M.M.M.M.M.M.",
"v.D.D.D.D.D.M.v.M.v.v.v.v.v.v.D.W.OXV.,.%.x.+XK.E.L E :.u.W.:XMXSXnX+XS.S.<.;.:.P u.@X@XV.Z T t.V.OXY.+Xj.L A oXXXm.m.S.j.L C S.eX0XK.G s g 9 p  .*.H q % . . # < % # % % % H +XOX7XOX+XS.4.| j.j.S.l.A o.A , , p . % ;.V.N.y.].>X}.}.*XA.F.`.).`._.[.[.[.[.*X8X8X5X8X8X6X-X[._.). X X).).'.'.;X4X`.`.`._.F.{.%.> x H n Y E Y N J b c i :.x.u & > > 6 y 6 6 u i i u c b 6 . c Y H Y E Y H b N ( ) ) _ d.f.2.).).).).3.3.3.f.(.(.(.(.f.n.2.d.&.8 ^ _ >.A.2./ n.(.f.f._.;Xf.2.).qXn.).wX'.'.;Xf.)._ &.1.&.2._ ) 5 h.}.}.[. X).'.).n.).n.n.2.=.%.%.*.S a S ,.:.u.S.G.E.E.E.R.Z.:.b % Y %.J S S d a s d S M a M S K a s t a u u i < i S b a b a i M H H < . . L K.S.4. . .A V p L  .E C r.W E H ;.;.E %.r.;.U U n y i.ZXCXMXzX-X).n._.[.-X-X[.-X3X>X|.}.>X6X3X4XvX4X[.}.}.A.H.}.*X-X*X-X-X6XxXmXxXxXzXsXsXsXzXsX8X5XE H b u C ,.u.V.Q.k.T.HXbXQ.Q.k.u.r.:.r.T.aXj.C ,.K.<.@.P =.b.*.m.l.*.p ,.J :.E <.=Xz.b.-X=X2.S t J zXJXzXH.v.z.,.S.j.D.5.7.7.7.7.7.b.7.7.7.b.7.b.b.b.7.7.7.7.7.7.7.7.8.7.v.M.v.b.b.M.M.M.M.b.b.b.b.M.M.M.M.M.M.M.M.M.M.",
"D.D.D.D.D.D.D.M.D.v.v.M.M.v.D.J.E.y.<.j.S.+XJ.S.OXG.u.j.E.:X2XaXfXgXK.<.v.m.u.X.u.Q.OXj.Z , Z Y.k.,.t.j. .V p m.l.,.,.oXm.m. .C 5.b.<.*.=.{ s s S P *   % % X % % > # % . < ;.k.u.u.k.2X+XS.j.+X+X+XL e V p , # % . 2 y.Z.N.y.R.,X>X{.*X}.*X4X-X`.A.`.[._._.*X3X8X8X8X8X8X-X[.[. X-X`.`.-X X X;X X`.`.-X_._.{.-.% 2 x n E E Y N H b b i :.x.u % > > 2 y 6 6 u c b c n H u . x H H H U Y H n n R P ) &.d.d.1.(.(.(.(.3.3.3.3.n.f.n.(.2.f.3.2._ 8 ^ _ >.A.3./ (.(.3.n._.wX2.3.n.wXf.(. X).'.;X2.n._ &.&.&.3./ / 7 h.}.}.[.[.).`.A.n.).n.n.z.d.<.<.=.S C H ;.<.u.B.E.E.R.B.B.B.:.b % J P a i M D D a i S P K M R -.s b H J i < t t b H S S a a a S b b <   p T.2X,.C | ,.p V o.t.Y.t.H i.;.E n W ;.-.:.u.E n Z b x |.HXcXcXxX}.A.A.`.-X4X*X[.-X4XqX>X}.}.-X8XqXvX3X3X-X*X_.*X3X3X-X}.}.*X8X8XxX5X8XsX8X3X3XsXsXxXzX-.J c v T t.,.t.V.V.Y.bXpXQ.V.u.u.j.u.,.V.Q.u.C *.K.XXb.#.5.*.5.m.j.0 0 u.u.u J J B.a.H.8X`.v.=.<.sXNXmXsXv.z.%.L L  .K.b.5.7.7.7.b.7.7.z.v.7.M.v.v.b.b.8.7.7.7.7.7.8.8.8.M.M.v.M.M.M.M.M.M.b.M.b.b.M.M.M.b.v.M.M.M.M.M.",
"D.D.D.D.D.D.D.D.D.M.D.D.D.v.D.H.E.H.E.&XH.D.K.H.E.&X<.H.G.H.9X,XmXmXv.P %.<.j.%.,.V.u.y 0 X.i.k.Y.k.T C X.L 0 m.S.L C L L  .t.C s %.*.G b.5.{ *.0 < # . < > % : % y < % X # # : 1   | pX#X+XL Y.7X#XC w p q , @ X . y g.N.s.( y.,X5X{.].-X6X4X4X[.A.F._.A.A.}.}.-X8X8X3X3X3X-X4X4X-X-X4X-X X;X Xn.F.-X[.F._.*X;.% y n U W E Y H N b S i -.s.c & < < 6 u y y i c S b n Y u . x N n n n H H N n E R _ ' 1.d.2.n.3.(.(.3.1.1.3.n.3.(.(.f.n.2.2._ 8 K ) >.n.1._ (.n.3.n.).;X1.1.2.).2.3.).(.). X3.f._ 1.3.&.3./ _ t n.}.}.-X[.A.).n.n.).n.n.A.A.2.2.<.K P %.y.z.z.<.x.G.Q.B.x.u.-.u % H H i b S ^ K M S M D S d -.>.a K H J b t u t i M S S a a b b c b %   W OXj.C L ,...e A j.,.k.E H t.;.E Z E ;.;.u.u.T n Z x n dXGXMXCX8XH.n.c.A.`.[.`.[.3X4X4X6X>X>X>X8X8XxXzX8X}.}.}.-X6X3X*X_.C.H.3X3XzXxX5XsXxX5X5XsX5XxXgXJ b Z v C u.S.k.V.V.V.2XY.k.V.V.j.S.V.t.,.,.u.p L m.m.<.{ *.*.j.m.A * L ,.<.C H R -.v.=XXX7.b.v.zXAXNXCX=X%.%.P %.a a ,.v.M.7.7.7.b.M.b.M.F.M.XXM.F.M.7.7.7.7.M.b.8.8.8.b.M.M.7.M.M.b.7.b.M.b.M.b.M.M.M.M.b.v.v.M.M.M.M.",
"D.D.v.v.C.D.D.D.D.D.D.D.D.v.v.v.v.D.B.v.D.D.J.D.D.=XJ.&Xv.v.3XmXDXOX<.<.j.%.P ,.V.k.H < E 2XpXQ.k.t.u.T A T p k.k.v p C , * p p = %.M.7.*.F f s = @ u < % % % %   % 2 % 1 , : # , # Z pX2X .: C t.Z , v q ,   # . X u r.Z.u.J -.{.>X{.{.>X3X[.4X-X`.A.n.n.F._.}.}.3X8X>X3X3X3XqX4X-X4X4X[.[. Xf.d.).-X_.[.].E.H % c W W E E Y H H b H c -.s.c > 2 2 u b b c c n H v c N y . x n n n n n n b n R ' >.) ) >.&.3.3.).(.3.&.&.f.(.(.(.(.f.n.2.2.) & B ^ &.f.&.] n.f.1.n.(. X&.&.1.2.1.3.(.n.n.'.1.n.&.3.3.&.1._ _ 7 h._.}.[.[.A.).2.n.`.).n.).).d.2.<.P %.x.B.B.c.P :.B.E.x.;.H J u . S b i J K P D D ) P S M a ) >.S K b M M a M i i M H b a M a a b Y > . c T H  .k.t.| e e  .o.,.q Z E H Z b W X.;.e.E n b Z q E BXBXCXCX6XH.A.c.c.F.}.}.|.*X3X4XsX6X3X8XxXxXmXmXsX].].}.*X3X8X-XA.a.c.C.Z.3XsX5X9XgX8X8XxXsXxX5Xu.H Z c 0 E V.V.u.k.k.Q.Y.I.Y.V.k.k.u.,.T H j.T { +XoX%.P *.,.5.*.e C ,.,. .%.C H a P v.v.b.<.v.gX9X,X1X<.S P S S L b  .B.m.7.7.7.b.F.=Xz.=XF.F.%.b.M.b.b.v.M.M.M.M.M.M.b.M.M.b.8.8.7.<.7.8.7.b.M.b.M.M.v.v.v.v.M.M.M.M.",
"D.v.v.v.D.D.D.D.D.D.D.D.D.D.v.v.v.v.v.b.v.v.v.D.D.v.D.v.v.v.J.C.y.x.v.OX,XOX,.L x.j.< C k.T.aXQ.2X@XY.t. .v 0 A C 0 0 L p C C , $ = a %.P j G ,.s = < % . # % # X % < , # 2 2 - , q # Z H # , @ @ # : 0 , L % % X X i ` s.;.W -.E.{.1X5X3X8X4X8X*X[.).n._.[._._.}.*X3X3X3X-X-X4X-X-X-X-X4X4X Xn.`.;X*X}.6X8Xs.% X v W U U E Y H J b N c -.s.i < 6 y c N n i u c c y u b 2 X x n v n n n b b b Y -.>.) ^ ^ / _ 3.(.(.3.&.&.f.(.(.f.(.f.f.3.1.^ & B K &.n.1.] (.(.1.(.).'._ ] &.3._ &.f.f.f.'.3.(.3.3.3._ &._ _ 7 d._._.[.`.n.n.2.).`.).n.).n.c.2.<.%.<.H.H.G.B.K S %.B.u.E b b 0 + b t i J P ( ) ) ) P S S a a %.K H M H S M J a b J S i b b u b S b > .   0 X.S.t.o. .0 @ , 0 q % b E Z u q W U E Y b x b Z u u.VXcXcXcX>X}.}.C.h.F.}.}.}.|.8X8X8X}.>X8XxXzXAXsX8X*X3X8X8XxXxX8X}.c.c.a.C.c.*XsXzXzXsX8XxX5X5X*X5X-.u b p E V.T.V.T.T.V.t.X.e.u.j.t.X.,.L q  .j. .oXm.{ F *.,.j... .t.,.,.j.,. .0 a %.=X<.%.%.D.=XJ 0 P ,.E *.G S G P L v.b.7.7.8.M.M.=Xz.J.M.M.M.M.M.v.v.M.v.M.M.M.M.b.8.b.M.M.7.7.7.<.7.7.7.8.b.b.b.b.v.v.v.v.M.M.M.M.",
"D.M.v.D.D.D.D.D.D.D.D.D.D.D.D.D.v.D.F.v.z.v.M.D.M.b.2.v.v.z.v.J.v.&X,XK.S.&XK.j.E C * j.2XQ.aXT.7XY.;.T t.L 0 , 0 < * < q L j.p $ $ a a = @ p 0XE. .*   @ # . # @ % X , , , , 0 l q : #   . 2 : # % , . C Q.q X % o 2 H Y b E E :X{.W.5X5X3X3X3X[.[.[.[.-X3X[.`.}.}.|.|.}.}.[.3X3X4X4X8XqX4X6X4X4XqX;X4X8X*X( . % 2 U U U E Y J J N N i ( s.i < 6 y c b c 6 < t y 2 u c < X v n x x x x c b b H ) _ ) ^ _ _ 1.3.(.).(.3.1.(.(.(.8.(.n.f.3.1.) & B ^ &.A.3.3.(.(.3.(.(.).] / ] &.] ] 3.3.f. X3.(.3.3.3.&.1./ _ 7 2.F.F.[._.A.f.&.n.`.).).).F.n.2.<.%.z.H.H.J.B.J t p L H p < > % % i t a J R R P ( ) J M D M b ( H M b H S b H u c S b a i u t b R c , X % X.+Xk.X.L Z q , #   @ # q T U q 2 H Z Z v q m Z Z b Y.MXMXCXNX6X|.}.A.}.A.A.].*XqXxX3X}.}.6XxXsXzXNXxXsXsXxX5X8XxXxX8XH.>.) <.Z.c.>XxX8X,X3XsXxX>X{.>X:Xr.v L T ,.V.S.T.Q.gXOXH % < 0 v v C T Z q v ,...j.*.F F L ,.,.,.,.,.o... .,.%.L C L ,.F P v.+XP = t %.z.B.<.S s t P P u.v.v.b.8.8.M.v.=XD.M.M.%XM.b.M.F.M.M.M.M.v.b.M.8.8.8.M.8.7.7.7.7.8.8.b.b.b.M.M.v.v.v.M.M.M.M.M.",
"M.v.v.v.B.D.D.D.D.D.D.D.D.D.D.D.D.H.J.F.v.M.F.b.b.7.2.7.M.z.z.D.].D.E.B.v.v.v.+X,.* * L ,.T.7Xj.T o. .,.t.A p 0 0 0 q p H Z L C p u  .,.< @ @ b OX&XE < p q # @ # # % % 0 , , e w e , , # # % % # X # : u.S.< q y X > b Y b E ;.:XZ.:.{.5XN.B.E.}.[.*X-X3X6X-X[.[.}.H.C.d.F.-X4X4X4X4X3X4X4X4X4X6XqXmXqX8X>.J 2 % : H U W E N H J H J i R N.c < 2 6 u i y < < y 2 t c b 2 O m v x x x q b b b N H K &.&.&.2.n.n.(.'.).3.&.3.3.f.3.(.3.3.1.&.^ & M ^ >.n.1.3.).3.3.3.f.(.] / ] 1./ / &.3.3.'.1.(.3.&.1.&.1./ ^ 7 >.H.A.`._.n.2.&.n.).n.).)._.n.2.<.%.x.C.D.H.a.H b u b t % % % < . < t i H J J S K ( S M S M M R M S S H J M M c c c u b t % < u c H :   q k.t.Z , , b C , . , , @ % q Z q q v n H x q v y x v W.MXVXVXzX6X|.}.|.[.C.c.|.8XxX8X-X}.6XxXxXNXmXzXmXzXzX8X>X3X3X3XqX8XA.y.F.C.N.].H.H.N.}.zXxXN.y.G.G.;.b W t.t.V.V.V.T.OXS.t.Z v 0 , , 0 q 0 0 : v  .L f 0 p ..,. .o. .,...{  .,.*. .P C f { %.,.G s L B.E.y.<.<.j.P C S E <.=XF.M.b.b.7.M.F.v.v.M.M.M.M.v.M.%X=X=Xv.v.M.M.M.8.8.8.M.7.b.b.7.8.b.b.b.b.M.M.M.M.M.M.v.M.M.M.",
"z.z.z.b.b.b.D.D.D.D.D.D.D.D.D.K.D.J.J.F.K.K.M.b.7.b.<.<.7.7.z.D.=X].=XG.J.OXG.u.b < ,.V.H H p v t.2X+XS.t.A p w , 0 q L  .L p t C E u ;. .= O . S G.:XC 0 C C * @ @   @ , , , q e e , , : # : # # % , q T v v X.u X < u b Y L ;.W.:.r.5Xx.:.E.=X].-X8X3X-X4X3X[._.A.}.}.<.A.3X3X-X4X4X4X4X4X3X4XqXxXqXmX<.t -.J % : x U U H c n Y H b i J s.b > 2 y y 6 2 < < y y i c n < X x x x q x x b v c H K ) >.>.>.f.n.n.).).(.3.&.3.n.3.3.3.3.f.3.>.^ + M ^ &.n.1.1.(.(.3.3.3.3./ / _ &./ / &.&.] 3.&.3.1.] &._ &.] / t >.A.A._.`.n.1.^ 2.A.f.c.n.n.n.2.<.%.x.<.<.z.%.b b E %.C % % u v % & t b u i a i c H K b a a i M S M b J H u S n c < u u < & < < u p % X < p # # @ e Z T , # X.H # 0 : 2 1 1 q v v 1 : v W T n @XfXVXCXcXxX6X6X5X>XN.N.6X8XsX5X5XsX5XsXsXmXmXmXNX*XH.].R.3XC.s.-XxXqX>X].s.J.R.H.<.}.xXxX>XN.H.N.u.H H v Z r.i.V.T.V.r.E E T P H H Z L ,.T C 0 v ,.0 @ 0 C {  . .o.,.,. .L  .,.m.m. .C s L *.p a %.S.OXB.:.u.G.z.z.*.S R :.b.=XM.b.b.v.b.D.M.v.F.M.M.v.v.J.z.*.b.D.D.M.M.M.M.8.8.b.M.M.b.M.M.M.b.b.b.M.M.M.v.M.M.M.v.v.v.",
"z.z.z.b.z.z.v.D.D.D.D.D.D.D.D.D.D.F.F.K.D.K.M.b.v.b.2.<.7.7.7.M.].=X3X=X=X,Xy.C 0  .&X2XaXj.p L  .,.5.l.K.j.L 0 0 * p ,.j. .%.%.u C v < E u . . = <  . .C L L L * @ # p C p , e , , 0 , : # % q q % q v < , T t.< % : < b E L Q.W.E :XV.:.G.5X*Xc.=X8XqX*X}.}.}.c.d._.6X}.*X8X3X3X4X3X-X3X4X4X4XqX8XqX-XK S N.u.% % x U U H i u b i a i H x.b > 5 u c x y y y c c n n Y 2 X 2 x x 2 q x b c n Y >.>.&.2.2.c.2.n.n.(.(.n.1.3.(.3.3.3.2.2.1.&.^ + d K &.f._ ] f.3.1.1.3.3./ / / 1./ B ] _ / &./ ] ] / &.] ] / / 8 >.A.A.H.`.A.>.D 2.n.c.n.n.n.d.<.>.R <.%.>.<.P p p S H i . % u y X 2 c y t u b a M H M b c i i a i i i b H b H c y 2 2 u 0 t c < % % % @     % < w , , q 1 : T v # q , % : # : q 1 x t.~.pXe.b Q.gXCXzXzXsX>X6X5X6X}.|.xXzXsX5XxXsXsXxXsXzXmXzXxX3XR.H.*X<.-.A.a.}.8XsX3X>X3XZ.B.C.3XzXxX}.R.>X*Xy.c u & q ;.i.r.V.j.;.;.-.%.E J E L X.j.t.X.T b k.T 0 p p  .L  .o.,. .L T ;.j.j.,. . .A f <. .B.B.S.B.u.z.B.B.y.<.z.<.P R <.=Xv.M.M.b.v.v.M.M.=XM.v.b.M.J.=Xv.v.D.D.M.M.b.b.8.8.b.b.M.b.b.b.b.b.7.7.b.M.v.v.M.M.M.b.b.z.",
"7.z.b.b.z.z.v.K.D.D.D.D.D.D.D.D.D.D.D.v.v.M.v.7.b.b.7.7.b.7.<.M.C.].=X=X=XJ.K t %.B.G.G.T.L L 7Xm.,. .F  .,.*.L p v V j.V.C L S.k.Z 0 < C y % b p 0 t { l.p * * * @ p | L A * 0 e e L T q : q T q * , p v A T q , % q n q v L 2Xi.t.k.;.W.aX5X:.B.*X*X-XH.}.}.F.A.A.|.8X3X[.3X-X3X-X-X-X4X4XqXqX8X4XqXn.S <.R.2Xc X y Z U U y c M c S b H N.c < y i c c v x c v c n n Y 2 X < x q 2 x v c x H -.y.a.&.>.2.d.2.2.n.(.).(.1.3.3.3.3.3.3.2.1.&.^ + d / &.f._ ] 3.&.] ] ] ] / / ] 1./ / ] &./ ] / / / / / / ] D D 8 &.A.C.H._.A.&.i 2.A.z.d.c.c.2.<.2.%.:. .P %.L b 0 0 p q % % < q   > u < u t b H H H a M M i b a < t u b v b H u < < u u u b t % u L X.U q # # 0 , , , 1 q , y , @ 0 q : : 2 q q : Q @XY.k.v Z :XiXVXzXMXzX>XsXxX5X5XzXxXsX5X8XzXxX5X8XzXzXmXzXxX8X}._.4Xc.<.<.>.c._.xXxXxX8X{.R.8XmXNXxXH.R.{.E.u.0 < u 2 p E u.:.x.:.r.-.%.%.P H T ;.;.,.,.X.Z Z X.0 v p A L  . .L H  . .,.;.,.*.A  . .v L ,.j.,.B.S.u.x.B.N.<.P K R R P <.&XB.b.M.b.b.b.v.H.=XM.v.D.=X=Xv.=XH.v.v.M.M.M.b.M.b.b.v.b.b.b.b.b.7.7.7.b.b.b.b.v.v.v.b.7.7.",
"z.z.b.b.z.7.v.K.D.D.D.D.D.D.D.D.D.D.M.b.b.b.b.7.7.7.7.b.v.7.<.v.H.J.J.].`.F.P %.H.S.G.W.j.b j.E.S.XXK.l.,.f p F L {  .C t , < b  .t.v : < q 0 S.2XQ.A 0 F L V @ 0 t ,.| L f $ * e e S.+X .* p v 0 , 0 p , v A @ 0 q b v q v u.j.H j.;.OXgXaX<.;.,X>XH.F.A.].A.h.}.}.3X[.}._.*X3X4X-X-X4X4X4XqXxX4X4X;X&.%.H.H.gXr.% 2 n U T y H R H H M M s.c < u i c c x x u y i i y b < X 3 2 x q x n n c R :.<.>.&.>.>.&.2.1.f.n.).(.3.3.3.3.3.1.1.2.1.&.) + d D _ 2._ / &./ / ] ] ] / / ] _ / / _ 1.] _ / / / d d D / d D 8 ) c.C.]._.A.) i >.n.z.c.n.c.2.<.%.%.>.%.E P b s < u v 0 % < < u   & < > 6 u b b b b u b b i b c t u b b c b H u t u p p c q % u ,.u.t.k.Z : : , p p L v @ n U : , p v q q I.Y.T 2 q X.X.n % y I.aXVXcXCXzX,XsXgXsXzXxX{.E.{.>X5XsX3X5XmXzXmXzXzXxX*X}.3XxX].%.h.>.c.3XxXxXsXxX8XxXxXxX8XA.{.*X&Xx.0 < u , % b u.:.u.<.<.-.>.) S T  . .o.t.t.L u % T L @ 0 p C L L p C  .T E C L  .C C C C v X.;. .<.B.x.H.c.y.R M & < %.S  .,XH.K.XXM.8.b.M.,X,Xv.M.=X,Xv.z.v.J.M.v.v.M.v.M.M.b.v.b.b.b.b.b.b.7.7.7.b.b.b.b.b.b.b.b.7.7.",
"b.7.z.b.b.b.b.K.D.D.D.D.D.D.D.D.D.D.M.b.z.z.7.7.7.7.2.<.2.<.2.b.=XC.J.J.F.=XD.H.].H.,X:XE. .OX+X=X+XK.m.,...,.{ C p ,.,.,.C v 0 < v n q p p p S.7X,.0 p p p .. .9 V S.....A * * * 0 L S.j.p q * 0 , ,.l.0 p q p 0 p C C v  .j.H ,.X.S.aXOXu.J G.R.Z.Z.H.].H.A._.}._.}._.}.}.-XqX4X4X4XwX4X4XwXqX-XqX_.) c.*XR.iXW.> : v Z n y J R H N M M y.c & 6 6 6 y y y 2 < y q < y > X : 2 x x x Z H b R ;.( K ) >.>.^ &.&.&.2.(.(.1.&.3.3.3.&.&.1.>._ ^ + i d ^ 3._ / ] / / / _ ] / B / ] / / ] _ / &.] / / B d d d d D & ) s.C.R.].H.) s &.n.2.n.n.c.<.>.P P *.{ S C C C p p p q , : u U < % > u % > c c S N b b c i c b 6 t b b p u b t i b u c p % # u k.S.Q.X.% # q T Z Z H q q T v 1 q v q , Z @XpX@Xk.q : v U q < k.iXMXcXNXsX>X5XgXzXNX5XN.H.{.{.,X5X8XxXzXsXNXzXsXxX8X*X_.-X}.C.c.2.<.&.].xXxXsXNXNXxXqX*XA.].*X{.-.< < 0 < * p ;.r.y.a.<.-.) K H S C C C v C 0 % # b j.0 p V f C a p C C L b 0 u H L X.L v C L ;. .E u.u.y.R -.:.J J s S P :.:XB.&XXXv.7.b.b.=X,XD.=XJ.H.<.<.b.v.D.D.v.v.b.b.M.v.v.v.b.b.b.b.b.b.b.b.b.b.b.b.b.7.7.7.7.7.",
"b.7.7.b.b.b.v.K.D.D.D.D.D.D.D.D.K.M.v.b.z.z.b.b.b.7.<.=.=.<.<.z.=Xv.D.D.F.=X`.`.*X,X,X,X:Xj.y.K.K.7Xm.m.l.j.*.L p p 0 b T Z ;. .v q q q Z v 0 T k.V * $ * $ p ,.s p ,.*.,.L 0 C ,.A p C L p v * * 0 A p * p l.,.e C C v Z T C t.t.j.OX;.,.E V.OX%.x.,X*XR.A.A.}.}.}.}._.}.-X3X4X-XqXqXwX4XwX4X6X4XqXn.&.F.3X*X,X<Xx X 2 v q y J J S M M M y.a & < < 2 6 2 2 < < 2 2 < u > X < x x x b H H c J R K K D >.a.>.) &._ 1.n.n.&.] 1.3.1._ &.1.>.) ^ & t d K 1._ / ] / / / ] ] [ d / _ / / _ _ ] &.] / / B d d D D K 5 J c.N.C.H.H.%.i 1.n.2.2.f.2.<.>.%.P P S C b C b 0 q 0 0 2 Z Y.pXQ.u.Z.W.v > i c N b c i u u u c < 2 H ;.W b c < u S H b < . @ * T S. ., # q T T Z v v , q q , b q q p : q T ;.X.Q Z T k.Q.v , I.2XdXcXMXMXgXsXNXVXcXR.N.{.{.C.{.5XsXmXzXxXmXzXsXzXsX-XC.d.*X6Xc.K <.<.a.a.-XxXxXmXqXqX[.H.].=XE.E < < 0 q < u u.N.x.a.&.' K P S C u 0 , 0 p v v v T +XY.l. .F e p L A C H q * * 0 u T L v L Z H T b J a i a H ( J <.C.P S H R.&X&X=XM.b.8.v.E.&X=X=X=X<.*.<.=.<.b.M.v.b.b.7.v.v.v.M.v.b.b.b.b.b.b.b.b.b.b.7.7.7.5.5.5.7.",
"b.b.b.7.7.b.v.K.K.D.D.D.D.D.D.D.M.v.b.b.b.b.b.b.7.7.=.=.=.<.2.7.=XH.H.J.=X=X_.*X}.{.E.,XW.:X,.,.,.K.v.,.{ { L P  .*. .X.C q v C C T p , , q q e e w e p p C 0 p w $ w } ..C t  .+X+XF 0 p 0 * 0 L 0 0 e f  .#X .e L p C ;.C ;.:.t.Y.L t.t.X.7X;.t ;.Q.E.Z.R.}.[.-X6X-X}.[.-X-X-X3XqXqX4XwXqXwX4XwX4Xd.1.`.3X*X*XiXH % 2 x 2 y Y J S H M M u.a & < > < 2 2 2 < < 2 t y b q X y n n v b H H b H H R J H -.2.d.&.) &.&.3.n.&._ &.1.&._ &.>.>.) ^ & i d D &./ D ] / / / / / / B / / / / / _ ] ] / / / B d B / D K 5 K N.N.N.H.A.&.d 1.c.1.2.d.1.&.%.S S P P C s t * u t 0 0 y b u.<XdXdXuXu.2 % y c u u u i c c b H < < Y T.W.r.n u H b b Z Z Z p @ % w , # # w U x q q p , , , , b q : q , # p X.k.,.C j.@XQ.m , V.<X|.~.1XzXzXzXMXVX:XU.W.{.Z.N.R.3X9XzXzXzXzXzXmXzX6X3XH.A.3X-X[.d.a.>.&.P s.*XmX3X-X*X_.].3X8X&Xb 0 0 t p t c :.a.c.>.) K M ) K K H L L |  .t.t.;.t.S.t.| f p w C L C L F p < * , b Y H E H c p L H L b i i i b a >.>Xb.<.H E V.G.&XM.8.7.v.H.Q.=X=Xz.<.<.<.%.=.<.v.7.z.v.z.b.b.v.v.v.v.b.b.b.b.b.b.b.7.7.7.7.7.<.<.<.<.",
"7.b.7.7.5.7.v.M.K.K.D.D.D.D.D.D.M.b.z.b.v.v.b.b.7.<.=.=.<.2.2.7.=X].=X=XJ.=X*X4X*XJ.R.=XC.W.S.,.L F p C L L A L K.K.j.S.u.T T L L C u q p e p e e $ * p e * $ V f 0 9 * 9 t 0 0 C  . .p p 0 e 0 j.F t f L l.l.A A C q L  .E :.L k.L j.S.L k.u.b J j.B.R.H.|.>X3XqX6X[.6X4X4X3XqX4X8X4X4XqXwX4X4XwX`.2.1.-X-X].{.<Xn % < x 2 2 H H M H b M a.c & t < > 2 2 2 < > 2 y u H x X x m m v n H H b J R ) M b J &.2._ K ) _ _ 1.&.&.1.&.1.&.&.&.>.^ K & d M B ^ D B ] / / / / / / B / / / / / ] / / / / / / B D D D K 5 H s.N.B.].Z.<.K 2.2.&.1.>.&.&.%.P P %.P a p C C 0 v v < y 2 , n X.V.X.< > > < u i u 6 i c c v b y % c V.1XT.U v n u u t.OXV.,.p * , Z C @ , p q w p , , v p q b q % % < , j.@X+XX.0 q X.I.Z X b V.V.u.u.V.Z.*XfXMXV.T.gX{.R.>X,X*X5XxXsXxXmXmXzXxX8X3X*X8X-X_.4XxX2.) a.<.-.) =XqX4X}.c.C.=X].s.< < < & < < b ;.u.>.S B B M _ K J P ,.,. . .t.A V C | j.@ * e C } C L  .F C Z p Z ;.E b v Z b Z H  .%.j.%.a 5 u a Z.>Xb.x.u.Y :.R.&XF.b.b.z.H.>X=XD.v.<.D.z.<.<.b.M.<.<.v.b.b.b.b.b.v.v.b.b.v.b.v.b.b.7.7.7.7.7.<.<.<.<.",
"7.7.7.7.7.7.b.b.v.M.D.D.M.v.M.D.v.b.b.b.b.b.b.b.7.<.=.=.2.7.7.7.=XE.G.`.3X=X=X-X=X}.].{.:XT.E.S.t.u H Q.7Xk.C  .#XK.j.,.j.,.j. .v q q u u p 0 e w * * 9 * * * w V p 0 $ 9 p p p * e L L f F } f 5.F s A C l.l.s C L C p H ,.;.X.H | 7XL o.Y.p v u.7Xu.N.5X8X3X4X4X4X3X4X4X4XqX4X4X-X4XwX-X).`.-X;X).2.2.).-XA.R.1Xn % 2 b x 6 x S H H i S u.i < < 2 y u y y < < y 2 u Z n X x v v n n n b u b H J J R ( ) R ) ) ) K K >._ / _ 1.3.&._ &.>.) K & i d M B d D / D B D / / D d [ / B / / ] / [ / d d / / D D B D 5 D s.c.c.G.Z.a.&.2.1.&.%.=.^ %.<.K G P S p ,.7X+X .0 u v v q x 2 , < 2 % % # % < 2 u 0 u v u c Z c c < u H n Z U < % % u u.@XQ.T % 1 k.t., , , u u 0 , 0 L v * q # % * : , e.X.v , @ # : q 1 , : c W u.g.x.:.r.W.mX>X5XsXE.>X6X8X5X5X8X8XxXxXzXxXxXqX6X8X;XA.A.`.4X3X}.a.>.J b -.C.3Xv.v.R.R.].a.< < > t < < ;.G.:.t s s i d K ) >.%.;.j.,. .T p w q p ,.V f C } L A | ..A V L A A Z v % % , 0 p C C ,.j.E P S t >.9X8Xc.P ( ( E W.&XK.B.b.z.E.&XB.E.H.OX=X5.<.5.=XD.<.<.<.z.b.v.M.M.v.b.b.b.b.M.M.b.7.7.7.7.7.7.<.<.<.=.",
"7.7.7.7.7.7.7.b.b.v.D.K.D.D.M.M.m.b.b.b.7.7.7.b.7.<.=.=.2.7.7.7.=X&X=X=X`.`.].].*X].].E.E.:XQ. .p , p L H C 0 C  .,.L ,.S.,.j.;. .b q v # * p q 0 0 C e * p C V 0 9 9 A 4.S.} p e 9 A  .} ,.5.C l.f p { A m.,.p ..j.<. .H X. .H C S.o.v ,.L e T S.S.r.-.5X9X8X4X4XxX4X4XqX6X4XqX4X4XqX4X`.A. X-X;Xn.2.2.c.`.A.}.iXN : 2 x m x 6 H J H t J y.u > > 2 y y y y 2 < y t y n H # y b b x v b x < y H R R R R R -.-.J K K D &.) _ _ &.1.&._ &.>.) K & i d M M d B K D d D / / B d / / B B [ / / d / d d / / D D B B 8 M y.x.y.Z.B.a.&.2.<.%.%.%.P P ^ S S S s L +X+X+Xx.u v k.t.H U p y v y q < # % q u u < c n u Z V.2X@XV.y % , q < % : v 0 Z k.@Xi., # n y % , % 0 t p 0 q T T , , # * , , 1 w 0 # # # # X # # : # < e.V.V.R.Z.G.Z.zXSXCX5X3X,X3X3X6X8XxX8XxXxXxX3XqX8X4X4X[.A.A.A.*XxX8X%.R s.-.) S <.c.C.].F.].c.b t t S L H u.;.>.t s i i S S ) J.x.u.,.,.| C V e e A ,.l.p L O. ...4. .A L o.v v C b % @ % * < F L ;.;.L <.) ^ ].mXsXG.R b u b -.y.z.E.x.v.E.S.x.x.J.=X<.7.<.D.F.v.z.7.<.<.7.b.7.b.b.b.b.8.b.7.b.7.b.7.7.7.z.7.<.<.<.<.",
"5.7.7.7.7.7.7.5.7.b.v.M.D.M.M.v.b.b.b.b.7.7.7.7.<.<.=.<.2.7.7.7.`.=XH.H.=X=XJ._.].].=XJ.x.E t # , w p 0 0 * p L ,...w p p 0 L ,.o.p q v 0 C T C p p A | w p w p * $ 0 | +XeXm.} C } *.l.4.5.m...*.f s { } +Xj.F 5.,.j.K.,. . .C t.j.C q p * p T T ,.x.j.*XsX5XxXqX4X4XwXwXqXqX4X4XwX4X4X X`. X-X-X).n.2.2._.A.>X>Xn % < y x x 2 c J N 5 ( y.u % > < u y y y 2 < 2 t y b H # 2 b b b n b u < y Y ( R ( -.( ( ) M a a B _ / _ _ &.&.&._ _ 1.&.D & i i d M d d D B d D / K B d D D B B B / / B / d d / D D D d M 8 D a.x.u.C.C.s.>.2.>.&.&.) K P ) S P L 0 E 7XY.2Xk., T pXaXOXY.;.v < : q p , < c b H b H b c b i.1X:X;.> , 2 y % , < v u q u H Z q # # @ % % @ * < p 0 v j.t.b < % # : , , # : # @ # @ # # # : # x U.W.W.5X1X5X].*XsX8X,XNXzX5X-XxX8XxXvXqX4X4X4XxX6X8X6X_.F.[._._.4X8Xz.<.<.S S S >.>.z.F.a.J.J.s.%.H H C p %.<.:.%.L a < S M P c.x.S.S.,.T V w w v v o.S.| o.,.j.l.,.A p V X.C q v Z y , < , 0 C C L L H <.<.J.=XxX5XB.:.%.L H u S ;.K.x.B.K.j.b.S.=XXX<.<.5.K.K.b.<.z.7.7.7.7.7.7.v.v.v.M.M.b.b.b.7.7.7.7.7.7.<.<.<.<.",
"<.5.7.7.7.7.7.5.7.7.b.v.M.M.M.M.M.b.b.b.7.7.7.<.<.<.<.<.7.7.7.7.v.,XE.&X>XE.].=X=XF.<.S i b b H v , 0 9 p L XX+Xl. .A L | v w e q q p Z L T C C e * e w * * C C 9 e e e  .XXm.F F F *.m.5.*.5.5.L p C L  .oX..F .. .,.S.7Xj.H b F t p p * e v q q T k.OXN.*XzXxX4X;XwXqX4XqXqX;X;X;X;X;X;X;X X;X-X`.`.).f.n.A.>XW.v X : y y y y 5 M u 6 :.y.i % & < y y y y 2 < 6 u u n Y % 2 b v c n b u < 6 J ( R R R K N M b i i K _ / _ _ 1.&.&._ _ 1.&.D & i i i d i d B M M D D D M d B B d d B / / B / d D / D D D d B 7 K s.s.c.C.Z.s.<.a.>.%.-.) ) %.P J H p = C 2X7XQ.H * ;.pX2XV.;.T u u q v H y p b S x.:.%.b c 2 q p c < & < H E < u L E H v , % # , q * % v Z 0   % * 0 u T H , # * # * : 1 # q , # # # # # # % , ;.<X|.>XaX5X3X,X{.H.H.R.>X5XxXSXzXvXxXqX4X-X4XqX4X-X;X4X`.`.-X[.`.-X4XqX}.>.P &.<.) a K <.&.<.:.u.<.J S t t t C E j.x.,.C b C  .B.G.E.:XY.| V v e q w p S.#Xl.,.l.l.T p p V t.H Z C C C v q 0 p b C L ,.;.<.C.3X9X>X9Xx.J S L C t S *.=XJ.K.z.v.z.+XXX=XXX<.K.b.K.z.<.7.7.7.7.7.7.7.7.v.b.b.b.b.b.7.7.7.7.7.7.7.7.<.<.<.",
"5.7.7.7.7.7.7.7.7.7.7.7.b.v.M.v.M.v.b.b.b.b.7.5.2.<.2.2.2.2.2.7.7.J.,X5XW.{.>XR.%.K K %.<.K.T.S.S.V * , A #X7XXX| p p e w p C p w C p p Z 0 $ w e * p e p 4.XXF p 5.4.F F 6.4.} } } ..4.4.*.4.*.f t C C f L C t p C  .j.7X,X,.%.p 0 $ @ 0 q q , C Z ;.W.u.s.zX>X XwXwX;X;X;X;X;X;X;XwX;X'.;X'. X-X).`.;X`.z.A.*XQ.x X : q 2 q x 6 i > c u.r.c % % > 2 2 y u 6 2 y 6 c H Y : 6 c b x c N b 6 6 N ( -.( R K S H K M B K _ ^ _ &.3._ &.&.&.&.) M & i i i d t i M d i d B d i i M B i i d B B d D D d / / D B d M 5 K a.u.N.C.Z.a.:.y.&.%.&.) R R J b a < < * C t.H * 0 p ,.,.L b Z u v , 0 p 0 p b b ;.E W E J b < % , < < & H H , v  .;.b u 0 % , u Z * C u.L < * * % # * < # , v # , * # , % q , # # : # X # # y ~.cX5X5XzXgX5X5XsX3X>X].C.a.A.*X-X4XxX4X4X4XqX4X;X-X;X;X-X-X-X`.[.`.[.4X3X4X_.C.>.a P S a S >.x.a.%.R ;.Z H L  .L ,.j. . .L { %.S.v.S.Y.k.j.t.Z v Z v C k.S.S.,.| V , V V A S.;.v C Z p p u p q q C L %.,.<.D.>XJ.9X,X-.H a b p p a P =X7X=X5.+Xm.b.M.=X=X0XK.7.K.7.7.7.7.7.7.7.7.<.7.7.7.7.7.7.z.7.<.<.<.5.<.<.7.7.7.7.",
"7.7.7.7.7.7.7.7.5.5.7.7.7.7.b.b.b.b.b.b.7.7.7.7.2.2.2.7.7.7.7.7.7.z.&X,X>X1XE.C.a.F.=X=XE.:XOXQ.#XL 9 L l.l.4.j.e 9 w w e e p * w V L C w * * e V e w 9 f 4.4.p } #XXX*.F ..} h *.} *...F 4.m...t p s L C 9 0 p C C P x.K.9X0XS.+Xk.C 0 0 # V T H T E r.E Y N.}.-XwX4X-X-X;X X;X;XwXwX'.'.'.n.'.).).`.-X`.n.F.{.W.y : > < 2 y x u u & b y.r.i % & > < < < y 6 < 2 < y N U % 2 x b b b N J N c N R ( R R R K D J K K ^ ^ ^ _ 1.3.&.&.&.&.>._ B & i t i i 7 t d i t i d i 7 7 i M 7 7 i d d d B d d D D D B i d 5 K y.u.N.Z.B.a.:.&.-.>.-.P S H b u t b ,.X., q @ H ,.v t u p v C b v < < % q u u 0 b b H ;.T H 0 & < < < % 0 b u < < < % , , p b v C 0 Z v * * @ $ t < * 0 0  .A # q , * , % < , # # 1 : # # # U jXcXiX5XsX8X3X9X5X8X8X3X].) 2.].-X3XqXqXqX4XqXqX;X4X4X*X[.-X[._.A.).[.*X-X_.>._.%.s ) P M 5 a ) S J ;.;.H H r.u.,.,.,. .,.*.L L L p C T X.t.o.X.t.Q e.t.Y.k.Z C A v , w Z o.k.v 0 , q q u < q b Z C H H <.x.v.D.b.OXx.E E p t p 0 s <.eXDX+X,.m.5.0XXX0XmXXX,.K.v.5.7.<.7.7.7.7.7.5.<.<.7.M.D.v.=XJ.v.7.7.7.7.7.7.7.7.7.",
"7.7.7.7.7.7.7.7.7.7.7.7.7.7.7.7.7.7.7.7.5.<.<.7.7.7.7.7.7.7.7.7.2.<.v.E.1X>XW.*X].*X=X=X,XS.V.S.+Xt.L S.$XS.#Xj.e w 9 e 9 9 e 9 $ w  .C , , e p  .w 0 0 C f F f *.oXm.6...{ { { *.F *.{ h { 5.*.* 0 C j.j.S a m.9X,.%.B.j.0X9X<.7X7X2XS.X.q w v v T H b n b R s.[.-X X X'.'. X X;XwX X'. X3.3.).).`.;Xn.A.[.}.{.U.2 > > , 2 2 y c u < y -.u.c % > < < > > 2 2 < 2 > y n Y > 2 c b N b N J J N N R J K J R K K P ) ^ ^ ^ / _ 1.&.&.&.^ &.1.&.K & i 5 5 7 5 5 u t 7 i i 7 5 5 7 i 7 7 7 i d i M d i D D D M 7 i 5 H <.u.N.B.N.y.>.>.%.) J J S H b b H :.+XT.p 0 v S.7XS.v < q b v X.Z y , c i.E < 0 T  .L T b b u C T L u * 0 H b < 0 q q q < v b Z  .C C u * * 0 C ,. .% 0  .t.0 * v q , 1 # * * # # 1 , # # # i.GXcXzXzXxX5XsXmXxXzX8X-X].) <.xX8X3XqXxXxX8XqXqX;X;X4X*X[.-X[._.`.).).*X-X<.d F.&.S >.P t s S a s P E.x.T 0 t Z  .,.j.,.*...C f e w T t.t.j.o.T L.t.1 1 n ~.U X.m v q v Z T L , 0 @ $ * 0 0 q C L 0 p H j.K.B.u.%.%. .S a 0 s 9 p  .9XmX9Xb.*.*.0X0XXX0XeXm.5.D.7.<.7.<.<.7.2.7.7.7.<.<.D.=X=XD.=XJ.b.<.7.7.5.7.5.<.<.<.",
"<.<.2.2.7.7.7.7.7.7.2.<.<.<.2.2.7.<.<.5.<.<.<.7.7.7.7.7.7.7.7.7.7.7.<.D.&X=XsX5X5X>X=XE.&XQ.@XOX@X+Xj.,.V w L o.e e $ e e * * w e A w $ q w * e A * 9 A f f ..s } *.6.oX6.{ } *.{ *.+Xm.F S  .F 0 a ,.K.v.,.*.=XSX9Xv.<.v.0XeXD.K.DX+Xu.7Xt.# , v v y < H E E J 2.).(.(.(.3.f.'.;X X X'.3.&.(.(.'.-X;Xn.d.-X}.}.u.> > : 2 1 : x b b u % H V.b % > < 2 > > 2 2 2 < < 6 b Y > 2 b b H N H J H N H K K H H J R ) K K K K ) ^ _ 1.&.&.&.^ &.>.&.K & i 6 5 5 6 5 5 5 5 5 i 5 5 & 5 6 5 5 5 i i i d i i B B d d 5 i 5 M :.<.s.y.a.-.) -.R K M S S J H :.B.:XQ.V.X.< p u.u.u.H 0 0 q q n C H u ;.V.b < C V.k.T Z  .;.t.j.Q.j.u 0 C v p q Z ;.T 0 * 0 C u.,.,.,.p 0 V  .L j.L , *  .A @ w v < * , # , , @ # 2 : # # # i.BXcXcXzXzXsXmXxXsXsXxXxXxXc.^ _.8X3X4X4XqXqX4X4X;X*X4X4X-X4X-X[.`.n.).;X;Xn.^ A.2.z.F.%.S P M S J s J t J P 0 = , V  .,.,.C p w 0 L o.o.o.X.Q v m @Xi.x x @Xe.Z V q v v v v q , * @ * , , 0 0 C L u S ,.S :.u.z.%.P a f F 0 t 0 L K.XXj.%.j.5.*.XXoXoXeX0X*.*.m.5.j.v.<.<.<.=.2.7.7.<.b.=X-XF.z.z.z.<.<.7.7.=.=.<.<.=.=.",
"7.7.7.7.7.2.<.=.=.=.=.=.=.<.<.2.5.7.5.5.<.5.2.2.<.7.7.7.7.2.7.7.7.7.7.7.M.=X3X5X>X>XE.Q.1X:X:X2XnX,.A V C V @ * * $ V ,.o.p e v p w * , q p v 9 v 9 * w f *.6.h } 6.8.oXm.5.#.#.5.eXnXeX*.C L  .j.K.S.x.K.OX:X7XDXmX7Xb.D.D.9XJ.+XnXaX,.,.k.C * , : q v H W E J ) n.n.f.3.3.3.f.(.'.f.&.1.3.3.(.`.`.;X2.2.F.H.{.W : > : < 1 1 n N b u > x e.b % > 2 y y 2 < 2 2 y y y N H % > u b N H J Y Y Y J J K K J R R P R K K K ^ &.>.2.&._ ) ^ ) &.' M & i 6 5 6 6 5 < < > 6 u 6 5 > 5 6 > > > i M i i i t d d t i 5 u 5 i ( <.y.:.y.( J R J S i b S S J W.:X5X1XT.E < < p H L X.Z 0 q , % H u.b u < n Z u L b , H k.W.Q.@XY.Z , C  .t.u $ X.u.C * 0 @ C k.l.j.V * 0 |  . .,.V 0 0 L p 0 C p 0 $ 0 q q q # @ , 1 : # # V.BXfXzXcXxXxXxX8X3X*XzXxX[.c.a.c.=XmX8X6X8XxXqX3X-X3XqXxXqX-X`.[._.n.`.-X`.`.F.F._.4X_.a.<.z.P S %.R %.b P j. .t < < p  .j. .9 * f | ..L w , , , , Z @Xe.X.pXL.1 q q Z V e v A 0 @ @ $ q q C L L  . .@ S  .:.S.z.L C p F F *.,. .{  .L F ,.m.f { +XoXm.eX5.*.*.S.j.K.D.b.v.<.=.=.<.<.z.XX,X=Xv.<.<.<.<.<.<.<.<.=.=.=.=.=.",
"<.=.=.<.7.7.<.=.<.<.<.<.<.7.2.7.<.<.<.<.<.<.<.<.7.7.7.7.7.2.2.2.7.7.7.7.7.D.=X>X{.,X,XW.:X2XgXgXS.C T ,.l.,.p $ $ A j.,.| A C V w 0 * q L S.j.0 C V p 0 F oX5.*.*.6.oX0X0XXXm.b.9XDXDXnXK.j.W.7XgXmXG.G.mXmX7X,XDXmX9XD.z.v.eX=XS.nXmXV.t.S.;.0 % , q b H H Y R _ d.n.A.).).).(.).n.1.&.3.n.(.'.). X'.n.A.A.s.s.H : > > 2 2 q x x y y : < H x > 2 < < < 2 2 2 y i u u H H % < c N H Y J J J J R R R R ) R K K K ) ^ K ^ ) _ &.) ^ ^ K ) ' ) M & 6 6 6 6 5 5 5 < & < 6 5 < & > < > > > i c i i i 8 t i 7 7 > 5 > 5 H R %.( -.J M J M a i M P P H J E -.E C q Z ;.v C t.Q.V.T < < q v n < < Y i.n . % % @ : < C u.V.Z 0 U S.pXOXv < t.j.p * , $ p S.k.A 0 0 e ..,. . .e $ 0 q * v p , , , 0 0 , , % % < 1   : : u.BXcXfXsXxXAXxX].}.xXAXsX>.) C.a.4XqX;X4XxXqX8X8X-X6XqX;X-X-X'.-X[.A.`.).A.H.[.F.`.*X;XH.z.v.a.<.<.>.<.:.:.<.E a C u t C ,. .e p } } | e @ $ $ @ @ q o.Z v Z L.I , v V v ; q p o.C 0 * p A ,.,.,.L ,.< u ;.S.,Xu.C t t p F ,.+X0XL p p f *.*.f 5.m...m.XX{ m.*.XXK.D.=XD.v.=.%.=.<.z.J.=X9X=XH.7.<.<.<.<.<.=.=.=.=.=.=.=.",
"=.=.=.=.2.7.7.2.7.7.7.7.7.7.7.7.<.<.5.5.<.2.2.2.7.7.7.7.7.7.7.7.7.7.<.<.7.7.M.=X].R.R.>XaXMX2XgXk.p C A V A w e * v | ..S.t.p p * 0 L S.aXCXS., p L ,.m.m.0X5.m.5.5.XX0XeX0X=X=XDXDXDXmXfXfXCXfXmXDXK.&XCXNX9X9XmXmXmX=X<.z.9X0XK.nXMXOXx.+XY.n : 2 2 n E E -.:.&.>.d.n.).'.'.;X'.n.3.2.n.(.(.'.;X Xn.A.[.A.Z.Z.b > > 3 , : q v b x y > % y 2 2 2 y 6 6 y 6 y c y u t b b % < c b b M M M S H H J R ) R J H M D R K K >.A.}.F.h.>.>.) _ ` ) M & 6 6 i 6 6 u i 6 6 6 u 6 < & & > & > & & < 5 5 5 5 5 5 5 5 & 5 5 & M ( >.R R H M J S b a H %.<.>.E E S u c L 2XgX,.0 0 b H Z p , v c < u c u < % % % % , q : , p u % H W.2X@XX.< 0 ;.H < u < * q k.T * 0 p 0 *.m. .L p 0 0 * * C p p u q q 0 * , # # , 1 # : X e.BXfXzXzXxXxX8X].=XzXxX8X<.( ].c.*XxXxX4XqX6X8X8X4X4X*X`.*X-X`._.)._.-XF.A.].4X8X-X*X*XJ.c.`.C.v.<.P S a b b H Y j.c 0 0 L *.0 C ..L L V A w $ $ $ e Z v - - Q i.l T l , w v V ,.| L ..4.4.j.$Xl.j.;.p = ,.:XK.C C t t p F { 5.XX4.t 0 p j.{ F L L { +X*...5.*.0X+Xj.+X=X<.*.<.z.K.v.=X=X=XJ.D.v.<.<.7.5.<.<.=.=.=.=.=.=.",
"=.=.=.=.=.=.7.7.7.7.7.7.7.7.<.<.7.7.5.5.7.7.7.7.7.b.b.7.7.7.7.7.7.7.=.=.<.7.b.M.=X=XG.R.&XgX7XaX,.e v A * e e * e A j.#XS.L ,.L p V.CXVXCXbXt.t C  .+XnX0Xm.*.0Xm.XX0X0XeX9X,X9XSXDXMXfXNXSXCX9XmXgXE.,XMXmXsX5XgXDXmX3Xj.b.9X0XJ.gXgXOX,.t.@Xk., 1 2 Z W E -.:.-.&.h.A._.).'.;X'.).(.).(.).'.;XwX`.2.)._.A.}.W.b : : : : # 2 b c y < > : < > > < 2 < < 6 6 6 u u u i b N u c S J R R E ( -.-.-.-.>.:.y.s.N.H.{.|.{.|.8XmXAXAXzXxX8X}.].A.a.( M b i c b b N N N u c N H J Y ' ` :.:.r.-.( N 5 5 > & & & & & & < & 5 b J J R S u a b M M J R R %.) E b a p b V.Q.H < % , % % q p b u < u t 2 < t < % % 2 u < , q , % W <XQ.X.< % & L v p v < % , p 0 * < < < S j.*.a 0 < * * p C p C v q q q < 0 % % , : # % # p.BXfXcXNXsX3X3X3X5X5XxXmX>X>.a.a.a.mX8X9X].8XxX8X4X-X[._.`._.A._.n._.-XF.F.3X].8X9X9X3Xz.a.`.D.,X<.P H p u t b H %.L 0 * p L C A | A V | j.L A w , * l v # w m k.p.I $ $ | w A 4.*.F A } | L l.,.*.,. .0 p  .S < v 0 t f f F m.+Xm.C w 0 L L f f s l.0Xf ..{ 5.DXj.j.K.D.<.<.D.M.=XJ.=XJ.7.7.<.<.<.5.5.<.<.<.=.=.=.=.=.=.",
"=.=.=.=.%.=.=.7.7.7.7.7.7.<.<.<.2.2.7.2.7.7.7.7.7.7.7.7.7.7.7.7.7.7.=.=.2.7.7.7.b.v.H.=X,X2XnXS.C e p w e * 9 * * ,.7Xl.{ *.mXS.V.nXCXbXCXMXS.j.K.L K.0XXX=.v.XX=XeX=X9XeX9X9X9XSXMXmXmXNXVXCXNXmX9X,X3XmXmXzX9XgXDX8X3Xj.v.=X0XXX7XmX7Xj.j.pX@Xq : 1 Z W ;.W R <.:.s.c.A._. X4X;X'.'.).).).'.`.;X).n.`.A.}.H.N.y X : : : : > < : < 2 u N H N H H Y J Y -.y.y.u.u.y.x.B.R.R.T.E.,X5XgXzXzXzXmXNXmXmXNXNXNXNXAXZXSXJXSXZXNXmXCXAXAXAXAXZXAXCXzX5X1X{.|.>X>X>X5X>X5XsXzXzXMXCXZXZXZXCXZXZXzXZ.M t < M H S b i i 6 i i i i u b H K b S K R -.( R J J H b C H C Z p < u H L b L ;.;.b = b u.x.r.%.E i < & < u b H E E b 2 p < % u u % t t u t p p = 0 < p b S b a <.%.P  .,.<.;. .E a p C p q p p 0 % # , q , , : X.BXMXMXzX5X8XxXxXzXxXZXAXzXc.>.z.%.D.NXJ.E.mX3XxX8X-X}._._.F.A.`.;X[.*X[.*X8X=X9X9X5XE.P >.v.<.z.&XL p H C < < 0 u E H < q p A | } w e A L L l.O.w * v t.v # , Z @XT $ w L 9 C ,.l.C p { .... .C a p  .L * u , 0 * t t C { *.m.,.F 9 e t p L C s C +X*.g *.} 0X0X..j.*.D.v.K.5.=X=Xv.b.<.=.<.<.2.7.7.5.5.5.5.=.=.=.=.=.%.",
"=.=.=.%.%.%.=.=.7.7.7.7.7.7.7.7.2.2.7.7.7.7.7.7.b.b.b.7.7.7.7.7.2.2.=.=.<.7.7.7.7.7.b.7.x.OX<.v C L L A | | A * V +X+XF L 0XeX,X9XZXCXCXMXaX+XnX9X,.=X0Xv.*.+X9X0XeX+X7X9X9XmX,XNXMXCXmXNXCXCXCX,X3XgX5XNXzX9XzXmXDX9X9Xz.b.XX=XK.9XmX,XS.2X<Xt., % y Y ;.e.:.-.:.:.a.a.c._.[. X-X`.`.'.'.;X;X;XwX).n._.A.-XR.U.c X : X X : < x H E W ;.r.y.r.u.g.B.Z.Z.{.,X,X>X8X,X8XgXmXNXgXzXAXZXSXSXZXZXSXSXJXJXJXJXSXZXNXmXNXZXAXZXZXZXZXNXNXNXAXAXAXZXJXJXJXJXJXJXZXZXSXZXZXSXSXZXCXZXCXNXZXCXNXAXZX3XK 5 u N.5X5X|.}.R.Z.s.y.:.:.y.Z.>X5XH.E.,XsXgX8X>Xx.J J J P E E p < u p b T H X.j.%.u < <.gXgX,XH.x.r.R c b ( W.gXzXgXW.-.H S ;.{.Z.c i L r.:.E H b H H %.:.z.G.y.B.,X9XgX1X&X1X9XmXG.<.%.C a L C p < < , q : , # ;.GXVXMXfXsXzXNXmXZXZXZXNXgX9XC.y.y.y.&Xx.9XmXzXzX9X-X=X_._.[.}.[.8X=X].=Xz.<.,X8X5X9Xv.%.%.j. .L K.,.0 C C , < Z p p L 0 0 0 V } f * $ } ..o.j.| A w w T V , V T @X#XV l.p @ A j.5.*...} *.j. .| ,.u a C C < < % p p 0 f { { m.oXF 0 e 0 C F C 9 l.XXs F *.6.XX..{ { S.K.,.v.0X=XK.<.=.*.=.=.=.2.7.5.5.5.5.5.<.=.%.%.%.%.",
"%.%.%.%.%.=.=.=.2.7.7.7.7.2.2.7.7.7.7.7.7.7.7.7.7.7.7.7.7.2.7.b.M.M.b.=.=.<.7.7.7.=.2.5.7.G.H L ,.S.O.o.4.,.A p S.S.| L ,.mX9XnXMXCXCXZXCXgX1XDX,X0X9X=X,.D.eX=X=XnX+X9XnXaXMX:XfXVXNXfXmXCXmXgX3XmXmX9XAXmX9XsXmXDX9X9Xj.j.D.XXK.7XmX,XOX@X;.1 # , n W ;.;.y.u.r.y.-.-.>.C.*X-X;X;X-X-X;X;X;X4XqX).f._._.|.{.B.n % X o X 2 n ;.e.u.u.u.s.s.V.Z.g.Z.E.{.3X8XsXsXzXxXzXmXzXzXzXNXAXAXCXCXAXZXAXNXCXCXCXCXCXZXSXJXNXZXZXZXVXCXZXZXSXZXAXNXmXNXNXAXmXNXNXMXcXmXNXmXAXCXNXNXNXCXNXNXzXNXNXNXmX5XK & M ,XzX8X5X5X5X5XzXzXNXCXNXCXAXNXCXCXCXmXzXzXzX*XY i b i i p 0 c j.H = 0 p u b C S b B.gX,X,X9XsXAX5XR.R.>XsXsX5X>X,XsXsXsXgXsX5X5X>XsXgXzXsXR.s.x.x.E.3X9XsXDXDXzXNXZXNXgXDXCXmXCXMX,XE b L C L OXOXt.n # % % i.GXVXBXzXsXxXmXmXCXZXCXCXNXCXE.:.-.<.G.H.>XmX,XmX9X8X8X-X_.].-X;X3X*X*X=XJ M *X,X,XE.P ;.<.,. .t L <.p p H C v v C p w 9 e 9 w w * 9 9 A ..} A V p L 9 L L e t.Y.t.Y.+Xl.p L f ..m.*.4.} F ......F C  .C L t * 0 p v L 5.4.*.5.{ p 0 0 0 C f = F XXG s s s $.F f } 5.5.,.K.K.K.=X<.%.<.%.=.=.=.=.=.=.=.=.=.=.=.%.%.%.%.%.",
"%.=.=.%.%.%.=.=.2.2.7.7.<.<.2.2.5.7.7.2.2.7.7.7.b.b.M.J.=X=X4XqXDXxX=Xv.<.<.2.7.=.=.7.7.z.b.>.v.S.l.,.o. .C | +XeX .C F *.9X9XmXCXZXVXMXSXVXCXDX,X9XnXj.j.9X9XK.=XDX,X9XmX7XgX:X1XCXMXSXNXmX:X&XsXDXmX5XmXmXmXmXmXmXgXmXj.5.K.=XB.9XmX&Xu.n # % # 1 v U ;.:.s.s.y.y.%.-.<.C.[.-X-X4X;X-X;X;X4XqXwX).A.-X}.}.{.H > o : : 2 b H Y W -.y.x.N.Z.R.Z.R.H.E.>X8X8X8X8X8XxXxXxX8X8XmXAXmXmXNXAXAXAXAXAXmXCXZXZXAXNXNXNXCXCXAXZXZXCXCXZXAXNXNXNXNXmXzXmXzXzXzXzXCXNXNXNXmXmXmXAXAXNXmXmXmXAXAXAXxX].M & ( NXmXzXzXzXMXCXNXmXNXmXmXzXmXmXzXNXmXzXNXmXmXsXR.H b u b J ;.S.&X:.:.;.:.;.;.B.:XG.,XgX9XsXmXmXmXmXmXZXAXCXzXxXzXzXzXNXxXzXcXmXNXgXNXAXmXNXmXNXmXmXzXzXzXzXSXAXAXmXzXmXmXNXAXmXmXmXmXOXu.z.P ;.9XgXaXV.v # # i.BXGXVXcXsXxXxXxXzXNXZXSXCXgXE.H.-.%.<.E B.gX>X9XAXmXxX3X_.].-X-X*X9X*X,XR J ,XE.&XG.H E <.C  .t 0 C 0 q Z C v 0 L o.C e e w $ e 9 * $ V | A V e V f w | ,.| | T , L @XA e p e l.XX{ ..m...} } } C t a C 0 L p p C K.0Xm.*.4.{ f 0 0 p A L 9 0 =Xj.j } 6.f } f f { 5.5.m.m.b.K.K.D.z.=.=.=.=.=.=.=.=.=.=.=.=.%.%.#.%.%.%.",
"%.=.=.%.%.%.=.=.<.<.2.7.7.7.2.2.7.=.7.7.2.7.7.7.z.=X9XmXDXZXSXJXJXSXDX3Xb.5.7.7.7.7.7.2.<.7.z.<. . . .{ L j.0X9X+XL S C ,.nXmXMXSXSXVXVXCXCXCXNX&X9X,Xj.gXVXCXmXgXNX9XgXMXgX9X9XE.nXJXmXgXE.&XmXgXsX9X9XgXmXmX9XmXmX9X9Xz.<.=XOXx.u.E c # X , # # q Z H E E %.:.>.N.c.C._.H.[.'.-X4X4XwX4X-X4XqXwX).).[.[.>Xx.% X > 2 v n H H H J K ) :.x.c.C.C.A.A.}.*X8X8X4X;X3X4X3X6XqXxXxXqXxXmXDXmXmXAXAXAXAXAXAXAXDXDXAXDXSXZXAXAXZXZXZXNXmXmXNXmXmXmXmXNXzXmXmXNXNXNXNXmXmXAXAXNXmXmXNXDXAXAXSXxX}.2.i 5 N.NXZXCXZXZXJXZXZXZXSXZXZXAXZXCXNXNXNXNXNXNXmXzXmXgX5X5XsXzXcXcXzXmXNXNXNXmXNXCXzXxXsXsXxXzXzXxXxXxXvXxXxXzXxXxXxXxXzXNXNXzXzXNXAXmXxXxXxXsXxXNXNXNXNXmXzXmXmXmXNXmXzXNXAXAXmXxXzXxXzXmXzX5X,X3X8X3X,XgXH . : I.HXVXcXzXxXqX4X8X3XsXNXAXAXmX3XZ.G.G.<.L L <.&X9X,X=X9X,X8X=XF.3XgX,X*XG.b J gXG.B. .E u.%.t L C 0 p v v L C L C p ,.S.V * q q * $ , 9 L L w w w p | V v l.T , , # , t.k.w v t.#X .f w 4.m...C w C p 0 p 0 { j.p j.nXeXXX{ { C p 0 0 L ;.0 9 m.+Xf s 5.5.F s } ..6.6.m.8.=.*.<.v.<.<.v.M.<.*.=.=.=.=.=.=.=.%.%.%.%.%.%.%.",
"=.=.=.%.%.%.=.=.=.=.2.7.7.2.<.=.=.=.=.=.7.7.7.v.3XmXAXJXJXJXJXJXJXSXJXDX=X7.7.7.7.7.=.=.=.=.2.2.v.D.=XK.K.,X,X9X0X;.P H :.7XnXVXCXVXVXVXCXNXNXmX&XgXE.E.mXCXSXCXmXZX>X,XgX9XgXmX=XJ.=XH.H.,XmX9XsXgXmXmXmXmX8X9XnXmXmX9Xj.%.<. .u t t %   : , : 1 q T k.V.<.%.>.a.B.].F.F.[._.-X-X`. XwXwX4XqXqX;X).).A.}.5XY % > y b E -.;.:.r.a.<.a.c.v.b.c.A.C.F.}.}.-X-X4X;X-X;X4X4X4X4X4XqXqXqXqXqXqXxXxXxXxXqXqXxXmXAXAXDXAXmXxXxXmXCXCXCXAXAXNXmXmXNXNXNXNXNXmXmXmXmXmXAXmXmXzXxXxXmXmXmXmX4X=X2.2.<.5 i ,XZXZXCXZXZXJXJXZXSXJXJXJXSXZXAXZXSXSXZXZXAXCXCXZXCXNXNXNXCXVXZXCXAXAXCXNXmXNXNXzXzXxXxXzXmXmXmXNXNXcXNXNXzXxXxXzXzXzXNXAXAXNXxXxXxXxXxXmXmXzXzXNXNXmXxXxXxXzXzXCXNXzXzXzXmXzXxXmXxXzXmXmXzXxXzXzX8XsXgXE # : ~.KXMXfXsXxXxX4X*X3XsXzXmXNXmX*Xa.%.z.z.S.<.%.D.D.%.b.5.j.9X=X<.J.9X,X5XV.H E :XW.B.E S  .%.v Z C , 0 p p q q U T v C X.L e , q , * $ e V w e , w V L A v Z t.Z # * v n Y.k.| t.A 9 w 9 f m.XX} F p p 0 t C ..eXoX0XrX0X{ } f f p 0 p L a * } 0X6.9 f 6.} 9 } oX*.6.8.6.{ g *.5.%.v.D.v.z.<.=.%.=.=.=.=.=.=.=.%.%.%.%.%.%.",
"=.=.%.%.%.%.%.%.=.=.<.7.7.<.<.=.=.=.7.<.7.b.J.sXCXSXJXJXJXJXJXJXJXKXJXmX,XM.=.=.7.7.7.7.=.=.=.%.G %.OX=X9X9X,X9XmX9X,X:XgXCXMXNXNXCXVXVXCXCXCXmX,X9XE.gXCXNXCXZXVXNX&XE.1XmXmX8XmX=X&X9XzXmXmXCXmXmXmXmXmXmXmXDXmXmX9XJ.P a a a J J :.H % # % 1 n W ;.W.aXG.:.s.B.B.v.v.c.n.).[.`.). X4XwXwXqXwX;X).)._.*XT.> % c H e.x.x.Z.R.1X9X8X8X8X3X=X].J.J.C.c.z.v.A._._.`.[.[.[.[.*X-X-X4X;X-X-X;X;X;X;X6X4XwXwXqXxXxXDXmXDXAXAXZXZXAXNXZXAXCXAXAXAXAXAXNXzXzXzXmXzXzXzXxXxXxXxXxXzXxX8X].>.-.-.d.) & ) zXSXJXZXZXCXNXVXSXSXSXZXZXSXSXSXAXZXZXAXAXCXCXCXZXZXZXZXAXAXVXNXNXCXCXCXNXNXNXAXAXNXNXNXNXNXNXNXAXZXZXCXCXNXmXNXAXNXzXzXNXAXAXzXNXmXmXzXAXAXNXzXzXmXzXzXxXzXNXzXNXzXxXxXxXxXxXxXNXzXxXxXzXxXxXxX4X8X5XW.H # % u.GXCXMXzXsXxX8X*X>X>X5XzXAXCXzX9X:.P S ,.z. .%.z.b.=XD.*.v.XXu.B.E.1X1XS.H H Q.1Xx.L F b v p 0 p q p 0 v q Z v v v w 0 e , $ e e q e w e , $ , V v w V T * , T  .% % v X.@X#XL p p w 9 f 5.0Xl.e  .C 0 9 p g 5.XXm.eXoX{ { f f j 0 p p 9 C m.oXf 9 h f } ..5.6.m.8.{ f G #.m.{ { %.%.*.=.%.=.<.=.=.=.=.=.=.=.%.#.%.%.%.%.",
"=.=.%.%.%.%.#.#.%.=.=.=.=.<.<.2.7.=.=.<.2.`.mXJXJXJXJXJXJXJXJXJXKXSXgX&XH.M.z.=.=.=.7.=.=.=.$.G P %.=X9X9X,X9X9X9XgXmXmXNXMXmXNXNXNXVXZXCXCXNXsX,X&X,XmXZXmXmXVXJXCXZXNXCXmXx.>.D.9XmXmXmXCXmXZXmXmXmXsX9X9X,X&XD.b.>.S t t P z.y.<.Z.i.c % , 1 Z t.i.@X7XB.N.G.J.<.M S ^ %.).'.).-XwX4XqXqX;X4X;X_.[.3X>X-.O 6 c b Y E E u.x.N.].*X9X9X8XxX4X].A.C.H.}.}._.F._.`.`._._.].[.[.-X-X-X-X-X-X-X4XwX4XqXwXqXxXxXxXmXAXAXAXNXNXCXCXZXZXZXZXZXZXAXNXmXmXzXzXmXmXzXxXxXmXmXzXxXzXmXmXmX3X>.K <.c.i i A.xXNXZXJXJXZXVXJXJXJXJXZXZXSXJXJXZXSXZXAXAXZXZXZXZXZXAXAXAXAXVXCXNXCXCXAXAXCXAXAXAXAXAXZXAXCXNXNXCXNXNXNXNXNXCXCXCXNXNXCXNXNXzXzXzXxXxXmXAXNXxXxXzXmXNXmXzXmXmXmXmXmXNXNXzXzXxXzXzXzXxXxXzXzXxXxX3X}.B.u.E % % t.BXCXcXsX9XxXxX=X>X{.>XxXzXxXzXNXfXG.;.z.B.H P z.z.j.+XD.,.<.j.j.j.7X7XV.P L u.:X,.p L p 0 L T L 0 0 w v C v q , $ , , , , * e w , q q w e ; , e   w L L C $ $ p  .v , % p @X+XX.V w 0 e p m.l.w C s 9 9 f } } { *.8.m.m.6.} s j 0 p 9 9 ,.+X..9 9 s { m.5.6.6.6.f f { *.{ m.*.{ P #.%.%.=.<.=.=.=.=.=.=.=.=.%.#.=.%.%.%.",
"%.%.#.%.%.%.#.#.%.%.=.=.=.=.=.=.7.=.=.<.D.mXJXJXJXJXJXKXKXJXSXNXgX5XE.x.E.<.%.@.G h h G G G h G %.<.=X,X9X9XzXsX9X5XfXfXmXmXgXfXNXVXZXJXZXZXmX3X3X=XgXCXZXNXNXZXJXZXJXJXSX&X%.z.<.y.x.D.x.a.<.y.-.>.<.<.x.v.x.<.-.%.J b s S a.G.B.G.:X&XW % : 1 m e.X.I.2XG.Z.R.C.P S K =.2.`.`. X4XwX4XwXqX-X-X-X[.-X-XE.M % c u > y ;.W.>XR.R.J.].=X=X*X3X=XC.a.<.<.z.H.*X6X8X4X4X4X3X4X;X-X-X*X*X3X3X6X-X6X4XxXxXxXzXmXmXmXAXNXAXAXZXZXAXAXAXCXCXAXZXZXZXCXmXZXCXCXAXAXNXAXZXAXZXZXAXAXNXmXzXxXc.J <.) t ) 6XzXxXNXNXZXJXSXJXJXJXJXJXJXSXZXZXZXJXZXZXZXZXZXZXNXNXCXCXNXNXNXNXCXCXCXNXNXNXNXNXzXzXmXAXAXNXNXCXZXVXVXVXZXZXVXZXZXZXZXZXZXVXNXNXZXAXSXJXJXSXZXZXAXZXZXAXCXAXAXZXZXZXZXZXZXCXNXNXVXZXZXAXZXZXZXAXNXzXs.r.V.y . ;.CXVXMXzXNXmX8X].s.s.Z.|.5XsXsXsXNXMXCXMX9X<.:.,.%.*.j.j. .L L m.,.+XCX,.F  .p t.j.p C V  .S.,.| p * w 0 e $ * @ $ $ q w , , e e , e $ * ; ; e , q p w q * * * % * p p % * Z Y.nX| w f p e ,.0X..0 p s j XXrXXX} { { 8.0X0X$X6.f j e s { oXj.f = 9 *.XXm.6.*.} j s *.6.{ 7.%Xb.5.<.%.%.=.=.=.=.=.=.=.=.=.=.=.*.%.=.=.%.#.",
"#.#.%.%.%.%.%.%.#.%.=.=.=.%.=.=.#.=.=.=.J.NXJXJXJXKXKXJXMXaX>XE.H.E.E.C.%.K S G S g g h h h h ^ #.%.F.>XxXsX9XzXsX9XgXsX9XmXNXZXNXCXZXZXCXZXNX9X5X9XmXZXNXCXVXZXJXSXSXJXmXa.<.C.G.B.B.x.-.%.R J J P -.x.C.C.c.x.c.y.R ) K P C.].E.H.&X,XV.< X , x T y Z t.W.Z.G.a.) <.>.2.z.`.-X;X;X4XwX4X4X;X-X*X4X}.C.N.c > 2 E ;.g.W.&XW.{.9X9X9X8X8X8X8X8X3X*X=XF.a.>.<.a.c._.=X-X4X8X6X6X4X6X4X8X4X8X-X*X}.8XxXzXzXzXzXmXAXZXAXNXAXZXZXZXZXZXZXZXSXSXJXSXSXSXZXZXSXSXSXSXJXSXZXCXNXNXNXNXNXAX].) >.i u >.6XNXNXNXzXNXZXCXSXZXZXZXZXZXZXZXVXZXZXZXCXZXZXZXZXZXZXZXZXSXSXZXAXSXZXAXAXAXZXZXSXAXAXSXSXJXJXJXJXJXJXJXJXJXJXJXJXJXJXJXJXJXJXJXJXJXJXAXzXsXxXzXzXCXAXSXZXZXJXJXJXJXJXZXJXJXJXJXZXJXJXJXSXSXSXZXZXAXNX:.H r.y % H iXCXCXCXNX5XZ.a.-.>.y.Z.>X8XxXxX,XfXfXCXJXmXMX7Xm.*.*.*.C { ,.m. . .7XL C ;.C T ,.w w ,.7Xl.V w p p w 0 , e w p A v v L  .v # , Z V e , , e , , e e * , , 0 C C 9 @ = *   < C S.nXS. .f C f oXXXf F ..} eXDXeX$X..{ { XX0X0X0XF j } 8.XX8.F 9 = { XXm.*...f 9 j } 8.$.*.%X0X0X7.7.M.7.=.<.=.%.=.%.=.=.=.=.%.%.%.%.#.#.#.",
"%.%.%.%.%.%.%.%.#.%.=.=.=.%.%.=.#.=.=.=.D.8XmXSXZXJXKXCX1XQ.G.N.E.G.>.%.S S g S h S S g g g S S P P z.*XsX5X5XzX9XaXgXsX9XgXzXmXzXmXNXNXmXNXNX1X5XzXNXVXMXCXVXZXJXVXZXJX9X<.D.c.<.x.D.D.D.G.H.=XR.R.E.J.G.c.x.c.D.c.y.a.R R H.,XH.G.Q.,XT.2 X , : 1 , , q V.*X=Xv.<.z.z.a.b.-X;XwX4XwXqX-X-X;X[.*XE.-.y.s.u > : E V.:X2X{.E.*X8XsX8X8XxX8X5X5X5X8X8X8X8X=XH.z.<.H.].*X>X*X=X].=X3X3X8X8XxX8XxX8X3X|.}.-X8XxXmXmXmXmXNXAXZXZXSXSXJXJXSXZXZXZXZXZXZXZXSXSXJXJXSXSXNXNXNXAXZXSXZXAXAX}.) P 5 H H.zXxXzXNXNXAXZXZXJXSXZXZXZXZXZXZXSXJXJXJXZXJXJXSXJXZXZXAXAXSXSXAXAXAXAXAXAXAXAXAXNXmXNXAXAXAXAXZXZXSXZXZXZXSXJXJXJXJXJXJXJXJXNXCXSXSXNXxX6X|.>X5X5XxXzXNXAXAXAXAXAXZXCXVXZXJXJXSXZXVXVXVXVXCXAXZXZXZXzXR.:.x.u X < r.jXVXgX:Xx.s.G.Z.Z.R.{.>X6X5X8X5XgXaXfXMXMXgXMX7X*. .} p C ..,.,.F ,.{ L | L C A e p S.S.V e A V A V w L o.t.o.j.,.Z p o. .e ; w q , : : , , , , e e * | +X9X0X5.s 5.S.L p @ L l.#X7Xo.} 9 F oX} F *.} 6.0XeXeX} f F m.l.4.6.} 6.m.m.8.*.9 @ p +X4.*...j @ j 9.8.9.{ } 8.eX0XeXM.m.M.b.=.=.=.%.=.=.=.=.*.%.%.#.%.#.#.#.",
"%.%.%.%.%.%.%.%.#.%.=.=.%.%.=.=.=.#.=.=.=.b.H.].].>X5X5X>X*X*XE.z.P S S S S G g G S g g g S K G P #.<.>X9X5XsX{.5XgXgXsXzXgXsXsXzXmXCXVXmXNXmX,X&XaXNXNXNXCXVXZXSXCXSXJXsX<.B.a.B.y.<.z.G.H.C.v.Z.R.].J.F.G.G.D.C.D.B.<.S P R.*XB.B.H.,Xi.> % , # 1 v < q G.aXzX,X<.a.v.D.=X3X;X4XqX4X-X[.[.[.A.C.%.< ;.r.> : % H T.:X&X{.9XzXsX8X9X8XxX8X8XsX8X8X8X9X8X9X-X*X3X=X*X3X5X8X3X3X8X8X>X}.C.c.<.y.<.-.R P ) >.s.Z.R.*X*X|.{.*X3XzXAXCXNXmXmXmXNXNXCXZXZXZXZXZXSXZXZXAXAXAXAXAXCXNXNXAX6X-.i 5 -.6X8X5XsXsXxXAXZXZXZXZXZXZXZXZXZXZXZXSXJXSXZXZXCXNXNXAXAXAXAXAXAXAXAXSXSXAXAXAXNXzXxXxXzXzXzXzXmXNXNXzXzXzXCXCXCXCXNXNXzXNXNX*Xa.C.3XvX6X5XxXzXzXmXNXxXzXzXxXzXmXzXxXzXzXNXCXCXNXMXMXNXMXNXNXNXNXNXmXCXzXaXZ.R.b X % c V.Q.V.T.Q.W.{.G.*X,X,X5XsXsX>X*X&Xj.7XW.OXgXMX,.C  .L f p L  .L C L *. .V L L | p o.7XL w A A e V w p p V A A w v V w , * , # # # # # # # , e $ * * L eXnXXXXX0X*.oXDXeX#XL C o.A ..m.nXm.*.F { } { j 0 XXnX6.j j f { f 0 f F 8.0.6.*.f @ 9 m.m.*.h 9 @ 9 h 8.6.8.{ s 6.oXrXrXXX{ #.m.5.%.=.=.=.=.=.=.=.*.%.#.%.%.%.*.",
"%.%.#.#.%.%.%.%.%.=.=.=.=.=.=.=.%.%.=.=.=.=.%.%.%.) %.>.<.B.C.<.S g S S G S G G G G K S S J R E P P =.].9XsXxX5XgX1X,X9XgXfXgX9XzXsXG.x.5XVXgXW.aXfXNXNXNXVXZXZXVXSXJXaXu.E P %.<.R >.<.x.B.x.B.N.Z.Z.c.z.c.C.b.B.a.<.u.J J N.H.y.z.T.Q.u.> % # q e.t.< q V.:X5XgXD.z.`.0X3X=X=X3X8X[._.F.n.H.C.P 5 5 -.H < : > H :XW.*X9XsXzXxXsXzX5X5X8X8XsX8X9X9X9X9X>X,X>X3X>X5X5X5X5X3XxXzXsXsX5X>X{.H.y.( J -.y.s.s.u.a.s.N.s.s.N.R.,XxXmXzXmXmXmXNXCXZXZXZXZXZXZXCXZXSXZXZXSXCXCXmXzXAXAXZX8XJ i i s.5XxXxXmXxXmXNXmXNXAXZXSXZXAXJXJXJXJXZXZXAXAXAXAXZXNXAXSXSXSXAXNXAXAX8XC.:.c.>XxXAXAXSXSXSXSXAXAXAXNXNXAXZXSXZXSXJXAXAXzX6XA.a._.3X-X4X8XxXxXxXxXzXzXzXzXzXzXzXzXzXmX*Xy.s.R.5XNXZXNXVXCXVXZXCXVXCXNXzXgXNXZ.W.E . < < b ;.V.|.:X:X:XsX5X>X5XsXsX5X5X:X,Xj.,.;.V.7XaXj.P  .{ L ,.j.,.A } { } L C P L C e ,.l.e C ..V w p e 9 9 e e w w e V p , * * , # : # # : , q # $ * w j.oXXXXX0X%XXXXXeXeXeX5.C o.A w e ..m.oX0Xm.m.{ g F s *.s f j f f F f f { oX8.6.+.9 j 5.m...f = j { h h 6.8.%X9.@.8.8.%XeX%X$.$.8.*.#.%.=.=.=.=.=.=.*.%.%.#.#.%.%.",
"%.%.#.#.%.%.=.=.=.=.=.=.=.=.=.=.=.%.%.=.=.#.^ P P G G K K J K M S g S S G G G G G P P E %.u.g.i.%.G G <.H.,X9XaXgX5X{.W.R.G.E.B.B.:.H b H r.5X&X1XaXaXgXVXVXCXSXJXgXs.J S J ) >.v.D.x.>.%.<.u.G.x.x.B.y.v.y.y.<.y.y.-.s.R J y.E. .;.B.S.k.u X , Z k.k.v v ,.:X,X9X=X=X0X9X=Xb.M.-X=XD.c.2.2.a.-.5 < b -.y > < u c V.Q.9XzXzXzXsX8X9X5XxXxXxXxX8X3X5XsX9X3X9X>X*X,X5X5X5X8X8XzXxXzXxXzXxXsXxX5XN.H.*X5X5X{.Z.G.{.R.Z.H.{.3XxXmXzXzXNXCXNXmXNXCXZXAXCXZXSXZXSXSXZXSXZXNXCXCXAXZXmXJX>XJ 5 i N.6X}.}.xXmXAXAXAXZXZXAXAXAXZXAXxXsXzXAXSXSXSXJXSXAXZXAXxX6X4XqXqX}.h.&.&.>.>.>.a.A.}.6X8XxXmXmXAXSXJXJXJXSXSXSXAXAXxX6X*X_.}.6XqX4XqX4XwXqXqXqXqXxXxXxXxXxXxXxXxXxXxXsX{.s.-.( -.Z.cXCXBXfXaX:XW.B.E.,XfXmXx.Z.:.% : % < Y V.T.fX:X:X1X5X,X5XiX5X5X>X1X2Xu.C H V.2X2X7XS. .A } l.#Xl.5.*...A C { C L A e L p e V p p p | w $ * * e V | A L  . .V 1 # : , # , , , , $ * w 0 p f 5.eXeXrXrXrX0XXXnXXXf ,.p 9 w A p F XXl.+X0XG s j f 9 9 e f g s s 9 } 8.6.{ j 9 6.m.6.s 9 9 { %X%X8.8.%X%X0.9.9.6.%X%X%XoXXX#.{ #.%.%.%.=.=.=.=.*.=.=.#.%.%.%.",
"%.#.#.%.%.=.=.=.=.=.=.=.=.=.=.=.=.#.@.@.@.^ G G G G G G S S S S S S G G G G P P P %.:.V.U.i.p.p.v.G S P P <.G.H.B.u.;.:.E S J H -.%.:.u.:.E H R x.W.sXgXCXCXCXmXB.E H %.:.y.x.D.H.=XH.D.x.<.:.y.x.<.c.G.B.x.<.;.y.x.:.y.H b %.x.P ,.j.V.V.b % , Z i.k.v v X.OX:X9X=XXX=XXXv.z.D.=XF.b.z.b.z.P i a i b H < % u H H V.&XgX5X5X8XsX9X9XsXsX8X9XsX5XsXzXzX9X,X3X,X,X>X5X5X9XsXgXsXsXzXmXNXzXsXzXzXzXzXzXzXzXgX,X{.E.{.*X5XsXzXmXNXmXNXCXCXNXmXNXCXNXZXAXZXZXCXZXAXNXNXNXNXNXCXAXZXNXmXA.J & M {.5XR.a.H.-XxXzXzXNXAXSXJXSXxX].a.a.h.}.*X6X8XxXvX8X8X-X[.}._.A.n.n.n.`.-XqX4X}.}.}.[.}.H.H._.}.-XvXzXxXxXqX8X-X>XqXvX4XqXwXqXwXqXqXqXqXqXxXqXqXqXqXxXqXqXxXqXqXxXxXqX8XmXNXNXsXN.` E Q.CXfXE L  .E ;.9XmX9Xx.Q.;.> X < : E i.V.W.U.|.1XsXsXsX5X5X5X1X:XV.,. .V.pX7X+XQ.nX,.p L } ......} ,...L  .p a p v p e w p 9 V } | V 9 $ 9 e A L | | ,.t.Z * @ * , # , 0 0 , , w p V e } 0XeX%X0XrXrXrX%X0Xm.f V A p f C * F l.p F 5.*.s F %.s s j f f s s f } ..*.f 9 } oX6.F 9 9 f } oXrX%X%XrXrXoXoX%XoX0.8.%X%XM.=.@.{ %.%.#.=.=.=.=.=.*.=.%.%.%.%.",
"=.=.=.=.=.=.=.=.=.=.=.=.=.=.=.=.=.@.G G G G G ^ G h g g g a S S G G G P P { %.=.<.V.:.r.I.@X^.V.D.@.G G S S P %.u.%.S H C u i b J -.;.x.B.s.;.b i b R Y -.u.u.%.J -.<.u.x.x.<.<.D.G.<.%.:.j.y.%.-.x.y.:.u.j.;.<.y.:.:.<.S 0 E r.b ;.S.V.:.v # q v U | v C T ;.u.K.K.XXK.z.z.b.v.v.D.D.D.z.%.M S S b b u 2 2 Z J H B.5X9X,XsXzX5X9X9XsXsXsXsXsX5X3X3X9X,X3X,X,X,X5X9X9X5X5XsXsXsXgXzXsXsXzXzXzXmXgXzXzXzXgX9X,X>X,X5XsXxXzXzXmXNXCXNXNXNXNXNXCXNXZXAXCXCXCXCXCXCXNXVXSXAXzXzXNXAX8XH.-.5 J sXsX8XxX8X3X*X*X*X6X8X8XxXxX-XH._.[.[.}._.}.-X-X3X4X-X-X-X4X4X-X[.-X4XqX4XwXqXqXqXqXqXqX4X3X-X-X-X4X4X-X-X3X4X4XqXxX8X4XqXzXAXqXqXqXqXqXqXqXqXqXqXqXxXxXxXqXqXqXqXqX4X8XxX8X8XxXzX5Xg.H ;.2X;.b  .%.%.,XnXK.x.R.:.n % # y u.I.Y.V.u.u.:XaXgXsX5X5XaX5X>Xx.j.@X2X@Xo.q b j.,.L L L F f e e p 9 9 p * 0 C o.l.S.l.,.A A  .| } A r e p w V V p 9 e , $ , , % q p * * * w p e } C m.eXeXrX%X0.0XeXXXoX*.} C A p p p 9 f } j f =.*.f #.5.F j f h g } f F F } } j h m.8.F 9 e h h f { XXrXrXrX%X8.%XrX%X8.6.XXXX5.5.@.{ %.@.#.#.#.=.=.=.*.=.=.=.=.=.",
"=.=.=.=.=.=.=.=.=.=.=.=.=.=.=.=.@.^ ^ ^ G G G G G G G G S S G P P P { #.*.<.z.V.Q.V.u.Q.<XuX~.Q.D.@.G G S S G P %.<.<.E b < < i b ;.;.j.u.u.x.J b H J J %.;.r.u.u.x.G.x.y.u.S.H.D.%.L %.:.;.%.:.;. .%.,.*. .<.<.,.<.B.j.Z < E V.p E S.j.,.Z : q q e e p L T T L L <.K.D.m.z.j.m.K.=X,XB.P L %.:.%.H n u u q H ;.Z ;.,XgX9X>X9XzXzX,XH.B.B.B.H.,X3X9X5X9X9X9X,X,X3X5X5X,X,XsXzXzX8X5XsXgXsXzXmXsXzXmXmXgXgXgXzXmXmXgX9XsXzXzXNXAXNXNXNXCXAXCXCXZXAXCXNXNXCXCXCXCXZXNXNXNXNXAXNXxX3X}.a.i ) xX8XsXxXxXqX8XqXxXxX4X3X-X-X-X-X3X4X-X[.).[.-X6XqXxXqXxX4X4X4XqXwXwX4XqX4X;XqXqXqXqXqXqXqXxXqX4X4X4X;X4X4XqXqX3XF.a.) ) 2.C.*XxXxXqXqXwX;X;XwXqXqXqXqXxXqXqXqXqXqXwX4XqX3X8XmXzXxXzX5XW.J E Q.E v L C +X0Xj.H.B.u.Y x % y X.Y.U.W.V.r.{.gXzXsXiX5X>X,X5X:XOXpXS.L $ $ w e p | ,.4.| A f | p * e 9 L t.S.Y.#Xl.j.l.l...V V ..4...f f } L A A w w V C p * * p v , 0 p l.,.9 w f ,.m.m.8.h 9 { eXeX6.f f F p 9 w C p p f s m.rX0X6.6.0X8.$.8.oX%X*.F } { h j 9 ..8...9 9 f F f f f *.0XrXrXrX9.%XrX%X$.{ 6.6.#.=.{ P G @.{ @.@.#.=.=.*.*.=.=.=.=.",
"=.=.=.=.=.=.=.=.=.=.=.=.=.=.=.#.G G G ^ P P G G G G G G G P ^ @.@.@.%.7.G.&X:X<XuX<XuXhX~.@X@XQ.v.G G G g G P P #.%.<.<.x.u.:.u.j.;. .u.r.u.u.J S S H J ;.:.y.r.y.x.x.%.y.x.B.G.*.S >.G.u.:.:.:.u.%.L %.%.P %. .E P L C u < p n u H X.r.;.v , : # $ w v v p C L L *.v.v.5.*.*.v.9X=X<.S b %.x.x.G.%.p u u < u b H %.&XE.,X,X,X].:.E J H J H a a %.<.x.H.,X5X9X&X,X,X*X*X,X5X5X3X5X5X8XsX5X3XsXgXNXNXgXaXzXNXNXNXmXmXzXNXCXNXNXAXCXNXAXZXCXmXNXZXCXNXmXmXCXCXAXAXmXzXNXNXAXNXxX3X8X}.a.S R 5XsX9XxXxXxX8X8XqX6X-XqX4X4X4X;X-X-X[.}.[.[. X;X;X-X4X4X4XqXqXqXwX;X X;X4XqXqXqXwXwXqXqXqXqX4X4X4XqXqX4X6X-XH.a.>.( J ) J S P a.[.6XqXxXqXwXwXqXwXwXqXqX4X4XwXqXwXwXqXwXxXxXqX4XxXcXgXgXW.S L ,.a S  .XXj.*.j.r.:.b < 2 2 u.fXaXMX5X:X1XgXzXiXiX5X*X1X1XgXgXS.t.T e , e e L ,.A f p f A C w f V 9 ..S.,.,.,.o.} L  .} f  .l.m.4.A V A f A C V p V v w u q p 0 * , p S.L e C p * * = s j 9 9 } 8.} h s 9 f V p 0 p a 0 F eX%XrXoXoXDX%X%X%X%XDXrX%X*.} } f f f F f s f h f f } h *.eXrXrXDX$.9.%XoX} $.*.} G 5.G F G P P P { @.#.#.#.%.=.=.=.=.",
"=.=.%.%.=.=.=.=.=.=.=.=.=.=.#.@.G G G G G G G P P G G G ^ @.@.@.@.#.=.H.9XgXdXdXpXuXuXuX~.2X@XG.@.G G h S G @.=.=.=.<.<.:.r.Z.1XgXaX;.Y :.u.u.Y S S J R %.-.:.-.:.:.y.<.x.x.z.y.P S j.OXB.G.2XW.x.S.<.t.,.*.C < = * 0 , < q p p 0 v H ;.,.v , # q , q v C p p  . .*.5.*.P  .,.5.j. .L C ,.B.B.B.&X;.< % % < , < E :.9X,X5XD.) S b L %.E P H b a s i a J %.x.E.].,X3X,X3X9X,X,X].3X>X*X,X5X=X=X5XsXgXgXgXmXmXmXmXzXNXCXCXCXNXmXCXAXAXAXCXmXzXmXNXNXmXzXmXAXZXCXCXmXmXAXmX3X].].*X*XA.<.M S C.5X8X3X=X-X8X8X6X-X4X-X-X4X-X-X;X;X-X X-X-X;XqXqXwXqXqXqXqXwXwXwXwXwXqXqXqXqX;X-X;X4X4X4X4X4X4X4X4X;X3X*Xc.<.>.:.<.<.-.) %.-.K P <._.;XwXqXqXqXqXqXqX4X4XwXqXqXqXqXqXqXqXqXqXxXzXzXNXG.j.x.p C C 0 C 5.%.*.;.u.u.n < y n dXHXMXVXSXZXgXaXsX5X5XiX5XgXbXnXY.t.k.t.q * e | | C p 9 9 f p * A L p 0 p t.T ,.| C V ..l.l...4.4. .f 9 p 4.L A p w e , 0 C  .C p C 0 $ e p p 9 t C p s 9 G g s f *.XX5.} } p p L w 0 A p j { %XXXoX9.0.rXrX%X8.0.%XrXrXeX8.oX6.{ F s f } *.f f j f h 8.rXrXrXrX=.*.oX8.8.0.oX9.$.=.S S P G P P G { { P P P #.%.=.%.",
"=.*.=.%.=.=.=.=.=.=.=.=.=.=.#.#.^ G G G G G K G P G G P @.#.#.#.#.%.<.F.,X5XaXgXpX1X1XOXW.B.,.*.G h S S G =.M.J.K.D.S.G.G.T.:X:XQ.aXV.b H ;.E H b b Z Y ;.E H H S P %.y.z.<.<.B.u.j.E.+X+Xu.;.E L H L  .L P L p 0 < C q , * b L 0 u L Z v < % v @Xk.q V  .o.L  .*.,.,. . . . . .V t C C ;.G.G.B.j.E < < t t u S E y.gXH.:.J K :.-.E ( %.%.;.%.R %.R J %.) ) %.R <.a.a.v.C.B.H.C.].H.H.G.c.C.=X5X,X9X5XgXmXmXmXmXmXNXmXgXzXNXNXNXNXNXmXzXmXNXNXmXmXNXmXNXAXmX3X*X5XH.s.:.>.>.>.<.a.a.P 5 < J N.{.5X*X>X*X*X3X-X-X4X4X4X;X;X4X4X-X X[.[.;X4XqXqXqXxXxXxXqXqXqXqXwX4X-X-X-X-X[.`.[.[.[.*X[.`._.H.H.H.F.a.>.<.<.-.( R -.-.-.J K J ) 2.).;XwXwXqXxXwXqXqXxXqXqXxXxXxXxXqXxXxXxXxXzXNXR.H ,.L p L p a L F  .,.B.u.H b E X.jXGXHXHXJXZXVXgXsXsXsXsXgXfXVXCXS.t.t.o.V w k.j.e * V e e f 9 w A V e w e A V V C w ..S.S.S.4...p 9 0 w p ,.4.C } j.o.L 0 p v p *  .,.w 0 0 e 0 0 j.L 0 *.0XXX*.{ oXXXm.*.m.L e p C p 0 9 s *.eX0XoX8.0.%XrX%X0.8.0.%XrXrX8.*.*.}  .s f f f f f 9 9 h oXeXrXrXrX5.*.0XoXXX%X%X$.=.F S g S G G G { { { P P @.@.#.=.%.",
"=.*.=.=.=.=.=.=.=.%.#.%.%.%.#.#.^ G G G G G G G G P ^ #.#.%.=.=.=.=.=.=.7.v.D.H.H.D.v.<.=.*.%.@.G g g g P =X7X,X:X:XOX@X2X@X@XV.U e.i.u < J -.J c y u v Y W H S S s  .:.:.B.B.v.E.E.j.H b p b L  .F L F F p p ,.P t C Z u q b p 0 p b < # : , k Y.Y.q v T o.t.L L  . .t.E.E u p p C Z v L ;.E.H.J.<.P P a < E B.%.r.s.J J -.;.Y S E ;.%.;.y.x.u.:.<.-.-.:.:.>.>.%.R P P S P ) E >.y.C.B.x.u.x.E.=XH.=XgXgXzXzXMXaXgXgXsXzXmXNXNXNXmXmXCXZXNXNXCXCXzXNXZX5Xy.%.>.y.:.<.x.c.s.y.y.a.-.H = c H H R s.G.].>XsXsX5XsX8X8X4X3X4X;X-X4X[.}. X6X6X8XqX-X-X6X6X[.}.>X6X6X}.D.].].].>X>X*X{.E.Z.c.<.y.N.N.Z.x.:.-.-.( R -.:.E S H S a J -.^ ) <.2._._.-X4X;X4XqXxXxX8X4X-X8X*X}.>X5X5X1XaXfXj.0 H T  .C p L  .L j.V.:.E Y U ;.HXGXJXHXJXVXCXNXgX,XgXNXfXCXbXOXS.Y.l. .t.l.S.v q 0 C C * w w p e e e e e e 9 * p w  .XXS...f C 0 L ..,.C  .S.,.+XnXnX#X .p 0 * 0 0 j.*.p t 0 s s m. .0 *.7X9Xj.*.0X0X5.5.oXF p w p 0 t C s 6.DX%XoXrX%XrXrX%X8.0.8.%XrXrX9.{ g f s = * 0 * * 0 s f s { 5.m.m.m.F F %XoX%XXXM.=.=.g S g S S G G G P ^ ^ P P @.#.#.#.",
"#.#.%.%.%.#.#.=.%.#.#.#.@.^ P G G G G g g G G G P @.%.=.%.#.%.=.=.=.#.#.%.=.=.=.=.=.%.#.#.#.#.$.G h g S #.:XaXiXdXhXpXuX~.k.e.W W W i.:.-. .%.%.b 5 < 2 c H a u p S R P %.u.B.K.u.C a L %.*.x.j.j. .C p C L C P *. .p T ;.H b b p t p @ % q 2 # 1 l , : v L | | A t. .T H b C L H C u. . .x.=XqXqX9Xz.P s = y.,Xs.J H H H b b J E E T H J ;.u.j.x.x.<.<.-.%.<.u.J J J H J E ) J S b J -.u.u.r.:.x.B.].E.W.1X9X1X1X9XgXgXzXsXgXmXmXmXZXNXfXmXmXCXNXmXgX:XN.s.C.].H.H.H.F.x.:.:.x.u.x.:.t b W H t i H R -.r.y.x.G.].3X3X[.*X*X}._.c.s.C.A.Z.A.Z.N.N.Z.A.A.R.}.>X1X].E.5X5X>X>X{.{.|.W.U.g.y.y.y.x.y.;.E ;.R J :.( S M a b H Y -.<.&.%.%.^ &.&.2.c.=X*X-X=X].].].].R.R.E.{.*X:X:XW.2XW.E u C L 0 t t C L 5.x.<.%.:.r.W t.pXMXT.&XB.x.=X3X9XmXmXfXVXj.T j.V.,.,.l.2X,.t t 0 , 0 e e e * e * 9 p C C  .| | L L L L p f p a m.S.S.m.S.+XK.7XnX7XDX,.* 0 * * 0 L F 0 9 p a a  .%.S G m.+X5.%.b.0X{ #.0XG a p * 0 <.5.9 { 0XXXeXrX%XoXXX9.9.0.8.oXrX%X{ 8.{ C s 0 @ @ * * = = s g %.*.{ g f f h oXrX0XoXG %.=.g g g g g S G G G ^ ^ ^ ^ @.#.#.#.",
"@.@.#.%.%.#.%.=.%.#.@.^ P G S S g g g g S G G P #.#.=.=.=.#.#.#.#.#.#.#.%.=.=.=.%.#.#.#.#.#.$.@.G h g g P H.,XiXuXuX~.!.p.W w.i.u.u.u.%.P #.*.=.<.%.J S a b S S S J %.:.,.x.S.P S P ,.z.<.%.%.S L F *.F C L P C s L u.;.,.u.t.,.L C % * % q q v , , , w U ,.S.k.S.,.Z p H ;.x.t.C p A | j. .&X8XDXmXv.P a = S y.H H W Y H n Z H E H H L T H T %.j.r.-.<.-.E :.-.M H H H J J J S H L Y J S J :.y.%.%.u.Z.W.R.H.R.,X,X,X,X9X1X,X1XsXgX9XgXzXNXZXMXfXaXW.V.R.:X1X1X=XE.G.z.%.S K %.<.z.z.%.E R J S a c b b H H J R J ( %.( -.:.>.-.y.y.s.N.N.N.N.c.N.Z.Z.Z.R.}.{.|.W.W.1X<X>X>X|.>X|.W.U.Z.T.B.r.y.r.R R E -.%.S b b H ( %.<.B.B.N.v.c.c.b.C.v.C.C.].=X*X]._.].].].*X*X*X,X,X,X,X,XOX:XG.,.p p t a {  .%.z.K.z.*. .P ;.S u.D.<.H.<.=.=.b.=X=X3XmX9X%.,.j.,...5.j.S.V.T F A p 0 w V p w , e C | ,. . .j.j.j.4.,. . .F a  .j.D.XXm.K.S.XX+X,.S.+X5.C p t f F F F f { { G a *.5.g a %.5.<.=.=.b.{ #.m.G C t = S *.p = G XXeXDXeX=.j h 8.0.%X6.8.%X8.=.%XoX*.s 9 9 = = p S  .*.#.#.%.%.<.=.#.f =.0Xm.5.M.<.%.g g g g g g g G G G P P P P P @.@.",
"G G { #.#.@.#.%.#.P G G G S g g g g h G G G G @.#.#.%.=.=.#.#.#.$.$.$.#.=.=.=.=.=.#.#.#.#.#.@.$.@.h g g G <.B.OXQ.I.k.I.I.L.p.I.Z.B.<.{ P { @.P P P %.<.=.<.<.=.<.z.z.z.D.%.s S *.b.b.v.:.P *.<.j. . .F f p t s C  .B.G.J S.i.T P L 0 u p u < * , v b ,.k.t.L b  .Z  .L j.B.;.S.k.L L L j.H %.D.=X=Xb.<.S t C %. .H H H H H Z b Z C Z H H Z b b J H H  .;.;.%.b i b b i c b S J Y ;.;.%.J i p C J  .%.J J %.<.u.H.Q.Z.r.<.<.u.x.N.:X&X*X1XaXaXW.u.r.u.Z.W.,X1X&X`.D.2.%.P ^ #.P #.%.<.<.<.<.<.%.J S a u c S R ;.;.:.` R R -.:.y.y.s.c.B.Z.B.B.C.N.Z.G.G.E.*X>X:X:X:X|.|.|.|.W.|.W.U.Z.B.R.N.-.-.( :.E %.>.%.<.y.v.v.D.v.v.D.v.C.z.z.2.<.2.<.<.2.z.v.C.v.v.v.v.v.v.c.b.v.v.v.D.H.OXK.m.B.v.P f ,.*.b.v.v.5.%.#.P G %.=.<.5.<.%.#.@.^ ^ %.*.<.z.S.D.m.<.m.v.<.b.m.S.j.j.,.C p C p w e A o.A o.j.,.L p ,.j.5.,.*.<.*.=.%.%.7.5.b.5.,.%.j.t s C m.m.F { *.*.{ %.=.5.5.%.<.=.%.7.=.=.=.%.#.=.=.#.#.#.<.,.5.<.%.S s g g b.%X=X7.s 9 G %X%X%XoXoX8.=.oX5.=.5.5.=.=.,.<.*.=.%.{ P G G P P #.5.G #.XXG F =.F S S S g S g g g S G G G G P G P P ^ ",
"G G G { P G G P P G G G G h g g g g g G P @.@.#.#.#.#.#.#.#.#.$.@.@.@.#.#.#.#.#.#.#.@.@.$.@.@.$.@.h h h S @.=.z.R.T.Q.~.Q.I.I.W.OXz.@.{ @.@.@.@.P P G P #.@.#.{ #.%.%.<.<.%.<.z.z.%.%.v.z.%.<.j.v.P ,.,.*.S C %.,.:.j.x.V.W.V.T u.j.<.S S C p * * * L ,.C C L L T V.+X .gX,Xu.,. . . . .,. .P P #.P P P %.<.<.B.j.H y v n n n H Z n b c b Z H H Z b b b H E H u u p c b H E ;.u.x.;.;.;.E E E b a u s a S J J R :.r.:.E R P P Y W -.y.u.B.y.J P B.E.].E.E.E.H.J.v.=.#.#.%.@.{ #.#.@.G P S a S %.y.y.<.R b u M R r.u.V.N.x.u.y.s.s.B.B.B.C.B.B.B.G.E.{.E.{.,X,X*X&X&X{.W.{.W.Z.G.E.W.G.G.C.c.b.z.b.b.b.z.2.2.<.=.=.=.<.2.7.7.<.<.2.<.=.#.^ ^ ^ #.@.^ P P G P G G G G G G P P %.%.%.*.<.z.<.*.7.%.%.5.M.7.#.#.P @.G g P %.#.@.$.@.@.@.@.^ ^ @.%.<.z.v.z.5.5.*.#. .j.L C p p p p p A A ,.l. . .L a C C S 5.%.*.%.{ #.P #.#.=.=.#.{ { { 5.a = F S.z.%.%.*.%.%.=.*.=.7.5.=.#.%.#.@.@.@.$.@.$.$.#.@.$.@.#.#.@.#.=.=.<.=.5.7.=.G a #.7.oX%X%X%XM.XX8.=.@.P #.%.{ @.%.@.{ { { { @.P P @.^ #.P 5.G 7.#.g <.@.G P G F G g g g g S S F G G G G G P ",
"G G G G G G G G G G G G S g g g g g g G @.@.#.#.@.$.#.#.#.$.@.$.@.@.@.$.#.#.#.#.#.#.#.#.$.@.@.@.@.h h h h @.#.%.>.*.y.B.G.T.Z.T.7.=.{ { @.@.@.@.^ #.@.@.@.{ { @.@.P <.z.<.=.@.%.#.P %.v.b.v.K.b.j.b.%.{ <.S =.%.%.j.R :.B.B.B.:.<.*.<.<.<.<.%.F ,.C L %. .j.x.x.F K.S.F G.OXS. .j.S.t. .,.*.#.@.P P P P P P <.;.J b n H H H H H H C b H Y E W X.Y H Z v b n c n n Y W ;.r.i.x.x.;.y.:. .%.y.u.>.<.%.P J J J L %.J J P %.<.<.%.E R J J Y R S S <.G.D.J.J.M.v.z.=.=.=.%.#.#.#.#.{ G G g a g S { =.<.<.z.z.<.%.P K R -.s.Z.R.Z.x.u.u.v.B.x.B.B.B.B.B.H.E.H.E.=X&XE.H.E.E.E.].G.v.v.v.v.z.2.=.#.%.#.#.#.%.#.@.@.#.@.$.#.#.#.=.=.=.=.=.=.=.=.=.=.=.=.%.@.G G G G S S S S S S S G G G @.%.%.b.<.7.#.@.%.b.F.b.#.^ ^ @.G g P #.@.#.#.@.#.G ^ @.^ #.#.%.%.%.%.%.%.#.#.*.%.*.*.*.,.*.C C C  .| L ,. .C C S %.<.%.%.#.@.@.{ G P { { @.@.#.#.#.#.5.=.7.5.v.b.7.=.5.=.#.@.#.7.<.%.#.@.G @.@.@.@.@.@.@.$.$.@.$.#.$.$.#.#.@.G $.{ @.#.#.#.#.@.$.#.#.=.#.#.@.@.@.P @.{ @.@.@.#.#.@.@.@.@.@.@.#.#.#.@.@.<.7.7.7.{ #.G G G G G G S g g g g g S S S S G G ",
"F F F S S F S S G G G S h h g g g h G @.@.@.@.@.@.$.#.#.#.$.@.@.@.@.@.@.$.#.$.@.@.$.#.$.$.@.@.$.@.G h g h @.$.@.#.P @.#.%.%.%.%.#.@.#.$.@.@.@.$.#.#.@.P @.@.@.@.^ =.7.=.G P ^ { G %.7.M.v.v.<.%.=.%.#.#.<.<.%.#.%.=.%.z.z.v.z.z.5.<.*.%.#.{ =.=.%.=.*.*.,.,.<.m.,.m.z.*. .v.<.j.<.j.,.*.b.%.#.#.@.@.@.P #.P =.<.<.R H H b c u v u b H H Y E Y H E W W E E Y U E ;.u.u.y.r.r.:.:.:.u.x.x.x.z.y.z.<.<.<.<.z.z.<.<.<.=.=.%.{ G S S b S b J %.%.<.b.7.<.=.=.=.#.@.#.#.@.@.#.#.@.G F g g g G #.=.<.<.<.<.=.%.%.=.7.z.<.=.<.<.z.v.D.D.b.v.v.v.D.D.D.D.H.J.H.D.D.D.v.b.7.7.2.2.<.=.=.=.=.=.=.=.=.#.#.#.=.=.=.=.=.$.#.$.@.$.$.@.@.@.$.$.#.=.=.=.=.=.=.=.=.#.$.@.@.{ G G G G G G S G G G P @.%.b.7.<.@.@.%.v.M.M.=.G @.G G G G %.#.@.#.$.@.$.@.P @.@.%.<.v.b.<.%.#.{ @.=.5.*.*. .{ ,.<.,.{  .*.L L L C P 5.=.%.#.#.#.@.G { #.@.@.@.@.@.@.@.{ #.=.%.#.@.#.#.#.%.#.{ #.@.#.#.=.=.$.@.$.@.@.$.@.$.$.$.@.$.$.$.$.$.@.@.@.@.@.G #.G @.@.{ @.{ @.$.G @.#.@.^ @.^ @.@.G @.$.@.#.@.@.@.@.@.@.@.@.@.@.^ #.#.%.<.#.=.2.P G #.@.G G G S g g S g S S S S S S ",
"F G F S S S S S S S S h h h h h h G G @.@.^ @.#.#.$.@.@.$.#.$.@.@.@.@.@.$.$.$.#.#.#.$.@.@.$.$.$.@.G h g h ^ $.$.@.{ @.@.@.@.@.@.#.G @.@.@.@.$.@.=.#.#.^ P @.@.@.=.=.#.G @.@.P @.{ @.=.=.#.=.@.@.@.#.#.@.<.=.%.%.7.7.b.7.5.=.<.G =.7.=.{ @.#.G { @.#.P F S { =.j.z.z.,.*.=.*.%.{  .%.5.z.<.#.#.@.@.$.#.#.#.#.@.#.%.=.<.<.;.%.-.%.-.:.<.<.:.:.:.:.:.r.:.:.:.;.:.:.r.<.<.<.y.y.y.j.<.=.<.=.=.=.=.=.=.%.=.%.*.%.=.<.<.<.7.7.7.7.b.7.z.z.z.<.=.%.%.#.#.#.#.$.$.#.$.@.@.@.#.@.G g g g G G #.=.<.7.<.=.=.=.=.=.=.=.=.=.=.=.<.7.7.<.7.z.z.7.7.7.7.2.<.<.<.<.<.=.=.=.=.=.=.=.=.=.=.=.#.#.=.=.=.=.=.=.$.=.=.=.=.=.=.=.=.=.=.$.$.@.$.$.@.@.@.$.$.$.#.$.$.$.$.#.#.#.$.$.$.@.G G G G G G S G G G #.=.7.=.@.@.P <.b.b.2.@.^ G G G G %.@.#.#.$.#.@.@.#.^ #.<.z.=.P <.7.#.#.@.@.{ #.{ G F { { %.<.*.*.<.,.5.=.<.#.#.@.@.@.@.@.$.@.{ @.@.@.@.@.@.#.@.#.#.@.P #.@.@.P ^ @.@.@.$.@.#.#.#.#.#.#.$.$.$.$.$.$.$.$.@.$.$.$.$.@.@.$.@.@.@.G @.@.@.@.{ @.@.@.@.@.@.@.$.^ @.@.$.$.#.#.@.@.@.$.$.$.@.@.@.^ @.^ #.^ @.=.%.@.@.=.#.P G G ^ P G G F S F F S F S S S F ",
"G G F F S S S S S g S G G G G G G G G @.@.$.#.$.$.$.#.@.@.$.$.@.@.@.@.@.$.#.#.$.#.#.@.@.@.@.@.@.^ G g g g G @.@.@.@.@.@.@.@.@.@.@.@.@.@.@.@.@.#.#.#.@.@.@.@.@.@.$.@.^ ^ ^ @.@.G ^ @.@.@.@.@.#.@.@.$.@.$.#.#.#.=.7.=.7.7.#.#.=.#.G =.=.$.@.$.$.@.@.{ G G G P #.=.5.=.%.%.%.#.#.@.@.#.#.@.#.#.#.$.@.@.$.$.$.$.$.$.#.{ @.@.P #.#.@.@.@.{ P P P { { P { P P ^ { { P P K K P P { P G P @.#.#.#.=.=.=.=.=.=.#.#.#.%.=.=.=.=.%.=.=.=.=.=.#.#.@.@.$.$.$.#.$.@.@.#.#.@.{ { G S g g g S P %.=.=.=.=.=.=.=.=.=.=.=.=.=.=.=.=.=.=.=.=.=.=.=.=.=.=.=.=.=.=.=.=.=.=.=.=.=.=.=.=.=.=.=.=.=.=.=.=.=.=.=.7.=.=.=.=.=.=.=.=.=.=.=.=.=.=.@.@.@.@.@.#.#.$.$.@.$.$.@.$.#.#.#.#.#.#.#.@.@.G G G G S g g G G @.$.@.@.@.@.@.#.#.#.^ ^ ^ P G G #.#.%.#.#.#.#.#.#.@.%.=.<.z.<.=.#.@.@.@.$.{ { @.G G { { @.@.@.{ @.%.=.%.#.@.@.@.@.@.@.@.@.{ { @.@.@.@.@.@.@.@.@.@.@.@.@.@.@.@.@.@.@.@.@.@.@.^ @.$.$.#.$.$.@.$.$.$.@.$.$.$.$.$.@.@.@.@.@.@.{ @.@.@.@.@.@.@.#.#.#.@.@.@.@.@.@.@.@.$.#.#.@.@.@.@.$.$.@.@.@.@.^ ^ ^ @.@.@.@.^ G #.#.G G G G G G G G G G G G G G G G G ",
"P P P G G G G S G G G G G G G h G G @.$.@.@.@.$.$.@.$.$.$.$.$.@.$.#.#.$.#.#.#.$.@.@.@.@.@.@.@.{ G G G S S S G G $.$.@.@.^ @.@.@.@.@.@.$.$.@.@.@.$.$.@.@.@.@.@.@.@.@.@.@.@.@.@.@.@.@.@.@.@.@.@.@.@.$.@.@.#.$.#.=.#.=.=.=.$.@.#.=.=.=.#.@.$.$.@.@.@.@.@.G G G G @.%.#.#.#.#.#.#.@.@.#.@.#.@.@.@.@.@.@.@.@.@.@.@.@.@.@.@.@.^ ^ ^ G G { G G G G G G G G P P P @.P P G G G G G G G G ^ @.@.@.@.$.#.=.#.#.#.#.#.=.#.#.#.#.=.#.#.#.$.@.@.@.@.$.$.$.$.@.@.@.@.@.P G G G g g g S S S G P #.#.#.%.=.=.=.=.=.=.=.=.=.=.=.=.=.=.=.7.=.=.=.=.=.=.=.=.=.=.=.=.=.=.=.=.=.=.=.=.=.=.=.=.=.=.=.=.=.=.=.=.=.=.=.=.=.=.=.=.=.=.#.#.=.=.$.@.@.@.$.#.#.#.#.$.$.#.$.$.#.#.#.=.=.=.=.#.#.#.@.G G G G G S G G ^ @.@.@.#.#.#.#.@.^ ^ @.@.P G G { %.%.%.#.#.#.#.#.#.#.%.%.%.#.@.@.@.@.@.@.G { @.@.@.$.@.@.@.@.@.@.@.#.@.@.@.@.@.@.@.@.@.@.@.@.{ @.@.@.@.$.$.@.@.@.@.@.@.@.@.@.@.@.@.@.@.@.@.@.@.@.@.@.@.@.@.@.@.$.$.$.$.$.@.@.@.@.@.@.@.@.P { @.@.#.#.#.#.@.@.@.@.@.@.@.@.@.@.@.$.$.@.$.@.$.$.#.$.@.@.@.@.G G G G ^ G G G G P G G G G G G G G P { { P P P P G G G ",
"P P P P P G G G G G G G ^ @.^ G h G G @.$.$.#.$.#.@.$.#.@.@.@.@.$.$.@.@.@.@.#.@.@.@.@.P G G G G G h h h g g S G G ^ #.#.#.$.@.@.@.@.@.@.@.$.$.$.@.@.@.@.@.@.@.@.@.@.@.@.@.@.@.@.@.@.@.@.@.@.@.@.@.$.@.@.$.$.$.=.$.=.@.@.#.$.@.$.#.$.@.@.$.$.@.@.@.@.@.@.G G G @.#.#.#.#.#.#.#.#.@.@.@.@.@.@.@.@.@.@.@.@.@.@.@.@.@.@.@.@.^ ^ @.@.@.@.^ ^ ^ ^ ^ P G G G G G P P P ^ ^ ^ ^ G G G G G h h h G $.#.=.=.=.#.=.=.=.=.=.=.=.=.=.#.$.@.@.G @.@.{ G G G G @.@.#.%.#.P S S G F S S S S P P P P P ^ #.#.P P #.#.=.=.=.=.=.=.=.=.=.=.=.=.=.=.=.=.=.=.=.=.=.=.=.=.=.=.=.=.=.=.=.=.=.=.=.=.=.=.=.=.=.#.#.#.=.=.=.=.=.=.=.#.$.$.#.#.#.#.=.#.$.$.#.#.$.$.$.#.#.$.#.#.#.#.#.#.#.#.#.#.@.P G G G G G G G G ^ ^ @.$.@.@.@.@.@.@.@.{ G F F G #.%.%.#.#.#.$.$.#.#.#.@.#.#.#.$.$.$.$.$.G @.@.@.@.$.$.@.@.@.$.@.@.@.$.@.@.@.@.@.@.@.@.@.@.@.@.@.@.@.@.$.$.@.@.@.@.@.@.@.@.@.@.@.@.@.@.@.@.@.@.@.@.@.@.@.G @.@.$.$.$.@.@.@.@.@.@.@.@.@.@.@.@.@.@.@.$.$.$.$.$.@.@.@.@.@.@.@.{ @.@.@.@.#.#.#.#.#.@.#.$.@.@.@.@.@.@.@.@.G G P G G G G G G G G G G P P P P P { P P P ",
"P P P P P G G G G G G G ^ @.$.$.^ @.@.@.@.#.$.@.#.@.$.#.$.@.#.#.#.#.@.P P P P @.@.@.P G G G G S g g g g a a d d S G ^ @.@.#.#.@.@.@.@.@.@.@.@.{ $.@.@.$.$.$.@.@.#.@.@.@.@.@.@.@.@.@.@.@.@.@.@.@.$.$.$.@.$.$.$.$.$.$.$.$.#.$.$.@.@.@.$.$.$.$.$.$.$.@.@.@.@.G G @.#.#.#.#.#.#.#.#.@.@.@.@.@.$.@.@.@.@.@.@.@.@.@.@.@.@.@.@.@.@.@.@.^ ^ G G G G G G P P P P P P @.@.@.^ ^ $.#.#.@.@.@.@.@.^ G h G @.$.#.=.=.=.#.$.$.#.#.#.#.#.@.^ G G G G S g g g g g g g S G G S S S g S S S S S S S S g g g g g S S S G G ^ =.=.=.#.#.#.#.@.@.$.#.=.#.#.=.=.=.=.=.=.=.=.=.=.=.=.=.=.=.=.=.=.=.=.=.=.=.2.2.2.=.<.2.=.=.=.=.=.=.#.#.=.#.#.#.#.#.#.=.=.=.#.$.$.#.#.#.#.#.#.$.$.#.#.#.@.#.@.^ P G G G G S S G P @.@.@.@.@.@.@.@.@.{ P G F F F { #.#.#.$.#.$.$.$.$.$.#.$.$.$.$.$.$.#.#.@.@.@.@.@.$.$.$.$.$.$.$.$.$.$.@.@.@.@.@.@.@.@.@.@.@.@.@.$.$.$.$.@.@.@.@.@.@.@.@.@.@.@.@.@.@.@.@.@.@.@.@.@.@.@.@.$.@.@.^ ^ @.@.#.#.#.@.@.@.@.@.@.{ @.$.#.#.#.$.$.@.@.{ { @.@.{ @.@.@.@.@.#.@.#.#.#.#.#.#.#.#.#.@.@.@.{ @.@.@.{ { P P P ^ @.P G P G G G G P P { @.{ P P P ",
"P G S S F G G G G G G ^ @.^ @.$.#.$.#.#.@.@.#.%.#.@.@.#.@.@.#.#.@.@.P G G G P P P G G G G S g a a a g g S G S g a g G G P @.@.@.@.$.$.$.$.$.#.#.@.@.@.@.@.@.@.@.#.@.{ G G G G G G G G G P G P { #.#.$.@.@.@.@.@.@.@.$.#.$.@.#.$.@.#.#.$.$.$.$.$.$.$.@.@.@.G G @.#.#.$.@.$.#.#.#.#.$.@.@.$.$.@.@.$.$.@.@.@.@.@.@.@.@.@.$.$.@.G G G G G P @.@.^ ^ G P ^ ^ ^ P G G G G G G G G P @.@.$.@.@.@.@.@.G ^ G G G G G @.@.@.{ G G G G G S S K S S S S g a g g g a a a g g g g S S S S a a S S S S S g g S g g g S S G ^ P P #.=.=.#.#.#.=.=.#.#.#.#.=.=.=.=.=.=.=.=.7.7.=.=.=.=.=.=.=.#.=.=.=.2.2.=.=.=.=.=.=.#.#.#.#.#.#.=.$.$.$.$.#.=.=.=.=.#.$.$.$.$.$.$.$.$.$.$.$.$.$.%.%.%.#.@.P G G S g g S G P ^ @.@.{ G { { G G G G G F S P P { @.@.$.$.$.$.$.$.$.$.$.$.@.@.$.$.$.#.$.#.@.@.$.$.$.#.#.#.#.$.$.@.@.@.@.@.@.@.#.#.@.#.$.#.$.#.#.#.#.#.@.@.@.@.@.@.@.$.@.@.@.@.@.@.@.@.@.@.{ @.@.@.@.@.^ G ^ { @.#.#.#.@.@.@.#.#.@.#.@.#.#.$.@.@.@.$.@.@.@.$.#.#.@.@.@.@.#.#.#.#.#.#.#.#.#.#.#.#.#.@.#.@.{ { { { P { @.^ ^ ^ P P P @.P P P P P { { P P P P P ",
"G F S S S S g g G G G @.@.G G @.@.@.$.#.@.#.#.#.#.@.#.#.@.^ P ^ P P P { @.P P P @.G g g a g G G G G G P ^ ^ G d s a S G G { @.@.@.$.$.@.{ { { #.%.#.#.#.#.#.#.#.#.#.#.@.{ P { @.P @.@.@.@.@.#.#.@.@.@.@.@.@.@.@.#.#.@.@.#.$.@.@.#.#.#.#.#.#.$.@.@.@.$.@.@.G G ^ $.#.#.#.#.=.=.=.#.$.@.@.@.@.@.@.@.@.@.$.$.@.@.@.@.@.@.@.#.#.@.@.@.{ @.P ^ G G G S G G G G S g g g g g g g S G G G @.#.#.@.@.@.#.%.%.%.#.@.G S g F h g g g g g S S S S S S S S S a a a a a a g g S g g a a g S S S S S S S g g g S S S S g g S S g G #.=.%.#.#.#.=.%.#.#.#.=.=.%.=.=.=.=.=.2.2.7.=.=.=.=.=.=.=.=.=.=.=.#.#.@.#.#.#.#.#.#.=.#.#.#.$.$.#.=.=.=.=.#.#.#.#.#.#.#.$.@.$.$.#.$.$.$.$.$.=.%.%.#.@.P G K S g a a S P P P P G G G P G G G S S S C S S S G G G { @.$.$.$.@.#.#.#.#.#.#.$.#.#.#.#.#.@.#.$.$.#.#.#.#.#.#.#.@.#.#.#.#.#.#.#.#.@.@.@.@.@.#.@.^ { P G G ^ @.@.@.@.@.@.@.$.$.$.@.@.@.{ { G G G G G G ^ @.@.@.#.#.@.@.#.#.#.@.@.{ G G g g g g G G @.@.@.@.@.@.#.#.#.%.#.#.#.%.%.%.%.#.#.#.#.#.#.#.#.@.P P P P P P P P P G G G P @.P P P P P { P P P P P P ",
"S S F F S g g a g g h G G G S G G G ^ @.#.=.7.7.=.#.#.#.@.P G G P P P P P G S S a s a g S G @.{ @.@.{ { P P P S a a a g S G G G { @.@.{ P G F F G G F F S S S S G G P P G G P G G G G G G G G G P G G G G G P P G P P { @.{ G @.#.#.#.#.#.#.#.@.@.$.$.$.@.G F G P ^ @.#.#.#.#.#.#.#.@.@.@.@.@.$.@.@.$.$.$.$.$.$.$.$.@.@.#.#.#.%.%.#.@.P G F S g g g g g g g g a g g S g S S G G G G G @.#.#.%.#.{ { { P G S F F G G S S S S S G S S S S S S S S S S S g g g a a s a a a a g S S S S S g S S F G S S S G g g S S a S G @.%.%.%.%.#.#.#.#.%.%.%.=.=.<.=.=.=.=.=.=.%.%.#.G G g g g h S G G P G G S G G G P ^ ^ P P G G P P G G ^ G G G P P P G G G #.#.#.@.P P P P G G S S g g g g S g a a g G P G G G G G G G K S a a a a a a S G G G G G @.@.@.@.@.@.@.#.#.#.#.#.@.@.#.#.#.#.@.$.#.#.@.@.@.#.#.#.%.%.%.#.#.#.#.#.#.#.#.#.#.#.@.P G G G G G P P G G G G @.@.@.@.@.@.@.@.G G G G G G G g g g S G P #.#.#.#.#.G G S S g a a a S P #.#.#.#.#.#.#.#.%.%.#.^ P G G G G G G G G G G G S S g a a a a a a a a a a a g S S G G G G G G G ^ P G G G ",
"G K S S g a a g a a g g g g g g g g a a a g P %.=.=.=.%.#.^ G G S S S S S a a s s s g S F P #.P P P P P P P P P S a a a g g g a a a a a s s a a a a a a a a a a a a g S S S S S G S S S S S S S G S S S S g S S S S F F S g g S G G G G P %.=.%.#.#.#.%.%.@.G G G G @.#.#.#.#.#.#.#.#.#.@.@.$.#.$.#.#.#.#.#.=.=.%.=.=.%.%.#.P G P G F S g g g g g g g g g S S g g S S S G P P P S G P P P P P P G S g S F F F F G G G G S S S S G S S S S a a a b S S S a S S S S G P P P #.%.%.%.%.%.%.=.=.%.@.G S S F g g S S g g g S G P %.%.P P P #.%.%.%.=.=.=.%.G S S S S S G S g g g g S g g S S G G G F S G G G G G P ^ ^ P P P G G ^ ^ ^ P P G G G P @.P P G G S S S S G G G S g S S S a a a a g S G F S G S g a C a i a a a a s a S G P P G G G G @.#.#.#.#.@.#.@.#.@.%.#.#.#.#.#.#.#.#.#.@.^ P P P @.P ^ ^ ^ #.#.#.#.@.^ G S S S S S S F G G P P P G G G G G P ^ P P ^ G G G G G P P G G G G G G G P P P P P K S M a b a a g S K P P G P #.%.#.@.P P P P P G G P P G G G G G S S S S a s s s a s a i a a s s a a a a a a a a s a S P #.P G S ",
"S S C a a s a a g g g g g a a a a d g g a a g g g g g g g g g d a a a a s s s s s a K K K G P P P P P P K K L S a a S S S g S g a s s s s s p a a a b b C b a a a a a g S S S S S S S S K S S S S S S S S g g g S g g g a a g g g g S S S S S F G #.=.<.<.=.@.G G G G G G G #.=.#.#.@.#.#.#.#.@.{ { { { G { @.{ P P P P P F S S S S g g S S S S S S g g a a g g S G G G G G G G G G G S S S S S F F F G G G G G G P @.P P G S S S S S S S C b b S b S S S K K P #.%.=.<.<.<.=.*.%.*.*.=.=.=.=.=.<.<.<.=.#.K S S S S S S a a S S S a a a g g C S S C C a a a a a a a s s a a a a a S S g a g g S G G G G P G G G G G P P P P P G G P G P P P G G S g g a a a g g S S S g g g g M a S S a a a S S G K S a s a a u p p a a a a a F G P P G G G P @.@.@.@.@.@.@.#.@.@.@.@.^ @.@.^ ^ P ^ ^ P P P ^ ^ P K S S S S S S S S a a s a a g S S F G P P P P G P G G G P P P P P P P G P G G G G S S S S G G G S S S S a a a a a a b K P P P G P P P P G K K P P P P K S a a a i s i a a a s t s s s s s s t s s u i a a a i i i s s s a a S S S S S ",
"S b b a a a a a g g g d d a a a s s a d a g g g g d a a g g g g a a a a a a s a s a M S S G P K S S K K S S S C a a S K K K G S a s s s s p p a a a a a a a a a S S C C S S S S S S S S S S S S S S S S g g a g g S S S S S S S S S S S S S S G S S S g S S F G G G G G h S G @.#.@.#.=.=.=.@.G G F F g g g S g g a g g g g g g S S S S G G K S S S S K G G P P #.%.=.%.%.#.P S S K K S S S S S S F S S S G P #.*.%.%.%.%.%.{ G S S S S C C b b b b a a a a a a a S g g S S G P %.%.#.P P G S S P P P P P K S a a a a a a a s s a s a a a a a a s a a a a a a a b b C a a s s s a a a a a s s a a g S S S G G G G G G G S G P P G G G S S g a a a a a a g g g S g g g g g M S S S a a s s a C S S S a i u a a a a i a a s s p a a S G G G S G S S G G G G ^ ^ ^ P P P P P ^ P G P P P P P P P P K S a s s s s s s i a a a a a a a a a C S S S S S S S M S S S S D S K K K K K G G G S S S S S S S C a a a a a a a a a S K P P P K G G S a a a a i s t s s s i a i s i i a a i s i i a a a i a a p a i a a u u i u i a a i a a a a a a a ",
"S S b a a a a a a a d d d d a a g a a a a a d g g g a a a a s i s s s s s s s s s s a a a S S g S S S S S S S a s a G P K G K S a s s s u p u u p p s s u p i a a a a a a C S S S K S S S S S S a g S g S g g g a a a C S S S S S S S S S S S S S g S g S S g g G G G G G G G G P G P @.@.{ G G g g g g g S F F g a a a a a a a a a g S P P P P P L K K K K S S G G @.#.%.%.^ G S S S S S S S S S S S S S F P P P G F S S G F S S S S g a a a a S C g S S S S S S S S g a a s s s s s a a a a a a g g S S S S C a a a a b a i s i i a a a a a a p a a a a p p i a a a a S S S S S S S S S S g g s a g S S S G P P G K G G P P P G G S g a a a a a a g S S S S S S S S g a a a a S a a a a s s a a a s t t u u u a p s s s s s s a a a g g g g a a a g g g S G S G G G G G G G G G G G S S S g a s s t t s s a a p s s t t s s s s s s s i a a i a i s s i s i i s s s s s s s s a a a a a a a a a a i a i a a b b S a a a a a g g a a a s s i i a a a a a a a a a a a a a a a a s i i i p u u u p u i a a a i u a a i i i i a a a a a a ",
"J S b a a a a a s a a d d d g a a a a a a a a a a a a a a a s s s s s s s s s s a a a a a a s s s s a g b a a s s S P G K K K a a s s s s p p s s u u s s u s s s s s s a a a a S S S S S S S S S K P P P P G G g g a a S S S S S S S S S S C S g g g g g g a a d d g g g g a a s s s s s s a a g a g g g G G P S g a a a a a a a a g S S S S S a a a a a a a a a g g g S S g a g S S S S g S S S S S S F F S g g S S g S S g g g g g a a a a a a a a a a a a a a a a s s s s s a a a a s s s s s a s s s s s s a s s s i s s i a i a a a a a a a a a a a a b C C C C C C C S S S S S S S S S g S S G S a a a a g g S S S S S a s a a a a a a a a a g g g g g a g g S S K P ) %.>.R P %.{ S a a a a a a a a a p p s t t s s p s a s s s s a s s a a a a a d d a a a a a a a a s s s s a a a a a s s s i s s s s s s s s s s s i p p s s s i i i s s s s i s s s i s s s s s s s s s s s s s a a a a s a i a a b b S M a a s a a a s s s s s a a a a g g d a a a M g d a a a S S a a a a a a a a a a a b b b b b a a i t s i a a a a a a "
};
