/* XPM */
static char *_6bc6a29eeae42f8ab2d7a70ed0fe82ag1RkUzZPhtwfMCzV[] = {
/* columns rows colors chars-per-pixel */
"500 500 256 2 ",
"   c None",
".  c #0C1609",
"X  c #16170B",
"o  c #171A16",
"O  c #0D110D",
"+  c #231D16",
"@  c #261A0B",
"#  c #17260B",
"$  c #1A2618",
"%  c #192F13",
"&  c #26271A",
"*  c #352A1A",
"=  c #27361A",
"-  c #2F3214",
";  c #1C2623",
":  c #1D3225",
">  c #2B2B23",
",  c #252A26",
"<  c #342D24",
"1  c #293627",
"2  c #33342C",
"3  c #373829",
"4  c #2C3734",
"5  c #3B3C33",
"6  c #363A36",
"7  c #292D31",
"8  c #1A1D22",
"9  c #453A29",
"0  c #433D33",
"q  c #523D28",
"w  c #44321C",
"e  c #314619",
"r  c #364629",
"t  c #394637",
"y  c #3C5437",
"u  c #324929",
"i  c #385D34",
"p  c #44443B",
"a  c #484738",
"s  c #554A39",
"d  c #475739",
"f  c #56553C",
"g  c #494B2B",
"h  c #67533A",
"j  c #506739",
"k  c #5C6631",
"l  c #3B4744",
"z  c #3D5344",
"x  c #4C4C43",
"c  c #454A46",
"v  c #534D43",
"b  c #4A5647",
"n  c #545244",
"m  c #5C5A4C",
"M  c #575648",
"N  c #4B5754",
"B  c #585B54",
"V  c #484E51",
"C  c #655A49",
"Z  c #635D53",
"A  c #745C47",
"S  c #4C6446",
"D  c #576749",
"F  c #5A6657",
"G  c #5C7456",
"H  c #57714B",
"J  c #67654C",
"K  c #77644B",
"L  c #65774A",
"P  c #646254",
"I  c #6C6A5C",
"U  c #686658",
"Y  c #736C5C",
"T  c #776A56",
"R  c #677759",
"E  c #77745C",
"W  c #737A49",
"Q  c #5B6965",
"!  c #686B64",
"~  c #746E63",
"^  c #6A7766",
"/  c #747264",
"(  c #7B7463",
")  c #79786A",
"_  c #787B75",
"`  c #6A7675",
"'  c #575E62",
"]  c #373E41",
"[  c #87755B",
"{  c #8B7155",
"}  c #837C6B",
"|  c #877A66",
" . c #957D65",
".. c #847D72",
"X. c #8E7A6E",
"o. c #A27F62",
"O. c #82603B",
"+. c #758859",
"@. c #6E8856",
"#. c #778768",
"$. c #7A9468",
"%. c #7A8676",
"&. c #748C6E",
"*. c #749766",
"=. c #73863C",
"-. c #88846B",
";. c #97856B",
":. c #86976A",
">. c #848274",
",. c #8B8473",
"<. c #8C8A7C",
"1. c #878879",
"2. c #938C7B",
"3. c #978A76",
"4. c #889778",
"5. c #98947B",
"6. c #949A6B",
"7. c #A48D74",
"8. c #A7957A",
"9. c #B5987A",
"0. c #A58A6C",
"q. c #8AA478",
"w. c #96A879",
"e. c #93AB6F",
"r. c #A9B179",
"t. c #88945B",
"y. c #B6C07A",
"u. c #747D82",
"i. c #7A8886",
"p. c #888B85",
"a. c #958D82",
"s. c #8A9686",
"d. c #9B9483",
"f. c #989788",
"g. c #8B9695",
"h. c #989B95",
"j. c #888E92",
"k. c #A39C8B",
"l. c #A79A86",
"z. c #B49D84",
"x. c #A49E93",
"c. c #A59284",
"v. c #98A788",
"b. c #9AB487",
"n. c #9AA697",
"m. c #93AB8D",
"M. c #A8A48B",
"N. c #B7A58A",
"B. c #A6B889",
"V. c #ABA493",
"C. c #A7A798",
"Z. c #BBAC94",
"A. c #B4AC9B",
"S. c #B6A996",
"D. c #A8B798",
"F. c #B9B49B",
"G. c #B4B88B",
"H. c #9BA5A5",
"J. c #9CAEAA",
"K. c #A8ABA5",
"L. c #B4ADA3",
"P. c #ABB5A7",
"I. c #BBB4A3",
"U. c #BCBBAC",
"Y. c #B6B6A8",
"T. c #ACB5B5",
"R. c #B8BBB5",
"E. c #A7ADB2",
"W. c #979DA2",
"Q. c #C4A98A",
"!. c #C4AD94",
"~. c #C3B49B",
"^. c #C8B699",
"/. c #D1B898",
"(. c #C4BBA4",
"). c #CBBCA3",
"_. c #C3BCAB",
"`. c #C7B9A7",
"'. c #C4BDB3",
"]. c #D3BDA4",
"[. c #C19E81",
"{. c #ABC498",
"}. c #B6C799",
"|. c #B1C78B",
" X c #B8C6A8",
".X c #BBC5B7",
"XX c #B4CCAA",
"oX c #A7C997",
"OX c #C7D295",
"+X c #CCC2AC",
"@X c #C7C5AA",
"#X c #D3C4AB",
"$X c #D7C6A9",
"%X c #C7D5A9",
"&X c #C4C3B4",
"*X c #CBC4B3",
"=X c #CCCABC",
"-X c #C7C7B9",
";X c #D4CAB4",
":X c #DBCCB4",
">X c #D3CCBB",
",X c #D6C9B7",
"<X c #C9D5B8",
"1X c #DBD2BC",
"2X c #D6D4BA",
"3X c #D3D9AA",
"4X c #E4D5BB",
"5X c #E2CDB1",
"6X c #D5E4B4",
"7X c #E0E9AB",
"8X c #B4BDC2",
"9X c #BBC5C5",
"0X c #BCCDD2",
"qX c #CBCCC3",
"wX c #C6CAC6",
"eX c #D4CDC3",
"rX c #CBD4C7",
"tX c #D4D2C4",
"yX c #DBD4C3",
"uX c #D3D4CC",
"iX c #DCDBCC",
"pX c #D9D8C8",
"aX c #CAD4D5",
"sX c #DBDCD4",
"dX c #D6DAD6",
"fX c #C7CED2",
"gX c #E3DAC4",
"hX c #E3DCCB",
"jX c #E6D9C5",
"kX c #E4DDD3",
"lX c #E9D4C6",
"zX c #D9E4C9",
"xX c #DCE3D8",
"cX c #CEE4C8",
"vX c #E8E3CC",
"bX c #E4E2D4",
"nX c #EBE4D3",
"mX c #E3E4DC",
"MX c #ECEADC",
"NX c #EAE8D8",
"BX c #F3ECDB",
"VX c #F2E9D6",
"CX c #F7F2DD",
"ZX c #EEECD0",
"AX c #D0DCE3",
"SX c #DAE4E6",
"DX c #D9E8F0",
"FX c #EBECE3",
"GX c #E6E9E6",
"HX c #ECF3E8",
"JX c #F7F6E7",
"KX c #FBFBF4",
"LX c #F6F9F6",
"PX c #EEF0ED",
"IX c #E1DFE0",
"UX c #C1BFC2",
/* pixels */
"                                                                                                                                                                                                                                                                                                                                                                                                                                                                                                                                                                                                                                                                                                                                                                                                                                                                                                                                                                                                                                        ",
"                                                                                                                                                                                                                                                                                                                                                                                                                                                                                                                                                                                                                                                                                                                                                                                                                                                                                                                                                                                                                                        ",
"                                                                                                                                                                                                                                                                                                                                                                                                                                                                                                                                                                                                                                                                                                                                                                                                                                                                                                                                                                                                                                        ",
"                                                                                                                                                                                                                                                                                                                                                                                                                                                                                                                                                                                                                                                                                                                                                                                                                                                                                                                                                                                                                                        ",
"                                                                                                                                                                                                                                                                                                                                                                                                                                                                                                                                                                                                                                                                                                                                                                                                                                                                                                                                                                                                                                        ",
"                                                                                                                                                                                                                                                                                                                                                                                                                                                                                                                                                                                                                                                                                                                                                                                                                                                                                                                                                                                                                                        ",
"                                                                                                                                                                                                                                                                                                                                                                                                                                                                                                                                                                                                                                                                                                                                                                                                                                                                                                                                                                                                                                        ",
"                                                                                                                                                                                                                                                                                                                                                                                                                                                                                                                                                                                                                                                                                                                                                                                                                                                                                                                                                                                                                                        ",
"                                                                                                                                                                                                                                                                                                                                                                                        qXqX&XuX                                                                                                                                                                                                                                                                                                                                                                                                                                                                                                                                                                                                                                        ",
"                                                                                                                                                                                                                                                                                                                                                                                        tXpX-XiXmX-X                                                                                                                                                                                                                                                                                                                                                                                                                                                                                                                                                                                                                                    ",
"                                                                                                                                                                                                                                                                                                                                                                                    pX                                                                                                                                                                                                                                                                                                                                                                                                                                                                                                                                                                                                                                                  ",
"                                                                                                                                                                                                                                                                                                                                                                                iX XY.          uX                                                                                            R.                                                                                                                                                                                                                                                                                                                                                                                                                                                                                                                                        ",
"                                                                                                                                                                                                                                                                                                                                                                              pXpXf.-X            =X                                                                                  Y.iX                                                                                                                                                                                                                                                                                                                                                                                                                                                                                                                                              ",
"                                                                                                                                                                                                                                                                                                                                                                              &XM.M.                                                                                                  U.qXqXxX                                                                                                                                                                                                                                                                                                                                                                                                                                                                                                                                          ",
"                                                                                                                                                                                                                                                                                                                                                                              =X<.                  R.                                                                      R.Y.tX  NX&X      uX                                                                                                                                                                                                                                                                                                                                                                                                                                                                                                                                        ",
"                                                                                                                                                                                                                                                                                                                                                                                f.                                                                                          A.&XtXbX&X-X      uXuX                                                                                                                                                            rXfX                                                                                              xXiXiXbX                                                                                                                                                                                                                                                                ",
"                                                                                                                                                                                                                                                                                                                                                                                f.                                                                                          .XY.C.Y.C.qX      uX                                                                                                                                                          uXuXqXqX                                                                          HX                xXBXBXMXMX                                                                                                                                                                                                                                                                ",
"                                                                                                                                                                                                                                                                                                                                                                            <X=XM.Y.U.                                                                                      &Xf.tXU.qX                                                                                                  rXiX        rXrX                                                  &XU.-X                                                                          MXMX              mXxXbXZXCX                                                                                                                                                                                                                                                                  ",
"                                                                                                                                                                                                                                                                                                                                                                          rX-XC.f.bX  U.                                                                                      -X  qX                                                                                        qX        2XrXrX-XsX  uX.X-XqXqX                                              &XqX                                                                            JXMXMXNXuX            HXMXBX                                                                                                                                                                                                                                                                  ",
"                                                                                                                                                                                                                                                                                                                                                                          &XU.A.n.L.-X                                                                                            sX                                  bXBXzX                                                  rXzX  2X@XzX<XuXrX  rX.X.XU.Y.pX      uXuX                    -X=X=XpX                                                                                  iXNXbXbXFXmXY.                                                                                                                                                                                                                                                                                    ",
"                                                                                                                                                                                                                                                                                                                                                                            =XxXU.qX                                                                                              uX                                Y.-X2X%X@X                                          xXpX=X XY.F.M.}.6X2X=XrX  zX.X<X&X<XzX  iX=X-X=X                  &XtXbXpXzX-X&X        iXtX                                                                -XpX        bXL.                  HX                                                                                                                                                                                                                                                                ",
"                                                                                                                                                                                                                                                                                                                                                                                qX                                                                                                qX                                -X@X;X<X%X6X1X+X$X%X3X%X                            .X X Xv.@XD.+.}.<X@XpXNX    Y. X X2X<X-X<X-X<X        .X          U.pXiXpX<XU.U.bXbXzX2XtX%XiX                              .XC.C.Y.                    R.                                    uXsX                                                                                                                                                                                                                                                              ",
"                                                                                                                                                                                                                                                                                                                                                                                wX                                                                                                .X                                          vX%X+X@X3X$X@X3X                            U.@XpX@XB.:.%X2X@X-XzX    -XD. X<X&X X<X-X2X      qX.XR.        -XpX=X&X&X&X&X&X=XbXBXbXtXNX                            s.s.v. X&X<X<X-X=XrX    wX.X.X                                                                                                                                                                                                                                                                                                        ",
"                                                                                                                                                                                                                                                                                                                                                                                qX                                                                                            rXn.n.f.                                        2X  1X@X@X}.@X%X                            vX%X X4.+.+.B.@XD. XY.<X  bX X-X X@X@X&X2X        R..XrX        uX=X X-XbX=XU.pX  bX&XU. XzX  qXwX                      4.n.D.Y. X<X XY.P.D.D.K.T.uX                                                                                                                                                                                                                                                                                                          ",
"                                                                                                                                                                                                                                                                                                                                                                                R.                                                            wX                              s.f.n.1.&X    Y.F.U.                          pX        @XF.F.<X                          2XY.C.F. XD.G.B.:.F.=XY..X X<X X&X<X<X<X<X2XpX    xX.X                rXiX=X=X                .X    wX                  rX#.m..X.XrX<XD.v.4.4.v.v..X                            =XqX                                                                                                                                                                                                                                                                            ",
"                                                                                                                                                                                                                                                                                                                                                                                R.                                                          -X                                %.n.1.f.4.Y.M.D.D. X                                                                  A.%X@XF.Y.@X<X4.5.G.w.1.n.n.P.-XP. X&XD. X<X.XpXzXrX=XuX                    =XiX      xX        .XrX      wX            pXbX X4.D.D.<X XD.$.E 4.4.v.Y.-X                          &XY.-X-X                                                                                                                                                                                                                                                                          ",
"                                                                                                                                                                                                                                                                                                                                                                                R.                                                                                            %.>.1.v.D.v.v.w.}.%X                        -X                                      <X%X%XD.D.F.tXM.D.B.%X<X4.#.n.rX  bX.XD.D.Y. XY..XzX    -XuX                &X2XrX      .X        K.qX      rX        xXzXpXzX%X4.s.m.XX4.#.R :.B.B.w.v.v.n.                      Y.U.iXFX=X                    rXuX                                                                                                                                                                                                                                                  ",
"                                                                                                                                                                                                                                                                                                                                                                                R.                                                      wX                                    %.s.n.<X  4. XB.D.%X              F.D.D.vXbX-X                        qXuXuX      <XM.@X%X}. XI.-XY.2X@X@XB.M.A.s.pX  bX<XD.F.D.D. XD.<XNX  iX-X            uX-XY. XD.&X    .X        wXwX      zXY.zXrXrXcXzXrX<X X{.XX XP. XrX%XD.B.D.D.b.f.) f.                    M.C. XtX=X                    rXsX                                                                                                                                                                                                                                                  ",
"                                                                                                                                                                                                                                                                                                                                                                                                                                                                              p.n.      <X4. XD.n.            Y.M.B.G.%XB.<XzXzX                  &X&XxXNXxXpXzXI.B.B.}.D. X<Xv.tX%XM. X%X@XD.f. XMXzXY.D.v.B. X XD. X-X XrXtXR.      rXY.A. X-X%X@XY.Y.bX=X      qX  wXwXxXP..XXX.XXX<XzXcX<XXX6XXX%X%XXXzXJXJXCXzXD. X X}.:.)                   tXU.Y.A.&X                      qXsX                                                                                                                                                                                                                                                  ",
"                                                                                                                                                                                                                                                                                                                                                                                                                    uX                    rX                                              D.4.-XC.            D.B.G.}.B.:.B. X@X%X6X            .X.X<X&X-X<X-XD.f.2X@XB.G.6X@XF.I.F.@X%X3X%XzX<XY.D.D.D. X}.B.}.b.D.}.D.D. X-XA.R.C.C.uXJXbX XD.D.%X@XU.2X&X      R.    Y..X X XXXXX{.XX<X<XXXXXD.%X6X X XzXJXJXNXNX Xw.:.b.D.}.                zXtXZX  =X-X                      xX                                                                                                                                                                                                                                                    ",
"                                                                                                                                                                                                                                                                                                                                                                                  R.                              qXuXrX          -X    -X-X                                                K.s.=X            F.w.6.6.+.+.w.%X6XOX%X2X        sXbXzXzXZXbXY.Y.Y.4.<X@XB.%XzXD.bX@XM.%X3X3X3XvX2X@XB.D.b.B.%XB.B.{.%X{.B. XtXtX&Xs..XzXbXCXZX@X}.M.D. XF.@XY.&X    K.  rXY.<XcXXXD.b.D.b.D.{.XXXX XcX<X{.%X%X<X%XXXXXNX XR #.%X6X6XvX4X<X2XbX    2X<XvX                                                                                                                                                                                                                                                                                  ",
"                                                                                                                                                                                                                                                                                                                                                                                  T.                                =XuX          L.  qXP.                                                  wXC.h.            D.w.:.t.+.t.}.}.}.OX%X%X    sXwX=XqX2X X@X2XY.tX&XB.<X%XM. XC.1. X@XM.OXOX|.OX%X3XB.-.+.w.B.|.:.B.B.B.}.}. X XY. Xv.zXMX<X2XzX%X@X XD.@X X@X X-X  bXn.iX<XC.<XD.D.b.4.b.b.D.D.{.XXXX<X{.D.}.D.D.v.4.P.  NX@X:.B.}.B.3XZX2X%X@X%X%XI.@XzX                                                                                                                                                                                                                                                                                  ",
"                                                                                                                                                                                                                                                                                                                            Y.Y.                                                  Y.          %.f.                              qX-XbXP.                                              -Xn.s.%.s.K.h.R.      -X%. X<X2XM.#. XF.}.}.}.%X%X Xv.n.n. X XD.<XzX@X2X<XG.6XF.F.BXU.U.<XB.}.|.|.r.|.}.B.M.w.:.:.:.w.q.G.B.w.w.G.}. XD. XC.<XNX<X@XzX-X@XF.M.G.G.}.G.D.CX2Xv. X<X4.B.:.&.&.j D R #.{.6XXXXXXXXXB.|.{.XX4.4.%X    B.q.r.|.e.OX3XOX%X}. X XM.D.zX                  =X.X=X                                                                                                                                                                                                                                                          ",
"                                                                                                                                                                                                                                                                                                                            L.=X.X        rX                                      R.U.      %.4.1.              qXqX            U.qX.XtX                                              4.#.&.R %.rXK.s.P.-X  v.n.zXHXzXn.4.v.@X%XOXB.%X6XD.v.D.<X.X X X X X}.vX3X}.}. XD.xXL.&XzXG.e.r.OXOXr.G.B.B.OXB.:.:.B.b.b.G.B.D.}.D.@XxXrXv.D. Xv.D.-XbXtX X}.OX|.|.B.w.6X@Xw.b.D.R 4.4.D H H u R $.b.XX}.XX{.B.b.}.6XD.:.v.<X    -.w.b.|.r.OX|.|.OX@X@X X@X X2X              .X&X<X.X-X                                                                                                                                                                                                                                                          ",
"                                                                                                                                                                                                                                                            D.b.v.D.                                                        &XU.=X    mX.X-XP..X                                    K.      F %./               rXR.U.          -XpX&X                                                #.#.&.#.P.sXsXP.s.P.C.s.K.FXcX.X4.1. XzX2X3XF.D.D.D.M.5.v.D. X X X X%X3XF. XzXCX XC.s.<X%X%Xr.r.7X3Xe.r.r.B.B.6.:.b.b.b. X<XM. XzXzXzX X^ R v.v.#. XY.-XZX@XD.}.OX|.e.w.D. X%X%X XD.XX6X<XD.D L R v. X{.D.<XD.D.{.6X%Xb.v. XpX    v.w.w.G.|.OX|.w.}.B.D. X%X@XzX            rX X<X&XD. X  rX2X<X XD. XrX                                                                                                                                                                                                                                          ",
"                                                                                                                                                                                                                                                          }.:.4.B.v.D.                                                        -X      .XP..X.XR.P.                                  K.      F <.&X                  Y.pX    uXuXL.L.pX            fXqX                              uX#.#.#.4.rXxXdXqXs.p.n.%..XcXrX.X) v.<X X<XD.5.w.M.<XY.5. XD. XF.D.F.F. X XzXJXJXMXv.f.vX%X%Xw.B.ZX}.r.6.6.w.B.:.:.B.v.D.<XNXD.C.zXxXK.%.%.4.#.+.$.D.D.D.zX2X%X%X|.e.6.B. X X%XZX<X%X<X%X6X<XXXv.d XXcXD. XD.D.XX%X{.D.zX<X XpX    Y.w.G.B.G.}.G.w.zX<X}.@X@XzX            wXrXpXcX<XtXzXzXtX&X%X%X}.D.Y.                                                                                                                                                                                                                                          ",
"                                                                                                                                                                                                                                                  U.U.F.D.:.6.w.:.:.D.                                                              xX.XP.C.R.rXrXsX                                  Y.  Y.^ -X                    pXqX  uXL.<.) #.f.Y.qXrXuXY.E.wX            SXGX          SXxXGXcX#.G R 4.<XwXfXR.sXh.^ %.P.rXrX-X^ 4.#.L +.#.f. XM.4.:.v.B.M.:.-.:.4.I.bXJXKXKXHXJX5.4.2XF.D.M.6.OXOX|.t.+.6.r.r.w.{.D..XrXHXT.p.FXT.F ` s.#.R L #.4.4.4.zXZX3X|.e.B.B.B.XXzX<XCX<X XXX{.b.6XZX6Xv.XX<XP.P.Y.D. X<XB.<XCXMX-XtX      D.v.G.G.B.w.2X  D.D.zX              wXwX.XrXzX    rX-X<X X%XzX6X<X@X                                        uX                                                                                                                                                                                                ",
"                                                                                                                                                                                                                                                A.1.f.D.}.+.6.q.$.w.<X                                                              rX    xX    xXqX          &XY.                    C.sXf.C.                    uX&X&X-XC.p.a.>.M.&XY.R.U.K.K.aX              SXAXAXAXSXSXdXSXdXdXxXK.%.F s.rXuXdXR.qXsXg.` p.T.n.n.F R #.L +.4.A.vX X( 4.v.D.F.w.W L f.ZXJXiXK..XNXtX#.5.<X X X<XM.#.B.B.t.@.e.6.w.B.%X<XuXxXHXwXn.uXR b &.&.%.4.#.#.#.4.v.NX<XG.r.B.OXG.|.zX  MXNXXX4.D.XXXXw.B.<X}.b.m.#.m.v.R :.#.B.CXJXHXqX          <XB.w.D.      f.                rXR.wX=XzXzX  cXC.<X XD.D. X%X<X2X                          2X2X      pXiX=X.X                                                                                                                                                                                              ",
"                                                                                                                                                                                                                                                  4.#.v.B.$.:.:.w.w.b.v.M.-X                                      Y.f.<.s.                    xXR.              R.R.      U.rX        C.s.1.                  wXsX  Y.Y.-X  C.h.s. XxXxXpXK.s.K.              GXSXSXaXfXAXSXSXSXAXaXdXxXwXh.T.GXfXwXaXuXwXwXh.F K..X%.t F #.d @.+.-.%X4.R  XM.@X3X@X4.-.D.pX<Xv.1.K.rX X:.B.2X2XvXzX@X4.5.w.6.t.w.6.r.G.<XzXzXrXxXrXp.n.R &.H H S G 4.4.#.#. XzX X}.}.|.}.B.3X      xX XR L q.{.4.m.B.&.G D d S G P v.:.v.zXHX-XuX                        f.                R.P.cXMXMXzX  zXD.                                          2X%X%X<X%X&X&XpXpXY.                                                                                                                                                                                            ",
"                                                                                                                                                                                                                                                  rXcXzXv.#.4.4.4.v.:.4.#.>.                                      1.1.f.C.s.      -X                              rX-X    f._ 1.U.    pXM f.    -X            R.Y.bX&X&X  zXf.C.4.zXbX-XL.h.iXiXK.          PXdXxXxXfX9XaXSXSXSXSXSXfXdXGXxXxXrXuXdXwXR..X.XT._ %..X^ b %.H D +.:.+.E E 5.%X<X2X<X%X2XzXD.%.%.1.4..X<XD.-.B.6X2XZXzXD.F.vX%X:.6.w.6.}.2XpXzXiXuXxX.X1.P.F D D L G R #.@.#.R P..Xv.%X6X%Xr.W B.ZX    NX Xb.d y w.w.q.$.H d S S b &..Xm.#.4.4. X<XbX                      =XK.s.P.rX          rXxX  cXXXcXNXcXY.                                          }.@X2X%X%X2XA.Y.Y.                                                                                                                                                                                              ",
"                                                                                                                                                                                                                                              bXzXcXNXzX#.D.<XD.v.D.4.D.-X-XM.pX                                  R R D %.P.f.  sXR.                                  &XpXxXR.>.M %.A.-XM f.zX.XY.bX=X    uX.XqXY..X-XY.NXD.>.#.#.tXzXn.>.=X      dX    SXSXSXaX9XT.j.g.H.E.fXAXAXAXAXSXxXSXxXxXxX9X.X.XT.P.p.s.G g.^ t d D L L L +.+.:.-.@XCX X-XzXrXD.%.#.m.v.%. X X#.R B.zXZXJX.XY.2XvX2X#.:.5.F.zXzXbXxXuXY.uXn.f.) 1 t d R R R %./ R L Y.<X5.}.%Xr.B.+.#. X    zX4.v.#.r H b.b.4.R S S b n.zXrX4.P.v.XX<XrXMX           X%XM.Y.    .XP.s.^ n.f.Y.zX        <X4.M. XD. XY.                      -XuXrX            vX@X4X6X%X      A.-X                                                                                                                                                                                              ",
"                                                                                                                                                                                                                                          FXHXiXY.s.4.D.R <XHXHXHXcXNXHXHX=Xh.bXNXCXJX                          zX<XD.v. X  Y.R.qXE.                                    L.=XpXNX-X<.I P t I tXD.f.sXU.-X  pXC.-X.Xf.C.D.2Xv.#.4.Y.<XC.<.A.        wXwXGXaXfXE.g.j.g.J.0XAX0X9XE.T.SXfXfXaXxXSXrXT.9XXXD.D.s.&.` p.F U t d +.+.L +.e.w.w.R :.D. XpXv.s.F D ^ R R #.D.D.w.v.F.CXHXpXD.pXzXtXtX#.-.@XnXbXbXNXsXdXaXwX_ p.L.>.r = t R #.4.L b 4.4.rX<XD.+.L %X}.D m.rXrXD.#.#.#.y d #.m.b.b.m.4.&..X.XP.m.<X&.b..XD.=X=X      Y.D.<X%XD.D.  Y.<XC.#.D.D.D.F.%X      P.D.{.D.D..X.X.X                    D.D.&X<X          <X@XpX%XF.            Y.                                                                                                                                                                                          ",
"                                                                                                                                                                                                                                    PXJXmXMXFX=X4.4.v.D.&.XXuXmXHXHXGXHXuXn.=XMXFXMXNXnXnXvXiXiX              D.F.D. XvX      qXP.E.            mXsX                    iXR.Y.=XbX2XzX Xf.R P..Xf.C.Y.&XY. XP..XpX#.C.-XC.D.D.4.zX XR 1.-XxX      xXdX9Xg.j.H.T.fX0XAXAXAXSXDXAX8XfXPXGXHXdXn.m.g.s.n.4.D.%.H ^ %.y F R d #.W w.|.|.|.B.6.w.R v.s.b %.#.F H R G L D.D.#.#. XCXNXD.v.-XD.s.D.4.C.bXFXFXFXGXaXwXR.K.h.h.R.MXf.3 r r d d L  X-XF P.NXtX#.D B.<XR %. X.X^ G ^ s.S S b.m.b.m.&.m.&.s.n.&.{.XX&.&.m.P.n..X.X  Y.<X<X%XG.B.b.<XD.<X@X#.{.}.q.b.}.zX     X X X X X<XrXP..XzX        sX.X&XNX@X4. X<X<X            &XC.pX            P.                                                                                                                                                                                          ",
"                                                                                                                                                                                            JXJXJXJXHXJXJXJXJXJXJXJXJXJXJXJXJXFXmXxXmXPXmXMXNXY.4.q.4.m.R R .XLXHXHXHXHXxXuXmXsXMXNXNXNXbXtX<XiX            C.R / :.4.4.tX    NXh.P.          GXmXsXqXR.rXMXbXiXuXuXrXxXHXxXU.A.2XtX2XtXbX&X1.rXC.f.A.pXC.D. XD.pXs.4. X4.D.5.4. X4.v.v.xXxXKXHXGX.Xh.` g.9XGXGXSX0XAXSX0XaXAXSXSXaXSXSXmX.Xn.n.s.%.P.s.G F F ^ %.c R %.r D @.B.|.r.B.b.@.#.R R 4.D S b S b S S R v.4.+.#.4.<X Xf.-X Xf.>.C.U.BXFXGXJXGXGXwXT.K._ sXrXn.xXbX1.3 d # d P.zXv.M s.f.zX XD D 4.b b ! n.^ S u ^ $.4.q.m.D.4.&.4.m.D.D.4.XX{.b.4.&.P.n.Y.D.-XC. X X}.G.}.}.B.:.D.%X+.#.B.B.B.B.D.6XCXXX{. XD. XXX<XC.P..X.X X<X<XrX.XD.@X X4.b.D.%X<X                                                                                                                                                                                                                        ",
"                                                                                                                                                                                  JXJXMXMXFXJXJXBXJXJXCXJXJXJXJXJXJXJXJXKXJXFXmXxXxXmXFXFXJXbXv.4.4.R $.D #..XdXHXHXLXHXFXGXsXbXbXbXbXMXbX&XY.=XxX        .X4.R #./ 4.D.        K.K.      mXmXmXmXmXFXmXxXrXqXxXmXuXrX.X.XqXbXtXA.U.=X XC.pXv.C.D.M.n.=XC.>.2XD.v.4.R  X4.v.#.4.D.1.Y.4.rXrXHXxXn.^ ^ P.SXPXSXdXfXfXAXAX9XAXDXAXSXdXSXxXrXP.n.4.^ P.rXrXG H b G b y b R #.4.B.|.|.|.e.L j L d G R S &.4.%.#.d d j H H @.D #.-.D.D.Y.5. X<X-XY.bXNXrXGXxXrX.XP._ s.FXsXf.C.v.%.) s.&.#.4.n..XG h.F %.<XR = y 4 4 t b b G ^ D 4.m.m.m.m.&.$.m.D.m.%.XX<XXX$.G S &.n.P.-X=Xs.B.D.w.:.B.B.q.#.:.}.q.$.w.w.w.w.4.cXD.b 4.XXb.D.P.P.n..X<X<X<X<X<X<X.Xv.D.D.b.D.v.B.@X                                                                                                                                                                                                                        ",
"                                                                                                                                                                        FXMXMXHXBXMXNXbXnXBXJXJXCXJXJXJXJXJXJXCXCXCXJXJXJXFXNXbXxXmXxXmXFXKXNXv.#.$.@.$.#.4.#.U n.mXFXdXGXsXxXuXxXbXbXbXtX=X=X=X-XbX    -Xs.) R ^ D.-X          wXp.dXsXmXsXiXmXFXFXmXsXxXxXqX.XP.n.T.=X=X-XpXtX-XY.C.C.-XxXC.^ P.Y.) D.U.U  X Xf.P.) #.U R #.:.4.4.C.#.-X=X.Xf.Q s..X.XdXxXxXaXfX0XaXSX0XAXAXDXDXSXSXHXcXn.v.#.&.9XcXD.G S b &.^ %.n.n.&.4.XX{.}.e.+.+.L j j d u H v.D.D.v.t r r d d D j H / -.#.4.4.F.Y.Y.v.D..XC.=X.XC.Y.%.b Y.&XD.#.>.^ R F ) #.R D D s.B ` %.y #.#.u b b 1 1 y u F #.R v.{.s.G H H &.m.D.4.$.P.{.m.@.G y G %.4.rXxXD.D.%X:.+.e.q.w.+.#.4.:.:.w.B.w.4.%XXXD S &.XXD.D.XX XD. X.XzXzXzXMXMXxXxXzXzX<X Xv.M.D.@XtX-X&X                                                                                                                                                                                                                ",
"                                                                                                                                                                  MXbXbXbXbXbXbXhXnXNXnXvXVXCXCXCXJXJXCXCXCXCXCXCXCXCXCXBXNXkXsXsXxXxXmXMXHXNX XL :.{.XX$.b b b d rXxXuXxXsXiXtXpXNXBXbXiXbXbXiXtXbXiX-Xn.C.Y.D.rX            GXdX%.K.uXxXMXmXHXPXHXHXmXxXxXiXrX.Xn.%.n.n.D..XpX&X XY.v..X<XzXv.Y.&XU <.tX4.) D.P.C.1.R a L v.R P f.-Xs. X-X) b %.T.9XT.xXHXaXfX9X9XfXfXaXAXDXDXSXGX9XdX.X&.s.^ i.n.P.G t ^ s.s.%.m.m.m.&.q.{.{.w.:.B.{.b.q.H L i r L v.:.D a d d u r S j L f b D D ^ 1.4.v.w.v.D.C.P.m.D.v.D R M.1.M.D./ J U d r S L D d b b u S y y S u y b b u u 1 F R $.D.v.b S b u #.{.m.#.s.P.D.G G G S ^ &.F n.=XC.5. Xb.q.:.#.4.+.4.4.4.v.w.b.#.#.zXD.b R d 4.D.XXXXXXn..X.XrXzXrXxXHXHXHXLXHXHXzXD. X<XcX@X XtXpX2X                                                                                                                                                                                                            ",
"                                                                                                                                                              sXbXiXiXbXNXbXvXhXvXNXNXvXgXvXCXJXBXCXCXNXBXCXCXCXVXCXJXNXbXiXpXpXsXSXGXPXGXsXNXMXD.b.{.{.S b ^ 1 ^ m.y D v.qXqXtXzXpXpXzXzXtX Xn.M.Y.C.4.4.&XNXY.n..XMXFXGXGXPXLXLXh.g.mXxXHXmXxXGXGXuXC.h..XrX.Xs.n.zXzXC.#.v.4.s. XzXY.D.f. XC.4.C.#.#.v.D.M v. X>.P P d b 4.D d ) s.%.<.^ M ) P..X.XaXxXxXT..XwX0XfX0XSXaXSXSXdXxXR.p.i.n..X.X9X.X&.H ^ m.n.%.Q n.n.m.s.v.XXw.q.b.B.B.{.{.L d L H j d e r D d 1 y b H D j R R d d D D R :.v.5.4.s.m.D.&.u D D R R #.-.g f a 1 d S d D D b c c y y S u u 1 u 4 u y r u %.P.XX&.d y S y R %.G &.P.rXXXR G #.G d ^ D &.4.^ U XX6X{.4.q.4.&.#.4.v.v.R v. Xv.R ^ D H d 4.XX<XD.n.XXD.s.m.m.s.m..XHXHXHXLXHX<XD.zX6X{.<Xv.v.2X%X&X                                                                                                                                                                                                          ",
"                                                                                                                                                          bXiXbXbXgXgXhXhXhXvXvXvXnXvXZXZXnXBXJXMXJXMXMXJXJXMXMXMXJXMXiXtXbXkXsXGXPXPXGXPXxXMXrX&.#.R R b d b G oX@.H G ^  XzXrXtXzXxXzXzXrX%.F #.#.#.:.D.cX4.R ^ %.C.rXHXHXdXwXK.h.Q R.LXGXFXGXxXs.%.s.s..XD.4.F h..XxXxXP.s.@.d #.D.v.Y.v.s.4.R #.4.#.#.4.#.L D.4.E E D d D f r b n.s.R a F p.R..XR.rXn.%.n.J.9XT.0XaXaXaXfXaXaXSXJ.s.rXHXxXR.rXrXs.G s.P.n.N 1 ^ s.s.m.4.b.$.b.w.w.w.b.b.:.j j j u e y D D ) ^ d d d d D #.4.#.R D d f D E 4.4.#.s.D t r d D L j L +.d g r r d r d #.n.%.r t u r b d 4 t t 1 1 1 1 1 s.s.XX&.G H d y z y y i.n.J..Xs.%.m.S y R ^ %.#.s.4.%..X.Xv.m.D.4.^ %.s.4.4.D.D.#.G G G S D S &.m.4..X.XrXn.&.$.#.s.s.cXHXHXxX<Xv.%XZXzX}.}.%Xw. X2X2XNX                                                                                                                                                                                                        ",
"                                                                                                                                                        NXbXhXvXvXhXnXVXnXvXvXhXjXvXvXnXNXNXCXJXKXJXMXJXJXFXNXFXMXbXbX=XiXiXbXFXPXIXdXuXuXmXrX4.&.&.R R %.R D {.q.H H G H D.zX<XNXrXv.v..XzX.X^ d R R 4.<X%.D R #.R s. X.Xp.^ ^ b n.n.F n.xXxXLXn.! &.n.s.^ %.G B F F p.P.%.&.H &.#.r H v.v.5.E S H R L 4.4.E d R E D D 3 g g r 1 r ^ %.1 t 1.P..XK.P..XF F %.g.n.n.H..X9XfXT.9XdXxXJ.g.wXK.! 4 b n.^ ^ &.m.F y t : G %.s.G @.q.b.q.:.B.D.D.{.@.j H H i e u L  X.Xm.D d d R +.v.B.b.L R #.f U D U d y = f R 1.4.L R L #.d = = r r r j 4.n.4.t 1 d 1 1 t t 3 t t = 1 3 R #.H <X&.r b b t t y F J.J.n.n.rX&.y d H &.G S D <XrX%.K.-XP.n.&.&.m.s.#.#.D. X^ D ^ D H D &.F S G P.<X.XrX<X%.@.m.m.m.cXmXzX Xm. X6X6X6X6XB.}.}.}.<XbXNX                                                                                                                                                                                                        ",
"                                                                                                                                                      uXpXiXiXhXbXnXNXVXnXvXvXhXnXNXNXMXMXbXiXiXiX-XU.&X=XMXFXuXY.qXsXiXuXuXqXGXGXR.K.K.n..XP.%.&.4.&.&.cXrX%.D.H i j H @.n.zXzXrXv.#.^ n.cXxX.X4.R 4. Xv.R %.%.^ %..XrXn.` ^ ` i.uXxXn.F F %.n.p.` M ^ ^ s.F t ^ p.%.^ F G D G &.H d R #.1.#.D d r D R D v.D g g f D D r g d r 1 r t 1 t d n.P..XK.g.h.b b s.i.%.g.n.J.fXE.N i.fX.XR.H.F 6 M p c b F b 1 1 u b D t u S @.d j q.q.w.}.{.B.}.%Xq.+.$.@.H D j &.zXcXcXv.r d j @.#.+.#.D L #.D D r = 1 b d m F U n f E -.-.r # = a g D D R v.#.3 d b 3 1 t d t a r & 1 a R b d m.%.d R %.^ b u Q n..X9X9X.Xs.G &.R G H &.&.P.zXP.Y.Y.P.D.%.#.s.%.R s.D.^ ^ F D F S S b &.^ D D.<XP.<XrXD.H #.s.oX0XrX.XD.4.}.%X X}.}.b.6.{.D.&XNXMX                                                                                                                                                                                                        ",
"                                                                                                                                                      =XpXpXvXvXbXbXvXvXhXhXhXhXnXMXbXpXU.f.h.P.Y.&XqXR.Y.-X&XC.R.uXsXsXuXmXsXGXdXwXP.n.g.s.^ H H R @.G XXxXm.G &.G q.P.m.D.NXzXf.R p.4.n..XP..XP.s.v.m.^ #.%.R ^ P.cXY.&.! G ! .XLXcXdXdXP.s.p.%.p.%.p.n.^ b y 1.C.R._ R S d S u H 4.H r 3 < a d t r D r J U g g = g a r r D d a = 1 F D d p.s.n.%.^ ^ F N &.%.n.h.K.9XT.F t ` n.n.K.g.c X , $ 1 1 1 t u u v.cX<X{.H e y d L $.+.B.{. XD.v.w.&.:.:.@.@.@.H @. XXXv.S D j D D R D d j d f d d = 1 3 b t 3 t F d U R #.>.^ U d a M D R R ^ F d b F b t t 3 1 3 1 1 & 3 1 1 D R ) b ^ 4.%.F 1 c F %.n.9XrX.X%.&.S S ^ &.^ %.rX.X.X.Xn.%.%.G ^ %.G 4.%.F F s.%.^ G %.b %.^ y %.s.s.n.P.P.m.#.%.XXrXXXm.D.v.v.D. X}.}.%X4.D. X.XmXFX                                                                                                                                                                                                        ",
"                                                                                                                                                      tXhXpXpXpXhXiXiXhXhXbXbXiXkXuXU.h.h.n.K.T.R..XR.Y.C.h.K.qXsXuXsXqXuXsXFXmXwXwXP.P.n.%.&.&.G H &.&.m.cX<XG &.@.&.n.n.v.P.n.D M ^ U F U F F R G ^ ^ %.%.F b %.rXwX&.F S G p.dXLX.Xp.rX.XT.K.p._ F %.` b t ^ P.n.<.%.4.D D S S G D d 3 & & 3 & 1 r 3 a r f g g d = = d a 1 a a a = r t a ^ n.s.^ t b F b %.v.n.C.H.h.V $ b > c B c l 5 2 2 3 t t G D = L XX{.b.XX:.H B.b.j @.B.}.:.#.d g = r @.q.@.H @.$.G H H j S L L j j r D d d d D D #.R 1 2 t 6 1 1 p t t a D I ^ ^ ! p.s.R I U d d F F U N m m b d d F M a t t t D U M M #.s.%.b 1 c b ; b Q ! ! ^ m.D t D G ^ #.n.n.K.rXJ.%.%.F S ^ F %.^ ^ _ %.s.F b F ^ D.n.t &.^ G ^ ^ &.P.P.P.xXXXn.P.<X X4.D.}.B.%XXXb. X X.XxXHXGX                                                                                                                                                                                                      ",
"                                                                                                                                                    kXpXhXyXyXyXiXpXpXiXiXbXbXsXpXL.h.n.n.h.K.wX.X.XT.K.Y.C.K.&XuX-XR.-XwXuXPXmXR..XXXXXs.S G &.&.#.$.$.^ %.n.F y b t y F F _ f.) s.C.D.P.K.P.P.Y.D..X-X-XP.P.h._ h.XXn.n.^ s..Xn.n.%.b ^ N F B t c b t t b t _ s.^ x U ^ R d d ^ R d a < 3 m P n t a > p f = < & 3 = < 3 n a p t 1 & = d 5 P h.s.^ %.^ ! ) F %.1.f.f._ t 5 D U n ~ ^ ) B n M a F  XcXXX4.j q.b.b.$.q.}.%X}.w.L L L d # d  X+.# r j j H @.L D L L j d j d r g g d D H H #.4.v.4.1 6 4 t F F N N p x t a M B ! _ %.#.) ) 1.%.%.s.s.%.%.<.f.C.n.P..Xn.) %.<.f.D.4.1.%.) 4.%.%.s.p._ %._ ^ U ^ v.G d d R ) U F p.%.&.` &.^ ^ Q ! &.%.p.B b %.N ^ %.F F %.p.b g.g.Q t ^ S Q .X9XT.s..X<XrX XD.XXD.D. X X<XuXrXrXrXSXGXGXGX                                                                                                                                                                                                  ",
"                                                                                                                                                    uXtXpXpXvXvXpXtXtXtXtXpXsXsX&XK.C.C.P.wXwXR.wXR.K.h.K.K.T.wXuXwXn.P.P.wXGXGXR.K.n.%.S u b G G G G ^ G %.P.P.P.XX.XzXxXmXHXmXmXuXsXxXMXJXFXJXJXHXHXKXMXFXJXmXsX%.N F p.&.&.p.s.T.P.R.R.P..XwXR.rXR.n.n.%.! ^ ^ m ^ U %.4.U b b R R / >.A.L.L.P.U.uX&XY.s.) U P I I U ~ 1.a.f.C.C.C.h.n.h.n.K.K.n.C.P.f.1.^ >.C.M..XR.-XpXY.B.-.1.) >.) ~ E L R <XXXb.w.e.:.w.|.$.e.|.|.w.|.e.d = = = #.<X4.= j j y i j j H L D D H L H j g j d j #.$.D.D.4.&.1 p c N F ! F ` ^ %._ _ p.p.p.p.p.<.p.s.h.s.s.h.C.Y.R.R.&X-XY.C.C.Y.R.&X XY. X&X=XA.C.-XqX-XrXuXwXsXsXxX-XiXuXrXrX.XP.C.n.p.f.%.` ^ %.%.i.i.%.g.p.h.%.p.g.p.g.h.g.%.F N b F Q ^ z ` %.! s.g.` ! I v.rX.XD. XP.D.v.D..X.X9XwX0XfXdXaXwXuX                                                                                                                                                                                                ",
"                                                                                                                                                    iXiXyXyXgX2X2X2X2X2X>XtXpXuXqXP.Y.R.T.R.9XfXT._ c c B N ! f.-XqXK.h.h.h.qXrXi.F ^ g.g.F u 4 u 1 d s..XuXGXGXLXLXHXLXFXLXKXFXxXiXsXFXFXKXHXFXHXHXGXuX.XP.f._ 1.h.) U s.R.P.T.T.T..XwX.X.XdXdXuXrXuXxXuXuXwXdXxXiXFXxXsXxXiXrX.Xs.f.&X-X=XNXmXFXFXFXFXHXxXY.C.C.f.a.h.f.a.>.1.<.1.<.h.&XqX&X&XR.sXxXsXbXiX=X&X&X-XuXsXuXa.E L L D J <.>.) E J  XXXXXXX|.|.|.r.*.@.|.}.|.b.B.XXL S H = D  XH % r e r y j j +.$.@.L +.@.j j L @.L r H $.v.%.d 1 t 6 c F Q _ %._ %._ p.1.p.p._ p.h.a.p._ _ ` 1.p.P.iXxXrXR.A.C.h.C.C.Y.Y.Y. XU.Y.U.n.M.-XuXqXqX-XqXrXuXrXuXuXxXmXxXFXFXHXHXFXxXGXmXxXSXxXxXxXHXGXGXGXLXPXPXPXPXPXdXP.g.g.h.n.T.wXT.R.9XR..XwXR.h.n.! P.zXP.f.P..XD.P.n.n.g.j.T.E.J.T.T.T.wXwXaXGXLXKXKX                                                                                                                                                                                  ",
"                                                                                                                                                    iX=X2X1X2X2X;X=X=X-X=XtX&XqXqX.XP.P.T.R.R.T.B , ! h.p.B c 6 c B _ h.f._ ) p.j.R.dXxXrXrX%.F F ^ K.dXGXGXaXaXxXxXPXxXmXFXFXkXuXsXFXFXJXHXbXMXHXFXxXmXsXeX-XY.-XmXmXxXsXtXU..X-XK.sXR.R.h.K.uXsXP.-XxXmXxXGXxXrX-X.X-XqXY.P.R..X-XxXsXsXFXkXGXPXsXuXsXqXP.K.L.h.a.h.L.U.'.'.-XY.L.h.f.h.L.L.U.'.eXsXuX=XeXkXNXU...1.h.~ J OX|.OXOX6.( #.J f w.6Xb.%X6X%X|.|.}.B.@.|.}.w.oXoXb.@.{.6X{.L r % = d w.}.}. XH r L R @.H d e j 4.4.4.L g d r 1 r d F F F ` _ %.j.i._ %._ p.p.p.h.p.s.>.) ! _ _ _ _ C.rXuX&XP.C.C.A.L.Y.L.L.L.L.A.C.<._ C.rX-XR.-XqXuXuX-X-XR..XuXiXuXiXmXmXxXmXFXGXHXHXxXHXHXGXPXLXPXLXLXKXPXIXaXwXj.F j.9XR.E.9X9X9XT.R..X9XaX8XE.9Xh.` GXGXxXHXHXHXGXxXfX9XH.Q Q u.j.h.9XR.E.wXLXLXLXLXPXLX                                                                                                                                                                              ",
"                                                                                                                                                    pXpXyX@XS.F.@X*X;X@X-X-X&X-X-XY.P.E.P.E.E.g.4 _ uXLXGXxXmXaXK.h.p.p.h.R.uXGXPXPXGXaXT.P.P..XR.wXdXR.K.x.h.p.h.T.qXuXmXkXkXsXeXuXkXmXbXbXiXsXbXFXFXFXkXkXFXMXmXFXFXbXFXFXNXFXJXmXY.M h.h._ h.-XsXGXuXrX'.R.R.Y.R..XqXqX-XqXsXmXxXmXsXGXFXsXsXdXaXrX'.Y.Y.P.C.C.x.C.U.qXsXiXeXeXeX'.L.C.C.x.C.L.U.C.C.x.L.kXMXeXC.p.C.C.f G.|.|.|.B.E E g L }.}.b.e.|.}.%X|.|.|.j j e.b.{.{.H y {.{.XX%XL = d D.%X}. X<X Xg - r e d D H D D 4.B.4.j r t d d F ) #.%.s.j.j.g.h.p.p._ p.h.C.K.h.p.1._ 1.1._ _ _ h.Y.Y.K.L.C.x.x.h.C.C.C.C.C.h.<.) U / p.x.h.L.uXuXeXmXFXsXmXNXmXsXsXxXsXuXsXmXxXrXrXwXuXuXSXLXGXLXGXaXwXR.E.T.E.K.j.i.i.H.R.T.R.T.R.9X9XfXaXIXR.R.j.! aXSXGXSXSXGXxXGXSXdXGXfXj.N N W.E.E.dXLXLXLXLXLXLXLXLX                                                                                                                                                                            ",
"                                                                                                                                                    pXhXvX@XF.S.F.@X;X@X2X-X&X=XqXR.P.n.H.T.aXi.6 p.rXPXPXPXPXPXmXPXLXPXPXPXFXmXGXsXdXdXfXR.T.n.R.p.N ! h.x.C.Y.U.'.K.x.'.FXkXeXuXuXkXuXeXkXnXkXkXuXqXpXeX=XtXkXkXpXuX=XtXeXeXtXeXtX>.3 p ! qXY.! s.R.R.L.L.R.qXsXsXuXqXqXuXiXsXqXsXmXsXiXqXwXuXsXuXqXY.K.U.-XU.C.L.'.Y.x.h.a.p.1.f.x.L.L.U.'.'.'.eXeXuXeX=XhXyX=XFXeXR.=XB.W G.r.e.r.6.E f L +.L L e j |.|.|.|.|.$.@.*.@.L @.e = v.<X{.6X{.L :.%X6X<X X X%XB.r d y R &.b.D.D u R 4.+.r b #.1.%.1.s.s.n.Y.P.E.K.K.K.K.K.Y.K.Y.K.L.K.h.j.p.a.h.h.h.C.h.C.C.K.L.L.C.C.h.h.L.Y.P.C.h.C.f.! m U >.K.R.-XK.qXGXsXrXqXqX&XR.Y.K.K.Y.L.f.p.p.p._ g.wXaXR.T.E.K.E.H.K.K.H.T.T.H.j.j.H.R.T.R.9X9XwXT.wXUX! ! H.PXSXGXGXdXSXdXaXSXLXSXdXSXT.V Q g.9XLXLXLXLXLXLXLXLXLXLXLX                                                                                                                                                                        ",
"                                                                                                                                                    hXiX2XF.(.@XM.D.@X-X&XU.=X-X.Xn.h.K.K.n.R.j.B B _ f.K.K.T.fXuXsXmXmXGXmXsXsXkXuXqXuX-XK.h.s._ v 5 a.R.U.'.'.C.L.'.'.I.f.eXuXeXeXiXkXkXkXkXMXkXbXmXNXkXkXkXyXeXeXuXeXeX>X=X>X>X>X&Xh.f.=X'.R.K.h.U.qX'.qXuX-X'.uXsXuXqXsXmXmXNXMXGXFXGXkXGXGXkX'.Y.Y.R.U.U.L.1./ U U ..x.L.'.'.qX=XqXeXeXqXeXeX'.'.*X>XeX,X,XeXeXkX-XC.D.G.6.r.6.6.-.f D L d j @.j i {.{.|.|.}.$.b.XXv.H e y d H XXXX{.|.|.|.{.}.<X2XZX6XzXg = D %.v.B.b.R e j L L d D R 4.n.4.4.<.f.K.K.R.K.n.K.K.R.Y.Y.U.Y.L.R.'.R.R.R.R.K.C.h.h.n.C.K.U.R.P.P.K.P.Y.P.U.&XP.R.uX-Xf.) ! Z B ) C.rXwXR.Y.P.K.K.K.L.K.K.K.h.C.s.j.p.` _ h.W.K.H.W.K.K.K.K.K.H.E.9X9XT.H.i.g.T.T.9X9X9XfXh.i.H.wXLXPXGXSXSXSXIXGXPXaXaXfXAXAXPXH.Q g.9XLXLXPXPXPXLXLXLXPXPXPXPXLX                                                                                                                                                                    ",
"                                                                                                                                                    iXbX;XS.+X4X@XM. XzX X-X=XK.f.p.p._ g.T.K.! 2 ! h.C.K.C.f.h.p.....a.x.C.K.P.L.C.a._ _ _ _ p.h.B M f.x.'.=XL.L._.'.U.L.2.) A.pXNXsXeXiXkXkXMXMXNXiXpXiXnXMXhXpXyXhXhX>X=X&X*X*X_._.yX=XiX-XU.sXpXpXeXuXkXpXeXpXsXmXmXmXMXMXsXmXmXGXFXkXsXGXdXR.K.R.qX'.f.) U m / x.'.eXuXeXeX'.=X=XeXuXyXeXyXeX'.,XeXyXhXeX,X*X_.'.'.Y.1.@Xw.6.6.5.5.f r f D L D j j :.{.b.}.{.@.@.b.m.XXD e = @.XX}.|.e.|.B.3X%X X X<X X4.1 t t #.n.D.4.d +.6.R J f L R #.5.R f U %.f.K.R.K.K.K.K.Y.L.K.L.L.K.R.R.K.L.R.R.K.C.h.f.h.C.C.K.x.K.Y.K.L.P.L.P.Y.L.K.U.-X.XrXsX-XK.P U Y.wXR.T.-XY.Y.R.Y.K.K.Y.K.K.Y.K.j.p.p.H.K.K.E.K.K.T.R.R.R.fXT.H.9X9XfXfXK.h.h.h.H.K._ 7 g.fXK.T.9XdXGXGXSXGXdXGXGXdXaXSXaXwXR.Q h.T.GXGXGXGXPXPXPXPXPXPXPXPXPXKX                                                                                                                                                                  ",
"                                                                                                                                                    eXhX1X;X1X4X2X X-XiX=X.Xn.h.P.P.K.n.i.p.T.! N wXGXmXsXaXwXqXY.C.p.) / ~ / ) >.1.f.a.L.L.K.C.L.U Z Z ) k.k.x.V.k.L.x.x.U.( 0 ~ C.R.=XkXiX*XY.=XeXyXiXpXtXyXeXyX>X*X'.I._.I._.I._.U.=X*XU.'.eX'.eXeX-X-XeXeXkXpXiXkXmXuX-XqXsXiX-XL.Y.Y.R.wXY.K.x.x.p.>.) 1.a.C.Y.'.U.'.qXeXeXeXeXeXeXyXeXeXeXyXtX>XyXeX,X,X].].`.>XhX-Xf.1.-.d.d.5.5.g J ) D R R R H d 4.{.XX#.d u q.{.v.H d d @.XX|.|.e.e.|.}.6X<XD.d 1 = 1 3 t t R D r D $.:.:.:.f j R :.v.R 1 F ^ _ g.h.E.R.'.qXrXwX&X=X=X&XR.P.L.L.K.h.p.1.1.p.h.K.L.Y.L.R.R.R.Y.R.-XR.P.P.h.p.h.R..XR.K.Y.! 6 ! _ _ p.p.p.p.s.h.K.K.K.K.Y.Y.K.f.h.h.W.H.K.E.K.K.E.K.h.h.H.H.h.g.W.W.j.g.h.K.H.! 4 8 o 6 N ` p.p.g.K.H.R.fXfXdXdXSXdXdXdXGXh.l p.T.dXGXLXPXLXLXPXPXPXPXLXLXLXKXLXPX                                                                                                                                                              ",
"                                                                                                                                                    =XbXyXyX2X+X2X<X-XY.Y.C.p.P.K.n.h.R.h.` T.' p.uXrXwX-XR.K.Y.R.'.'.'.=XqX=X-X>X&XtXpX&Xf.C.C.L.>.Z 0 ~ a.X.2.2.V.A.2.d.,.a.0 ~ _ ) >.a.>.,.a.C.&X=X_.A.I.>X>X,X;X*X'.'.,X>X1X>X&X_.&X*X&X'.=X-X'.'.eXuXkXkXBXNXbXsXkXkXeX=XtX-X-XU.L.x.p.1._ ) ..a.a.L.L.Y.P.U.'.'.U.'.eXeXiXhXyXeX=XeX=XeXyXeX>X>XtXyX>X*X(.~.~.V.V.A.C.R.C.L.L.I.A.n E ) D #.R b D d d L L D D e e D S +.$.$.:.b.r.|.e.y.}.OX%X%X2X#.r t = 3 t t d r d :.+.w.:.+.g d +.w.v.E & 1 1 t N N V ! ! _ p.C.U.-X-XuXwX.X&X&XU.C.f.h.C.K.K.K.R.R.R.R.wXqXqXwX-X-X.XR.R.s.p.K.R.R.C.h._ K.aX-XR.K.C.K.K.T.-XuXrXR.h.h.K.E.E.K.H.n.E.K.H.h.h.h.h.p.p.W.h.g.H.K.h.E.K.E.h.H.W.W.h.g.u.p._ _ j.! N c B ! ! i.j.g.h.K.T.H.N l g.T.dXdXdXPXPXLXLXLXLXLXLXLXLXKXLXGXPX                                                                                                                                                            ",
"                                                                                                                                                    tXJXhXyX;XyX2Xv.#.D #.f.s.K.T.H.T.T.T.p.p.B K.qXuX-XqXuXwXR.=XqXU.C.f.d.C.Y._.>X>X&X2.a.U.Y.*X2.Z v Z U ~ ..l.x.d.>.<._.L.1.sXMXpX'.'.>XkXhXnXyX*X*X>X>XeX=X*X>XyX;X=X'._._.(.I._.&XI._.'.=XkXkXkXNXkXkXiXkXhXiX-XY.'.-X&X-X=X=XY.C.K.h.h.K.K.L.'.U.'.L.P.R.'.'.'.=XuXeX'.=XI.Y.'.>XbXvXbXbXBXyXtX*X+X+XV.8.l.`.+X*XI.C.Y.L.f.a...Z s J U U n ^ s.s.%.M = R #.R r r S #.#.R @.+.|.%Xb.+.|.B.OX}.}.6Xs.d ^ ^ F b t D M b #.:.B.:.-.g X = D f 3 2 F ! ! ! _ _ ` ! ) ! ! / ) >.1.f.C.C.n.n.h.f.p.p._ _ p.h.K.C.K.K.h.K.K.K.T.wX-XuX-XY.K.f.h.h.h.C.K.-XrXuXsXsXdXxXxXsXmXsXqX-XdXsXfXwX9X9XR.T.wXR.R.R.UXT.H.E.8X9XfXfXfXwXaXfXwXqXdXfXIXPXPXIXPXGXPXGXdXwXR.p.! c V c ] c 6 4 , o V H.E.dXdXaXdXGXPXPXLXLXLXLXLXPXLXLXPXLXLX                                                                                                                                                          ",
"                                                                                                                                                    FXNXeXtXyX2XB.+.:.w.v.4.h.P.T.n.n.Y.T.h.^ c _ P.U.C.1._ ....) } d.x.x.C.L.'.>X*X'.&XV.A.A.=X=Xa.~ Z M C ~ ,.d.a.V.k.V.U.f._.bXMXNXMXhXBXNXgX>X>X>X;X;X;X*X'.,X>X,X_.`.`.`.'.>X>XeXyXhXkXhX=X'.'.I.A.L.'.'.Y._.I.A.U.'.eXuXpXuXeX=XqXR.C.h.h.x.K.x.h.K.L.&X-XeXeXiX-XI._.L.'.yXkXNXMXMXBXNXpX>X+XF.A.F.F.(.`.,X*X*XgXV.Z } a.d.l.l.l.J g M n F P.P.K.n.4.R d &.1.r t 4.v.#.#.$.@.|.e.*.:.e.$.%XXXXXzX4.y &.H.p.l t c d d M #.5.f.v.g X = 3 > , c c Q _ h.C.h.h.f.f.f.f.f.f.f.C.f.f.C.C.C.C.p.p.p.p.p.p.h.K.E.K.Y.R.R.R.wXrXuXmXPXPXmX&XC.K.K.h.h.K.wXdXmXuXsXmXsXsXmXmXsXuXuXuXqXwX9X9XwXwXwXwXwXwX8XT.K.K.K.E.8XwXfXfXaXdXdXdXdXwXh.R.wXdXIXPXLXLXPXmXuXuXsXqXR.K.h.h.h.g.! 4 o ' g.E.aXdXdXxXxXGXGXGXGXHXGXPXKXPXLXLXGXLXGX                                                                                                                                                        ",
"                                                                                                                                                    JXNXpXpXtX2Xv.:.B.G.D.f..XwXK.n.D.C.P.n.F c .XJXsX-X'.L.C.'._.I.L.'.-X'.'.=X>XyX>X>X_.I.x.d.U.l...Y M M ~ 2.>.V.k.V.U...I pXBXkXgXyXhXgXjXjX>X&X].>XlX1X>XyXgX>X,X,X=X>XeXyX>X*XU.A.V.A.A.V.V.I.U._.'.*XeX=X_._.eXkXpXsXsXiXkXuXuXuX-XqXqX-XR.x.x.x.U.eXuXuXeX=X*X*XeXiXkXNXkXkXkXpXeX=X&XL.Y.U.U.F.(.`.*X*X_._.*XV.l.`.].~.`.F.V.V.5.Y Y <.n.n.n.K.%.%.#.b d b r r H #.H H e *.w.e.*.:.b.i &.XX.X.XD.F &.p.` N l l t 1 1 r ^ 1.4.d b F ^ ! ! ! ! i.j.h.C.K.Y.Y.U.U.R..X.X-X=X-X&XR.R.qXqXY._ >.p.s.h.C.K.E.E.K.K.R.qXuXsXsXsXmXGXmXqXR.Y.K.K.C..XsXuXuXuXsXuXdXsXsXuXuXuXsXuXqXfXdXsXSXSXSXGXIXaXdXdXdXdXIXdXSXGXGXSXGXGXPXPXdXh.! p._ h.LXPXSXuXGXJXGXuXqXqXaXqXwXdXsXIXaXn.c V p.H.aXfXwXxXGXFXGXGXGXPXPXPXGXPXLXKXHXFXHXxX                                                                                                                                                      ",
"                                                                                                                                                      bXbXNXhXbXD.:.G.}. Xn.P.T.T.n.C.P.R.K.` c R.mXsXuXqX=XeX-X'._.C.L.U.I.U._.>X*X_.*XyX*XI.d.I.L.x.~ U ( ( U 2.k.,.Y I a.yXBXyXyXtX*XgXyXlXyX*X,XyXgXjXhXyX].lX,X'.'._.A.x.d.l.k.x.A.A.I.U._.I.'.*XeXeX'.-X>XiXhXNXiXpXNXmXsXeXqXY.h.h.j.x.K.K.L.K.R.qXqXeX'.'.eXuXkXkXeXeXeX'.'.-X=X=X=X=X=X>X1X1X1X>X;X'.;X_.I._.2.X.(.A.c.l.3.c.d.M.d.f.A.f.s.g.Q 4 F s.#.d r t b b S d i e $.}.$.*.oX#.e y R ^ D U ! Q F Q ` ! ! B t 3 = 1 1 x n %.%.p.p.i._ _ j.h.C.K.R.&X-X=XqXqXeXuXpXpXsXpXeX=XqXrXY.C.K.R.R.'.wXwX'.R.wXqXeXiXmXmXmXmXsXsXuXU.K.K.K.E.R.uXsXmXdXqXuXuXuXuXaXuXuXsXsXGXGXGXdXwXT.T.T.T.T.T.T.K.W.K.T.fXaXdXIXIXdXdXdXGXUXN ] c c V dXPXGXdXxXsXsXsXmXGXFXGXGXsXwXwXfXwX! N h.H.aXfXaXxXGXmXxXmXFXGXGXPXGXHXLXLXLXHXGXGXxX                                                                                                                                                    ",
"                                                                                                                                                      mXbXbXiXpX-Xv.:.4.M.%.P.T.Y.K.P.Y.K.H.i.4 B K.C.h.K.L.L.C.L.Y.U.U.I.I.I.V.k.d.d.V.I.I._._.A.A.x.,.( ~ Z M } ..<.d.V.*X*XI.V.I.I.A.S.S.V.A.V.x.x.V.S.S.A.`.I.x.x.A.I._._._.'._._.L.V.V.A.A.>XpXkXNXNXkXkXkXkXiXkXeXkXpXwXwXK.K.h.K.x._ ..p.K.Y.R.R.qXqX-XuXeXeXeX>X=X=XtXuXeXsXGXFXFXNXkXpX*X+X_._.'.`.I.(.A.A.(.I.I.`._.(.,.E d.2.2.k.A.A.L.P.n.b t t ^ #.D d b %.^ b H u y 4.B.@.w.v.j H ) s.%._ ^ %.i.` ` j.p.i.` F F b 2 & t p.K.K.K.K.h.f.h.h.h.K.K.L.Y.'.'.-X-X-XtXtXqXeXtXpXpXuXuXqXU.'.'.U.U.'.R.K.K.Y.R.'.&XqXuXsXsXiXkXsXR.K.K.K.K..XqXwXdXuXuXqX'.R.E.K.K.T.R.R.R.E.K.h.H.T.wXwXdXaXfXfXwX8X8XfXdXdXdXSXSXdXaXfXaXqX! , , 8 ! wXaXdXuXaXrXrXuXsXsXqXwXdXR.K.K.H.g.N F g.g..XfXfXwXxXmXmXFXFXmXsXdXGXGXHXPXPXKXmXxXsX                                                                                                                                                    ",
"                                                                                                                                                      JXNXNXbXpXMXzX X X@X4.C.K.Y.D.D.T.n.j.i.4 6 C.-X'.U.U.'.Y.C.k.x.d.,.2.<.( <.} } } ..2.,.2.d.x.A.A.A.A.V.L.L.x.V.k.d.V.V.k.V.V.k.A.c.c.c.k.l.V.(.*X,X'.`.`.`.(._.'.`.`.I.V.c.V._.*X=XyXhXeXiXBXMXkXiXiXuX=XqX=XqXY.L.C.p.` s.h.j.p.T.Y.K.x.K.E.wXwXuXrX'.qXU.U.'.'.=XkXNXBXGXPXFXmXmXkXeX'.eXyX>X_.'.>X,X'._.'.`.*X*XI.I.k.J a >.k.k.x.A.L._..XC.M B M 4.v.4.1.^ s.n.t = b d H q.:.w.H U 1.n.Y.C.n.K.K.h.h.j.g.h.j.s.s.%.` B B B p.j.n.K.E.T.R.wXwX'.uXuXuXiXkXkXkXkXsXNXNXMXNXmXMXmXiXsXsXiXeXqXuXiXiXiXkXmXiXqX-XR.R.U.R.'.-XsXsXwXY.K.K.K.R.fXaXqXR.wXK.h.K.E.E.T.T.E.H.g.h.E.wXaXaXfXwXwXfXfXdXIXdXfXfXaXaXaXaXaXdXdXdXsXsXK.c , ! R.PXPXPXGXGXmXdXdXuXuXwXR.-XR.R.R.K.K.Q N i.i.T.fX9XrXxXGXxXxXxXxXGXGXGXxXGXHXHXFXuXR.rXPX                                                                                                                                                  ",
"                                                                                                                                                      PXbXbXNXsXiXpX2X2X2Xv.f.Y.P.C.n.n.n.H.i.c O x ..h.a.p.f.C.x.<.a.d.d.x.A.I.*XU.L.I.V.A.l.V.A.x.x.x.V.A.V.V.C.L.*XyXhXyXkXnXCXnXkXnXlXlX,X*X].].`.~.S.V.c.3.2.c.V.V.V.A.(.`.;XgXnXnXkXnXkXyX>XeX>X'.U.I.U.L.C.x.K.h.p.h.h._ V ` H.h.j.j.h.R.K.R.fXwXR.R.qXU.eXqXuXpXkXNXeXU.Y.Y.L.K.'.eX=X_.L.I.A.x.x.A.A.A.I.I.V.A.L.I.L.d.| U d.I._.I.L.Y.I.U.f.a > F D.M.v.&Xn.^ s.F = d b r d r r #.n.s.f.E.-XK.P.K.g.T.T.E.T.T.T.T.h.p._ u.! ! p.g.h.K.R.R.R.R.R.qX'.U.U.'.'.=X=XqXtXuXuXsXpXpXpXuXpXpXuXqX=XqXeXtXuXiXkXsXqXR.R.'.'.U.K.K.U.Y.K.Y.K.K.R.wXwXR.Y.K.K.K.K.K.K.K.K.T.T.K.T.E.T.R.T.E.T.9X9XfXdXaXwXR.T.R.8X9XwXR.T.R.wXwXwX-XfXUXx.qXaXaXdXdXdXGXsXuXuXuXsXmXuXuXmXmXaXR.aX` l ' N g.E.P.9XuXsXsXsXxXmXGXdXuXxXGXPXmXT.K.K.xXKXKX                                                                                                                                                ",
"                                                                                                                                                      LXNXiXMXNXbXbX6XvXzX5.4.D.4.w.4.#.%.g.i.6 > C.kXqXU.U.L.L.x.d.d.d.a.>.} <.k.x.x.A.k.k.k.L.'.I.I.'._.'.*XyXpXhXhXeXyXeXgX,X*X].`.~.Z.S.N.8.7.3.3.c.l.V.Z.`.].,X,X,X>X>X,X,X_.>XyX>X*X'._.L.L.x.C.U.Y.L.Y.C.h.h.h.Y.K.h.K.K.h.4 V K.K.h.W.K.wXUXwXf.h.-XqXsXuXsXiXeXY.x.x.x.Y.U.L.K.L.L.x.d.x.x.V.S.S.V.S.`._.~.A.x.x.x.k.d.M.k.V.A._._._.'.(._.*XI.d.L.U.f.5.2.x...U ) I d 3 t & g b U ^ j.K.Y.R.R.T.K.K.j.h.j.g.j.j.h.p.p._ p.j.g.R.R.R.wXuXaXqXsXmXGXkXsXkXsXkXiXuXuXuXiXeXpXuXuXuXqXqX-X-X-X'.'.qXkXmXkXGXGXkXeXwXwXR.K.K.K.K.K.K.K.h.K.T.R.T.K.K.K.h.K.K.H.h.h.W.H.h.j.j.p.p.p.p.p.p.p.g.H.T.9XwX9XE.E.K.E.T.R.R.R.R.wXaXqX'.dXdXfXLXPXSXsXdXGXGXdXqX-XY.L.h.p.s.s.h.h.K.Q l B l Q g.H.n.K.R.rXsXxXsXrXdXsXuXR.K.f.%.f.Y.JXKXLXFXFX                                                                                                                                            ",
"                                                                                                                                                    LXKXFXxXmXFXJXbXZX%XB.:.D #.G.w.4.b.%.^ %.N o B f.C.x.x.p.) } } I ~ } ( } ,.,.a.,.d.k.V.V.d.l.k.V.k.d.A.L.A.V.x.A.V.A.V.k.d.c.l.l.c.c.c.l.Z.~.`.`.`.].,X1XlX,X#X`.F.S.S.V.x.V.A._._.`.I.L.A.Y.L.U.U.C.x...v ! E.K.K.K.h.h.K.E.B 7 p.R.K.E.wXUXR.h...R.wXR.uXqX'.L.U.'.U.U.L.L.U.L.C.A.V.x.V.I.`.`.`.`.S.V.V.S.z.V.k.x.S.A.A.A.A.A.(.I.`.`.I.`.+X>X*X-X*XI.U.l.2.d.} < m ) f t 2 d ) s.f.h.K.-XqXuXuXqXuXfXwXR.K.K.j.! V l 6 4 ' j.K.T.T.T.T.R.rXrXdXsXsXmXFXGXmXFXmXGXFXGXFXmXFXmXFXPXFXmXmXMXsXuXuXsXkXkXsXR.Y.R.uXsXqXR..XR.K.K.K.K.h.j.K.R.E.R.K.j.h.j.j.K.E.R.R.R.T.T.T.T.8X8XT.T.8X8XT.E.g.p.j.W.H.E.R.T.T.T.R.R.R.R.R.wXwXfXwXfXwXK.K.H.K.K.h.h.C.K.K.R.K.C._ B x B N N 6 V Q l V j.E.T.P.P.Y.R.R..XR.f.h.p.%.1.p.h.P.&XJXHXHXFXNXFXKXKX                                                                                                                                      ",
"                                                                                                                                          PXPXLXLXPXLXLXKXJXHXKXJX@Xw.+.@.L L B.}.:.:.b.4.D ^ F $ . 5 C.f.h.p.~ } V.d.,.l.d.k.k.,.,.} ( ,.,.,.2.a.d.a.2.2.d.k.d.a.d.d.x.x.L.I.l.S.].`.`.Z.F.#X).`.Z.~.].].`.Z.~.~.S.Z.`.`.`.,X,X_.`.(.A.&X'._.A.L.L.L.d.1.U 2 2 N h.E.T.E.T.T.K.K.c B E.R.R.R.R.T.K._ B B Z a.h.Y.'.Y.L.U.'.C.x.x.L.C.x.V.V.V.I.`.].,X`.`.*X,X:X,X`.].`.`.~.k.A.F.F.F.F.V.A.'.`.`._._.'.&X&XI.k.J k.'.a.2 s Y I I d D H R D F 1.s.s.x.L.K.K.R.9XR.R..X9XwXfXE.p.c , 6 u.h.h.h.C.K.P.Y.T.T.R.R.Y.Y.R.R.Y.Y.R.'.'.-XwX.XuXuXuXiXiXmXFXsXsXkXKXPXGXsXwXK.p.p.K.R.Y.R.wXR.E.K.h.g.K.K.E.j.h.h.h.x.K.wXdXGXGXGXPXGXIXfXfXaXfX9XwX9XwX9XwXE.E.E.j.u.R.fXaXSXaXdXwXR.C.j.p.h.h.j.H.T.'.fXsXGXsXGXFXGXmXmXmXGXGXuXwXwX.XwX` 4 B l t ` h.P.P.P.P.R.R.P.P.g.1.h.h.p.A.Y.L.JXHXJXJXJXJXJXJXJXJXJXKXKX                                                                                                                              ",
"                                                                                                                                      PXLXPXLXLXLXLXLXLXLXPXLXKX<XE L :.e.@.$.{.e.t.:.e.w.G G F > o & f.U.C.a...) d.x.d.x.d.d.x.V.k.<.} ( Y U Y ,...<.d.x.x.x.x.V.k.V._.I.L.~.`.`.~.`.).).F.~.S.N.~.].].S.Z.`.:X].#XlX].`.,X].].`.A.V.V.x.<.) Z v Z Z n a < 3 a.p._ j.p.h.h.f.p.F 6 p.K.K.h.K.j.! ..h.Z Z ) ..h.C.U.Y.C.C.V.C.f.f.h.A.I.A.I.A.S.F.`.`.Z.(.`.(.l.z.`.~.~.`.(.(.F.#X#X`.~.`.].].'.&X;X*X-X&XU.D.#.J >X-XC.n M 4.D..XD.#.D #.R ^ I >._ <.f.C.C.n.h.h.s.C.K.K.K.K.UXT.p.' V c c ! ! _ p.h.K.P.R.R.R.R.R.R.T.E.E.T.'.T.T.K.T.R.R.Y.E.R.wXR.R.R.sXGXFXGXPXPXGX'.j._ p.E.E.K.K.E.K.E.wXfXfXwXwXqXiXkXGXGXPXPXGXIXGXIXaXfX9X8X9XwXfX9X8XT.9X9XE.T.E.E.g.j.E.T.j._ p.C.E.R.wXGXGXPXLXPXPXLXPXPXPXPXPXFXGXPXPXFXJXPXPXLXLXLXi.4 ` N l ` ` h.P.T..XR.P..XR.P.p.%.f.Y.Y.L.iXMXMXFXJXJXCXJXJXJXJXJXJXJXLXKXKX                                                                                                                        ",
"                                                                                                                                      PXLXLXLXLXLXLXLXLXPXLXLXHX4.L :.:.w.:.@.e.e.e.:.:.+.j #.G = t & 5 1.f.a.1.} ) } I C M a Z 2.d.d.d.a.<.,.,.( ~ ~ ( ,.d.k.l.C.Y.U.V.V.k.c.~.F.V.8.l.c.3.l.l.8.z.N.Z.z.N.N.l.N.Z.S.V.V.c.d.d.l.,.X.d.a.....} ..<.....1.~ M B K.K.p.p._ ^ B 5 O x h._ p.! M v x Z 1.p.x.x.a.a...( Z U } ,.x.f.a.k.f.a.2.k.V.d.c.k.l.l.l.l.S.N.z.~.S.7.X.3.V.N.8.Z.Z.S.F.~.F.A.=XY.1.B M ^ v./ d f.&XP.3 R  X<XP. Xw.D :.B.C.%.^ _ a.n.L.R.P.n.C.h.C.n.h.h.f.K.R.wXfXwXT.K.K.s.n.n.n.h.h.n.K.K.T.R.wX9XR.UXwXwX9XwX.X.X.XR.P.K.K.H.h.h.h.R.aXGXGXGXGXIXGXLXwXp.! ! i.h.K.H.R.dXaXfXdXdXFXFXGXPXFXGXmXGXGXPXdXfX9XT.T.T.9XwX8XR.T.E.R.wX8XH.T.T.g.c 7 p.wXGXLXKXKXPXPXGXFXkXkXGXGXFXPXPXmXuXiXGXmXmXsXsXGXmXmXdXwX` 7 V l l N ! i.K.R..XT.R.wXR.K.h.K.n.f.U.bXNXNXMXBXCXJXJXJXJXJXJXJXJXJXJXJXKXLXLX                                                                                                                    ",
"                                                                                                                                    PXPXLXLXLXLXLXLXPXLXLXLXLXuX^ @.+.+.@.@.@.w.q.*.e.q.j d R D $ $ $ X $ 2 2 & & O O X X X X n ,.a.k.a.,.<.a.a...} Y U | 2.( s 0 v a < ( V.x.S.N.l.3.5.M.F.F.Z.N.F.~.N.Z.`.S.3.X.l.c.3.k.k.k.2.2.3.d.A.A.L.U.I.C.L.Y.L.C.h.x.m ~ -Xp.s.h.K._ 2 X & a M U ~ 1.~ ..a.2.a.a.} ,.Y ~ ~ I Y ,.C.A.k.f.C.k.f.} I ) J ,.5.M.S.N.M.N.Z.).S.`.S.S.].`.S.S.N.N.~.~.Z.F.A.Y.U d F F b R ^ d d s.Y.d #. XD.D.v.@.j W #.R ^ U ) s.C.U..XY.K.P.K.C.f.h.Y.K.K.f.h.K.T.qXsXFXGXGXGXGXGXxXdXfXwX9XH.g.W.T.R.E.E.R.9XwXwXwXwXwX9XR.K.h.h.p.g.K.T.T.K.K.T.R.UXwXT.j.u.u.i.p.p.W.T.9XfXsXaXdXmXPXFXGXGXFXPXLXLXGXdXfXR.K.W.g.g.h.H.H.h.j.i.p.K.K.R.E.' N E.fXfXrX-XfXsXGXPXPXLXGXfXR.L.Y.wXmXGXmXGXmXGXkXuXqXwX-XE.%.6 ; ; 8 ; , F %.g.K.P.T.R.h.p.p._ s.P.iXFXHXbXNXCXJXJXJXJXJXJXJXJXKXJXKXKXKXJXJXJXKXKX                                                                                                                ",
"                                                                                                                                    PXPXLXLXLXLXLXLXLXLXLXLXPXwXD R @.+.+.#.G b.b.$.:.L g R ^ G t t t & . X O o + ! x.A.a.~ U ,.<.<.<.} ) } 2.d.d.l.d.2.a.d.} M 3 & + + Z l.k.k.k.k.l.5.l.5.5.S.M.S.F.M.~.F.l.8.c.5.d.-.} ,.} 2.} 1.<...<.x.x.1.1...a.a.p.f.U.1.m f.f.a.a./ 3 3 C } ,.x.x.d.2.,.d...X.X.X.,.2.2.2.k.l.2...d.2.V.U.=XkXU.D U 1.E ( -.l.d.5.5.3.l.l.c.N.l.k.Z.N.N.N.N.N.N.M.V.A.A.^ d N N b b ^ ^ #.1.Y.4.b v.4.q.q.q.L L +.R R >._ _ p.P.-XR.U.R.K.Y.Y.Y.R.R.R.-XR.Y.h.h.n.K.K.K.E.Y.R..XwXwXwXfXwX9XE.i._ g.E.8XR.R.R.T.T.R.9X9XwX9XwX9XK.K.E.K.H.E.K.g.j.i.i.j.i.u.j.g.j.u.u.u.' i.p._ p.K.rXuXGXPXPXPXPXPXLXLXPXGXdXqXT.h.u.` ` ` ! V ! ` ` _ _ _ _ h.K.K.K.K.K.h.p.h.p.p.h.K.R.R.R.-XqXqXwXqX'.qXuXsXuXuXdXqXH., 4 6 7 ; ; 6 N F ! ^ ^ Q N %.n.wXmXsXmXNXNXJXMXJXJXJXJXJXCXCXJXKXKXJXJXKXKXJXKXKXKXKXKX                                                                                                              ",
"                                                                                                                                  PXPXPXPXLXLXLXLXLXLXLXLXLXLXSXn.R D j $.XXm.D @.L g g L 4.#.D D ^ U b $ X , o _ uXJXiX_.V.x.V.V.d.a.d.d.d.d.d.2.a.k.x.x.x.x.x.f.( ....( } } T E -.-.[ E f -.G.G.M.6.E -.,.| -.} 3.5.3.>.} -.,.<.f.I.C.a.1...) / p.x.M & 0 / a...a / } a a ~ 2.A.k.5.2.2.c.X.X.X.T [ [ T T Y | X.X.X.,.( Y C d.pXpXkXL.I &X XD.&Xf.,.,.5.5.| 3.k.c.X.,.c.c.l.N.Z.).~.N.S.M.5.2.%.F ! b t N 4.m.v. X X1.d R $.:.:.w.b.e.+.B.5.U I ~ ) 1.1.>...1._ >._ _ _ _ p.f.h.Y.R.-XR.Y.K.K.K.K.K.K.K.K.E.R.8XR.R.E.h.p._ _ h.H.T.R.9X9XR.T.T.9XfXwX8X9X9XE.E.T.R.R.T.E.K.H.W.h.W.j.u.u.g.H.K._ B p.qXmXFXmXmXFXFXPXJXPXPXPXPXLXPXPXPXFXGXdXR.h.f.wXxXdXdXGXPXLXKXKXKXPXKXKXLXKXGXdXR.wXGXKXKXKXLXPXJXLXPXFXPXGXGXPXGXsXsXuXp., V l ; ; 4 : N ` i.n.E.K.R.SXSXxXGXxXsXNXHXMXMXJXJXJXCXCXJXJXJXKXJXJXJXJXJXJXKXKXKXKXKXLX                                                                                                            ",
"                                                                                                                                  PXPXLXLXLXLXLXLXLXLXLXPXLXLXLXxX.Xv.v.cXHXcXs.S r r :. XD.4.U F G 3 $ o X & p =X=XU.L.L.A.A.A.V.k.f.f.k.V.k.V.d.d.k.A.L.L.A.V.x.f.h.V.d.d.3.} 5.l.3.3.-.-.F.F.B.@XB.:.M.@XI.5.d.5.-.5.f.2.A.=X&X1.f.h.C.C.h.f.1.p.Z o X 0 a v U v 0 v Z } ,.,.2.3.l.c.c.c.3.3.| K s s C T X.| | X.,.3.| T 9 0 >.-XuX1.D -XD.n.rXR g ) F.S.d.l.} J ( k.S.k.~.`.N.l.5.l.M.} U / ^ ! ! F ! _ %.#.P R ) D g #.4.6.w.$.q.:.+.b.:.r F ) a.h.d.h.K.K.K.K.C.x.h.h.h.p.p.p.1.1.p.f.h.h.K.K.T.R.R.E.E.K.E.E.R.8X9X9XK.h.i._ i.i.g.h.H.H.E.T.T.T.T.8X8XE.R.R.8X9XT.8X9XE.E.H.H.H.W.h.h.W.K.wXE.p._ K.sXmXmXmXmXGXFXPXFXmXGXFXGXGXmXmXGXmXPXPXsXFXmXGXPXGXPXGXPXGXdXsXGXdXuXsXrXwXR.E.R.fXuXsXuXwXqXuXeXqXqXuXuXuXaXR.E.K.! , 6 ; 7 l l V j.p.` _ g..XfX9XuXxXGXFXPXJXFXMXMXMXBXJXJXJXJXJXJXJXJXJXJXLXKXKXKXKXKXKXKXKXKX                                                                                                          ",
"                                                                                                                                  GXPXLXLXLXLXPXLXLXLXLXLXLXGXSXHXxXzX<XcXcXcXrXs.d #.n.D.Y.n.^ ^ y # . o & o > 1.a.x.d.d.d.d.2.2.k.k.2.2.2.2.,.2.k.V.d.2.2.,.} ,.f.1...,.X.T X.3.,.3.T J @X@X X%X3XM.G.@X2X XE ( 1.1.>.M.2XbXCX2X( 1.) ) <.a.1.p._ o + < v Z Y ~ ( | } ,.X.| ,.3.l.l.8.7.X.[ { A A C T [ T T X.| | Y T v a 9 0 5 a M n d #.s..X<X^ a s.tX<XyXbXa.* C A.V.F.;X+X(.#X@Xl.J g d D D U B b N I ^ D M p - 3 g f D :.:.q.q.w.B.:.#.D ) >.C.'.'.'.'.=XqX-XeXuXeXuXiXiXeXeXeXuXqX-XR.E.h.j.p.j.W.E.E.E.E.K.E.T.R.R.T.R.T.J.H.i.u._ u.i.j.j.h.W.W.W.H.E.K.T.T.E.T.R.8X8X8XT.E.E.W.W.W.K.T.T.R.wXR.Y.K.Y.&X&X&X&X=XuXbXNXFXmXuXqXqXsXFXGXkXsXmXsXPXmXsXsXdXuXsXaXfXfXqXqXR.C.! N _ _ ..1.p.p._ ! ! / ! Z ~ 1.! ! _ p.h.E.N o 4 7 ; 4 7 j.T.g.%.` %.wXaXaXdXSXdXxXxXGXFXFXFXMXFXJXJXJXJXJXHXJXJXJXKXKXKXKXKXKXKXKXKXKXKXLX                                                                                                        ",
"                                                                                                                                  GXPXLXLXLXPXLXLXLXLXLXLXfXT.rX.Xm.&.&.m.D.XXzXrXb v.tXC.n.s.F B t o o o . O O O & & 0 0 0 a 9 9 9 9 9 3 9 3 9 9 9 9 9 9 9 9 g v v v M C C C K C T T U J 4.D.%XF.-.F.zX2X%XE g D D D L @XvX2X3X%X|.6X<Xv.>.f.<.x.a.x 3 Y ..( } ( } | ,.| X.,.3.X.X.X.A A A A [ T T A A T T T T C C n s 0 m 3 a t U b g b d g D R r H  XxXxXxXP.M g 1.I. XF.w.-.6.M.5.#.4.#.#.R U D M m I U / ) U P 3 a 3 - #.w.q.B.+.D b.D.D.m / 1.a.d.k.c.x.x.V.A.I.Y.U.-X'.'.-XeXuXuXqXwXrXsXsXsXdXR.h.p.h.T.R.R.K.H.T.T.T.E.K.K.K.H.H.W.h.j.j.j.i.u.u.j.W.H.E.E.T.T.T.T.8X9X9X8XR.R.R.H.W.h.R.R.wXwXuXrXY.U.&XtXyXtXtX-X&XeXiXiXmXiXqXU.qXbXMXmXmXmXmXsXkXNXmXmXsXsXsXuXwXwXuXp.5 p.wXR.K.R.Y.K.h.h.K.C.h.h.p.h.h.E.R.wXdXdXN o 4 , 6 ` t H.n.%.` i.j.aXaXSXaXdXAXSXSXGXGXGXGXGXJXPXHXHXFXFXJXLXKXLXPXKXPXKXKXLXKXKXLXKXLXLXKX                                                                                                      ",
"                                                                                                                                  LXLXPXPXLXLXPXLXPXLXLXfX.X9XP.R G b.oX{.m.q.D.cXR ^ -X-XP.n.b , ; $ O X . X 5 v ( ( Y } ( T T | T T | ,.5.,.3.c.,.d.l.3.3.5.l.} } X.| 3.3.X.| | | ( E f < - 3 3 g v.@X2XM.r r r r R 4.M.G.%X%X|.OXOX3X%X5.I ) / d.d.,.2.~ Y | 3.3.| T | K | [ A C A C A T T [ K A C A C v A T Y C C v C a m f.-XD.b L P.v.d = = r R D.XXn.^ t R &XzXzXCX%XW k 6.B.6.M.@X}.D. XM.L d M / ) Y P M 5 5 r r #.D.D.b.{.L # g J #.P m ) 2.l.c.d.d.c.k.d.x.V.x.x.x.L.'.'.'.'.'.wXqXR.R.qXqXsXsX'.K.p.E.UX8XT.R.T.R.R.wXT.E.T.R.T.T.9XR.T.E.H.W.g.i.u.` ` ` ` ` _ p.j.g.h.K.H.K.T.R.h.g.wXwXR.wXqXkXpXuXtX>X&X=XyXyXtX-X-XuX=X-X'.&X'.U.=XpXkXbXNXNXMXbXiXsXsXuXiXrXL.E.! , ! h.) U wXR.Y.R.Y.K.C.L.R.'.R.'.dXaXaXGXdX7 o 7 , ^ n.Q n.H.j.i.i.i.aXSXSXSXSXSXSXDXPXPXPXPXGXPXGXFXHXFXFXKXLXPXuXdXGXGXGXLXLXKXKXLXLXLXLXLX                                                                                                      ",
"                                                                                                                                  PXPXLXLXLXLXLXLXLXLXPX9X0X0X` H q.XXb.m.b.{.4.#.%.F D.P.Y.C.; o o $ X o . t x.x.2.~ ( V.l.3.c.k.5.3.l.5.c.5.d.d.d.k.k.5.5.M.c.T T V.F.V.l.c.l.l.k.3.5.5.( J r - - 3 f f - - d f f E B.}.}.}.OX|.OXr.B.%XG.f -.| | ,.,.c.X.| | | T C T X.3.T | T T | X.| T K T C v v A C s v s v n C s 9 / n.s.U d b %.v.D.D.L D v.B.{.4.b t s.zXZX%X6XOX:.L 6.}.6XG.+.B.B.D. X@Xv.x F ^ R D b 2 > 3 m r R D..XY./ = p D p a C I } d.l.c.l.c.l.d.d.k.d.d.d.a.<.a.d.x.C.L.R.'.L.U.Y.Y.qXwXuXdXT._ p.h.E.T.K.h.h.j.h.W.h.h.g.g.j.h.h.W.K.E.T.8X8X9X8XE.H.j.u.Q N ' u.j.j.W.i.` Q ! E.dXdXuXR.'.h.C.C.U.&X'._.'.'.=X-X&XL.Y.U.U.C.C.L.L.L.L.U.&X&X=XeXuXsXkXiXwXU.K._ o 6 x , b R.R.R.rXR.Y.R.R.R.-XeXfXwXqXfXdXT.7 ; 4 4 s.H.g.K.H.H.H.i.%.aXAXSXAXaXAXSXDXGXGXGXGXGXGXGXGXPXPXPXPXGXGXwXrXxXGXPXLXLXGXLXLXLXLXLXLXKX                                                                                                    ",
"                                                                                                                                  PXPXLXLXLXLXLXLXLXLXPXfXaX9Xz @.m.q.@.m.q.s.s.d H ^ .Xn.P.R.c o o 7 4 o X / V.,.} -.} } | [ T J C J T T T E } 5.5.} d.k.l.(.A.l.I E 3.5.5.8.c.S.F.8.-.-.,.) f g D g 3 r s r r M f f W 6.}.%X3X}.G.G.OX6X3XJ E ,.E -.| } T T E | ,.| | 3.( | | T T ( U U U T a v a 0 v C C C v M C s s 3 J >.) D D 4. XD.4. X#.R <XD.D.D.D r 4. X2X%X}.6.@.+.r.OX3X|.@.:.w.w.B.D.1.b U b r b t t d > r r r D 4.U a a I / I I / ( } ,.,.5.S.S.S.x.x.k.d.2.,.a.k.d.f.x.x.x.U.-XR.K.K.K.Y.'.R.Y.wXUXK.x.K.R.T.R.wXwXR.R.wXwXwXUXUXE.H.h.g.p.j.g.j.W.W.W.K.T.T.E.K.E.R.wXaXSXAXT._ B ! p.` _ _ ~ / 1.a.d.d.C.I.&X&X'.U.Y.L.Y.'._.L.C.L.L.L.L.Y.Y.L.Y.'.'.&XeXeXqXrXrXwX) & X x K.qXuXuXuXqXqXqXqX-XL.Y.K.K.wXGXPX8X, 4 N t g.h.K.K.H.n.H.i.` aXSXAXaXaXaXAXSXSXSXSXSXxXSXmXGXPXPXPXPXGXSXaXxXGXGXPXGXdXwXSXPXLXLXPXLXKXKX                                                                                                  ",
"                                                                                                                                  PXLXPXPXLXLXPXLXPXLXPX9X0X0X&.G #.$.G &.$.G z S D b s.T.K.wX` o o o , > X v 2.-.( -.-.[ ;.;.E | } } ( J T -.3.| ,.} ,.-.| 3.-.,.| J J E T K K | X.| E ( 5.d.,.g e J E J g J -.F.F.B.+.g +.G.OXr.r.G.3X^.-.| 5.5.-.3.5.X.| | ,.5.,.,.E C J m E | Y C n a s Z a 0 a 0 a s a s 0 * < 3 & & g D.%X Xm.R 4.D.{. XL 4.D.4.w.b.#.H j w.3X6XB.t.6.r.|.OX3XOXG.@.@.6.B.#.b d t ^ D..XD.^ F n.n.D a 1 & 3 M ) / P / 1.} ..<.d.2.3.c.c.d.x.A.A.A.x.k.k.d.x.d.f.f.f.C.K.h.L._ ) p.K.Y.Y.wXqXrXqXuXqXqXqXqXuXwXwXfXuXqXuXsXGXGXGXGXGXIXdXaXfXfXUXUX8XR.R.R.E.K.W.W.W.E.9X9Xh.' _ _ B ! _ ..a.f.a.a.x.C.L.U._.I.Y.'.-X=X-X'.=X=X*X'.&X-X=XeX*X-X=X=X-X=XR.h.x.K.Y.) ! h.T.C.K.p.! 1.p.1.p.h.K.j.h.K.j.h.p.N O V B , _ J.E.E.J.H.H.i.i.aXAX0X0XaXAXAXSXSXSXDXSXSXGXGXGXGXFXGXHXGXxXxXGXLXLXPXfX9XR.fXSXLXLXLXLXLXLX                                                                                                  ",
"                                                                                                                                  GXPXLXPXLXLXPXPXDXPXPXfX9X0X.X&.d S S i G G u y S F N T.xX_ c , 6 ; o , & . 9 | | | [ K [ 3.M.5.,.} 3.5.M.M.5.3.-.5.5.5.S.S.M.M.M.-.T T E T T T K T K T E U f f 6.6X6X@Xw.D L F.3XzX<XM.E J 6.-.W W E R s T ,.| J C T | | | ,.E J m s 2.A.@X2.-.A.2.Y I M 3 a n s a s M v a 0 0 * a a a 3  XzX<XXX&.4.v.D.4.r D w. X4.w.%X6X}.6X3X}.w.t.r.OXOX3XOXOX|.t.+.@.g r 1 d p.rXNX<XcX.Xs.<X.XD.C.U > 5 p M M ~ / ) ....} X.2.k.l.,.T C ( ..,.d.A.L.V.d.a.x.A.L.L.x.1.! ! c 0 / j.x.Y.x.C.x.C.L.K.C.C.C.U.R.K.L.-XqX-XR.wXuXsXsXsXGXPXGXGXGXGXGXGXSXIXdXaXwX9X9XH.g.W.E.T.K.u.` ` / _ _ p.a.f.C.C.C.U._.L.L.&X-X-X*X*X=X=X>X>X*XU.U.'.=X=X-X'.-XeXeX-XL.h.s.s.s.K.h.C.K.p.! ^ _ _ ! ! _ ! _ p.! B l O ; l 6 7 Q E.H.J.H.H.J.g.u.9XaX0XaXAXAXSXSXSXDXDXSXSXGXGXGXGXGXGXGXGXGXSXdXPXLXPXR.T.aXaXPXLXLXLXLXLXLXLX                                                                                                ",
"                                                                                                                                  SXPXLXLXDXDXLXPXLXDXPXPXaXaXxXrXD.^ H y y S y S t t t F n.c o , ; t 1.) ) M s C | | [ [ | ;.,.} 2.A.vXvXvXvX4X1XM.E -.F.2X3XgXvX2XF.M.l.M.l.8.k.l.Z.M.5.-.( f w.6X%X6X6XZX%X6.6.}.%X@X@X@XE J f f J f J m J Y | E ( X.3.,.3.2.-.R >.C.<XzX2XbXM.I I ) n r I f.C.<.>.I n v a a 0 < & & 3 = v.zXXXm.R &.4.&.b y b R E L  XZX6X6X6X6Xr.t.e.|.OXOXOXOX3X|.r.e.r.L % = F  XP.D.{.XX Xv.D.D. XtXP.5 3 s p 3 v Z C M C ~ ,.d.2.2.c.d.,.,.( Y Z Z ( ..x.x.C.C.C.f...U x 5 , , v p.h.) p ) x.U.U.V.C.L.U.L.h.a.h.C.x.a.f.h.C.K.K.R.wXdXGXGXIXIXGXGXGXGXSXIXAXaXfXfXaX8XE.E.E.UXR.p.! ! ..p._ / >.x.C.C.C.x.C._.U.U.I.U.*X*X-X*X'.'.-XeX=XtXeXeXuXeXqXsXrXuXqXuXwXrXwX-XwXK.s.p.p.K.R.wXaXdXxXGXGXSXK.] , 7 4 c ^ K.H.H.g.H.J.g.` E.AXAXAXAXDXDXSXDXDXSXSXSXGXGXGXGXGXGXGXPXLXGXfXdXPXSX8XfXGXPXLXLXLXLXLXLXLXLX                                                                                                ",
"                                                                                                                                  SXPXPXDXDXDXDXPXPXDXLXLXHXSXxXxXrX.XD.S y z y S t u S t b 5 o , 7 t C.P.qX&XA.+X_.Z.S.S.5.5.} ( I } *XvXZXZXzXvXZX6.k B.3X%X3X2X+XS.l.Z.+XM.l.(.S.S.A.M.,.-.J %X%X%X6X6X6XOX3XOXe.G.3XF.2X5.a n m C ( ,.-.2.3.5.,.| } d.,.,.) P %.5.Y.<XNX=X2XY.P 4.v.E 3 4.<XP.D. X#.< & & < & & < & & % 4.XX&.D #.G S y u y b r H v.<XzXzX%X}.}.e.r.|.}.OX|.OX3X3X}.|.e.|.G.H = F 4.v.4.{.{.{.b.{.<X<X XM.3 M ~ ( ( } ..( ~ ~ ( | | ~ ( 2.2.a.2.,.2.d.d...m M Z / 1.d.d.} P 5 & 2 > 5 B M 0 ) C.U.Y.'._.L.C.C.C.C.x.C.C.L.L.L.L.K.L.R.'.U.U.R.wXaXdXsXGXGXIXGXPXGXSXSXdXdXdXAXwXR.K.E.R.wXh.! Z ! 1.1.) >.x.L.I.I.L.x.C.L._._._.-XeXpXiXpXuXpXuXuXeX=XeXeX-X-XR.qXrXuXuXwXR.H._ K.R.K.K.Y.uXGXFXGXGXdXGXdXN o l c 4 Q J.T.K.H.J.J.g.` J.aX0XaXAXAXAXAXAXSXAXSXSXGXGXSXGXGXSXSXxXPXGXSXSXLXSXfXPXPXLXDXPXLXPXPXLXLXPX                                                                                                ",
"                                                                                                                                  aXPXPXSXAXfXfXDXPXPXPXdXH.&.Q ` i.J.P.y t u z S u y F b b c $ . o , I >.<.k.k.k.l.l.k.k.k.l.V.V.d.-.E 4.@X2X6X3XOXG.OXOXG.|.G.M.5.3.c.M.5.3.V.l.d.| } I Y M g B.6X6X|.e.|.|.OX3Xr.6.6X%X2X#.g f 3 3 r J / ( E 3.2.>.) >.Y E 1.^ %.^ F f.zXY.Y.<XD.f.D.v.R R D. Xv.D.D.L 3 & & < 2 0 2 & X y b y H R S d u % % 1 % D %.D.pX<X X}.+.:.r.%X3X|.OX%X|.r.OX}.OX}.}.v.1 r = S q.B.{.{.b.XX6X<X4.r - M C Y ( ( } } } X.d.a.2.,.Z x ~ ..d.a.x.V.d.C.k.a.} U x 5 x v P ! 5 o & > > 2 _ K.a.a.<.2.d.d.h.C.C.C.C.C.L.L.Y.Y.'.'.Y.C.x.x.x.K.K.K.R.uXGXGXmXsXGXPXPXGXIXdXdXaXaXaXwXE.K.E.R.R.Y.1.B ! p.p...} x.C.x.L.L.x.x.x.x.x.d.a.a.a.a.d.x.Y.'.=XpXpXsXuXuXsXFXsXwXn.p.p.` h.R.Y.C.h.h.C.h.R.T.i.p.fX! ; l N 6 N n.P.H.n.n.H.i.` 9X0XaX0XAXAXAXAXAXDXDXDXSXGXPXPXSXAXSXSXSXDXPXPXPXLXLXPXLXPXLXPXLXPXPXPXPXPXPXLX                                                                                              ",
"                                                                                                                                  SXSXJ.j.T.0XfXSXDXLXSX` l l F l t Q %.u : z y y S z S b 1 > > O , O > ) h.h.f.V.V.V.k.a.U.U.f.>.>.) g J D.6X%X}.OX|.3X3X|.t.6.-.J J Y -.Y T 2.} J m f g g 3 = D 4.L w.|.OX|.|.|.|.+.r.OXF.g g U M = # & 3 f a U U d d ,.&XY.C.n.s.%.F b b v.-XNXzXv.m.b.b.{.v.v.D.4.M.f.= X > 2 & 2 2 > $ X % 1 y &.d y F z $ . # . = t P.FX-X4.D +.j :. X%X%XB.g e q.%X%X}.D.4.& = S w.{.b.b.XXb. X%X6X<XD.U a s s C C a s Z Y Y ( a.f.p.1.a.~ U I / 1.k.C.Y.x.Y.x._ a + + 2 b B p > 2 M ! _ / v s U <.f.<.........>.>.1.d.x.L.d.} ) ..1.a.x.x.K.U.wXrXuXwXwXuXdXGXLXLXPXGXGXGXIXdXfXwX8XE.W.K.K.K.K.j.Z B ~ h.f.a...} .._ } a.} / U U ~ U I ! U / ..f.x.C.P.qXrXrXY.p._ _ _ j._ P _ _ _ _ p.%.^ p.%.p.E.R.c ; 7 6 b ` n.h.H.n.H.H.i.i.0X0X0X0X0XaXAXAXDXDXDXDXDXDXDXSXSXSXSXDXSXDXPXLXPXPXPXDXLXPXPXDXPXPXDXLXPXPXPXLX                                                                                              ",
"                                                                                                                                    fXi.` T.0XAXDXLXGXi.V N F F z b i.%.t : b u 1 S z G b X > o $ , $ o 3 I >.~ 1.>.~ U n v 0 3 - X . - D.ZXvX%X3Xr.y.OX|.|.W g E M & 9 Y Z Y M a & & = < = = 1 r 1 S %X%XG.r.|.OX|.t.e.|.}.6.R %.F 1 1 1 > & . 2 n a R .XxX XD..XP.n.G b b rXrXrXs.D.<XD.D.XX Xw.j d R H g d p & + 2 5 & , 1 1 % = d 1 b F F N $ $ o $ & b _ m r r R #.r v. X4.3 r 3 g w.@X<X Xf % d 4.B.b.b.}.XXb. X X%X<XZX1.m ( U Y Y C Y ( Z Z ~ p.C.x.x.f.f.a.f.~ x v Z ..x.U.L.U.h.B > & $ p x t x ! ) B 2 3 a Z ~ ( ) ....>./ P / f.x.a.~ I ) <.x.C.C.L.L.P.R.&XR.R.Y.K.K.qXFXGXGXPXPXGXPXPXGXdXaXfXwXR.K.K.x.K.L.x._ c 0 ~ a.C.C.C.K.L.L.L.L.L.L.L.C.C.C.x.f.f.a.p.f.h.h.1.) F ! 1.h.f.h.p.b p.s._ p.h.n.K.T.R.uXGXg.; $ ; 4 z _ g.p.h.n.K.H.i.W.9X0X0X0X0XAXDXDXAXAXAXDXDXDXDXDXDXDXAXDXDXDXPXPXPXLXLXPXLXPXPXDXPXPXPXPXDXPXPXLX                                                                                              ",
"                                                                                                                                    fXg.W.H.0XaXDXDXT.l Q ^ z : t ^ H.%.^ m.n.i.S y u z 1 t >.x o , 2 , o O & X O & o X X X X . . - - d }.<X%XB.OXk e.OXr.|.:.- R f @ & & X & 3 < 3 < g f D R s.b 1 r D.}.q.e.r.|.OXOXOXB.G.}.L 1 , 7 1 $ $ $ 1 t 6 d C.rXrX.XC..Xn.s.G F b .XxXn.&..X<Xv.m.XXD.v.d 4.D.4.R 4.R M 2 X , $ $ 1 1 b 1 # $ t b G ^ c . . . $ . X . 1 % = d # = t = = 1 d 3 = E Y.1.= & ^ D.v.w.{.}.v.S v. X%X<X&Xn.I d.5.2.5.2.d.2.,.a.~ 5 x B 1.K.L.C.h.L.L.p.Z 0 & p U _ p._ 2 O 2 5 p t p 5 p & 2 m ! U m m U / / _ f.C.x.a./ m _ <.a.a.1.a.d.h.L.C.C.C.h.h.h.h.Y.R.wXxXPXPXHXPXPXPXPXGXGXSXdXfXwXR.Y.Y.K.K.K.C.) 5 + 3 0 x B M Z B n c c M Z U ~ ..p.s.h.x.P.Y.P.K.K.C.C.h.K.E.W.h.B p.h.K.Y.R..XdXwXwX9Xh.6 6 t , 1 : F g.h.n.n.K.n.g.T.aXaX0X0X0X0X0XAXAXAXAXAXDXDXDXSXAXAXSXSXDXDXDXPXPXDXDXDXDXDXPXPXPXPXPXDXDXPXPXPX                                                                                              ",
"                                                                                                                                      W.J.E.8XaXDXLXaXQ N b F F N t z b p.P.P.XXJ.s.G t G p.B 2 , & $ , , X > & & & O . & # & r L w.L e B. X}.B.+.e +.OX3XOXw.- g 5 X X $ & + X & & X d f.D.m.#.1 1 = d 4.D.}.%X}.:.+.OXB.}.{.g , 7 4 ; 8 ; ; , , c ^ wX.X.Xn.D.rXD.^ t 4 t 4.s.F .X<X.Xm.H D.D.%.3 :.D.D.#.4.4.<.) , o , X O $ . 1 # $ 1 1 u y y . $ $ . $ & o $ . # . 1 $ $ 1 d a x n p r 5 & # # d %.4.v.v.#.r # r R D.<XrXA.U } f.k.f.a.d.h.V.x.U X X X & 5 ! f.x.L.Y.R.qXK.f.x o o o X O o & & , , , , 2 o & B ) I m I >.f.C.f.f.h.f.>.f.Y.L.-XeX=X'.'.U.Y.x.f.f.h.h.h.h.h.s.h.R.sXFXGXmXxXdXdXmXGXGXGXSXdXdXdXdXwXY.R.uXuXiX-X/ < + o X & & > & o & , , o + > < 5 x M ! P _ ! ! _ 1._ _ p.j._ N p.h.j.j.h.n.g.p._ l , ; 4 4 o 4 4 B g.s.h.n.n.n.n.E.0XaXAXAX0X0XaXAXaXAXAXDXAXAXAXDXDXDXDXAXSXSXDXDXDXAX9XAXDXDXPXDXPXDXDXSXAXSXGXPX                                                                                              ",
"                                                                                                                                      J.T.T.8XaXDXDXPXHX9Xi.^ F &.Q b , r b &.n.J.g.&.S N b > , > $ X $ $ o > 2 2 . & 3 $ = R v.}.$.e r D b.w.k e # e 6.6X%XL # & $ . 1 5 o X O X $ $ & = a F t = R H % r S R 4.R - # :.D.{.w.= $ 7 7 7 7 ; 4 7 ; 4 N s.rXxXg.^ %.^ y F t = t 1 M .XP.P.v.1 R s.d = L D.n.v.4.D.D.%.2 & 2 & $ $ = 4 $ 1 1 $ . u # 1 b N t 1 1 1 $ $ , $ X 4 b b M B b b n a t t > = $ , r r = . # = r = 3 R C.-Xv v U U Z I Y / ~ m 5 o , & o X O > B p.h.h.L.R.R.Z X , , o o X O X o X O X $ O O $ & & 2 5 t 5 3 2 2 2 5 x B P / ..p.f.C.L.L.L.Y.P.L.L.K.K.L.P.R.qXqXwX.XP.1.N 2 B p.R.dXxXGXSXdXdXxXGXsXsXmXuX-XY.h.! , o > , , 7 7 > , > 7 & , , o o o o & , , > 2 5 5 5 6 t c c N ! ! ! _ _ ^ ! ! _ ! o , F 7 o 1 1 t p.s.s.n.n.n.g.i.i.j.H.J.T.8X9X0XAXAXaXaXAXAXSXAXaXAXDXAXDXDXAXAXSXAX0XAXDXDXAXAXDXDXDXAX0XaXPXPX                                                                                              ",
"                                                                                                                                      9XH.8XJ.0XSXDXDXPXHXHXGXdXrXJ.` b 2 1 1 b %.Q z 4 6 t 5 B p.N o O , $ . 6 b p d 1 3 4.D.4.L j r d = D r e j L k L k g - 1 $ $ t 6 t l $ $ $ $ & $ = #.P.m.D H D.#.r % . $ # 1 & & b D r % : $ . ; 7 $ 7 4 o 4 t 1 R ^ ^ %.%.G y t 1 t t 1 1 %.K.s.b : % 1 1 t # b H G b D b = $ 2 > X P ^ , , F K.P.s.D % b D.<X<X.X%.1 1 , $ $ 4 6 1 V B F Q B B P B M x t b 6 , > $ & 3 1 t p d 1 # t b & o & X O & + o & + > , , , 7 7 5 , o , c / p.h.v , o B ! N 6 4 5 > , $ X o $ & $ o X o X . X . X X o o $ & & & o o & & & > < 3 2 5 0 p x M Z ! ) ! P B c > o O X O o 6 B _ f.K.T.T.T.T.K.h.p.! V N V 7 O o ; O O o o o o O o o O O o X X O O O X X O O O X O o O o t ! %._ _ p.%.p.h.n.` o 7 b 1 ; 1 1 t %.s.1.s.f.n.h.g.g.i.j.i.i.i.i.H.0XAXaX0XfXaXAXaXaX0XfXAXDXDXAXaXAXDXDXDXDXAXaXfXSXDXSXDXAXdXPXPX                                                                                              ",
"                                                                                                                                      aXH.9X8XE.8XaXDXLXHXxXwXn.%.%.i.P.P.C.b R 9X.XP.z t N , F _ N ! F 4 , b .XzXrXrXD.D R L D r j +.R R +.g L +.t.r.|.L - # 1 o t N F N B , o , & & & t K..XP.v.L 4.s.b # # # $ $ & X # 1 . 1 1 $ . $ ; , ; 4 4 ; = 1 # S XX<XXXXXD.d = 3 1 1 6 1 4 t . % : $ 1 & 3 # % . . . . $ $ 1 & $ f._ , ^ .XcXrX<X.Xy &.<XXXXX.X<Xb 1 , : 4 t l l l B F F ! ^ _ ! F n b N N c b a a x x p F I M t 1 > 2 2 5 2 2 5 3 3 5 p x c 6 5 6 6 6 c 5 , o o 7 2 , , + , c ! ! ^ ! P M p 6 t 4 2 7 , o $ $ o & & $ , & & , > 2 > > , > & & o o o o + o o o o + o o o o o O O o o o o X X O O O ; , 7 7 , o o o O O O O o , , $ , 2 7 o ; , o , , , , , $ , 2 2 2 2 2 > , 2 , o o O O O 4 ! _ ^ %.p.p.%.` t O ; , $ $ 4 1 6 b %.f.s.n.n.h.n.H.n.E.J.H.W.g.i.i.H.0X0XaXSXAXaXaXAXDXaX0X0XaXAXAXDXDXDXDXDXDXAXSXAXDXDXDXDXGXSX                                                                                              ",
"                                                                                                                                      9X_ 9X9X0X8XT.9X0XT.n.i.g.J..XcXxXXXm.b ^ P.XXn.t 4 $ ; t F .XxXzX^ = v.uX.X.XrX<Xv.y y q.B.b.:.R j g g t.t.@.6.e.G.g # $ % 4 t t p b , X o > , & 1 p.h.Y.<X4.n.n.^ $ = $ $ 1 ; , $ $ = 1 ; X O o o o o o , 1 s.P.H d oX{.m.{.XX^ 1 4 1 1 , , $ $ 1 1 1 1 = $ . & . # t 1 = # X $ 4 1 c 1 t -XrX.XXXXXD.R y m.{.XXXX4.u 1 : 4 6 6 6 t c M ! _ _ ) ! P M x M n x M M n n M n p U _ / / ~ P I U U n B B B n x x c 6 > , , , & , 2 7 , , 8 , , o o o o > 6 x B ! ! P M x c p p > , 2 , , 4 2 2 6 6 , , 2 2 5 5 p 6 6 2 6 7 7 7 , 7 , , 6 7 2 , > 7 , , , , , , ; ; , ; o o o O o O X O O o , , 7 , > 4 , l ! ' ' B N B N B B c N B N B B B B b N N b x t 5 c 6 o O O o 6 b F ! ! B c $ O ; , : 1 4 t z t ^ h.h.s.h.h.C.h.K.E.E.K.K.E.E.H.g.j.W.T.0XfXAXAXaXAXaX0X0XaXAXAXAXAXDXDXDXDXDXDXDXDXAX0XaXfXfX                                                                                              ",
"                                                                                                                                      9XH.n.9XE.8X0X9XT.g.g.s.XX9X9X0XP.^ u t ^ n.s.F b 1 : z : XXcX<X.XXXu &.XXD.m.P.XXXXd v.6XXXXXw.g r j j @.r.e.|.B.B.D & 2 t 3 3 t 1 $ $ & & & $ = . ` .XC.n.^ v..Xn.$ $ . o $ $ $ 1 # o # $ $ X O o O o o > s.-XrXXXH D.6X{.m.m.#.# 1 t 4 , ; $ , 4 , $ o X . X . X X $ 3 t r 1 1 $ , $ $ b n.%.S b q.m.H # e i G G H u u t 6 t N N N F ! ^ ^ ! U I I P P M n n n B m B M x a I a.a.2.1.) 1.>.%.~ ! U U F b x B M n x p 2 < > 2 , , , , 7 5 5 t p c b c c b M B M n b x c x t 5 5 5 6 c 5 5 c c 5 5 t 5 5 c p 6 6 6 5 6 6 4 4 6 6 7 6 > 2 6 6 6 2 4 7 7 7 6 7 o o o o o O , , o , , 6 6 7 6 6 7 4 , $ l ! Q ' B N B N N N M N b M b x M F F N b F F B x N M 4 $ X O O X > , , 6 O o ; o ; 4 $ u l t y c U p.h.C.Y.K.K.P.R.T.R.R.R.R.R.T.E.H.g.i.i.H.T.0XfXaXfXaXaXaXaXaXaXAXAX0XAXDXDXAXDXAX0X8XJ.E.                                                                                              ",
"                                                                                                                                    GXHXGXT.J.9X9X0XE.H.F F Q G ^ &.^ y 1 S m.XXm.^ b &.b $ b b rX.X{.v.b.H L &.D.v.v.D.XXH v.6X|.e.j @.:.:.|.+.+.t.r.r.D = 1 t = = = $ r U b 3 & X d ^ U m b F 1 X ^ .Xs.$ . 1 t d $ = $ b %.%.b o $ . O O o , g.sX-X<Xm.#.@.D.m.D.XXs.1 1 6 4 4 6 $ ; o o . . & U s.C.v.#.a . = % 1 1 t t & X $ = . # &.b.m.@.i i u y H @.H S t c p b I I P / P P P U ~ / I U M P U M v M M M s a ~ a.f.5.>.} 1.>.) / U m M M B b B B M v M p x p 0 2 < > > < B ! U U U P B B P B B B m m B M x p 2 2 2 5 5 2 2 0 5 5 2 5 2 2 p x x 5 6 2 2 7 5 6 7 2 6 p > > 4 > 7 7 6 7 , , , , o o o o o o 6 6 , , , 4 7 , 1 , ; , 7 c B B N V N c c V N c c p t p 6 > 4 c x U ! U c c b B B B 1 O $ , o $ $ 1 4 t t b t 4 : z g.i.: 1 t t B %.Y.P.P.R.P.Y.Y.wXwX.X.X9X0XfX9X9XJ.g.W.W.j.W.g.J.T.8X0XfXaXAXaXaXAXAX0XaXAXAX9X9X9XH.T.                                                                                              ",
"                                                                                                                                    GXJXxXxXP.h.T.T.g.g.` z t u y y b y H 4.m.m.P.#.d n.s.t # u m.XX{.D.q.$.q.$.@.H q.v.$.y R {.|.k j e.e.t.|.|.t.e e r % r t 1 & a & I  XNXtX) # P tXpXzXv.$ # & $ = t = d s. XrX.Xd # R cXcXrXK.d . X . ; ; , h.Y.P.&.m.XX{.@.@.q.m.G : : 1 4 l t ; ^ K.s.1 . %.<X-X<X-X XXXF # = 1 = 1 3 2 & % 1 % H D.m.b.q.@.@.H j @.$.4.&.b n M m F U U P Z U ~ / ) ~ P Z m P Z M M P P m I U / >.1.>.>.1.-.>.) ( I U m m P M M x a p a a a 0 0 5 2 < > 3 M ~ ( ) ( I ~ ~ ) / I I I U U U m n 5 3 0 0 0 5 0 v 0 p 5 a p 5 > 3 x a p 0 0 5 6 5 6 5 5 5 > 6 5 2 7 , 2 2 4 > , , 8 o ; ; o o , 4 , , 7 > 7 7 o , t N B B B x c t l t l V B B b b b c t 6 6 5 t b N M 5 t B ^ _ %.t O 1 t 4 t b : t b b Q Q y : i.P.n.t F n.h.^ b U h.n.g.n.P.-XR.R.wXdXfXwXaXaXfX9XT.T.9XfX8XH.J.J.W.g.W.E.8X8XaX0X0XaXDXAXfX0X9XT.E.                                                                                                ",
"                                                                                                                                  mXHXmXsXxXdXK.` ` i.H.P.^ ^ ^ S S S G m.m.%.4.n.s.r D.P.b # y {.XX<X%X{.q.w.{.$.i v.q.j e e $.@.j r.r.r.e.r.|.|.e % = & a a 1 & 3 t U.tX<XzX%Xg #.zX<X-XY.a X 1 $ , 1 b rXzXcX<XXX+.# R <X X<XcXn.$ # o $ ; . $ t $ 4.XXXXXXoXq.$.@.S 1 u u $ 1 1 p.rXcX.XJ.y a D. Xb. XD.cX^ & % & 1 & $ , x y % u m.D.b.&.y *.$.$.@.S G @.R p F U I _ ) / >.>.>.>.} ) ) ) ..>.>...) ) 1.1.>.>.>.>.>.,.) J m / ) / ) Y / I I ) / ~ U / U P P Y Z Z Z Z Z Z I m U P U U m Z Z P P Z Z m M m P U U M x a 0 x m m U M Z M P P Z M v m U U M v c 5 p 5 c c p 2 5 2 6 2 , 2 2 4 > 2 6 , o o o o O ; 4 6 4 1 $ $ , 6 b F B x 6 4 6 6 > 1 1 4 c N F B B B B b b c t t p p t 5 b ! ^ ` ! t O 1 b F Q 4 $ z S t b ^ y t m.g.n.F F n.T.P.K.%.b b n.K.P.K.T.wXwXrX9XfXfXaX9XT.R.E.i.i.E.9X9X9XE.g.j.g.H.E.T.9XaXaXaXfX0X9XE.H.                                                                                                  ",
"                                                                                                                                  HXFXxXMXpXsXuX.XH.J.E.P.%.%.s.#.G y S P.D.D.D.D.G u D.rX^ % b <XXXXXXX}.q.@.q.q.q.d d e % S @.g d e.r.r.|.|.|.w.r = 1 1 , 1 2 p 1 P  X%X<X2XvXv.w.@XzXzXzXd 1 6 t c b F %.D.<X<XXXD.4.b.%X<X<XP.4.t 1 $ o 1 $ , X F XXXXD.{.XX{.XXXXD.b # # % = 1 4.rX.X{.<XD.= S B.D.D.4.R = . # = & > 2 , & 1 d d s.m.@.e e $.q.m.m.q.#.H d d U %.<.<.a.a.2.1.<.<.<.<.>.( ) ) ) ( / I U I ~ U I U P I Y J U / ) / ) / ( ~ I I / / / ..( ~ / ) ~ ( ( ( ( ~ ( ~ I Z P Z m m P M M m m n s n C M C n s a 0 x Z Z U Z P P ~ I I U P ~ ( / I Y U Z b 5 c B ! M x p x c 2 2 6 t 6 t c p 7 , , , o o 4 6 , , ; 6 N ! B t , , 4 1 , 4 > 6 6 t N B ! ! U U ! F F B c N B M c M ^ _ ^ _ ! U , , Q ! y u y y ^ G &.%.b 4 ` g.J.F S %.P.n.n.n.%.t %..X.X.X.X.XP.R.wXwXT.h.i.` ` %.g.g.i.i.i.p.j.j.j.p._ ` i.i.u.j.H.E.T.8X9XfX                                                                                                  ",
"                                                                                                                                  NXNXbXbXNXbX=XdXdXwXT..Xn.F ^ ^ S y H XXXXXXP.XXR % #.s.= = 1 v.XXD.XX{.e.:.@.q.{.@.e y y &.R i # j w.|.|.|.%Xw.r t = ; , X 2 = a n 5.2XvXzX2X2X2X6X2X<X Xd 3 c c N t 1 X % D  X6X X6X6X%X<X6XC.r 1 1 4 6 t 1 $ $ ^ XX4.G {.D.v.b.{.{.q.e = y d u d H H $.b.q.q.= = d u = # = 1 # # # , 4 4 > $ 1 d u # # # u $.m.m.q.b.v.&.y d U / I I ~ U P Z n a 3 3 3 2 3 > & & & & & & & X & & & & & & 3 3 3 < 3 2 < & & < 3 0 3 0 3 5 0 0 0 p a s a 0 0 0 0 a a a a a s v v v v s a s v n M v x x x M B m P P Z U / ~ ~ U ~ ) ( I / ) / B b 5 c b U P B F B B 5 6 p N B N b x t 6 5 7 O $ 6 6 , 6 l F ^ B 4 , , 7 4 4 6 4 1 6 c c V c B ! ! ! ^ U F F N B b c F ^ _ _ _ _ _ _ 4 , %.F : S S ^ F G G G b 1 ; z z 4 &.g.n.P.P.n.P.s.t p.R.P.P.R.T.n.p.%.^ ` p.g.H.wXPXPXxXuXwXwXdXdXxXSXuXK._ _ h.T.E.H.g.g.fX                                                                                                    ",
"                                                                                                                                  MXbXMXNX=XiXtXrXuX9XT.P.P.! &.G G ^ G s.XX.X.XD.S 1 = % . . = v.cXXXb.b.q.q.q.b.b.b.y = H R G u % # D B.{. X%XR X = 1 , = & $ = r - d <XzX@X6X<X<XzXNXP.a t t V V , $ # % R <X6XXX%X<X%X6X3X6X<Xy # 1 4 t 4 : $ # 1 t % % 4.<X{.b.XX{.<XD j H d j i e @.e.b.e.B.@.u e u r L #.v.D . # . $ , , 4 $ $ 3 % . % 1 y #.m.4.4.m.m.r & & > > & & & & & & o o o X X o X o + & + o o & & & & o & & & & > & & > > & & & + o + o o o o X o X o o o o X X o o o X X + X + o o + + + + + & + > > & + & < > > > 2 > 3 p 5 0 a p a v p a c 0 5 6 > 2 > 5 5 6 5 5 5 > , > 6 5 5 6 5 5 2 6 6 o o 4 4 6 F ^ ! N 6 , 4 6 4 4 6 6 t 6 6 6 t c t B ! ! ` / ! ! ! F N F U _ _ 1.%.s.p._ ^ 4 4 ^ 4 y t b S G S F G S u : 4 o l J.J.P..XT..Xn..X_ $ b ^ %.%._ F p.T..XxXxXxXdXdXxXmXxXFXmXPXPXxXxXFXGXGXGXPXGXGXdXSXdXwX                                                                                                      ",
"                                                                                                                                  JXBXNXbXiX=XtXrXwX.XT.n.P.h.F F G F S b m.XXD.D = b 1 1 # X # #.XX XXXb.L w.b.b.q.m.H % S y F F b u u y q. Xv.t r m m t = # r D g 3 #.vX%X2XZX X<X<XzXzXD t t 6 ; O X 1 R <XzX<X%X<X%X%X%X%X6XcX) # $ 1 $ o $ 1 t $ # & # e D 4.b.{.b.@.D q.$.j e e :.r.e.e.e.:.$.$.@.:.w.q.q.4.#.r $ $ $ O $ o & X $ 1 1 . # % = H v.v.v.&.% $ & $ & > & > > > o & o o X O o X X o o o o o X o o o o o , o o & $ & & & & o o + & o o + o X o o X X o & o o o + o o o o o o o o o + + + o & o o & & o + & + & & & & & & $ & & o + & o o o + o o o o o o X O o o o o o o o O O O O o X o O o o o > , 6 ! ! %.i.B 4 6 t 6 6 1 , l l c B B b N b b U ` ) ` ` ` ` _ %.p.p.p.%.1._ ) ! c N F t t G u y F G S G S u : : 1 : l %.n.n.P.P.P.P.D.h.t F %.s.n.t 1.wXuX.XwXuXdXrXuXxXsXmXmXmXMXNXNXNXmXmXNXFXFXFXPXPXGXPX                                                                                                        ",
"                                                                                                                                  JXBXnXbXbXtXtXuX.X9XR.P.T.H.b t F G F F z y F G D 1 d %.1 $ # R <X.X4.y = H 4.v.q.&.H d ^ ^ F b t y u % e B.R = d #.D.#.g e W B.B.g J %X%X6X XD D.<X.XxX%.$ 1 o o . $ $ 4.cX{. X<XD.j <X%X%X<XrX) # $ 4 t $ . , 4 $ X # r %.%.y % t = . S D.$.#.L @.B.|.e.e.e.@.@.t.*.:.:.:.:.:.q.y . . . X . . . . . o > t # # & % d ) m.R & $ X & X O X o O O O X X O O O O O . . . O O O O X O O O O O O O X O X O O X O X O X . O O X O o X O o o o X o o o X o o o X X X X o o o X X X O o X X o o O O o o X O O X o o o X o o o o o o X X o o o o $ , , ; ; ; , $ o o ; o , & o o o o o o 6 1 B ` B B %.h.` 6 6 x c 6 6 6 c N B N N ! ! ! ` _ _ _ >.f.h.C.h.K.n.h.f.C.s.1.) ^ h.%.: t z 1 t S S S S y $ 4 N ` %.Q F F F U n.n.P.T.n.F v.-X.X_ U h.T.R.Y.Y.qX-X-X-XrXmXNXbXNXNXbXbXbXbXbXkXbXMXFXJXFXGXPX                                                                                                        ",
"                                                                                                                                  JXBXNXNXbXtXqXuXwX9XT.H.n.P.s.s.s.g.s.s.z t i.P.s.t b %.t . # ) rX%.1 % = # = @.m.D.D.XX.XP.G F b ^ H H e = = r 4.w.:.q.:.k t.G.}.W r M.2XD.b = F P.uXuX%.$ $ . $ ; 6 3 t P.zX<XD.d # $.%X X%X-XF # $ 1 6 $ X $ 4 1 $ . 3 n.n.1 . . . . r m.D.D.4.@.v.B.w.r.:.*.e.*.=.:.e.*.*.$.q.d # = & 1 $ , 2 > 7 2 & t b $ . $ $ 1 b t $ t p p 6 2 , . o o X O o o O o o O o o o o o o o $ o o o O o o O o o o O o o O O o o o o O O o o O o o o o o o o o X o O O X O O O o o o o O o X o X O o o o o o o X X X X O O O O O o O X O O X O O O O O o o o 8 o ; ; o o o o o , $ $ O o o o 1 6 t p.n.%.N ! g.E.p.p.g.n.n.h.n.n.n.n.K.T.R.T.R.P.K.Y.R.-XqXrXsXuXqXR.R.C.K.C.f.p.s.T.g.c Q z : : z z u : z Q i.J.J..X.Xg.g.s.g.n.s.P.P.P.p.P..Xn.F K..XP.R.Y.R..XR.U.R..XpXbXbXbXbXbXbXbXbXbXhXhXkXNXMXmXkXMXKX                                                                                                      ",
"                                                                                                                                  FXBXMXMXbXtX=XqXdXwXR.H.H.H.s.g.i.%.g.i.F b %.^ ^ %.^ t $ # = ^ n.r u t = r 4.<XcXcXrXcXcXv.G &.%.s.4.%.D = = H B.:.t.w.6.k r.G.}.v.% d +.d t M t ^ D.p.t $ $ $ 4 t t d t b m.m.y # = = &.<X<X.Xt . $ 1 1 $ . $ 1 t t & . 1 1 $ $ o o $ X 3 b b % r 4.D.{.:.j t.e.@.*.e.e.*.t.e.w.j = r = 1 1 , 5 2 7 t 5 > n c $ X X = & $ $ , 2 , t b P c $ > 2 & & , , , o , , , , > > > 2 2 4 2 > 7 4 > $ o $ , o & , & & & & , > , , , , , , , , , 4 4 > 2 4 6 6 4 6 6 4 6 6 6 5 5 5 t 5 4 2 2 7 , , > , , > 4 2 7 7 7 4 7 , , > , , , , , > , o $ ; o o o o o o O o o O o O O o O O O O 4 6 _ H.T.g.! ` ! i.` _ ! ` p.j.R.R..X.XwXwXwXuXuXrXrXuXsXsXuXuXuXsXP.K.P.K.h.K.K.h.P.R..Xn.n.s.u : : : $ l i.W.W.9X.X.XP.s.g.h.P.n.n.K.n.n.^ v.P._ %..XY.C.R.P..XR.U.R.&XpXsXNXbXbXbXbXbXbXnXnXvXhXhXkXbXkXkXMXJXJXJX                                                                                                  ",
"                                                                                                                                  FXFXMXNXvXtXtX-XwXR.E.g.P..Xg.%.` ` g.i.` N F s.T..XrXJ.u . # t G ^ d $ = 1 4..XuXxXcXcXcXs.G &.m.{.D.m.4.#.r = L @.r.r.e.e.r.%X%XD.d e d b H R G t % 1 $ > $ $ = 4 1 b N 1 % % # $ u % % %..Xs.r = % $ . $ $ # = 3 t 1 o X $ , 7 t 6 7 1 . . . . . # u = # @.r.@.t.e.k e.:.:.e.b.#.# = $ = 1 & > 2 > > p 2 , / p o & = & $ X & 2 > 2 2 t M M > 2 5 2 2 2 , 1 , , > 2 5 5 5 5 5 p 5 5 c p 4 > , 2 6 2 > 2 2 5 2 2 5 5 5 t 5 6 7 6 t 6 6 6 c p 5 t c x x x c c x c c c x c p p 5 5 p p 6 > > 7 5 5 t p p p c c t t l c c t c c c b t 6 l l 6 l l l 6 4 6 4 4 6 6 4 4 1 6 4 7 ; 6 ` H.K.E._ F ` ` ! ' ' F ` p.p.n.R.-X.XwXrXrXdXrXuXsXsXsXsXsXdXsXmXR.R.wXR.K.wX-XY.wX.XwXn.p.i.t : ; : z i.i.i.H.H.n.P.T.n.n.g.h.n.n.n.C.T.^ n.K.&.P.R.K.P.R.Y.R.U.R.U.=XNXbXiXbXbXbXbXnXnXnXnXhXhXhXkXnXMXFXFXFXFXFXFXFXFXFX                                                                                          ",
"                                                                                                                                  JXFXNXbXiX2XtXqXwX.XE.n.h.H.n.i.%.` i.%.^ F F %.P.n.H.%.b %.y # G &.b 1 1 t 4 F g..XcXcXcXD.$.$.m..X.XP.m.4.#.# # W }.r.e.r.r.B.%Xw.r r d = G F r % . = % X . . % . = = r y u t 4 : c = $ r t 1 % = . . . . # % # $ # X $ $ $ , 7 6 6 7 > $ $ X . $ # # # # #.w.e.e.e.e j e.e.q.v.4.= % & & , & , 2 > & & 2 o > %.t o > . $ X 1 2 r d M p 3 M t > > & 2 5 > 2 2 2 5 p a a p t p a a n M 5 2 5 2 2 2 2 2 5 3 p 0 5 5 5 5 t t 5 > 6 t 5 6 t t 5 t p x b b x x x c b x c x p p a x x x t 2 > 2 2 > > > > 2 2 2 2 5 4 2 4 4 5 t c N B b c N N V N ' N V V l l l N l c l 6 c l 6 , l h.P.R.K._ _ ` ' ! _ %.f.K.T.T..XwX.X.XdXdXdXxXuXsXsXdXdXsXmXmXsXsXaXaXrXR.R.R.wXR.wXfXrXn.s.p.g.Q 4 : Q i.i.i.J.wXT.s.P..Xh.h.C.C.C. XP.n.G s.^ %.R..XR.R.Y.R.&XU.Y.qXiXiXxXtXbXbXnXNXNXvXvXhXhXhXvXnXnXBXBXBXFXJXJXJXJXFXJXLXFX                                                                                      ",
"                                                                                                                                  HXMXbXbXvXtXtXrX.XT.H.K.n.n.J.s.i.i.i.%.^ F ! Q i.i.n.n.%..X&.: G G u 4 4 4 4 , 4 z ^ &.%.{.{.{.m.4.J.n.P. XD.r - w.G.e.r.w.|.B.:.= u d u b D t # % # = D H b r . # . . . : y t t 4 4 1 $ 1 $ $ # % 1 b D d % # r U M 1 $ $ , > 6 , $ , 1 6 , $ o 1 1 $ % & M v.w.b.j # % g :.B.B.v.d > 3 2 7 2 1 4 2 7 4 t 2 X c %.1 2 d = t n b P D D J n a a M ~ P 3 > 2 2 3 0 a p p a a a f f n M n 2 5 t > > 2 5 a n s n a s s a a x x x 2 5 5 6 5 6 5 2 5 5 5 p p 5 5 p x x a p x a p a p p 3 > > 3 2 > > > > 2 5 5 5 2 5 2 2 2 2 2 2 2 c c c b N N N B ' V V V l c V c ] l ] ] V c 7 , N K.R.K.` F ` B ` p.h.E.K.h.H.wXuXwXR..XdXuXrXxXmXsXdXsXGXGXGXdXdXsXsXdXdXaXaXrXaXqXwXuXfXK.g.s.E.E.g.l Q i.i.i.J.T.H.H..XH.%.n.K..XP.K.n.K.M 1 N s.T..X-X.XR.-XU.Y.&XbXNXiXbXbXhXbXnXNXnXvXgXgXvXhXvXnXvXnXBXNXFXJXJXJXJXJXHXFXmXPXKX                                                                                  ",
"                                                                                                                                  MXNXNXBXCXbXbXqX&XR.K.h.K.n.s.i.` %.i.^ ^ ^ ^ ^ Q i.0XxXJ.9X&.: t b z b 4 $ ; , 6 t 1 1 S XXXXXXXXm.%.n..XcX Xg = B.w.w.|.}.%XD.g f D y b ^ b u = = d D L H L #.= = d y 1 . $ 1 t t , ; $ . $ # # t &.&.$.$.G % d ^ ^ F 1 $ $ 2 4 t 4 , , 4 1 , $ , 1 $ 1 $ $ b %.S # = % # = d U ) a $ 5 > , t $ 1 t 2 t 4 5 $ $ M F t r 1 r f U P f D M D m 1.) C.=X#.= & > 0 s x p 5 a f n a p a n p > p 5 & 2 a n M s a n a s a p p 5 3 5 3 5 5 2 > > > > 3 2 2 3 5 3 2 5 a a 2 2 p 5 3 3 > & & 0 M m n M M m P U I U m M P B m M M n a t t 2 t N N N B N N l l l 6 N N 7 l l 6 V N c , 4 _ R.R.` F _ p.p.g.E.R.wXP.E.T.wXaXwXK.R.xXdXdXxXGXdXdXsXGXsXdXdXdXGXqX.XwXuXaXsXuXuXuXuXuXK.s.H.T.H.g.l Q i.i.i.T.E.T.R.T.H.s.1.s.Y. XY..X.XF M b s.H.T.R.P.R.Y.L.R.iXxXyXiXpXpXiXbXvXnXvXvXgXvXnXgXgXvXvXvXVXNXBXJXJXJXJXJXFXbXmXJXLXFX                                                                                ",
"                                                                                                                                  GXMXHXJXBXNXNXtX&X-XK.h.H.g.i.%.` %.` F ! Q ` N ' J.SXAXm.n.b . ; t N V 4 ; ; 4 t l t u S m.{.D.XXm.1 t R s.4.= = #.:.w.w.b.{.D.y d D b b b y 1 % H $.+.+.q.:.$.d e G R %.t . . $ $ o $ . $ $ . 1 &.$.@.$.$.@.u e y S S b $ $ 1 , , 4 , 1 4 4 ; ; $ o 1 , X = $ 1 % = 1 & $ $ # & $ . & 6 & 4 c , 1 p 6 d t t 2 & # t d d t d D d g D R D d D M./ a Y d.a < a Z M a a p a a s a s n x p 2 p 5 > p m n p 2 3 < < 3 3 3 < < 3 < 3 3 3 2 2 3 3 3 3 5 5 t 0 0 3 2 & & 2 & & > & > & 2 x M P U m C Z U I / ) / I U U / U Z Z Z Z x 2 1 p c t l l V l 6 l 6 N F l 6 c 4 l V c t 6 ; _ wXg.! s.K.R.E.P.wXaXwXR.K.K.K.R.wXR.K..XdXGXdXGXdXxXGXxXxXdXxXaXuXaXK.K.dXdXaXuXGXwX.XwXj.%.n.H.H.i.7 Q u.i.i.9XfXR.H.R.T.n.s.%.s.P.qX.XP.f.Y.B ^ h.P.P.K.K.C.C.qXmXpXiXiXbXbXbXbXbXbXvXvXvXgXvXgXvXVXZXVXNXCXBXCXJXJXJXNXbXJXFXHXFXPXFX                                                                              ",
"                                                                                                                                  LXHXFXMXHXMXNXbXuX-X.XP.h.g.i.p.%.%.%.^ ! F Q Q ` ` J.n.t 4 $ o ; , l l ; ; : : 1 t t b b m.rXD.$.d e = 1 1 # % = b D d r d v.D.d e y b r 1 u u y +.:.e.e.e.e.+.L H R +.4.%.1 . . . . . . o $ # % S S R q.$.*.j H S j H S = # $ $ 1 4 , ; ; ; , ; ; , 1 , $ $ $ 3 3 r 2 1 X 1 > & $ & 1 1 , 6 5 1 2 t t t d t p r r t r r d D R J L +.J J M J &X) 3 J Y f & v Z M M M a a a < 9 a p s p < 5 a a a a 5 3 5 p p a v M m m m Z M M m m M M M m m P U I P a 3 3 < a a n a x x 3 3 p n U P Y } Y C Y / ( } ) Y ( ) } ( ~ ~ ) ) U Z 2 6 p t c N l 6 6 6 l c N c t t 6 6 V N c 7 7 4 h.K.! p.n.P.T.R.aXrXdXxXwXK.K.K.P.R.P.j.f.K.wXuXdXGXLXuXwXuXdXuXdXxXdXaXdXdXdXdXxXwXK.P.wXh.i.p.g.i.' ; N Q ` i.9X.XH.j.K.n.h.h.%.p.C.P.Y.n.Y..XN Q s.P.P.n.n.n.f.Y.xXiXxXxXsXsXsXxXbXbXbXnXnXnXvXgXvXgXvXnXZXVXCXJXJXJXCXMXMXJXMXJXKXFXmX                                                                              ",
"                                                                                                                            xXdXFXFXHXMXNXFXNXsXuXuXqXrXwXT.E.g.p.s.p.p.%.F N F N i.` g.g.b : . $ $ . ; ; . $ 4 $ ; : : t y ^ D.#.e % u S #.R d r r = = = = r = e e y d y u y y r D w.w.B.e.e.e.e.$.B.$.@.^ %.s.1 $ $ $ o $ $ $ # $ . % &.$.$.q.@.@.G G S r t 6 , $ , 1 > , 7 6 6 4 1 4 4 1 , & & t b b p 2 6 1 , $ 1 2 1 & , 6 t a a a b 3 a t d r g R R d r R E #.E :.W J J d 2.( I.@X5.g < a C C J U C M s 9 g a 3 a 0 < & 3 > < a Z U I I ~ ~ / ( ....>.>.) %.>.>.) / / / ( ) P m m Z I ) ( ) ) _ ) ) / n 5 5 n I ~ / ( Z M ( ~ U ) ( I ( Y U Y ( Y ~ I m P t t c t t c t c t V c N N l c V c c c c c 4 , l H.p.! K.H.H.n..XwXR.wXqXR.Y.T.E.T.R.R.P.P.E.P.H.wXrXaX.XaXdXwXE.T.wXdXaXSXdXdXdXwXdXwXwXdXaXT.%.` Q l : ` i.i.i.J.E.g.i.n.h.h.n.f.n.n.C.K.^ p.n.F ^ s.n.n.C.C.n.f.P.xXbXxXxXiXpXiXxXxXiXiXvXvXgXgXgXvXgXvXVXVXVXCXJXJXBXMXNXNXMXFXJXJXFXGX                                                                              ",
"                                                                                                                GXGXGXGXGXmXdXsXsXsXmXmXmXkXsXsXdXsXfX9XwXfXwXR.H.n.s.%.%.Q B ! Q Q Q T.P.Q $ $ $ $ $ . $ : $ $ ; $ 1 c u y y u % e D v.XXXXXXD.u $.4.G = = r % = b b u 1 1 d u u d q.{.b.e.q.*.:.|.w.w.#.R R 4.t # $ $ ; , 1 4 1 $ # D 4.4.m.R $.$.@.@.D % t x 1 & , 1 4 , 6 t l l , $ , $ o $ $ 2 t t M b M $ $ , B d 1 2 3 x m t r d D d d r g #.v.}.{.w.g R #.#.:.+.t.+.J a 3 -.;X@X( 3 a s C T T U E E Y E Y Y C m M s 0 3 3 3 & & 3 m ~ ~ >.1.a.a.a.a.f.a.<.<.<.p.a.a.>./ ~ / >.a.f.h.h.h.h.a.1.I n a 5 p m m I ) ....Y C Z P J ( Y M U P Z P I U P I P m n c c c t t l N N Q B F N c V c l c N N c , ; N h._ H.SXGXxXxXGXxXsXsXrX-X-XR.T.T.R.R.R.R.R.wXwXwXR.R.R.aXdXdX.Xp.K.dXaXdXdXdXdXfXdXdXdXdXwXwXH.` ` z ; Q ` i.g.H.s.p.n.T.n.h.n.n.C.P.Y..Xd $ %.K.%._ p.n.h.s.s.C.C.iXbXiXiXtXpXsXsXsXsXbXnXnXvXhXvXnXvXnXBXNXNXCXJXJXCXJXCXMXFXJXHXGXGX                                                                                ",
"                                                                                                          GXGXGXGXGXxXxXGXGXPXPXmXsXmXGXmXsXIXGXsXaXwXwXwXfXwXaX.XE.H.i.p._ ! ` %.F N i.i.^ u % $ # # . $ . $ z t 6 $ 4 1 r 1 r % d $.4.$.q.:.v.@.q.XXD.v.r % = r d u y &.G D D S e j #.L @.L d e.}.w.b.q.#.4.m.b X $ $ 1 4 4 t 1 . 3 %.s.%.b = @.%.#.^ ^ $ $ 1 & & > 6 5 > t 6 , 4 2 6 x t > $ o , , 2 B B , X $ t F c t t a d b r t d r r r S 4.}.D.}.%X}.k L w.w.:.t.:.t.:.-.s f M.E g 9 a m C T Y J E | -.3.,.2.3.2.>.<...~ I B m m p 2 2 a m m U ~ / _ >.1.>.a.f.<.( ~ / ( 1.f.x.C.C.h.2.1.U n a n P I / >._ _ <.a.d.k.,.Y ( ) / } U n Y / Y I / } ) ) 1.) ^ B B N c c c l V c 6 c c V l c V c V V c 4 6 ` h.! T.aXdXxXGXGXGXmXFXGXmXwXK.K.T.R.R..X.X9XfXaXwXwXdXuXdXdXGXwXh.K.dXSXaXaXdXdXSXdXaXdXuX.XwX9Xi.i.z o Q ` i.i.E.K.n.K.K.P.T.C.C..XP..Xh.t %..XP.i.%.i.p.p.p.h.K.C.uXsXiXiXiXsXmXxXsXbXbXbXbXnXNXnXnXnXnXnXbXNXBXJXJXJXKXJXJXHXJXHXGXsX                                                                                ",
"                                                                                                      dXdXGXPXPXPXGXGXGXGXGXGXGXFXGXFXGXGXGXGXGXsXdXwXdXdXwXaXaX9XR.R.g.p.p._ i.%.S z G &.G y # % 1 . # $ . 4 F F c : $ $ $ 1 1 % H :.$.$.$.q.$.$.$.{.m.D.$.= = &.D.s.^ &.s.s.&.4.j % = % e u u {.{.B.D.4.R #.%.t . $ , 7 6 4 6 6 , , ! %.F 1 % u R &.%.^ & & > 5 x m I P N ! F B b B B M M n 2 > , 2 M B 2 o & > p t a n d D f d r = = r r = #.<X%X X}.|.r.:.r.G.}.}.:.L :.5.5.5.E g - g a I >.} -.3.3.3.5.k.d.x.x.V.L.C.x.x.h.a.>.) / / ~ M 0 & p I ) ( ) ) ) ( ( ) ) >.a.x.C.C.C.a.) Y Z x v m ~ ..<.a.f.h.C.P.C.h.f.2.<.>.} >.>.) ) I m I / Y / } 1.( ) a.1.) U ! Q c c ' ` ! l 4 6 6 7 ; 4 6 4 4 4 ; o 7 i.p.' T.dXGXGXmXGXPXxXsXsXmXuXP.R.R.R.T.R.wXuXaXaXdXuXdXdXdXdXGXwXP.R.aXdXwXR.dXxXdXSXdXdXdXuXdX9X` ` l 8 ` i.i.i.j.%.%.s.s.n.C.h.p./ %.h.! h..XP.g.g.H.s.%.p.h.C.K.C.uXsXsXsXxXmXmXxXsXbXbXbXbXNXNXvXnXNXNXNXnXMXBXBXJXJXJXJXHXJXHXJXFXxX                                                                                ",
"                                                                                                  GXdXIXPXPXPXGXGXGXGXPXPXGXGXGXGXGXPXGXGXGXGXGXLXsXwXuXuXaXdXdXwX9XR.h.p.s.s.n.s.G u u S G d . u %.G 1 # . t Q F F 1 o , $ , $ = R b.w.b.q.$.oX{.q.q.{.D.XXR 4.XXcX.Xs.R R ^ R R y # # . # . # d  X X{.r = r 1 1 . o $ ; 4 4 4 t t $ t t t p $ # u F ^ M > p p a M U U B P U U M x B P M F U x p 5 x P 0 O > 2 5 p p m U R #.R f = d #.#.4.D d R :.q.e.r.y.|.r.}.OX}.OX6.L W R m E J J f E ,.2.l.c.k.k.k.V.A.V.L.L.Y._.U.L.I.'.U.h.1.) ) ) ) ! n a v P _ f.h.f.C.C.L.L.A.C.C.h.( Z n m I ( <.a.h.Y.U.U.U.'.U.L.f./ n a 3 3 9 3 n U ) >.) I / ( ..) ..>.>.<.1./ B B ! ! B B _ W.i.B N N V l l V c t 6 6 l 6 6 i.i.` K.aXmXGXxXdXxXsXxXdXGXsXK.f.R.wXwXwXwXwXwX.XwXfXdXGXGXaXuXwX9X9XwXwXR.T.aXSXdXdXdXdXdXdXaXT.` i.] 8 N ' l 4 b F _ h.R.&X-XP.P.1.t 1 F R.P.H.i.%.h.n.n.K.K.P.P.T.uXxXxXxXxXxXxXxXxXmXNXNXMXJXbXbXMXBXBXCXBXCXJXJXJXJXKXJXJXJXHXFXFX                                                                                  ",
"                                                                                                GXdXdXGXPXGXGXPXGXGXGXGXPXGXGXPXPXGXPXGXGXFXFXFXmXP.K.R.wXsXuXxXuX9XT.K.h.n.n.s.s.b y y @.q.H % u &.4.%.^ 1 . 1 t t $ , $ , c , t D.B.b.B.b.@.b.oX{.$.:.{.XX4.m.cXXXm.&.4.D.$.R R j = % . # $ $ = D. X^ . # t b t $ ; O o ; 6 6 6 t 1 $ X . $ o . . $ $ & & 3 2 < 3 a a p B M M m M P m n m M x n a a a X o > 2 5 3 n P R 4.:.:.f d 4.+.L R L r - % # @.|.|.y.r.}.%X|.OXOXt.-.#.-.-.-.-.3.E 3.k.k.x.k.k.A.L.I.I.L.x.f.<.<.) ~ / U B M v n x M x M a p 3 3 p p x v n n M M n s a < a ..L.L.L.'.-X-X&XU.Y.C.>.! m a a a p 3 3 3 & & > 2 x U ) ) ) ) / / ) ) ~ M n V Z B N B ' ' ! ' V V N V l l V l c l 6 6 ; , i.! j..XdXxXdXGXxXsXxXPXmXxXmX-XK.P.wXfXaXfXuXfXfXwXaX9XwXuXfXwX.X.XR.R.R.R.R.R.SXGXSXSXdXdXxXfXp.` g.4 O ; 7 l Q p.n.rXuXqXs.n.P.P.-Xn.1 _ h.K.g.i.p.H.K.P..XP.K.P.R.rXxXxXxXxXxXGXGXGXxXsXsXbXNXMXMXBXNXMXJXJXJXJXJXJXJXJXJXJXHXJXMXFX                                                                                  ",
"                                                                                              dXdX9XwXaXDXSXSXSXGXdXGXSXGXGXGXGXPXPXGXGXGXHXmXNX&XY.=XxX.X-XuXdXuXrX.XR.E.K.n.s.H S R @.&.&.u u 4.&.@.s.n.b . $ o $ ; 7 , , ' t M v.v.v.B.w.*.e.oXb.b.$.b.XXb.G 4.R 4.XXXXXXm.v.XXXX#.% , : $ ; $ F K.1 . 1 b F F $ . O o o o o o o O O O O O O O X X O X X X X . . X X X X X o & & & * * & & < < & & + X O o & & 2 3 a D #.5.:.d L 4.L r = r y e # d |.|.r.y.r.|.}.OXG.OX6.E E -.2.3.-.-.-.3.V.A.A.V.l.k.k.,.Y Z a 0 9 < < 5 < 0 3 5 0 a 5 5 5 2 2 2 2 > & & o X & & & & & 3 a U ) 1.f.f.V.L.x.C.f./ M m m p a a a & & s m M p 2 > & + & > 3 p x M M M n p 2 2 6 4 7 , 7 7 7 , , , , , ; ; ; ; , o $ o o o l p.F h.wXdXxXxXGXmXmXGXGXxXsXqXT.K.E.wXdXdXwXdXGXdXdXxXR.R.wXwXwXwXR.R.R.R.R.T.9XdXGXGXdXdXSXSXE.` g.g.; O 4 Q i.g.n.P.rXxX.XI %.Y.A.Y..XM %.K.P.i.` n.H.K.R..X.X.X.XT.rXxXxXdXxXGXGXxXxXdXqXsXiXpXpXpXpX>X_.>XMXJXJXJXJXJXKXJXHXJXHXHX                                                                                    ",
"                                                                                            dXfXdX9XJ.W.W.E.9XaXAXSXPXSXIXSXGXGXDXSXSXdXdXmXbX<XC.-XD.D.=XP.rXxXxXrXwXT.n.n.K.D.D @.m.q.$.@.u &.D.m.m.m.s.b $ $ o o , ; ; ; 4 6 1 r = r = e $.q.b.b.XXB.$.{.{.d = H D.XX{.{.XX{.{.XXXXF ; 6 l 8 ; o t . . $ 1 4 $ $ o , o O o O O O O O o O O O O X . . X o & & & X X X X X X + X X X X X . . X X O X < 3 & o X X X # & - r d f - r d = # r D d = % *.}.|.r.r.r.B.}.}.}.OXw.- 3 a s a g s C C Z J T U C s 0 9 < 9 3 0 0 9 a a < & 0 v p p a a 3 p x m v 2 o & > 2 3 p n n n Z ) ..~ x a x M M s x v M a 3 5 0 3 p & X 2 P I U v p p 5 > & o o o o X X X X X O O O O O O O o O O O O O O O O O O O O O ; l l ` H.! h.P.wXxXGXGXGXmXuXsXmXR.h.h.K.K.wXdXuXuXwXwXSXSXdXT.R.9XwXwXwX.X9XR.R.9XR.R.UXdXIXdXSXdXfXh._ H.i.; V %.i.i.g.T.R..XwXqXC.Y.=X.XU.=X1.%.n.P.i.g.H.T.R.P.R..XR.R..XxXxXxXxXxXmXxXdXuXuXFXqXC.L.&X=XpXtX-X>XtX*XgXJXKXJXJXJXJXJXHXFX                                                                                    ",
"                                                                                            dXfXfXaXAXfXE.W.j.i.j.E.8XdXSXSXDXDXSXDXSXSXGXMXbXtXv.M.f.v. X.X.XxXsXuXdXR.n.K.n.%.s.m.b.m.@.y d {.D.D.D.XX{.F # $ . $ o $ 7 ; ; $ o $ & = # % j w.q.q.XXb.y &.<Xd e m.XXD.{.XXXX{.n.D. XP.1 7 ; ; 7 o O O . o $ $ . . . . o o 8 O O O O o o O o o o o o o , 2 5 p n 3 & < 0 9 3 < < < < & & & & & < & < p p 3 > < > 3 = = = - = r 3 3 = # r R R r u j w.B.r.r.}.|.B.}.|.|.3Xw.# f a a 9 9 a a a a a s s s a a s v s n m M n m M a & p M v m U U x U 1.) p > 5 x p > 2 3 p x v M M n 0 3 5 a a x p 3 n M 0 & < M P n & & 3 U P M x p c x x c 0 2 o o X o o o o o o o o o o o 8 8 o 8 o o o o o O O o o 7 N V 4 _ H.! h.T.wXaXdXGXmXsXsXmXdXY.h.E.E.E.wXaXfXdXuXfXdXGXaX.X.X.XfXfX9XR..X9X9X9XT.R.wXdXGXdXGXSXaXH.j.g.B z i.g.j.j.g.n.R..XrXuX=X=X=XrX-XY.%._ n.n.%.h.P..X.X.X.X.X.XT..XxXxXdXxXxXdXdXxXxXxXFXY.K.uXiXbXbXiXhXnXvX1XhXBXJXJXJXJXJXHXHXmXmX                                                                                  ",
"                                                                                            dXaXfX0X0X0X0XaX0XE.j.i.u.H.0XAXAXfXAXDXSXSXGXxXxXxXC.1.D. XP..XP.qXuX-X.X.XR.P.n.s.s.$.G H G R d D &.s.P.4.S % # 1 $ 1 1 : 4 ; $ $ & & & & = = = H m.{.4.u # 1 R y = %.s.D.XX4.#..X XD.P.wXc O 8 8 ; ; o ; o . # # # : 1 $ . . o o o o o o o o o o o o o $ > 5 p x n x 3 x x a s s a a p p p a a a 3 5 a v v s a 0 3 p g p n J J D D d 1 r #.4.H d % j w.w.B.|.|.@.r w.}.B.D.B.M I I / ) ( ( / / ) ( Y J J U J Z J U U J C M M n n Z M x p a p 0 3 0 0 5 3 5 2 2 5 > 2 2 2 0 p a 0 x p x x x 0 x x M ( n 3 M ) ..U n 3 < < ~ / M x p c b B B B b 5 2 , , , o X o o o o o o o 8 8 8 8 8 8 8 o o o o O ; V l 7 7 p.E.` ` h.wXuXsXuXwXwXqXwXR.R.E.T.K.K.K.R.wXfXdXGXdXwXR.R.R.R.dXdXwX9X9XR.9XwXwX9XR.aXGXdXSXSXaXH.h.j.V i.g.g.i.` j.s.T.wXrXqXtXpXpXrXrX.X<.1.n.p.i.h.P..X9XwX-X.X.XR.wXxXxXdXxXxXdXxXxXmXxXiXP.rXHXbXbXiXyXnXCXCXBXBXBXBXJXJXJXJXJXJXMXFX                                                                                  ",
"                                                                                            aXaX0XAXAX0XJ.E.T.8XE.J.W.g.J.fXAXDXDXAXSXSXaXxXxX.Xs.^ s.P..XR.R.Y.P.n.g.n.wXwXP.%.G G m.$.$.m.s.y u y d 1 u y t d t u y u d F b d > 3 5 & & & # % R D.d % 1 1 . $ $ S %.P.n.r % s. XD..X.Xt O ; O O o O . . # # . # F D c 1 . O o o o O O o o 8 , o o o o , 2 5 p p x p M x a a a x x a p p a a p 3 0 x v v v n v a a a f M U U m F p % D v.#.d u e j b.B.{.}.L # # r @. X Xv.n U P ( } / ~ ) ....~ P Z Z Z m M m M m m M M M M m m v m Z Z x x v B B v 5 2 0 5 2 2 2 2 5 5 2 5 p p 5 p 0 a p v v Z U a Z a.<./ I n M M 5 n x 5 p x x B P B B B B b c c c 6 7 7 7 8 8 ; , , , 8 8 8 8 o 8 8 o o o o 6 V 7 6 4 ! K.g.! F _ g.p.` %._ ^ _ j.C.h.K.K.K.K.wXuXR.E.T.R.R.wXfXR.R.xXdXfX9XwXfXwXfXaXfXR.aXGXSXdXdXwXh.H.%.l i.j.i.i.` j.n.P.P..X=XuXuXtX-X.X=X1.%.1.%.g.P.T..XwX.X.XwX.X.XrXxXxXdXdXxXxXxXGXxXxX-XR.sXsXNXMXNXbXBXBXBXBXBXnXNXJXJXCXJXKXJXMX                                                                                    ",
"                                                                                            aXfX0XaXaX0XE.J.T.8X8XE.W.g.E.fXfXAXaXdXdXK.j.h.h.j.p.p.K.T.P.P..X.Xi.K.9XR.wXwXK.&.^ &.m.m.XXn.P.S u u y y t y b t 1 F %.#.D b S D < * U I > # = # = r X % $ $ $ $ $ 4 z S N $ $ 3 %.C.rXn., . O O o . $ 1 $ # . # # G $.! N $ o O O o O o o + , , , , $ o o , , > 6 5 2 5 5 5 5 2 2 < > , > > > > & & & & + o & & & & & > 2 3 t 3 1 1 & %.^ t r r = d 4.{.v.D = # = # = :. X4.3 2 5 p a 9 3 0 0 5 < & & & & & + + + < < & & < 3 3 2 3 0 3 3 3 0 p p x c 5 5 5 2 < 5 5 5 5 p x c p p 5 p p p x p 0 U ,.<.1.) I I Z P m B a 5 p x x x x b B M b B B N x x V V p 6 7 8 8 ; , , 8 o o o o o o o O O o ; 6 6 6 c 7 ` 8XE.i.! B F ! F ` _ ` 1.p.1.s.K.E.n..XxXxXfXR..XwXdXGXGX9XwXdXdXaX9X9XfXaXaXdXdXdXSXGXSXSXSXwXH.H.B z i.g.%.` g.H.E.R.T..X-X=X&X-X=XY.Y.F %.g.s.h.P.R..X.X.X.X-X.X=XuXsXxXdXdXxXxXxXGXxXsX.X-XNXmXMXMXNXNXNXnXnXVXVXBXCXJXJXJXJXJXHXFX                                                                                    ",
"                                                                                              fXAXaXaX0X0X0X0X9X0X8XE.H.E.8X8XfXfXfXh.` j.E.E.E.E.E.T.T.H.E.H.E.g.n.aX9XR.T.g.%.&.s.m.D..X.X9XQ 1 b b 1 $ % 1 1 b P.{.D.v.H d r & + & P I & & > # # $ 1 1 $ ; $ : $ $ o o $ 1 $ X b 1.3 $ X o o X X U n.4.b # y y y #.F b # O O o o o o o o & , O o o O o o O X X o & + o X o o o o o o o o o o + o X o & & + X + o o & $ o & > & X X d 3 = 1 % 1 = % d d . % = # # # = R a X X o o o & + o o o o o o o 8 , , 8 8 , , + + & > > + & & + + + & + + + & , > > > & , 2 2 2 5 x c 5 5 5 5 2 > 2 2 2 5 s U Y M a M s p 3 3 2 X o > 2 2 > 2 5 5 6 2 2 < > , , , , 8 8 o o o o o o o 8 o o o 8 o o o o 7 l c 6 4 4 _ 9X9XT.n.p.` ` ` ! ! _ p._ ! j.n.n.T.xXPXGXGXGXSXGXdXdXxXwXfXdXSXdXaXwXwXdXSXSXGXPXGXdXxXSXSX9Xh.p.4 ' j.j.i.` p.P.T.R..X.X-X-X-XpX=XU.n.b F &.s.n.n.R.R.R.wX.XY.R.uXzXsXmXxXxXxXmXmXaX.XrX&XuXFXFXMXNXbXbXNXBXNXZXvXvXnXnXNXJXJXJXMXMX                                                                                    ",
"                                                                                              fX0X0XaX0X0X0X0X8X0X9XJ.g.J.E.8X8XR.9Xh.j.H.E.E.E.H.E.J.H.R.T.K.R.s.p.wXK.h.P.n.m.m.m.m.P.J.J.F t 1 4 t S ^ ^ H r y D.b.b.{.@.e = = & & 3 ) I > X > 1 , , 4 ; o ; ; ; ; ; o ; $ . $ . $ X $ X o $ X = %.4.R R G b.b.d # = $ . O O , , o o o O O O O O O O O O O O X O o O o X O O O O O O O O O o o o o X X o o X o & o o $ o $ $ $ $ t 1 $ & = # # % % . . . = = = e = # . X O X O o o o X o o o O o o O O O o o O O O o X O X o + o + X X O X o o X X o X X o X X X o o o $ & & o X X X X , , 6 3 < 3 5 < < 2 o o o O O X X X O X X O X X X X X X o o X O O O O O O O o o o o o o o o o o O o o 4 l l 6 l l N E..XqXP.h.p.` %.h._ p.f.h.h.E.h.K.wXdXdXuXuXuXaXaXaXwXfXuXdXdXGXSXdXSXGXSXdXSXGXdXdXdXGXxXdXR.s.! ; 6 ` ` i.` i.g.n.P.R.R.R.U.Y.&Xn.A.iX-X! c ^ p.n.P.R..X.XR.T.C..XrXuXxXxXxXxXxXGXR.R.sX-XuXMXFXBXMXNXNXnXvX1X@XI.F.I._.;XiXBXJXMXFX                                                                                    ",
"                                                                                              wX0X0X0X0X0X0X9X8X8XT.j.` i.H.0XE.8X9XT.H.H.T.8XE.g.J.g.H.H.K.Y.D.n.^ rX.XP. Xm.D.v.$.v.m.^ 4 $ , 1 u ^ XXrX{.{.R y q.{.b.XXm.S = u r 2 > a <.m & & 5 6 $ $ ; $ : ; ; ; $ $ $ 1 $ $ $ X $ . o ; o X $ F t 1 y 4.v.4.D . # . $ # . o $ ; O o O O O O O O O O O O o o o o , o o o o o , o o o 8 o , o o o o 8 o o o o o o O O O O O 4 N t 1 % % d t # $ 4 o # D ) 4.:.4.4.#.1 X o o O O O O O O O o O O X o X X o X O O O X X X o O O X o + X O o o X X X X O X o X X X o o X X o o O O O O O o X o & , , & o , , o X X O O O O O O O O O O o o X O O O O o o o o o o o O O O O O O O O o O O O 8 , 6 c V 7 V l V T.R.fXR.C.K.^ _ p.n.n.K.qXwXR.wXuXrXrXfXaXwXdXaXaXwXaXdXGXGXSXSXSXGXPXPXGXSXaXdXGXxXGXqXaXwXg.p.V 7 ; ; l l Q ^ s.n.K..X.XT.Y.f.1.f.bXuXuXR.d t F n.T.wX.X.X.XK.K.n.T.dXGXsXdXxXxXxXrXK.Y.-XqXbXNXBXNXnXgX+XA.S.l.l.S.F.M.(.=XhXNXNXJX                                                                                    ",
"                                                                                              dX0X0XaX0X0X0X0X9XT.E.g.u.u.i.J.9XT.9X8XT.E.J.J.H.g.i.g.g.Y.P.v.s.b.4.m.v.v.m.4.#.H #.b.m.s.d t F m.XXXXXXXX{.XXXXy j $.{.v.q.b.y % : $ 2 & M Y 9 & & & B F t ; $ , , $ $ X . o $ o $ 4 $ # # . , o . . y m.^ D @.&.G # # % # # # . , 1 o O O o O O O O O O O O o o O o ; o o ; , 7 , 8 ; ; , 8 ; ; ; ; ; , ; , ; ; ; o o 8 o o $ l t % # = D #.a o $ t t . F n.b.v.q.4.D.#.. o o , , , o o $ O X o o o o o & & X o X O X X X o X o X o + o X o X o o o o o o o o X X o X X X X X O O O O O O O O O O o O O O O O O O O O O O O O o O O o o o O O O O O O O O X o o o O O O O O O O O O O O o 7 6 l c V 4 l l l H.wXwX-XR.R._ ! h.R.wXwXuXsXaXdXsXuXdXwXfXdXdX9XR.wX9XwXwXaXdXAXAXdXSXSXGXPXaXR.P.K.f.j.j.i.p.` 7 ; 4 7 4 1 4 6 N %.n.P.K.P.p.x t n.R.qX.X%.M F %.P.R..XR.R..XR.K.h.n.wXuXdXxXdXxXdXsXK.h.&XsXpXMXMXMXyXk.} -.5.M.V.S.F.I.U._.1XMXMXJX                                                                                    ",
"                                                                                                aX0XfX0X9X0X9X8X8X8XJ.i.i.i.i.j.T.9X9X9XT.H.W.h.g.j.n.P.P.4.4.4.:.:.#.v.F. X X{.j @.}.4.4.%.1 g. XcXXX{.XXb.XXq.$.q.H @.j L D.4.1 # $ 3 & & Y a & < ^ P.s.F 1 . $ o & , , t c 4 $ 1 F F b t $ o $ $ . b %.1 1 $.m.d . 1 u # 1 # . . ; o O O o O O O O O O O O o o O o 8 o o ; , 7 ; o , ; ; ; , ; ; ; o ; , 7 , 7 , 8 8 , ; o 4 c t t d ^ 4.D . $ ; $ c 4 . D 4.4.4.#.F r & > 2 o , > o o o , o o o o + o > , X o X X o o o + o o X + + X o + + o + + + o o + + + + + + o o o X X X o O O X O O O O O X O O O O o o O O O O O O o o X o o o o o o o o O O O o O O o O O O O O O o O O O O ; 7 6 x b V 6 l l l p.wXT.R.wXR.p._ K.wXuXwXwXdXdXxXuXdXuXaXdXuXfX.XH.K.R.wXdXSXGXGXGXdXSXGXdXT.p._ %._ 1.p.%.p.g.N ; , t 6 F n..Xs.t c ! %._ ^ M x n 2 p ! P n %.n.K.n.R.R.K.T.T.K.T.C.C.C.wXsXwXuXxXsX-Xf.&XMXMXNXbXhXyXA.Y ( 5.5.d.l.F.F.F.U.*X=XbXbXNX                                                                                    ",
"                                                                                                  9X0XfX0X0X9X0X0X0XT.i.i.i.i.` j.g.H.J.H.g.g.g.h.g.n.P.$.L q.:.6.:.B.<X}.}.{.b.:.$.v. XD.4.1 % b R XXXXXXXXq.u q.{.b.B.#.b.D.XX^ : & & = & n M = 1.rX.X X4.b ^ F x 1 d F U U b 4 1 t M G F c o $ O O $ $ . $ u y . u %.&.b S t : . O $ o o o O O O O O O o o o ; o o , ; o , 7 7 ; 8 , ; , , 7 7 , 7 ; 7 7 7 7 , 8 , ; , ; ; Q _ F R s.v.G & . . ; o 7 F 3 X = = # # X & / I ) >.& # & o & o o o o o o o > < X o o o + + o & + + X + + X + + * + + + + + + + + + + + + & + o X X o o X o o X o o X o o o o o o o o O O O O O X X X X o o o o o O o o O O O O O O O O O O O O O o O o O O , 7 6 c b V 6 l l 6 N E.h.n.P.K.E.H.9XR.9XwX9XwX.XwXwXwXwXwX.XR.R.K.K.E.T.K.K.T.E.K.E.9XdXaXH.` _ p.p.%.%.p._ %.%.l 4 4 $ t .XGXzXuXP.F B 1.P.&XuXsX-XP.1._ Y.xXC.%.s.s.1.K..XR.K.R.R.T.T.C.R.rXrXsXrX-XK.1.R.xXpXNXpX_._.V.( -.d.k.S.l.l.S.@X_._.;XyXkXkX                                                                                    ",
"                                                                                                  wXfXaX0X0X9X0X9X8XE.W.g.i.W.i.g.i.i.i.j.h.H.K.P.n.Y.D.:.w.q.+.+.w.}.}.}.G.w.q.|.B.:.w. Xv.d & 1 $ R <XXXb.H = H {.b.XXXXXXXXXX4.1 = = & > = M g Y.pX<XtX4.R D.D.D.4.D U R ^ ^ b t 1 t F U D 1 X O O O O X X . . . y &.&.&.&.S b ; . $ o O o O O o o O O 8 o o , ; ; 7 ; 8 7 7 6 7 , 7 , 7 7 , 4 7 7 , 7 7 7 , ; o 4 7 7 , , %.C.v.f.v.F 1 X . o O 7 ; c I X # # # X # X < # 3 A.,.- & & > o o o , o , o > 2 o + o o + + + + + * + * & + & * & * * * + + & < & + & + + & + o o X o + o o + o o o o o o o o o X o X O X X O X X X X X X X X o o o o o X O o O O X o O O O O O O O O O O X > 2 6 c B B 6 l l 4 7 _ p.p.s.g.T.T.T.E.H.g.H.E.T.H.n.g.g.H.g.j.j.` i.p.j.p.j.g.p._ i.p.g.i.` _ _ _ _ ! ! F ` g.F ; : 6 , c .XrX-XmXmXxXxXGXJXFXMXMXNXJXJXJXJXJXMXmXY.%.U _ P.-XY..X-X.XC.Y..XrXxXqX&XU..XY.C.U.=XpX&X&XM.,.) d.V.I.F.k.M.l.d.V.I.=XNXkXNX                                                                                    ",
"                                                                                                  dX0X0X0X0X0X9X8X8XT.J.g.i.W.g.i.i.j.g.H.K.W.g.h.T.sXv.:.w.+.@.+.%X%X%X%Xb.$.q.r.|.w.w.D.v.r # $ : G XX&.y $.q.d H D.XX%X%X%XXXm.1 $ 1 d m a r 4.&X X<X&Xf.R f.D.v. XC.#.D D D d r r 4 t b t $ o $ O O o o X X . # S G y G &.@.^ l o o O O o o o O O O o o o ; ; ; ; 7 ; o 7 4 ] 7 ; 7 , 4 4 7 4 7 7 , 4 7 7 , ; 8 6 6 6 1 o b s.v.) d # $ & . O ; O o > d U $ X # & X & < - @ J @X3.- < > 7 , , 2 , > & 5 5 o + + + + + + & + + @ + & * * * & & & & & + * * + * & & & & & + > o & & o & & o + & + o o o o o X o o o o o X X o o o X o o o o & o + o o O o o o o o o O O O O O O O O X o 6 6 t b F ! t ] ] 6 ; 4 ' ' ! i.g.p.j.g.g.p.i.` Q N N N N ` %.i.g.g.H.s.g.j.j.j.j.h.K.W.g.g.i.' ! _ ! ! _ B ` g.l o 4 1 1 b T..X&XuXiXuXmXsXbXiXiXhXMXMXMXNXNXNXFXNXHXxX.XU ~ L.-XY..X-XC.R.=XqX=XR.=X-X-X.XC.f.<.a.) >./ Y -.d.d.A.A.V.5.,.( 2.I.bXbXtX                                                                                      ",
"                                                                                                    aXfXfX0X0X9X0X0X8XJ.g.j.H.g.i.i.g.H.E.T.K.H.H.uXxXn.#.:.#.:.%X%X%X Xw.q.B.B.q.|.B.b.D.4.$ # # t &.F = # @.b.4.d d R 4.v. X.Xn.1 $ , ^ f.%.1 s.rX<XpXzX X-.v.@X X XtX%.#.G d y = t t $ 1 1 , o 4 > o O , , O . . 1 u . u G G %.F ; o O O o o o O O O o o 8 7 , , , 7 ; 8 7 6 6 , 8 , , 4 4 4 6 7 7 7 6 6 4 7 , 7 ] c c 6 $ $ $ 1 $ $ X # X X o , , o X $ P D X X - @ f 1.J - h 8.2XJ - 3 > , , 5 > 2 < c p X & & & + + + * + & * & * * * * * * * * * * * * + * & + + & + & 2 o > > + & > + & > + o o o o o X o o X o o o o $ o o o o + & & & o o o X O X X X o o o X X X X O X O o o o x p p M F F c t 6 l , ; l N ! _ i.i._ i.` ! Q B ' ! ` j.g.H.g.g.` ' ! ` ` ! ! ! ' B N ' i.i._ _ N c ! B B ! _ B 4 : : 4 4 ^ .X=XtXpXyXtXeX=X-XU._.*X&X&X>XiXNXbXbXiXFXiXiXn.>.C.L.R.Y.Y.-X.X&X&XU.-X&X-XY.A.Y.L.d.V.a.2.2.V.V.k.2.>.} 1.-.-.5.A.I.U.'.&X                                                                                      ",
"                                                                                                      SX9XJ.J.J.J.E.T.J.H.W.g.g.W.g.g.g.W.H.H.E.wXsXdXwXn.D.4.w.3X%X@XD.B.}.}.}.}.w.w.b.#.1 X $ , t 4 $ u % D D.4.m.u # # = r F b $ 4 t ` n.&.= 1.pX<X2X-X@X%X@X<XzXzXzX XS R b y r 1 4 = : $ : $ 1 t o O , O o O . . . . : : 1 ^ b O O o O O o o o o O o o 8 , 7 , , 7 8 o 7 6 l 4 , 4 7 7 4 ] 4 , , 7 ] ] 6 4 7 ] 6 l c l l ; $ $ $ 4 $ 1 ; o ; ; , , & X & g M 5.M.f g ,.| g E $X1X| & < 2 > 2 c > 2 6 x p X & < < * & * * @ * 9 * * * * * * * w w * * * w * * * @ + * + & 0 o > < & < < & > > + o o o & o o o o o o $ o o , o o o & , & o o + + o o X X X o o o o X X o X O O X o X o b c x F P U Q N V l 7 ; o 6 c c V N l l 6 N Q ! ' ' ' ' Q B N l l ` h.p.H.R.wXR.T.K.j.u._ ! ! ! B 6 , , 7 B N ; : : : t t s.iX=XpXNXhXyXyXyXtXyX;X;XI.U.A.M.V.&X=XiXNXiXzXU.f.-XC.Y.R.Y.-X.XU.-X-X_.&X X&X&XY.&XY.d.k.k.C.I.k.d.2.( ( ( 1.k.A.V.A.x.a.&X                                                                                      ",
"                                                                                                        aXH.i.W.W.W.W.g.W.W.i.j.i.i.H.g.W.T.E.wXSXdXuXrX=X.Xs.^ <X<XB.#.b.}.v.}. X Xw.B.H . X $ , o , $ 1 1 d v.{.XX^ # % % $ X $ $ ; t %.s.t 1 ^ s.v..X-X@X%X2X2X<XbX<X Xd r b y 1 $ 1 : . . $ $ $ t , , , O o o O O . $ % . $ 4 , O o ; o o o o o O O o 8 8 , 7 6 7 7 o o , ; 4 7 7 4 7 7 4 l 6 7 7 4 l 6 6 6 7 6 c V N V c 1 ; 6 N t , $ 7 O 8 7 , , X a #.4.-.6.5.J s J J g J ;X+Xm @ 3 3 > > p 2 0 5 a 0 X < 9 3 * < < * 9 * g 9 * w w 9 w 9 w 9 w 9 s 9 9 w * * * * + & a + < > > < < < > > & > o & & & & + , o o o o o o o o + & < > + o o o o X o o X X + + o o X o o O X O X o , c B x I I F ` B l 7 , ; ; 8 o o ; ; ] l c N B N V 6 c N N N t N g.E.h.E.aXxXdXxXdXsXGXdXsXdXwXwXR.j.B c 4 7 ; $ $ : N l t XXuXrXhXyXhXyXpXhXyXyX;X;X+X+X;X@XI.A.k.M.A.=XzX=X>.-XqXY.f.P.Y.L.A.L.Y.U.&X X&X&X&XA.f.d.f.k.k.f.,.2.A.>XyXA.d.k.k.f.1...h.=X                                                                                      ",
"                                                                                                          fXJ.g.W.W.H.H.H.g.j.H.T.T.wXwX.XR.R.xXFXGXuXsXxXrX%.b R R #.g g 4.L j D. X Xv.M $ $ $ $ ; o 1 = 1 $ y m.D.y # = $ $ = $ : ; ; z N : 1 2 X $ m Y.@XI.2X4.R v.<X<Xd & t d d 4 1 4 , 4 l 4 1 4 , , o O O , o o o . $ $ . $ O O o o O o ; ; o O O 8 , 8 , 7 4 7 4 8 O 8 8 ; ; , 4 4 4 6 c 6 4 6 6 l 6 6 6 7 6 c c V c x t 6 t b t 6 4 7 O o 8 & & 3 A.2X%XG.- [ F.[ f | * g 3.| * < 3 > , , 5 > p x m M @ 3 0 3 9 3 * 9 9 9 s g w w w 9 9 q q s s s h 9 9 9 w 9 * * * < v + 2 < 2 < < < < < & > & & & > & & , o o o o X o o o + & > > o o & & & o o o o o & + + o o o o X X O X o > x F M P U I ` N 6 4 c 4 , 4 V ! _ p.h.h.f.h.h.j._ B V c c c ! T.aXfX9XdXxXxXdXxXxXdXdXGXsXdXGXGXdXqXR.R.P.p., $ 4 1 b t u P.uXqXpX1XyXgXgX1X;X;X;X2X+X+X+XF.I.@XI.V.d.f.&XpX%.C.&X<.n P <.h.C.Y.&X-X-XL.Y.L.d.1.M.&X&Xa.) ( 2.U.iXnXhXnXgXnXnX>XY.U.NXbX                                                                                      ",
"                                                                                                          DXAXfX0X9X0XSXAXT.E.aXxXdXdXxXrXm.4.f.=XzXuX=XJXuX^ b U v.D.H = = H = d R v.U # . 4 1 $ 7 4 : $ $ # % e = % u % % $ $ : : ; ; 4 t 4 c 4 $ $ = ) &X X5.d J v.4.M.D r u r t t z l 6 l z z t : $ $ O o O ; o O o O $ , o X O o o o O 8 7 8 o O O 8 , , 7 7 4 4 6 ; O 8 8 8 8 ; 4 4 4 6 l l 6 l 6 l ] 6 6 7 6 c c c c x c l l c l l 6 , O , , o & = ^ D.@Xw.- W $X5.s s @ * @ & & < 5 x 2 , 5 6 0 0 n m X s s 3 9 9 w s 9 q s s q q q q s q s s h A A s s 9 * w * @ & 3 x & 2 3 3 < < < < 3 & < > > > > > & & o & & & o o o o o & > & + o + & & X + & + & & o + > & o X X X O X X , n ! B P I ~ F c 6 7 4 4 i.R..XR.R.aXaXqXuXaXwXwXwXwXR.h.p.h.wXaXuXGXGXGXxXmXGXFXPXPXGXGXsXdXmXkXsXkXmXsXuXxXg.4 $ 1 : t $ s.NXzXpXyX1XgXgX;X;X2X2X2X;X+X@X@X@X@XF.A.U.&X=XpXI n I P I p.p._ f.qXJXMXhXpX=XU.Y.*XiXbXbXtXU.I.tXnXhXhXJXJXCXJXJXJXJXHXKX                                                                                        ",
"                                                                                                        PXGXGXPXPXPXPXSXSXSXAXSXaXwXY..Xv.4.4.4.v. X<XzX=Xs.^ f..XrXs.d r = D D = . % # = $ = 4 7 , 6 1 # F %.&.R u = u # % # $ 4 : : 4 4 1 4 N , & & & > D U r J %XNXD.v.R = % % r b c b t c z b y : $ o o 7 ; o 7 8 , O o $ $ $ o 7 , o o o , 8 O O o , 7 7 6 7 4 4 ] ; O , , , ; ; 4 4 4 4 l c l l 6 6 6 l 6 1 6 l V c l c c l N l l l 6 , O , > o & > & p U e - g E J w - - * & 5 2 2 & 5 2 > 5 , & 2 v Z @ v v 9 q g w q w q s s q q s q s s h h h A h q s 9 9 9 9 * & 3 s & 2 5 3 < < < < 3 > < > & < 2 > > & o & > & o , + o o & & & & + + & & X & & & & < & & & + o & > X X X X > M I B F I I B t t 6 ; B R.wXuXxXsXGXmXmXFXFXPXmXuXsXmXmXsXsXuXxXPXPXGXxXxXPXPXxXxXFXmXFXFXPXmXiXuXuXrXuXsXFXdXp.: 1 z z z %.=XbXpXpXvXyXgX1XyXvX+XI.I.(.I.I.@X@XF.F. X-XqX>.M p.K.P.n.h.P.R.-XsXxXbXMXbXuXbXBXhXiXbXbXyXNXnXhXnXBXBXnXNXBXJXJXJXKXJXJX                                                                                        ",
"                                                                                                      PXPXGXGXGXGXPXSXfXfXdXSXdXrXrX=X X$.w.v.b.B.v.v.<Xs.v.zXuX.Xn.%.H d r d R y = = $ $ # , $ , 1 1 $ H D.{.b.oX{.d % H s.%.S : $ : t z 4 1 4 $ , $ $ X # % # M.zX<X<XF.D d #.d u t b N z c t t u $ . o 7 l 7 o 4 4 4 o o $ , , , l 7 o o o ; 8 o o o 8 , 7 4 , 7 4 6 ; o 4 4 4 7 7 4 4 6 6 l c 6 6 6 6 1 6 6 6 6 l V c c c 6 l B 6 l c 6 7 o o , > o 1 & X - @ J r.f f 8.J - < a 5 > a x p 2 , p & O o > 5 X 0 s s s s 9 w w q q s q q s q h h h A h A h q s 9 q 9 3 * & < v & 2 5 5 3 3 3 3 3 > < < & < < < & & o > > & + , & o o & & > > & & & & + < * & & < > & & + + > < X X X o > M ! m P U I ! c t c 6 i.dXsXsXmXmXsXqX&X-XR.qXsXmXJXFXkXsXmXFXFXGXmXPXGXGXFXsXR.-XmXmXmXmXmXFXFXGXsXqX'.uXrXdXP.6 4 i.n.! D K.xXpXpX;XyXpX1XyX2XI.I.@X@X&X=X&XU.Y.A.A.C.I ~ C.iX-Xn.n.R.rXrXqXuXpXiXsXuXpXuXtXkXNXNXMXnXNXgXtXyXgXkXVXnXnXNXBXJXJXJXKX                                                                                        ",
"                                                                                                    PXGXFXGXFXxXxXsXsXxXdXaXuXuX-XwX=Xv.R :.q.:.q.w.:.#.P.zXrXn.v.n.s.D = = d D D r # $ r $ $ $ , u t 1 m.XX{.{.b.b.*.@.b.oXD.D.%.1 # 4 t b F 4 , $ & $ & $ $ = v.%X@X2XF.d v.cXD.^ $ 1 t t t t 4 $ . . $ 7 l ; o o , 6 , 2 2 , , 7 V 7 o O 8 , 8 o o o 8 , 7 4 ; 7 4 4 ; 8 l ] ] 4 4 6 6 6 6 l c 6 6 ] 6 7 6 4 6 6 6 c c c c 6 N V 6 c c 6 7 o > , , , o $ & = J F.@X6.G.@XN.9 * 0 5 5 5 5 a 2 > x p 5 > + X X s C C s s g w q g g h s s s s A h A A A A h s s 9 q w * * & 3 n + 5 0 p 0 p p 3 3 < < < & < 3 3 & & & 2 > & & , & o + & & > < & & * < & 3 3 * < & & < & + + + o o X X o > M ! m I I ~ ! p t l N R.sXmXJXqXC.f.a.f.p.1.f.Y.qXuX-XU.Y.-X-XqXmXPXsXFXFXGXsX-XqXsXsXqX&X&XuXmXGXkXeXqX.XwXwXi.$ : n.rXP.^ s.xXiX>X2X2XhXyX1X*XU.U.&XU.F.Y.Y.L.C.f.s./ I &XqXC.K.H.T.rXuXrXsXmXsXiXuXmXmXMXbXtXkXMXbXgXhXyX*X+X>XjXvXgXhXvXMXJXKXKXKX                                                                                        ",
"                                                                                                    LXPXmXmXmXiXxXmXsXdXrXaXdXdXuXwXP.F D R +.@.+.@.+.D 4.n.P.n.v.P.P.G d D #.$.4.4.&.R 1 $ t r 1 % % = y G b.{.b.$.*.$.m.oXb.b.XXd $ 1 u z F $ X t x & X & 1 . R D.F.zX%XD.<X{.{.XXt $ t t 4 t 4 . . 4 6 7 6 , o 8 , 4 7 5 6 , , 6 N 7 o O 8 8 8 o o o ; , 7 6 7 7 4 6 ; 8 l ] l 6 4 6 6 6 4 l c ] 6 l 6 7 6 7 6 l t c c V c t V t 6 c t 4 , o > $ o 4 , o , > 2.;X8.[ G.G.8.- 3 9 < 6 c 5 6 5 2 p x B v x 3 * U C C s h s q s s g s s h h h K { { { { K h s q 9 9 w * * * 0 M + p p a p p s 3 3 < < 3 < 3 3 3 < & & 2 > > > > , o & & & > < & & < < & 9 9 < < 3 3 < & + + & + > o X o 2 M I m P U U B 6 c t ` aXFXmXY.1.>.f.C.x.1.a.Y.-XP.C.L.R.U.P.K.Y.R..XqXuXsXGXmXxXuX=XU.'.U.Y.U.=XuXiXeXuXuXiXuXh.t $ Q P.9XP.) s.=XiXpXyXhXpXyX*XY.V.f.C.D.Y.C.f.<.) P / K.C.s.n.T..XR.aXuXuXxXmXsXsXmXsXmXmXmXmXNXNXMXBXgXgXnXkX>X,X,X1XnXBXBXFXJXJXJX                                                                                        ",
"                                                                                                  PXPXmXsXiXbXbXiXsXuXuXrXrXdXuXuXwXR.) s.4.$.@.$.q.H &.4.%.v.n.m.<X&.R v.D.{.XX{.{.m.v.b r D R ^ d = % % % q.{.b.oXb.b.{.b.m.b.D.H 1 1 1 # $ $ %..XP.v.U & % = v. X X2X2XzX<X XzXD.= 1 $ 1 t 4 $ . $ Q ' ; 7 , o > 6 4 6 c 6 c 6 V B 7 8 o 8 8 8 o o o ; , 7 4 7 ; 4 ] 7 8 ] 6 l 4 7 4 4 4 4 6 c ] 6 6 6 7 l 4 6 l l c c c c t c 4 l t 4 4 , o ; $ , ; ; $ o , 3 s - 3 -.G.8.- & < > < 5 2 3 2 2 2 p a 5 a < + Z C C h h s s s s q q s h K K K { { { { K h s q 9 9 w * * * a v & x p a 0 5 s 3 3 2 3 5 < 3 3 5 3 > & > , , > , , & , > & > < & 3 3 3 & 0 9 < 3 3 3 < & + + + o 2 & X o > n U M P P I F c V 6 h.dXGXuX>.>.n.P.P.P.C.Y.-X=X'.L.P..XP.U.R.R.-X&XR..X-XqXqX=X-X.X.X&X&X-X=X-XqXeXuXeXuXwXrXn.^ c t P..XwX_ s.pXiXiXbXyXU._.L.C.f.2./ #.>.U / C.f.P s.p.%.1.T.rX9XwXuXdXmXmXbXNXFXbXmXmXMXNXkXbXNXnXhXgXjXjXjXjXhXjXgXnXVXBXFXJXJXJX                                                                                        ",
"                                                                                                  PXGXmXsXmXmXxXxXpXiXuXsXuXaXfXwXaXxXuXmXzX XD.#.D q.D.q.R #.m.v.D.v.D.XX{.w.$.+.R H d u y S G H H = % = H {.b.q.b.v.w.{.{.b.m.D.#.% # d G t r D.D.4.4.D.#.= L <XY..XY.C.<X<XD.<XD 1 F B 6 6 $ . . t F ` 6 ; 4 ; 1 x 6 c c x F B ! c , o o o , ; o o o ; 7 7 6 7 ; 4 ] 7 ; l l 6 ] 7 7 4 7 ; 6 ] 6 ] 4 4 6 7 4 6 4 V l 6 c 6 c l 6 t l 4 6 1 o , ; , 4 , ; 7 7 & & & X * a 3 X X & & + < > 2 > * * & > > & X 3 U K C h A s s A C h s h A K h { { T { { h h h q 9 9 9 * @ * 0 s + a a 3 p a a p 3 > 5 5 3 5 5 5 2 > > 2 2 , , 7 6 , , & , > 5 > < 3 9 * a g w 9 9 3 * * + X o o & $ X o 3 M U M F m P c t b l P.GXsXh.s.f.C..X&X-XR.-XuXuX-XR.R.wX&XqXqXR.R.wXwXwXwXwXqX&XqX-X.X&XrXqX=XqXqXqXuXuXrXqXsXn.%.` t n.-X) F Y.tXbXY.f.a.( Z P >._ ) >.s.P M Y.Y.I h.h.p.p.h.uXrX.XuXrXsXmXMXNXbXNXNXNXNXNXMXMXnXhXhXgXhXhXnXnXnXnXvXZXCXVXCXBXJXMXFX                                                                                        ",
"                                                                                                  FXmXGXmXsXsXsXuXtXiXiXsXuXdXdXdXwXfXxXwXwXrXNX&.R D.{.b.w.v.#.q.+.@.$.$.#.@.@.@.$.R &.#.d H $.@.H j u % @.{.m.b.{.&.H {.{.D.XXXX&.% L v.{.#.u q.b.q.@.q.}.@.+. XP.s.a t v.tXzXD.1 $ 4 N ' 4 O . t F l _ V ; 7 , ; c x B M M F ! ' t ; o O o , ; 8 8 8 ; 7 7 ] 7 ; 4 ] 7 8 l l 7 6 7 7 7 , 8 4 6 6 ] 6 4 7 > 4 6 ] c l l l 6 l 6 6 6 c l 6 ; o 1 , ; , , , , ; $ & > < & + & & & * 9 3 a a n s < s a a p x & < E K h A h q A C C q s K K K K K { T K K A s h q q q 9 * & < a 3 o 3 a a a a a p 3 > 2 2 3 p a p 2 2 2 6 2 2 2 6 6 , , > > > 5 < 3 9 9 * s s 9 g q 9 < * @ X + & o o X o 2 n Z M M F F t t c B wXsXwXs.s.n.L.-XqXqXwXqXrXqXrXuXrXwXqXrXuXaXqXwXwXwXrXwXqX-X-XrXqXuXqX-XqXqXqXwXsXsXxXrXuXn.^ n.t %.%.1..XC.A.>.f.A.-X=XI.C.'.-X-XtXtX=XI m x _ s.s.h.h.P.uXR.wXuXuXsXMXMXMXnXnXnXMXNXNXMXMXnXkXkXgXhXnXBXCXCXCXCXCXVXVXCXCXMXbXMX                                                                                        ",
"                                                                                                  PXFXPXFXxXsXuXqXqXuXuXuXrXuXdXrXdXdXdXwXwXrXwX#.q.{.{.w.e.e.L @.@.L H b.}.b.|.|.e.#.$.#.$.$.@.H H @.y = &.m.s.m.4.y % $.XX{.b.XX@.j w.m.q.+.L @.|.b.e.e.}.B.e = 1 1 $ 1 t R n.F # 1 o O , O $ ; F N 6 V ! o , 1 ; c N N M P ! ! B 6 , 8 o o , 8 8 8 8 8 , 7 ] 7 7 6 c 7 8 ] ] 6 6 7 7 7 7 , 4 4 4 ] 6 4 > 7 6 c c 6 6 c l 6 4 4 c V V V c ; o , , , , , , , o $ > 2 < * 3 M 0 a s M s M M P m s M M P n ~ < & } C h h s s A K A s A [ K [ { K K [ K h K K A h h q 9 * * * 0 3 & 3 a s a a a 3 p 3 3 3 3 p p 0 3 3 > > 5 5 2 2 2 , , > 2 2 0 3 < 0 0 & s s 9 g g 9 * * * @ & & & o o $ 3 n Z m n U ~ x c 2 ! uXdX.Xf.C.U.-XqXrXuXuXuXqXwXaXuXrX.XwXrXuXxXxXdXxXuXdXwXrXqX-XuXrX-X=XuXqXqXuXuXuXuXiXsXrXn.%.P.! b s.rXuXsXrXA.uXiXtXeXpXiXkXpXpXbX2XpXtXa M h.p.L.K.h.Y.wX.XuXuXsXmXmXbXbXnXnXnXBXMXNXMXMXkXgXpXyXhXnXBXVXVXVXnXnXZXCXJXnXpXbXJX                                                                                        ",
"                                                                                                  PXPXPXGXmXsXqXuXuXuXuXuXuXaXdXdXwXaXrXdXxXHXn.#.zX%X|.w.e.e.t.e.*.w.b.b.b.|.|.|.+.+.B.q.:.{.b.$.H R d . u ^ D r r % # 1 ^ P.XXb.j :.b.w.+.@.w.L w.|.b.|.w.}.u . $ o o , $ $ $ X . , ; o O O O t 4 7 7 7 ' 7 8 7 ; l V b b ! ^ P N 6 , ; o o 8 ; ; 8 8 ; 7 4 ] 4 7 6 c 4 o 6 6 6 6 7 7 7 7 7 7 4 4 4 4 7 4 6 6 6 l c l c t 6 1 6 B ! B N V , o ; , , , , o , , 2 > 3 3 3 n ( Z C C Y J Z U T J C C U ) m U < < ( C h s h s C T C A T K K { K K K C g q C T A T C s q 9 q * 0 a & p s s a 9 a 9 3 3 5 3 3 9 3 3 0 3 > > 5 5 2 > 2 2 > > 2 p v 0 < 0 a & s s q g s 9 9 * 3 < < & o o X o 2 n Z M M P B n F 5 1.uXuXT.h.C.&XqXqXrXuXuXuXuXuXrXrXqXrXuXuXuXsXmXGXGXxXxXsXsXsXiXiXuXuX-XqXuXuXqXuXuXsXiXbXrXn.s.s.^ b n.rXK.&XqX-XtXbXiXyXtXtXhXpX=XyX-XA.C._ ) C.K.C.h.K.R.wXqXrXuXmXFXFXNXkXkXnXVXMXMXNXMXnXkXgXgXhXgXkXnXnXkXkXgXnXZXBXnXyXbXJXJX                                                                                        ",
"                                                                                                  LXPXGXxXmXxXuXuXiXsXsXdXdXaXuXuXwXwXdXaXP. X%.b.XX|.r.e.r.e.:.e.+.H $.b.XX{.}.|.:.b.{.m.j :.XX{.b.b.#.= . $ $ o , 1 : . $ N &.j e $.$.e.*.*.e.L @.}.e.}.B.b.D $ $ O O o o X X O X o o O O o ; 7 o o 6 ; l 4 o 7 ; 4 x B N F ! B N 4 , 8 o o 8 8 8 8 8 , 7 6 ] 4 7 4 c 4 o 4 4 7 7 4 7 7 o 7 7 7 4 7 7 2 6 t 6 > 6 B B c c t 4 V ' ! ! B V 7 $ , , o & , & 7 5 5 , 2 > < M ( U C C T J K T [ K C T K T ( U + 3 Y C s C C s C Z h K T A K K K T T 9 O @ @ s T [ A A h q s * 0 0 + n P m v 0 0 9 3 < 9 9 0 a 0 3 3 0 3 < 3 3 2 2 5 5 2 2 5 a v 0 < 0 a * s s q s g 9 < * 9 9 3 & & o X o 2 m Z M P P n x F p h.uX-XC.h.C..XrXuXdXwXwXuXdXsXuXuXuXuXaXdXdXuXdXxXsXaXfXdXxXxXxXsXsXpXsXsXuXC.a.-XmXNXbXpXtXf.s.n.! ^ f.h.1.Y.qX&XiXtXzXbXiX>X>XpXtX&Xd.f.Y.1._ C.h.h.s.K.R.wXfXuXuXmXMXMXnXkXkXnXVXnXnXnXBXBXVXnXnXnXjXhXnXvXnXvXvXVXVXZXvX>XMXKXJX                                                                                        ",
"                                                                                                  PXPXPXGXmXsXiXrXuXsXxXsXxXdXuXwXuXaXuXrX^ &.m.w.L @.@.r.|.:.e.{.@.e # d @.$.+.j B.XXv.b.L y 4.XXXX<X&.# $ $ $ ; ; ; $ ; o $ . # d :.q.e.*.e.e.@.i :.b.XX|.B.L X $ o o O o o X $ , o O O 8 o O o 7 4 l 4 7 ; ; 7 , , V F b N ! B N 6 , 8 o 8 , 8 8 8 8 7 4 6 ] 4 7 6 c 7 o 6 6 6 6 6 4 6 ; 7 ; 7 7 , , 5 t p 6 > 7 N N V c c 4 B ! ! F N N 4 o , $ o > 6 5 6 5 t > 2 > < s ~ ( Z K A C K T K K A T A J T s @ 3 ~ v v C s s C C C A T K K K [ | K @ & 2.v + s A C K C s s 9 x M & n m m Z M a 3 3 3 3 3 9 a 9 3 9 9 3 < 3 3 < < t 2 > 5 p a a p 3 0 a * s s s g 9 9 * & 9 0 5 & & X X o 2 B Z m m P n x c p h.-X.XC.C.Y.qXrXqXfXqXrXwXrXuXuXaXuXqXqXdXsXdXdXxXsXR.R.dXsXsXsXiXsXiXNXiXU.f.f.qXxXMXNXNXpXv.v..X_ ) n.) ! =X=X<XpX2X<X2XiX2X;X1X>X;XM.Y.2XC.<.K.K.C.n.n.R.R.qXmXmXGXmXkXhXhXnXVXVXnXMXBXBXBXnXnXnXnXgXgXkXnXnXnXnXZXVXVXVXtXNXJXJX                                                                                        ",
"                                                                                                  PXPXPXFXmXsXuXuXuXsXsXwXdXxXdXIXaXSXGXR.^ #.L j @.j i :.B.*.w.@.j R = u # = # = {.<X<X XR r D R ^ &.t $ 1 o $ ; , 7 ; $ o $ . # @.q.q.$.$.b.q.q.e % @.$.q.XXR $ o o o o o X o 1 > 8 o O 8 o o o 7 V l ] O o 8 6 7 , c N c N F N V ] , ; o 8 7 7 ; 8 7 7 4 4 ] 4 7 6 c 7 8 c c N V 6 6 ] 7 7 ; ; ; ; > 6 t a p p 6 c c N c p 5 B ^ ^ B N B 5 o , , > 5 c p 5 2 t > 2 3 2 & s E T T K A { { K { h K K [ C * @ 9 } v C s 0 s M C A C T [ { [ ;.;.T & & ,.M + 5 & * s 9 9 s 0 a a & 0 0 a m P Z x v M m v M M v v a a a a a p 9 3 5 3 > 5 p a x a p 3 a & 0 0 a g s g * * 9 9 3 > o O X o > x n m m m p n a M h.R..XC.C.U.rXqXR.R.wXwXwXwXfXaXfXaXuXaXdXxXdXdXdXaXwXwXxXxXdXsXsXqX-XqXuX&XC.L.-XiXiXuXNX-Xn.P..X%.^ ) d #.@X@X%X X{. X%X%X=X>XpX+X(.+XI.A.A.f.h.s.h.n.Y..XK.R.uXsXPXGXkXkXkXMXVXBXBXBXBXnXnXnXnXnXnXhXvXNXVXVXVXVXBXZXnXBXbXBXJXFX                                                                                        ",
"                                                                                                  LXLXFXmXmXxXpXuXrXrX.XK.R.uXaXIXSXSXHXs.4.v.@.e.|.|.e.j @.w.q.d R D.t r u r = % d 4.m.&.D %.v.b = 1 . 1 $ o ; , ; o , ; o X $ = &.s.H r $.b.v.b.i # = = r j r # o , , , o $ 1 p 1 O O o ; O o o O 4 N 7 O O 8 6 6 7 ] c x B c l c 4 7 , o o , 7 ; 8 7 7 , ; 7 7 , 4 ] , o c V V c 7 4 7 ; ; ; ; $ $ 7 t t x M b M x b F t t c B ^ ^ F B M 2 , 5 p t 5 p 5 p x 5 2 > 5 a 3 s s T [ T { ;.0. .0.{ { K  .T 9 @ 9 ( Z s 0 a 0 v n A A T K [ ;.3.3.T * & < & 3 M M v 3.X.| } ( Z 5 5 0 2 3 p M I Z Z I / I Z Z Z U M m Z C m s a p 0 5 > 2 5 x x x s 9 a & 0 9 s a s 0 * * 9 < & & o O o & 2 a v P ! P x F t M f.U..Xf.h.Y.rXwXR.9XwXwX.XwXuXaXfXdXdXSXxXdXSXxXdXdXuXqXsXxXsXiXpXY.n.Y.-XA.f.U.L.C.f.C.C.n.Y.<X.Xh.) D b %.D.}.B.w.4.5.D.@X;X+X2X+X(.*XU.V.&Xs.h.s.p.p.K.P.g.R.R.qXmXmXNXNXnXnXnXnXBXnXnXnXnXNXBXBXnXvXnXBXBXVXVXVXVXBXJXCXnXNXFXFX                                                                                        ",
"                                                                                                    PXFXFXMXNXiXiXxXGXR.h.n..XdXSXSXGXrXF #.4.b.}.}.|.|.r.H L j j F m.^ = r 1 t v.D.D.4.R 4.n.rXR.h.b 1 > o o o , 8 o 8 ; o o X 1 ^ d # # S v.v.@.= = e = - # # # & $ X , > d D t . o o O o 4 6 4 8 ; 7 ; O O 8 4 7 ; 6 l l c c 6 c 4 7 , o 8 7 4 8 o 8 8 8 8 4 , ; 4 ] 8 o c c c , $ , ; 7 4 ; o o , , 5 p B U B b b B N p , 6 ! _ ^ ! F M 2 > 5 p 2 2 2 < 0 a 5 5 3 a m s f f T ;. . .;.0.9.9.{ { { K  .h X 9 ( m < a a v C C s s K A 0.z.3.;.[ 3 + a > > M B ~ l.2.~ d.a.~ M Z ! ~ / ~ ) ...._ f.1./ _ I Z U M m Z Z Z U Z Z n p 2 5 c M B B p 0 5 X 0 a s a s 3 & & < < & + O X O & 3 n a U ~ P m P x m f.L.P.1.f.A.P.K.K.9XwXwX.XwXaXwXrXdXxXdXdXdXxXsXdXuXuXmXsXuXrXtXuX&Xn.A.-XC.C.-XY.Y.Y..X-X%.4.m.P.#.D b H 5.%Xb.:.w.v.4.#. X<X;X*X+X_.+XV.A.&Xh.Y.s.i.%.n.H.n.K.K.n.P.sXFXNXkXhXnXhXnXNXnXNXNXBXJXnXnXVXBXBXnXvXnXCXJXBXJXCX>XhXJXJX                                                                                        ",
"                                                                                                    JXMXJXbXbXpXxXMX.Xh.s.K..XrXuXGXGXT.4.P.&.b.XX%X}.{.oXoX@.j :.v.R n.r $ D D.rX<X<X<XR U 4.C.rXrXR.! , $ 7 c o o 8 8 o O o $ X $ # = = # 1 b r = u y - - e e e = # X 1 3 L L = X $ o o , N N ' ' l ] o 8 8 ; 4 6 , 4 l c c 6 l c 7 4 7 o 8 7 7 ; ; ; o O 8 ] 8 , 7 6 7 o 4 5 x , O o ; 6 4 o o o $ 2 p M I B x M N b c 6 B t F ^ ^ ! ! F 2 $ 5 2 & > 3 & < p 3 a s v Z s M f C ;.;.0.7.9.9.9.{ { { { 7.T @ 9 } a < a a v M Z h h K { 7.8.;.;.E n & X 2 0 b ! ) Y ,.2.d.a...) U ~ M Z ~ f.h.f.a.<.h.h.h.K.L.L.x.f...~ / B m B B B x 5 p M B x 0 x p o & < 0 s 0 3 & @ & & < & X o o X 3 M v U ~ I F ! a B f.Y.K.<.f.C.h.p.p.T.R.wX9XwXwXwXrXdXdXdXdXdXuXuXdXxXuXiXqX=X=X-XqXiX=X=XtXY.U.&X X X2XzXD.^ %.D b F D t F #.w.w.:.w.:.R f M.*X;X1X`.F.(.I.+X-XM.U.Y.s.%.s.g.p.g.H.K.K.R.sXFXbXsXNXnXnXBXnXnXBXJXCXJXJXBXBXBXBXBXBXCXBXJXnX;X&XNXKXJX                                                                                        ",
"                                                                                                    JXFXNXF.C.&XrXC..XFXrXC.p.%.s.n.Y.%.n.xXD.m.q.b.XX{.oXoXq.j b.@X#.#.r = f.<X<X X X X:.R 4. XxXrXrXp.2 U %.F ; ; ; ; o o o # $ 1 1 t d = # = % = e u e @.e.e.w.g # - - L }.3X6.f $ . O , B Q ' ' Q ` 4 O 7 7 4 6 7 6 c c c c c l 7 6 7 o 8 7 7 ; ; ; o O 8 4 8 , , 7 , X , 2 5 , o $ o o ; ; ; , , 5 p P I x x c N b 6 2 ! t B ^ ^ ! ! ! 5 > 2 & o 3 v s 3 3 a Z M n n a C M s |  . .;.0.0.9.;.{ { { ;. .* 9 2.9 5 a s n s T h A T  .8.0.7.;.T T a O X > x ) a.) ,...>.a...B 5 0 n ) I M 1.1.h.<.a.h.s.x.K.qXkXL.x.C.L.a.a.) ! B B B M n B v B x > X + & < a a 3 & + & & > o o X X X 3 P m ~ ) I B ^ n ! f.Y.=Xf.f.f.C.s.p.h.E.R.wXwX-X.XwXsXsXdXsXdXsXsXsXsXuXuX-X.XqX=X&XqXqX=XpX=X=X&X=XtXzX Xv.b.$.#.D R b ^ s..X4.:.v.v.R d d M.<X;X;X+X*X(.F.I.*XA.P.L.1.%.%.g.s.g.E.P.n.K.R.uXFXFXkXiXiXNXnXvXNXBXnXJXJXBXnXVXCXCXBXBXBXJXhX*XhXJXJXJXJX                                                                                      ",
"                                                                                                      bXC.M.&XiX X.XHXHXLXuXh.s.C..XrX` .XaXXXP.&.@.<X{.B.b.b.:.4. X<XR = = D C.Y.D.%X XB.5.s.iXdXdXxXR.M ^ #.x o o o ; o $ $ o $ $ % 1 t r = u = 1 r e e e.|.e.6.r.k # k |.OX|.6XB.f > , , c ' ' Q N N V ; ] ] 7 4 7 6 l l c N V ] 7 6 7 o 8 7 7 8 8 8 8 o o 8 8 8 , 7 , X > & 5 , & , o O O o o 4 > 5 x ! ! n p b b c t > $ & ! _ _ U I U 5 > 5 = & 2 M I a < m T Z M s a Z M s T [ { 0.0.9.9.o.{ {  . .7.9 < a.< 5 a a s s K C A K  .9.0.8. .K T C 3 O O 2 Z } ..) ..1._ ! 2 5 a./ 0 U Z ....<.p...1.) ..h.R.'.h.h.f.p.h.C.a.f.j.h.j.! M N n b 2 & o + X + 0 5 3 & + + + x Z 2 X o o p Z n Y ( U M ) B / s.Y.uXn.f.h.n.h.s.h.h.K.R.wX-X.XrXsXdXdXsXsXsXsXuXuXuXrXqX-XqXqXR.U.=X=X=XqXuX=X=X<X<Xw.b.{.4.&.S S F n.n.=Xn.b :.#.L f #.I.2XyX;X>X;X_.(.I.+X_.V.C.1._ %.s.g.n.n.g.n.n.h.K.uXJXkXiXyXnXnXnXnXyXgXJXCXCXCXJXJXCXBXJXBXCXvXgXJXJXJXKXKX                                                                                      ",
"                                                                                                        A.f.v.D.n.P.LXHXLXLXxXrXxXzX X_ wX.XT.XXs.^ XXXX{.B.e.q.:.B.{.D.#.r 1 r r B.6X%X}.{.R  XrX.X.Xv.r d R t $ , 4 , $ o o $ 1 1 % $ & = # 1 1 1 u u r +.r.e.t.|.t.- t.OX|.OXOX3X4.b B l 4 6 N ' ' ` N 7 6 6 4 4 7 6 c N V c V c 4 6 , o ; 7 7 8 8 8 8 o o ; o 8 , > , o > o 5 5 > , ; ; o o , c 5 p M ) ! M b x x c 6 5 5 x ! ` ^ F ! I 2 2 M 5 3 < a J C n Y ( U J m n J n s C A A 0.9.9.9.0.{ o. . .z.s * ,.3 5 s s s C K A A A 0.9.7.9.;.;.3.T C < X O X 5 m / a.a.} / p 0 C.Z < ~ ..X.2...) m v v ) 1._ p.p.h.p.p.K.h..._ ..K.fXH.B c c c 5 2 > < o o + & & o o + & Z ..p o o & a Z n ~ ) U M ) B I p.Y.rXh.h.C.h.h.h.h.h.h.K.wXqXwXuXsXsXsXsXsXuXuXuXuXuX-XuXuXqX=X.XR.P.uXuXuX-X&XqXrXD.:.D.m.4.R b b %.n.K.rXuX^ r r d #. XpX-X=X*X>X;X;X;X_.A.U.k.&Xf.%.s.g.g.n.h.s.g.p.p.K.&XFXFXkXkXbXnXMXNX&XgXJXBXJXJXJXJXBXBXJXBXJXBXnXJXJXJXKXJX                                                                                      ",
"                                                                                                          D.v.iXJXrXwXGXLXHXrXwXrXuXp.n..X%.s.s.&.#.XX<X}.B.b.w.D.q.{. XXXH y 1 = D. X6.}.B.r b P.rXrXR 3 r r r t t c 4 ; o o $ $ 1 1 = $ $ $ 1 $ 1 u y e g 6.|.r.y.y.t.e.y.|.OXOX%X:.r F N l V V V z N ' 4 4 V V ] 6 V B B V c N V 6 6 , o ; , 7 ; 8 8 o o o ; o , ; o , o > 2 5 5 > , o $ o ; 4 x c x B _ U n B b x B B 5 t N ^ _ ^ F I P 3 5 m p a a a a n U E E T U C C J m C h s h  .0.9.9.o.{ { {  .N.A 3 ( 9 0 s s s A { A A { 0.9.9.9.0.;.7.X.T C < * X O O + < M ) <.a.U v < C 2.X.d.c.k...M < 9 M x n B ! h.h.f.j.p.j.p.! u.UXT.` ' _ ! B x c v 2 2 & , , X X + & x n 5 o X & a I Z ( } I n I m U p.P.rXn.n.C.h.K.h.s.h.h.P.rXrX-XrXsXuXuXuXuXuXuXuXrXqX-XrXuXqXqX-XP.K.rXqXuXrXuXuX-X X#.:.m.%.b y b p.n.n.rXxXrX4.R  X<X<X2X-X-X1X>X;X_.M.V.A._.V.=X>.^ %.%.p.n.h.n.h.h.h.K..XFXPXkXnXhXnXMXnX_.yXJXJXJXJXBXBXBXBXJXBXJXJXCXJXJXJXKXKX                                                                                      ",
"                                                                                                          &X<XJXFXJXxXwXuXfXwXwXwXwX` T.xXH.n.n.&.@.XX{.{.D.w.B.{.&.G b.{.F u t 1 #. XD.B.D 1 r d U v.:.+.@.D u y 1 l 4 4 ; ; ; , $ 1 t t , 1 t ; t y d r - k r.OXOXOXOXy.y.y.OXOXOX}.U N N V V l ] ' ' ' V l V c 4 ] B B N V V N V 6 6 , o 8 , 4 , ; 8 8 8 o 8 o , 8 , & o 2 x x 5 $ , , $ o ; 4 p x b B %.! M P x x Z F p B F ^ ` ^ B P F 3 a m p a s 0 g s M T T T Y C C C C f s s h {  .{ { A h h { 0.^.[ 9 ( a p a a s A [ { A { 9.9.9.9.9.9.N.z.3.Z v v a < < 3 < + X 9 C ..} | | | [ c.l.2.3.| 0 0 < < v ! N B ! ! ! p.p._ ` _ j.j.u._ ! Z B N x c 2 5 0 6 5 , o o + p p 2 + X & a I Z / ,.E n m Z P h.C.-XC.C.C.h.C.f.h.h.K.R.uXrX&XqXuXqXqXqXuXiXiXrX=XqXqXqXqXqXuXqXK.K.uXsXmXaXaXwX.X XB.^ S y F b N s.n.K.R.uXzXpX5. X<X&X-X=X-XyX>XV.k.5.M._._.d.C.>.^ ) %.p.g.n.E.T..XE.K.Y.kXPXFXbXhXNXMXnX*X_.BXJXJXJXBXJXJXJXJXJXJXJXJXJXJXJXKXKX                                                                                      ",
"                                                                                                            &XJXHXLXLXwXfXwXfXaXdXK.g.9XfXxXaXxX.XcX<XD. X}.q.v.$.d e b.<X4.1 1 $ D D.4.D = 1 d t & r v.B.w.:.R y 1 t 4 t 4 , ; 4 $ 1 1 t & 6 4 , t N y d r r |.OXOXy.y.y.r.y.OX|.OX%X#.t ^ _ _ Q l l i.i.` 4 ] l 4 l B B B N V N V 6 6 , o 8 7 7 7 7 , 8 o o o 8 o , 6 > o p n x t , , , ; o , c p B B B _ ^ B B ! P B ! B F B B U ! B ! / 5 a m a a a 0 C Y C M C E E J J C C C f s K {  .{ { { { { { 8.!.[ 9 >.M v a s C T 8.8.{ o.Q.9.9.9.9.Q.!.N.z.[ | T ~ U x s v 0 v ) < X v U ( ( X.3.c.X.3.2.Y Z 0 v 9 Z / 0 c 0 B N c ! ` ` ! ` _ u.` ! _ ! Z 0 0 p 0 x p , o > < p 0 & X X 3 s I Z ( -.) m m m b p.s..XK.C.C.C.C.p.h.C.C.K.qXrXqXrXqXqXqXuXuXuXrXrXrXuXuXrXuXuXqXqX&XR.uXdXdXdXdXaXwXrX.X.Xs.` G b B n.K.K.R.pXpX<XM.v.<XzX-X=X2XU.V.1.V.I.A.I.d.) a.p.^ U _ p.p.n.T.R.R.R.-XK.-XFXJXbXNXBXBXnXiXA.vXBXJXBXBXJXJXBXJXJXJXJXJXJXJXJXKXKX                                                                                      ",
"                                                                                                              tXKXsXR.xXSXdXdXaXxXi.R.fXfXuXdXrXrXrXcX#.b R D d d d d @.XXb.r t 1 # 3 & 1 t 1 , 1 = g w.r.e.r.r.L r e r 1 1 $ $ : 4 , , 1 1 c 1 t 1 y d d r r w.y.OXy.y.r.=.r.OX|.|.@Xw.m 1.f.%.p.` l ! K.h.V l l 7 V B N B Z N V V V 6 8 O ; , 7 ; 7 7 8 o o 8 , ; , 6 , X x n x 5 & o , ; $ 6 p p n M B F ! U ! ! ^ ! ! ! F B B ^ ! F ! I a v I a 3 a f Y U Z M n m Y J C C J C C A { K  .0. .o.{ { o.0./.;.w 5.~ s s v A ;.9.Q.9.o.9.9.9.9.9.Q./.Q.7. .;.3.3.} U M a m B f.n X o X < M } X.X.3.X.3.X.| } ~ Z ~ ! n 2 v ~ B M B l c ! ! ` B ' _ _ _ B v v 0 0 a p < + + < 2 5 & X & < s Y Z ( } ( U n P x 1.1.Y.R.C.h.Y.P.h.h.C.f.n.R.qXuXqX-XqXqXqXuXuXqXqXuXuXqXqXrXrXuXqXU.U.R.uXsXsXdXrXuXtX=XrXn.^ F t %.K.K.h.K.qXtX2XtX5.&X2X&X>XU.C.d.F.@X_.f.d.F.*XtXn.^ ! ^ _ n.E.R..XT.R.R.R.R.dXPXMXbXNXNXNXpXU.F.nXNXnXJXJXBXMXJXCXJXJXJXJXJXKXJXKXKX                                                                                    ",
"                                                                                                                -XwXsXaXuXaXxXdXR.j.fXuXaXdXwXuXrXrXcXG u y S S d j d L B.{.e r b 1 1 1 3 t t t 3 r g w.|.e.r.e.+.e.+.d D r % % $ 4 4 1 & a 3 $ y # # = = % 1 B.OXy.OXy.e.e k e.}.G.%XM.J <.<.<.p._ F 4 i.T.` ] ] , c B B ! B v B B c 6 ; o ; ; 7 ; 7 7 8 o o 8 , , , 5 2 o a a p 2 & , 4 , $ 6 c n F ! B c F ! ^ ! ! ! ! ! ! ! ! ` ! B ! U 5 a ( C 9 a J ( U m M s 0 f C J J C C T [ T {  . . .A h h { 9./. .g N.} 9 v A [ 8.0.9.9.0.0.o.0.9.9.Q./.Q.9.9.z.8.z.l.( J C m M p.x < 5 > X O @ < s ~ ( X.,.X.X.} ~ ..} / Z Z ~ Z ! ` ] , 7 0 ! _ B p.h.B 2 2 0 3 v a 5 & o < 0 2 & & X & 3 s E U ( } ) U x P M >.f.K.P.C.C.Y.Y.C.C.n.h.C.P.Y.-X&X-XrXrXqXqXuXqX=XqXuXrXuXrXrXuXuX=X&X&X&XU.-XuXuXrXqXuXwXs._ N 4 ^ n.n.p.P.=X=X1X-Xd.M.@X2X+XU.Y.A.&XI.2.k.=XpXpXtXY./ ^ >.p.K.R.R.R.rXwXR.T.K.qXPXJXMXbXNXMXvX>X*XhXhXtXvXBXCXBXJXJXJXJXJXJXJXKXJXJXLX                                                                                    ",
"                                                                                                                      xXdXaXrXuXs.P.aXrXdXaXwXwXuXxXxXF b S S S G j +.e.r.@.= u 1 & = > 1 1 t t 3 3 d B.|.e.|.r.e.B.b.@.:.#.r & = 1 t t & a 1 1 b 1 . . # # % R |.y.|.OXt.e e g g E G.5.D 1./ 1.f.p.p.c c p.j.c 6 ; c N B B c c V B c 4 , 8 8 , 7 ; 7 , 8 o 8 , 7 , 2 c 5 & x a a 5 & , 4 , , c B ! ! ! b b ! _ ` F F ! ! ! ! ! ! ^ ! B U U 3 n Y ( C C Y I U U P s 3 s M C U J K T | K { { { { h h {  .9.Q.{ g Z.-.a C T ;.9.;.9.[.9.0.{ 0.9.9.Q./.Q.9.Q.!.8.S.3.} ,.( M a ) B v ~ U Z m 0 + @ @ + 0 C Y } ....a.......) ~ ! ! Z x 2 6 ! ! ' ! _ j.6 > + * n a s p & o < 0 5 > & O o 3 s Y U Y ) _ P s P M ! f.h.P.K.P.Y.n.p.h.K.n.n.f.Y.-XqX-XU.qXrX=XuXuXqXuXuXiXsXiXiXuXuX=XuXqX&XP.U.uXuXqXqXuX.X%.^ t t %.P.K.p.A.-X&X&XY.A.f.=XtX=X&XU.Y.A.Y ) &XhX2X2XbXbXf.) >.>.p.K.Y.wXuX&XR.R.R.-XuXJXFXbXbXNXbXhXyXyXyX>XgXJXJXBXBXBXJXJXJXJXJXJXFXbXbX                                                                                    ",
"                                                                                                                      PXxXsXdX.X%.wXxXaXuXwXaXrXdXxX.Xr = y j #.@.q.}.B.r.e.:.H % g 5.C.#.$ 1 t r = +.B.w.B.|.|.r.B.B.:.#.B.#.= = % 1 1 r 3 & d S b 1 # % % % r t.|.G.r.j g $.#.D d r f / 1.! 1._ p.p._ N B h.! 7 o c N V b 5 c 5 c ] 4 ; o 8 7 7 ; 7 , o o 8 7 > 2 5 x 5 & v M x p , > 4 , 6 N B _ _ ` x c ` _ ^ B B ^ ^ ! B P B ! ! B U ~ 0 M ( ( J J T U C Z Z s 3 M s s C T T T [ {  . .o.{ h h { o.0.Q.{ s Z.3.C C [ z.9.0.[.[.[.9.{ 9.9.9.Q./.!.9.!.!.c.!.z.l.l.3.~ I / x M <.<.1.../ Z ~ v 9 * & * < 9 a m Z ~ ) ~ ~ ~ _ ..! U _ 1.' ' ! _ _ B > < < 9 s M p & & 0 x 5 2 & X o 3 s Y P Y ..1.~ M U m M f.C.wXP.C.C.f._ a.K.h.h.f.R.-X-XR.uXqX.XR.=XuXuXuXiXuXuXqXuXrXuXuXuXqXwXR.-XqXrXwXqXrX.X_ N , F g.s.n.%.s..XrX-XU.Y.) Y.-XY.C.V.} f * / I.U.pXnXyX=XR.C.C.n.p.%._ h.U.-XY.R.wXwXuXNXFXNXbXbXkXNXbXnXyX+X*XMXBXBXJXJXJXBXBXJXKXMX>X-X=XLX                                                                                  ",
"                                                                                                                        GXxXuXs.P..XxXxXaXuXwXrXdXxXT.#.D H y j $.}.|.r.e.r.}.}.L +.b.6.d = 1 t g g B.G.B.|.r.t.|.r.|.w.+.b.5.f = t = $ d $ # y z b u # # r d g e L +.r = d #.s.#.d = a 1.p./ 1.p.C.h.p.! 6 _ p.7 o c V x b p b x V c 6 8 8 , 7 7 , , ; o o , 2 2 6 5 n p & M m n a 2 2 5 4 c B / >._ _ B M _ _ ! N N ! ! ! B F N F U B ! ( 0 s | T T Y Y Y Z Z Z s 9 C n s C T [ { { { o.0.0. .{ O.{ o.0.Q.{ s ~.3.A A 7.!.9.0.9.[.Q.9.o.0.9.9.Q.Q./.[.Q.Q.N.^.!.!.Z.k.2.,.~ 9 n <.>.} >.>./ <.,.} ~ Z M a 3 < & & + + 2 v B ~ _ ..~ Z x 6 V ' ' ! 1.B p a 9 0 0 2 & > x x 0 0 > & & 3 x Y Z ~ >.<./ m U B n f.C.qXR.h.n.K.f.) f.h.f.C.C.R.R.qX=XP.P.-X-X&X-X-X-X-X-X-XrXqXqXqXqX-XY.Y.R.rXuXuXuXdX.X` z ; ! g.%.p.h..XrX<X&X2X.X<.A.L.1.f M ) M.Y m 2.M.1.,.>.a.iXJXFXHXFXqXf._ h.R.C.K..X.XwXmXHXFXmXbXbXMXNXnX>XI.I.gXvXnXNXBXBXBXJXJXKXMXeX-X=XLX                                                                                  ",
"                                                                                                                        HXzXD.&.n.%.m..XdXaXwXrXrXrXv.{.XX{.$.*.}.}.r.r.r.y.|.}.B.@.k :.L j - = 3 f w.B.w.@.g # w.|.e.|.:.:.w.d 1 3 = 1 1 . 1 S G S u % % r b M f = = # = 1 1 R 4.b a x 1.n.h.h.f.>.p.1._ B B g.l ; c b b b x B P B c 6 8 ; 7 7 4 ; 8 8 8 o , 2 5 p 5 M a < M M M x 2 > 5 5 B ! B _ p._ B B _ _ ! b b ! F F B ! b B U F ( ) a s } U T E J Y Z Z ~ M 9 M C T K T T [ { K  .o.{ { { { {  .9.Q.K s ).8.K { z.z.9.9.[.9.Q.[.o.0.9.9.Q.Q./.[.Q.Q.!.^.!.!.~.Z.c.,.~ a m f.a.>.) ) U } 1.<.<.,.1...~ I m M 0 & + O X + 6 p 2 2 > + O 8 6 b Z B v x 0 9 & > + o + + X + > & & 2 a I U / } >.) m m B n s.h.R..XK.n.P.L._ I _ s.C.C.P.L..XC.K.R.qX&X.X-X-XR.&X-XqX-X=X-X-X-X-XR.&XuXsXsXwXfXrXh.N 4 ; Q i.n.g.P.qXqX-X XA.<.I >./ P M.iXBXJXVX>X+XI.f.f._.NXMXHXKXJXFXJXHXR.f.C.Y.L.-XuXuXGXJXFXMXNXNXMXbXtX*XI.&XhXvXtX_.*XhXJXJXJXJXJXJXbXbXJX                                                                                  ",
"                                                                                                                        GX.X%.s.m.%.&.m.<XuXwX.XrXrXv.XXcXXXb.{.}.b.|.|.|.y.y.|.e.t.+.r.e.e.d # % - = r r # # - @.G.r.|.+.L L = = $ > 6 # . c G y : # # = # 1 b d p t t 1 t 6 1 &.b t M p.h.h.L.C.) >.p.p.%.N Q B , t V N c b B ! U c 6 8 , , , 7 ; ; 8 , , , 2 p x 0 n s < M n m n 3 > t 6 ! ` 2 / C.p.B B _ ! ! b b ! P ! P U n B P U _ / a n | J f T J T C C ( M 9 n M U C T T T { A  .o.{ { { { K { 0.N.K s ).z.[ 7.z.9.9.9.[.9.Q.Q.0.9.9.9.Q.Q.Q.9.!.Q./.].].!.).~.c.d.X.a m f.f.2.>.) U ( ,.....,.d.k.d.l.l.a.2.2.} Z 0 < X o 0 B 0 5 5 5 o X c B p 0 * O O . . O X O O X X X & 3 a ~ Y Y ) >.) Z B P n ) n.Y.R.K.h.n.U.C._ ! ` / >.p.h.h.h.n.h.h.n.K.K.C.R.Y.P.-XR.R.R..XwXqX-X.X-XqXuXwXuX9X` t $ 6 %.s.P.XXuXqX-XP.4.n r s A.=XhXBXMXJXnXBXJXBXCXJXMXJXJXJXJXJXBXJXKXJXNXh.p.C.K.R.xXFXmXFXJXMXNXMXbXhXgXyX>X1XgXvX1XA.A.*XnXJXJXJXKXKXKXJXJX                                                                                  ",
"                                                                                                                          4.m.m.$.q.m.R n.xXrXwXdX.X XXXXX{.D.XXXX|.y.y.|.y.y.r.e.r.e.@.@.e.t.d = = % = = = = % r 6.G.OXw.r - = & > 5 $ X $ 4 y u S S 1 $ . . $ $ & 1 $ 1 $ , 4 ` ! 2 b C.L.Y.U.Y.C.f._ 1.^ B c B $ 6 c b t B / Z ! c 6 , ; o 8 , , , , , o , 5 p x 0 n a * M M m n 3 3 x 5 ! ` M _ C.1.B B _ ` P x b ! ! ! F B B m M U ../ a s ( Y M E J J J Y Y s a C f C f | [ K [ A {  .0.{ { { { { { 8.[ g ).z.7.z.z.Q.9.0.9.9.Q./.9.9.9.0.[.Q.[.9./.!.].].^.N.).`.7.k.k.s Z V.C.d.<...I } ....1.,.a.d.k.A.V.x.x.A.V.V.x.1.) ) / v 3 n n 0 & o & > 3 O X & > o X & < * X X O . & p a / ( U Y ) >.P M m p n h.R..XK.P.C.Y.L.f._ / / _ _ ! B x n c M ! P B ! U n B f.s.%.^ ) %.h.Y.-X.XR.wXwXwXK.N 4 . z s.s.h.n.n.f.^ 3 n s.<.>.JXNXMXMXBXJXBXJXCXBXCXNXNXMXMXJXJXJXJXJXMXHXJXiX<.>.Y.qXsXmXsXMXJXFXNXNXhXhXhXnXvXhXyXnXgXF.V.+XnXJXJXJXJXJXJXKX                                                                                    ",
"                                                                                                                          %.m.q.q.q.$.#.D.rXrXcXwX%.P.XXXX$.R q.$.@.e t.OXy.|.r.r.r.r.t.=.W :.:.D = 1 1 3 3 1 # # r :.}.-.- # X 2 5 & O . X $ $ # z Q ! F 1 X $ X o o . $ 1 4 6 ! _ F / A.L.Y.A.&XU.C.p.p.! ! b c , 6 c V c B 1./ P b 6 8 8 8 8 , , 7 7 , & 2 0 x M p x v * s s n a 2 5 a p ! ~ I f.C.f.! U _ _ F B x ! U B ! M n Z Z ~ >.) a s | T | ;.| J T | } n s n m J T T T C K A {  .{ { A { { h w s 9 s `.l.8.Q.z.Q.9.0.0.9.Q./.9.9.9.0.Q.[.9.z././.^.$X$X~.).~.V.c.k.s Z L.V.x.k.d.} ......a.2.2.k.d.l.d.l.x.V.V.x.x.V.L.a./ U v M M p 2 5 n X O X 0 a a & & 3 M q * * @ + + 0 a ( } Y Y Y >.I I U x 3 p.h.Y.T.K.h.h.C.h.1.) p._ ! x p n B U / _ %._ U B b n B ! p.R.K.h.` F p.R.wXwXqXK.! Q b $ F ` F N F m & a s. XtX#.=XNXbXMXCXCXJXJXCXBXVXVXCXCXCXCXBXBXMXMXMXNXbXMXFXiXf.f.R.qXsXsXFXFXbXhXhXCXvXvXvXvX1XyXgXgXyX>XnXJXJXCXMXJXJXJXJX                                                                                    ",
"                                                                                                                          D.q.q.b.w.@.#.4.&.m.cXXX4.rXrX%.D H H L L j e.|.|.|.r.y.e.r.y.t.t.t.:.H d b b N t & & # # # 3 - X & 3 2 & o , $ . o o . $ ; , b F 4 X X o o 6 6 F ^ b c s.#.<.C.A.V.&XeX-Xh.! P F ! c , 7 x b b x B ! P B x 2 o 8 , 8 7 7 4 2 , + 5 x x m s n v & n M M a > 3 p a U U / f.C.h.) ! ) _ ! P B ! F ! ! M M U ) ) ..} a s } ,.-.} 3.[ T ;.X.C C C f C T E K h A h {  .{ { K { s s h g @ s `.z.z.Q.z.Q.9.0.[.[.Q./.9.9.0.9.Q.[.9.z././.].5X:X).;X`.A.k.k.v M I.L.x.k.c.X.X.a.2.a.a.2.d.k.k.l.k.x.k.x.k.x.x.A.M.) I Z m v a 2 a F X + a v 0 0 < * s A s 9 * 3 + + 0 s ( } | | J ..} ) / I 2 ) 1.h..XR.T.K.E.K.P.C.p.b t c P ! _ f.f.p.p.) ! P ^ ! N c p _ T.wXn.U F F h.R.E.p.B F 4 $ 4 t ^ U a 1 F  XzX.XC.v.pXNXMXJXJXJXJXJXJXCXBXCXCXJXCXBXBXBXBXBXCXJXJXFXMXMX-Xf.C.R.tXiXbXbXbXNXbXbXyXyXyXnXgXyXgXgXvXvXNXnX=X-XpXMXJXJX                                                                                      ",
"                                                                                                                        {.s.m.b.q.$.@.G @.@.^ n.v.P.rXs.D H R +.L j L |.|.|.e.r.|.r.r.y.y.r.L d t t F ! ! t $ & < # X X X > t > o & > 5 , $ $ . . $ $ o , t 1 $ . 1 t c 4 l F F b h.1.<.C.C.<.L.Y.A.~ I ` F F B 6 $ p N p x ! ! B P B 6 o 8 , 8 7 7 6 2 , & 0 n s M s v s & n M M f a M s a m I / f.h.a.) ! / _ _ ! F ^ ! _ ! B n Y 2.,.,.<.a s X.,.-.;.c.-.[ -.X.J T T f m T ( T C A h { o.{ A h A s A l.S.C s `.z.z.Q.z.Q.Q.9.[.[.Q./.9.9.0.9.9.9.9.Q././.$X5X:X#X:X*X`.V.x.M C `.L.A.V.k.X.2.k.c.d.k.d.5.V.S.k.k.l.d.x.A.A.V.C.V.a...Z v n x 5 a U & a Z v 0 p 9 * C A s h h 9 @ & a m ( | } ( ( ,.1.<.) / n 6 h.%.f.K.K.K.K.h.s.%.! B U ` _ p.h.K.h.p.p.p.%.%.F F B N 4 4 ` K.p.t ^ ! 1.h.p.F N ^ t o 1 c d 1 a 4..X-X2XY.1.=XCXMXJXJXCXJXJXJXJXCXCXJXJXJXCXBXCXCXCXBXBXJXJXJXNXHXNXY.C.K.R.qXpXiXiXbXNXbXiXpXyXvXyXyX1X;X;X2X@X_.*XpXiXbXJXJX                                                                                      ",
"                                                                                                                      D.&.^ G @.$.*.j j H @.4.&.&.4.n.m.4.s.&.#.@.j 4.%X}.|.6.r.|.e.r.y.OX@.- e b l b t 6 2 > & & = & 3 x t $ o 2 2 2 5 4 o O $ . o $ , o $ 6 c $ # t t t l t N F ^ >.s.f.C.C.C.C.>.) f.C.f.! F V o 6 F c c B B M B Z 5 o o , , 4 7 7 7 , > a M n m s n n < m M n M C I x a M I ) f.k.2.) ) _ _ _ ! B ! ! ` ! M M } 2.<.,.<.a s 3.-.| 5.l.;.[ | | C T T M J ( | E A A K { 0.o.{ { h h { 3.N.K q ].z.z./.Q.Q.Q.9.9.[././.9.9.9.9.0.0.z.Q./.].$X5X:X#X:X,X*X`.L.Z U _.L.I.L.k...d.I.I.x.A.V.2.l.S.k.2.5.d.V.I._.V.V.V.2.,.U M Z v x a P & n m s s a 9 * K K s h h 9 @ < v I ) | } E Y } 2.a.>.>.) 2 ! s._ ! P N B M b B B B F ! _ %.1._ _ _ _ %.^ F N N N F N c N ^ F 6 F %.1.` ^ F p.%.1 . $ $ 1 #.4.f.v. X-Xv.4.ZXJXCXJXJXBXJXJXCXJXJXJXJXJXJXCXBXCXJXJXJXCXCXJXMXMXKXJXiXL.C.P.U.Y.-XtXpXtXtXbXyXpXvXtX;XU._.&X@XA.A.2XNXpXpXHX                                                                                        ",
"                                                                                                            .X.XY.C.v.%.R R G H *.$.H H H H s.%.S 4. XzXxX<Xs.#.#.D L w.%Xw.L B.r.w.r.G.|.k r r t z b t 6 t 2 o & 3 n p , o $ , 6 6 1 ; 1 , $ $ $ $ X $ $ ; F G S # : t b F N p c F p.s.<.1.<.a.f.%.f.R.C.P.f.c , $ c B b v B U B m B 6 o 8 , , ] 7 7 > , > a M M m s m M 3 m M M m U U n M U Y } 2.f.<.~ / ) / _ ! B ! ^ I I n J 2.2...2.X.0 s d.,.[ 3.z.8.[ | T A T | J E } | [ K K { ;.9.o.{ h h A {  .3.C h $Xz.z.Q.Q.Q.Q.9.Q.Q./.].z.Q.9.9.o.0.Q.Q./.$X:X4X5X$X1X,X>X'._.Y U *X'._.I.x.a.x.'._.A.A._.k.a.V.k.>.a.k.x.A._.x.V.I.2.} ~ Z Z Z M v P < m Z C s a 3 * K T K K A * @ < v ~ >.-.} T ( >.<.h.a.) 1.p , F _ _ ) ! ^ ! ! ^ ^ ^ B M c c p 4 t t > 4 4 , t 4 F _ N ! Q N b N c N ! c B ! N 1 . u ^ D = R s.f.P.-Xs.^  XbXBXJXJXJXJXCXCXCXJXJXJXJXCXCXCXBXBXCXCXCXCXCXJXJXJXMXNXJXtXC.f.C.n.U.U.&X=XiXpXiX=XU.&X=XL.C.a.>.M..XbXJXJXJX                                                                                          ",
"                                                                                                        .XP.P.P.v.s.^ 4.4.G G G $.D.$.G H G &.R R cXzXD.4.#.R %.^ 4.L d D j d B.B.B.}.}.:.g p b F F b d d a * > s x 2 o $ , , 6 t ; 1 l t ; $ $ $ $ o $ $ t ^ Q S y : 1 1 t t t , c ) _ / %.1.C.f.) C.K.p.K.p.x , , b ! x x B Z ~ U ! 5 o , , 7 c 6 2 7 > & p n M M x Z n < M M f a M U M M P Y ,.1.d.<.C M ~ >.%.! M P ) ! ! n Y d.,.3.a.,.a s ,.| [ 8.l.l.| [ K A T | T -.3.| | K T [ 0.9.o.{ h h { { ;.8.A h ].N.9.Q.Q./.Q.Q./.Q.!.].z.z.9.0.{ 9.!.Q./.:X5X4X4X:XjX>X,X'.'.T Y *X_._.I.A.k.A.&X_.S.V.*X_.k.V.k.>.l.V.l.V.U.x.x.V.a...Y Z U U m v m < J Y U 0 x 3 * U [ { K s @ @ 3 n ~ 1.2.-.} ( a.2.1.f.) x & 2 , , x U p.C.K.K.R.R.-X-XwXR.T.h.%.^ ^ F t , 4 4 4 4 t N ` Q b l 4 l F ^ b t 1 $ # b n..XXXS u D %.D.4.H v.MXNXZXCXMXCXJXVXBXCXJXJXJXCXCXCXCXJXCXCXBXBXBXBXJXMXJXJXJXMXbXU.f.I / f.A.Y. X=X&X=X=X&XL.f...a.C.qXbXbXbXbXHXJX                                                                                          ",
"                                                                                                        n.n.n.n.C.4.D.&.R @.@.@.&.m.$.R &.m.<X%.R 4.4.#.R :.$.4.%.s.4.#.y e r d :.B.}.w.d t p l b F F D t - 3 J a & o , > , , 6 1 4 z z 4 $ o o $ o $ X 1 F ^ S z G t t t 6 4 t c t ^ ^ c ` p.s.f.f.C.L.h.j.%.N o o B _ x N ~ ! U ~ ) c o , , 4 c 6 6 2 > & 0 v n M s Z M < M m M s J ) I M Y ( -.5.f.2.P v U <._ U a b I I I M Y 3.3.a.2.2.s s | T | 8.N.8.;.[ K A T | [ 8.7.X.[ A { [ 9.9.o.{ O.O.{ 0.0.;.K A /.z.9.9.Q.Q.Q.9./.Q.Q./.z.z.0.{ O.9.].!./.$X$X4X:X:X4X,X*X'.'.U ( =X*X>X*X_.F.A.>X>XI.V._.>XI.V.k.2.k.V.d.V.U.A.x.d.3.2.~ Y Y m Z s C 3 U ~ C a a 0 * T T g w @ @ & 3 m ) 1.2.-.( E ,.} a.>.m & 5 > , > _ qXxXmXsXuXuXwXqXaXrX-XwXdXsXwXK.p.^ ! N 6 N N t l b N t Q N b ^ _ i.^ 4 $ t m.{.n.{.&.d r y d y H m. XbXBXCXZXBXCXBXJXCXCXCXJXCXCXCXCXJXJXJXBXBXBXBXCXJXJXJXJXMXFXuXh.C.>.U >.h.Y.L.C.h.f.p.1.C.=XmXFXFXmXsXsXiXmXFXJXJX                                                                                      ",
"                                                                                                                 XD.  %.s.&.&.G &.&.m.%.%.{.cX&.v.4.q.v.:.:.:.4.s.D.D.4.d = # % d j D d b N l N b M b a 3 d f r $ & 6 t t 6 , , 1 t t 1 $ # # 1 3 $ , o $ b b t b S b 4 6 4 > 7 t N p.^ c N c c / p.C.K.h.f.p.c o , B ) c B ) ~ / _ 1.x , , , 7 c 6 2 2 > & 0 v v a p Z M & M M C C U Y J J ) Y E 3.d.2.I M M / ) ! M M m U U P ( X.3.X.~ X.0 s ,.| ;.8.~.7.;.;.T K T |  .N.l. .| K {  .9.9.o.{ { o.o.9.8.;.[ A ].8. . .0.0.o.0.!.Q./.].Q.Q.0.A A 9.].Q.!.].].5X:X#X4X,X*X=X*XU ( hXkXgX;X>X*XI.*XtX+XV.F.>X;XI.V.d.k.d.f.C.Y.A.a.c.d.5.} Y Z Z Z M I < C ~ C v x 0 & T Z @ * @ X * 3 U ..>.<.} } ) d.k.f.a 2 5 p & c h.xXGXmXsXuXqX-X.X.XwXqXqXqXdXuXxXqXs.%._ ^ _ %.%.^ b N z Q i.i.b p.s.g.n.t . G s.^ m.D.b.4.y S d y H &.m.rXNXBXBXCXVXCXJXCXCXCXJXCXCXCXCXBXBXJXJXCXCXJXJXJXJXJXMXMXMXiXL.U.bXU.s.P I F M m %.P.C.R.JXPXFXPXPXPXKXJXLXFXmXFXHX                                                                                    ",
"                                                                                                                n.    -Xs.4.^ s.P.&.s.s.%.XXcX$.XXv.j i $.R #.v.4.C.#.R % - = = R b & 1 t t , N B U t > b n 1 & t N N ^ ! N 4 ; 7 , $ = # r :.<XY.D # $ $ 1 4 $ z F b t t 4 6 l b c N c B l 4 b p.a.>.p.1.p.j.6 , > ! ` V P / ! _ >.1.n & & , 7 c l 2 > > & 0 s a a 0 ~ M & v m C n m I / P / ( } | 1.d.<.I a m ) ) x a P / I I | ;.3.| | 2.s s 5.;.;.8.Z.l.;.| T K T | [ z.N.;.{ A { 0.7.9.o. .0.7.8.N.z.~.| h /.z.z.9.0.0.9.Q.^.!.Q.].Q.Q.9.o.0.Q.].!.!.$X#X4X5X:X1X].,X;X;XZ ,.kXNXyXhXyXtXI._.yXtX_.S._.>X;XA.d.d.f.x.A.I.A.a.d.l.3.Y Y U I m M I < I ~ C C M a & U C @ a < X < 3 / <.1.a.1.} } l.k.a.a n p 4 F .XmXsXmXqXh.C.-XqXP.R.sXsXsXsXsXuXdXuXrXR.p.g.n.n.H.n.i.6 N H.j.s.F ^ n.K.R.n.t 1 b %.b.D.b.{.#.y d H %.m.%.m.NX<Xn.#.5.iXCXCXJXJXCXCXCXCXCXCXCXJXJXJXJXBXBXJXBXJXJXFXbXNXY..XY.a.) ~ %.C.n.^ Y.sXK.E.PXGXPXPXPXPXJXJXHXHXFXFXFXFXFX                                                                                ",
"                                                                                                              K..X      P.p.n.rXn.%.%.%.&.P.cX&.$.$.@.S d S R 4.v.C.4.:.:.@.g - r F t t 6 c 1 t t n 5 p c $ , c F ` F Q ^ N 6 7 7 4 1 = u b.%X X XD.d 1 $ 1 o $ 4 N N t c b ! _ g.p.p.B N N N ^ f.<.I %.n.p.B > > 1 ! ` v B ~ ~ 1.>...a o o , 7 c t 7 > , > 0 a n n p I M * M m n m I I Y U ) ( } ,.d.d.<.>.I U ) / a n U / ) ( | ;.3.,.3.2.s s 3.;.7.l.N.7.| [ T T | ;.[ ;.8.7.{ A { 0.9.9.0.7.7.;.z.z.S.S.| T ].!.z.0.9.Q.Q.9./.!.Q.$XQ.[.[.z.z.!.].!.^.5X#X5X4X$X:X:X,X;X_.Z ( hXBXpX>X;X(._.I.1X>XtX_.I.&X_.I.d.d.k.k.k.L.A.d.d.2.,.~ Y Y ~ Z v Z 5 ~ Y C C C a * M a.p p < X & p >.2.2.f.,.>.| 2.d.,.a c p p.aXxXsXmXNXC.<.1.K.qX-XuXxXsXsXsXsXuXuXuXuXuX.XwXwX.XR.T.g.l N g.P.g.Q %.P.R.wXqXK.^ r S m.D.D.q.b.d S m.XX.XXXm.s.^ S d D D.JXCXJXCXCXJXJXCXJXJXJXJXJXJXJXJXJXJXJXBXNXHXMXJX-X<.) <.C. X&XU.>.` uXqXT.GXLXGXLXPXLXKXJXLXJXJXHXHXFXFXFXGX                                                                              ",
"                                                                                                              n.              HXm.&.R #.G s.rXR H H R @.H ^ n.v.D. XD.B.3XOXr.w.d = t b t 1 2 2 3 1 b t $ , V B N ^ c c l 4 6 4 4 4 1 % :.b.q.@.+.v.y # 3 1 & 3 1 4 4 t N ! %.K.wXT.K.p.i.^ F b ! U P 1.p._ c o , 4 ! ! b ! _ ~ ..) ..x o & , 4 c t 2 2 2 2 a v n n a U a & v v M C Y I ) ( ) ( -.3.d.d...) ) ) ) I n m U / >.Y 3.3.,.| X.X.0 s 3.3.8.8.Z.8.;.[ K T X.X.T | 3.8.{ {  .0.7.0.7.7. .;.8.!.~.z.| A !.8.8.z././.Q.Q.Q.Q.Q.$XQ.Q.Q.Q.[.Q./.!./.4X$X5X5X$X:X1X,X,X_.C } BX>XL._.I.V.V.l.*X>XjX>X_.*X&X_.k.2.k.k.d.A.L.k.d.2...| ( Y / I M Z 5 U Z C U C n < @ I B 0 X X + p 1.<.2.k.>.,.} d.f./ 5 p P aXGXrXuXmXqXf.f.f.R.uXqXuXrXuXsXdXmXmXsXuXqXuXuXfXuXdXuXR.n.Q z g.J.s.%.H..XwX-X-XrXqXv.1 S v.{.b.@.S S S &.XXP.D.4.^ #.#.D 1.BXJXJXJXJXJXJXCXJXJXJXJXJXJXJXJXJXBXBXBXFXMXNXxXf.<.=XpX=XqXqX^ B R.PXwXwXLXPXPXLXPXLXKXLXHXJXLXJXLXJXJXFXmXmX                                                                            ",
"                                                                                                            K.                  <Xv.4.&.%.s.<X#.S G G D b v.cX4.:.w.:.t.B.|.B.}.}.D D b b 1 = = o 3 1 . , 6 7 t 4 6 , 4 $ ; t 4 4 l y d w.q.+.+.+.D = 1 s.v.m 1 , 4 t F F ` _ K.uXR.P.T.9XP.s.! M x x U _ ! , o 4 6 ! ! B ! ) ! I / ..v o $ , 7 5 c 5 5 2 2 x M n M v ~ a & v n C M J I ) ( I Y 2.d.d.d.} Y / >.%.F U P P >.>.Y ;.5.3.,.3.,.s C 3.3.8.3.N.8.3.| T [ X.| [ [ [ 3. .{ ;.0.0.0.z. .{ 7.7.Z.S.N.X.s 8././.N.!.$X/.9.Q././.$X!.!./.!.z.9.!.!.^.4X$X5X5X:X4X:X,X,X>XZ } hXL.I.>XtXhX>XV.+XyXyX>X>X*X>X*XV.<.d.x.d.L.I.x.d.2.2.,.( Y / I Z U 3 Z Z T Z C m 0 X + & X . + & v a.2.2.x.>.2.>.5.f.I 5 p 1.uXaXuXFXmX-XC.h.s.P.qX-XqXrXsXkXmXsXqXqXuXuXuXsXaXdXdXuXrXwXR.%.Q i.g.T..XwXrX-XqXR..X=Xd # d &.H y S &.S y &.%.%.%.&.s.n.1.R =XJXJXJXJXJXJXJXJXJXJXJXJXJXJXJXJXJXJXJXKXFXFXbXf.-XiXMXbXiXxXs.P.HXdXwXIXGXPXLXLXPXPXPXPXJXHXJXJXLXJXKXLXFXFXFX                                                                          ",
"                                                                                                            h.                  cXcX<X&.%.4.D.P.D.d d H R xXLXP.R :.:.:.e.|.r.}.%XR d R b t # # = 4 o $ , $ 4 6 4 ; ; 7 7 6 t 4 4 t = H D.B.w.6.w.:.r 4.<X&X X1.t b F ^ ^ p.p.K.R.T.T.wXSXdXaXR.n.U p , 7 4 , 1 7 6 B ! _ _ ..) ~ } p.M o o , 2 5 c 5 5 6 2 s M v M n ~ 0 + s M M M I E ) Y J Y } 3.,.} / I ~ %.I M I P P >.-.E 3.3.,.5.l.2.a n 5.8.8.;.8.3.3.-.[ | ;.;.T A A 3.7.{ ;.0.0.8.!. .{ ;.z.N.S.~.X.h ^.]./.Q.Q.Q.N.Q././.!.].!.!././.[.9.!.^.!.5X].5X4X$XjX;X,X>XyXU ( I._.gXyX>XyXyX;X*X>X>XgXjX>X>X_.A.a.k.x.a.L.I.k.d.d.2.3.} ~ ) I Z I 0 I T T C C s < & O X X o & & m f.2.2.f.>.3.-.d.f.U 2 p K.xXqXxXmXsXP.f.C.C.R.wXwXuXuXdXuXsXsXwXqXsXsXsXsXmX.Xp.R.GXwXwXwX9XwXwXwXwXsXsXuXuXiXtXP.t = = # d &.m.D.m.^ b ^ ^ &.#.^ 4.4.R f.BXJXJXCXJXJXJXJXJXJXJXJXJXJXJXJXFXKXFXJXHXFXuXC.FXuXMXMXFXmXxXmXGX9XwXPXGXLXPXPXPXPXPXPXLXKXJXLXLXKXKXKXLXLXPXFX                                                                        ",
"                                                                                                          n.                XX4.q.{.zXXXP.D.f.P.xXF F ! n.HXxXv.D.B.G.|.|.w.e.B. X#.d b 3 1 t # $ $ # 1 6 4 l t t t 4 4 6 t 4 4 4 y 1 @.D.$.+.L :.:.:.%X<XF.F.-X! F ` i.K.R.9X9XK.T.9XfXdXdXSXdXwXh._ N , , , , 1 c B B 1.f.a...} <.f.Z & & 2 2 6 5 6 6 6 2 a x n n s I 5 + s M M J Y E ) E U J ( E J P ~ ) I P U U U U I ) -.E 8.3.} 3.k.2.0 M l.8.5.| 5.3.3.| [ 3.8.;.T J C ;.7.{ 0.0.;.0./.8.[ 8.N.~.S.F.X.C ^.!.Q.z.!.!.Q.!.]./.Q.]./.!.!./.Q.z.Q./.Q.5X$X5X4X#XjX,XgX,XgXY Y _._.tXjX;X,XgXlXyX>XtXgX>XtX>X_.I.d.k.V.d.L.L.x.d.c.2.2.} ~ ( ) Z U 3 Y Y T U Y Z 0 & o X X X o & Z f.2.2.d.} ,.,.k.h.! 2 c wXxXwXxXsXsXU.h.L.R.R.R.wXsXsXsXdXuXGXxXdXdXsXuXsXuXqXs.K.sXqXdXuXrXrXwXrXrXuXuXuXuX&X&X<.3 1 r R m.s.m.m.D.m.S $.s.%.&.H R v.D.-XCXJXKXJXJXJXJXJXJXJXJXJXJXJXJXJXJXKXJXJXFXNX&XC.R.iXFXMXxX.XrXdXaX9XfXLXGXLXPXPXLXLXLXKXKXKXKXJXJXKXJXHXLXKXPXFXPX                                                                      ",
"                                                                                                          h.              D.4.@.$.$. XJXJXHX.XK.FX_ F %.NXHXzX4.{. XB.6.w.B.B.w.b.#.D F &.b 1 : $ # % : 1 t t 4 t z t 4 4 4 4 4 4 z 1 #.4.w.e.+.|.6.B.3X6X Xv.f.F F %.n..XT.9XwX9XwXfXwX9X9XfXxXxXdXh.%.` l $ 6 6 N B b <.f.1.....1.d.U & & > 7 4 5 2 6 6 2 x v m m v U 3 & n m M J U Y ( ) E C U J Y Y P I I / / / U U ) ) } ( 3.;.} } 2.<.9 P k.c.3.| 5.5.3.[ | z.N.3.J T C | ;.{ 8.0.;. .Q.!.z.Z.l.F.l.z.| A !.Q.!.Q././.!.!.$X].!.$X/./././.Q.Q.Q./.!.$X$X5X4X#XjX:XgXyXhXY ( MX&X'.yX1X1XgX>X>X>X>X1X;X>X&X*XI.d.k.L.V.L.L.V.k.l.2.,.} ( ~ / m U 3 Y Y Z T J Z x 5 & O X & & > U k.a.f.k.-.2.-.f.h.>.a B wXdXuXGXrXqXuX-XU.Y.R.T.qXrXuXqXwXdXGXsXuXsXsXuXqXwXuX-XqXuXuXsXqX-XP.n.P..X-XqXR.a.h.Y.h.n.F X u b &.^ &.R H H &.m.D.D.v.D.%X<X2XnXCXJXJXJXJXJXJXJXJXJXJXJXJXJXKXKXFXHXJXbXkXU.L.I P.bX-Xs.h.-XrXwXwXdXPXGXPXLXLXLXLXKXKXKXKXJXLXJXJXJXJXLXKXLXPXLX                                                                      ",
"                                                                                                        9XE.              #.@.@.@.#.D.NXJXHXrXK.GX%.N .XKXJXMX<X XD.w.w.G.G.B.}.B.4.s.D..XD.t $ . t &.s.H 1 : 1 t t t t 6 6 t ; 6 F t H 4.:.+.e.G.t.6.3X2X2X-.d F ^ p.K.H.H.R.wXwX9XwX9XT.H.T.dXdXGXT.` _ 6 7 4 t c p n a.a.>.f.d.<.a.U > , > 2 6 t 5 5 2 2 x n M m n P > & n m C I Y ( ( | -.E Y m U I Z ) ) I ) U M M } >.Y ) 5.3.| M m U < C l.l.3. .;.3.-.E [ l.S.M.T T C 8.8.;.9.;.0. .N.!.).N.F.N.S.N.[ h z.N./.Q././././.].$X/./.!.!././.Q.!.Q./.!.$X$X$X4X#XjX,X>XgXnXY } kXhX>X_.jX1XjX*XV.F.+XtX>X&X=X*XI.d.x.L.x.L._.V.l.c.,.,...} ~ M v I 9 Y T C T J Z M v > , & o > > U k.2.k.V.,.,.-.f.h.p.a B wXwXdXxXdXsXqXC.h.L.R.R.wXR.-XR.R.qXsXmXsXsXsXqXY.R.mXsXuXiXkXpXsX-XP.L.P.M.C.-Xh.f.h.Y.Y..X^ 1 $ $ : y s.%.R R D.P..XD.v.b.XXD.Y.&XtXnXJXKXJXJXJXJXJXJXJXJXJXJXKXKXJXFXFXMXbXL.R.>.t B P h.-X9XwX.XdXPXPXLXLXPXPXPXLXKXKXLXLXJXJXJXJXKXKXKXKXKXKXPXKX                                                                    ",
"                                                                                                        E.                $.@.#.$.&.<XJXJXHXGXC.sX` ` HXJXJXJXtXD.D.D.w.w.b.w.w.:.R v..X4.R H % = y @.XX<X4.u : 1 t 4 t t l l 4 4 b u r #.+.:.B.|.t.J @X+X;X5.g ! %.n.H.g.R.T.T.T.T.fXR.K.R.8X9XfXaXE.B V l t t 6 b ! p.a.) <.d.d.,.d./ < , 2 2 6 p 6 2 2 2 a n M C M n & & v M P I P Y | E ( T ( ) / Y ~ ) ~ / I I m I ( ) >.( l.3.U P n v & J d.l.3.;.;.3.5.E [ c.S.A.E J J S.8.;.9.;.0.{  .8.N.z.N.Z.~.F.| s N.!.Q.Q.Q.Q.5X/./.].!.]././.!.].Q.Q.Q.Q.Q.].].$X4X#XjX;X>XjXnXY } pXhXtX*X*XgX,XI.(.l.l.'.&XI.'._.L.V.V.L.C.I.'.C.x.x.2.a.2.( U a v ~ 3 Y T C T Y Y v x < , o & > > U x.f.k.l.2.d.} d.h.<.x M .XuXdXdXdXsXP.p.K.U.wXP.R.R.uXdXrXrXuXsXsXsXsXuXqXuXsXmXmXkXkXiX>XpX=X=X=X-XiXC.x.>XV.f.R.C.p & 1 1 : $ ^ .X.X%.<XXXD.XXXX XD. X-X X&X>XyXnXJXJXKXKXJXJXJXJXJXJXJXJXMXMXJXHXmXL.rXP.& B Y.qXuXdX9XwXGXPXGXLXLXLXPXLXLXPXPXLXLXLXLXJXJXKXKXKXKXKXLXKXKX                                                                    ",
"                                                                                            rXrXrX    H.R.                4.#.#.&.D.NXJXKXJXFXP.wX` Y.FXJXKXNXM.D.<X X XB.:.v.B.g e +.4.d R &.e S @.S j q.XXm.1 : : ; t t 4 4 t t t b y r r 4.}.w.L - M.2X;XS.s c i.K.h.n.T.K.H.K.R.8XT.K.T.8XE.R.SXE.l c ` c 4 c _ %.) 1.>.2.d.d.a.x./ > , 2 2 6 p 6 6 3 2 p M n m M v & & a v m J J Y | ( | E Y J M U ) ) ~ / P I Z Y ) ( >.| l.5.U m n n > J 3.k.N.;.;.3.d.E | N.S.F.( C | S.c.3.N. . . .{ { ;.8.8.N.F.F.[ h S.z.z.9.Q.N.].!./.$X/././././.$X/.!.z.Q.Q./.].5X4X#X4X:X1XkXnXY ) kXtX>XyX*X`.I.I._.F.k.V.'.A.*XI.A.x.V.U.C.L.U.A.k.x.2.a...~ U 9 n ) 0 U T T T T Y n v 2 < , > , > U V.d.k.l.5.k.,.f.f.a.n p P.wXdXuXxXqXK.P.U.R.R.R.wXT..XfXwXqXsXmXsXsXsXsXsXsXsXkXkXkXhXyX=X>X>XtXtXtXeXh.=X_.A.f.f./ b , $ 1 4 t 1 %.XX&.D.<X{.{.XX XD. X<X<XbX>XeXkXkXFXJXHXJXJXJXKXKXKXJXJXFXFXHXFXFX&XuXR.p n.xXuXaXrX.XaXPXPXPXLXLXLXLXLXLXLXPXLXJXJXJXJXJXKXKXKXKXKXKXKXKX                                                                    ",
"                                                                                        uXrXrX9XrXP.R ^ n.Y.              .Xv.R %.cXJXHXKXHXHX-Xn.%.sXHXJXMXY.E D.6X X}.D.{.%X:.e r :.$.d :.$.e j m.$.q.@.@.{.@.: : : 4 t l l 4 N N t 4 r = g E L g g R @X*XV.a ^ g.n.g.K.K.H.K.E.E.T.E.K.E.E.E.9XaX` c g.R.c 6 c _ 1.>.1.} d.d.d.d.K._ > > 2 2 6 c 5 5 0 5 p M v m n v & & a n M J J Y | -.,.( ( J m P Y / P I M I P ) ( } ,.} l.3.J P P n & C k.c.l.3.;.,.,.E | V.S.(.X.M | A.N.8.^.;. .;. .K [ [ ;.Z.V.V.T s l.8.7.;.9.7.N./.].5X]./.]././.$X]./.z.[.Q./.$X$X4X#X4X:X4XkXnXY I kXpXyX*XI._.*X&X>XV.V.k.I._.L.L.A.V.x.U.A.L.U.C.d.x.a.a...~ ~ C Z ) 0 I ( T | E T n v 2 6 , , 2 2 I C.f.k.d.d.l.1.k.f.f.m 5 K.uX.XwXdX-XR.R.R.qXR.P.wXR.R.R.K.uXsXkXsXsXsXsXbXbXsXkXkXgXtX>X>X;XtXA.<._.-X} C.C._.h.C.K.K.p.1 ; $ t 3 D D.%. X<XXXD. X%X X<X<X2XiXkXbXkXbXFXJXKXJXHXJXJXJXJXJXJXJXJXHXmXmXqXqXwXB &XsXuXrXwXwXSXPXPXPXLXLXPXLXKXLXLXPXLXLXJXJXKXKXKXKXKXKXKXKXKXKX                                                                    ",
"                                                                                        T.rXxXcX.XS R D.P.m.n.                .X XHXKXJXKXJXJXqX1.P.HXFXGXJX-Xv.:.v.%X<X%X@X4.e # d B.:.@.w.:.@.H b.:.{.b.$.q.$.u : 4 4 z &.i.Q z N z F %.%.b = 3 D 5.^ >.U.>.p ` H.H.h.g.g.W.H.K.K.H.K.H.W.T.R.9XH.! g.wX9XQ c l ! _ 1.2.) a.d.d.a.x...> > > > 6 c 5 5 p 2 p M v M v s & & v m P I Y E ( -.3.| T Y P m P I P I m I P ) ( >.>.} c.-.( I P M & m k.k.l.3.| ;.T C | M.I.I.,.f U M.l.;.].Z.9.8.7.;. .[ ;.5.T ( C & Z K T | 8. .7.!.].4X$X/.$X/./.].].].Q.9.z.!.$X].4X$X:X:X1XhXhXI ( hXtX=XA.A.;X&X_.*XI.A.k.A.V.V.V.V.x.d.U.V.V.I.C.d.k.2.d.,.} ) } / ) 0 ~ ( T | | E M M 0 5 > > 2 2 ~ A.k.k.l.c.3.,.k.f.a.m 5 C.rX9XwXwXE.E.T..XT..XE.R.wXwXR.T.dXxXsXsXsXsXsXsXsXbXbXkXpX1X>X>X;X+X2./ U.2X>.Y f.C.<.C.qX-XwXF , , t N s.m.%.D.D. XD.D.{. X<X X-X2XxXNXNXMXMXNXHXJXJXJXJXJXFXJXJXFXFXmXmXmXmXuXqX_ rXuXsXuXwXdXPXLXPXPXLXLXPXLXLXLXPXPXLXLXJXJXKXJXKXKXKXKXKXKXKXKX                                                                    ",
"                                                                                        .XwXaXrXXXD.XXD.m.XX^ n.              HXHXLXHXJXHXJXHXzX%.K.LXLXHXLXxXC.D = D 5.B.#.= r = j B.:.B.|.e.e.L $.oXe.w.b.b.m.u % z Q i.i.i.i.` N Q ` %.H.i.^ t t D R P ! 5 p ` g.p.h.j.j.i.p.W.W.T.W.h.E.K.T.R.E.T.9XfX9X_ c 6 ! ) _ a.( ..2.f.<.a.) < > > > 5 x 5 6 5 2 a Z M m n x & & x M m U I J Y } 3.} Y U C n Z I P Z U ~ C ( ( ,.X.| c.3.d./ M B > Z d.M.S.8.X.T g s | S.I.A.,.s M -.k.;.]./.N.z.z.z.3.| T T m 3 & > 0 s s A 3.7.7.N./.5X5X/.]././.].$X$XQ.z.N.Q.]./.5X].].#X4XvXvXY ) =XC.L._.&X&XI.I.U.C.I.A.A.2.C.f.x.C.d._.C.C.L.V.d.k.3.a.2...} / _ ..5 ( | T | X.| C Z p 0 > , > 2 ~ A.V.V.l.d.3.1.k.M.a.m t p.R.wXP.R.T.P.R.K.K.-XR.R..XR.K.E.uXdXsXsXsXsXbXNXsXbXkXiXgXyX;X+X*X+X@X@X@XF.A.A.V.f.M.Y.uXT.T._ $ $ 1 p.n.^ %.n.#.4.D.{. X X Xn.f.uXuXuXFXMXFXFXHXJXFXsXsXFXHXFXMXmXmXNXFXFXmXqXR.f.sXsXuXwXdXGXPXLXPXPXLXLXPXPXPXPXLXKXLXJXJXJXJXJXKXKXKXKXKXKXKXKX                                                                    ",
"                                                                                          rX.X<X<X<XXX{.m.XXm.s.xX            FXKXJXJXNXD.Y.<XNX4._ HXLXGXPXHXs.1 % = % = t 1 t r H b.|.|.e.t.e.:.@.oXoXe.B.{.oX@.1 F %.i.i.i.i.i.` i.i.i.i.i.j.%.Q b 1 6 t 2 7 ! p.i.j.i._ ` H.W.H.H.W.H.K.E.E.9XwXaXT.dXdXi.x 6 B _ >.<.Y } ,.f...1./ > , , 2 5 x p 0 0 5 a M n m m M > & p x v m P J J E -.,.E U m M U P m m I I m Y Y ,.-.-.k.3.d./ F P > M l.l.N.8.X.f * g -.F.F._.d.s M E l.5.#X].!.Q.N.8.| T C 0 3 x B x x m a s T  .;.;.Q.].].!.]./.].$X5X$X!.z.Q.z././.5X$X].:X4XvXvXI I L.C.U.*X*X&X&X_.2.Y I.V.k.<.k.k.V.V.f.Y.L.C.I.V.d.k.2.a.2.....I ) / < ( | ( X.,.| C Z a p > > > 3 ~ A.V.V.k.l.d.2.f.C.a.U p ^ ` n.P.wXuXuX9XH.h.R.R.wXR.R.P.R.dXsXsXsXbXbXbXbXsXNXbXiXyX1X+X(.@X;X@X+X@XY.;X;X_.&XU.A.K.n.T.h.4 t F P.T.F _ -X4.b b R %.4.#.D a h.rXuXmXFXFXJXJXNXqXU.&XsXHXHXbXmXMXFXFXGXsXuXK.h.sXsXwX-XGXPXGXPXPXPXLXLXLXPXLXKXKXKXJXJXLXLXKXKXKXKXKXKXKXKXKXKX                                                                    ",
"                                                                                          .XXXrXrX<XXXXXm.{.J.n.xXHXHX    FXMXFXmXKXJX-XL R %.D.D d .XHXPXPX.XN = = 1 = 4 c t 1 4 y j w.|.B.e.e.oXw.@.r.|.oXB.XX&.t Q ` i.i.i.i.Q ` i.` Q i.i.` ` i.g.%.^ i.! ! i.g.j.` ` j.i.g.W.h.H.W.K.T.K.T.9XR.R.R.fXfXp.c t p _ p.<.Y } <.d...p._ > & > 2 5 b n n x 0 x x x Z Z m < & p x M P Y Y T T E >.Y P Z m U m m I I I C ( ( ,.,.,.l.5.,./ ^ F & v c.z.z.;.T J s g 3.S.I.(.) g m Y 3.3.).$X/.N.7. .K T s 3 x 5 , , , 5 5 s Z T ;.;.9.!./.!././.].$X$X]./.z.N.z.^./.$X$X].#X1XhXhXU C A.Y.'.&XL.x.k.d.U 2.A.a.a.,.V.M.V.h.a.C.L.C.L.V.k.x.a.a.2.....U ) / * U ( | ;.;.| C Y v p > > 5 t / A.V.M.l.M.l.3.d.k.a.^ p ^ p.` ^ p.h.R.R.K.C.R.wXuX.XP.E.wXxXsXuXsXbXNXkXiXsXmXNXiXtX;X_.(.I.;X@X@X XA.Y.Y.L.pX-XA.C.Y.uX.Xt t s.s.n.b n.P.s.) %.%.%.&.^ F d / &XqXuXFXGXJXMX=XU.R.&XuXNXFXFXFXFXmXFXGXuXsXf.P.uXuXaXsXPXGXPXPXPXPXLXLXLXPXLXKXKXKXJXJXJXJXKXKXKXKXKXKXKXKXKXKX                                                                    ",
"                                                                                          XXP..XcXXX.XXXm.D.XXP.rXJXHXMXMXJXtXD.<XHXpXB.j H d j 1 # N xXSXE.5 & % b d $ ; , $ , = # . +.%X|.w.r.b.b.% e :.{.{.{.S : N N ` i.` ` i.i.` i.u.i.i.i.g.g.H.p.g.g.s.g.j.i.h.i.i.g.i.` i.h.W.H.E.T.R.E.E.wXK.8XaXfXg.c c b >.1.<.Y ( 2.d.a.x.p.2 , > 5 c B B v p 0 p p s Z Z Z > + p x n m Y ) ( U T ,.( I P M Z M M U ~ ~ I >.>.3.-.-.l.V.<.~ ~ B > m d.k.l.5.T ( J M 3.F.+Xd.3 < M J 3.,.N.~.N. .{ [ ;.A s s > , 4 7 6 6 5 v Z C | ;.7.Q.!./././.].]./.].].9.N.Q./.Q./.].].#X,XgXgXU s C.V.x.=XL.I M s >.I.f.f.<.<.x.x.C.x.f.L.L.x.C.L.k.V.a.a.X.( ( v ) >.* M ( ,.,.3.| T ( m a > > 2 3 / A.C.k.d.k.l.1.d.2.1./ t _ H.%.^ g.p.p.R.K.n.E.K.wXuX.XK.uXsXsXsXsXsXsXsXxXmXNXiXtXyX;X(.(.1XF.I.@X1.D R 1.>.#.1.#.v. XY.n.4 ^ H.g.! t %.%.G s.P.D.n.P.K.n.P.n.C.R.rXmXGXPXxX-X&X&XU.eXFXFXFXJXmXmXFXmXL.C.h.uXqXY.rXGXGXGXLXPXPXPXLXLXLXKXKXKXKXKXJXJXJXJXKXKXKXKXKXKXKXKXKX                                                                      ",
"                                                                                          XXP..XP.P.v.n.XXP.m.P.XX.XD.4.4.6XD.j @.4.+.D d g g j S 1 1 N N , . b n..XP.d $ 1 , > $ $ & r D.}.w.XXXXH % u = S m.XXb o 4 N ` ` ` i.i.i.i.i.i.g.g.W.J.i.` J.H.h.g.h.g.H.h.j.W.H.j.B _ h.h.h.E.E.R.E.9XT.R.fXaXwXp.c t x >.} a.( Y } f.a.L.x.2 , 2 5 n n a x a 0 a s v m P Z 2 + p M M M P Y Y E T | ) C m M n M m P I I P 1.,.1.,.,.M.a.( / ! U > M h.k.k.5.,.,.Y U l.`.+XT 9 a a C -.5.A.`.l.T  .3.c.Y a s o 4 c N V 6 p 0 Z C | ;.0.9.z.!././.]./.].].].N.9.9.Q.Q./././.#X,XgXhX~ a h.f.h.f.L.'.C.A.U.h.f.>.a.p.h.h.C.h.f.L.C.C.V.A.l.x.2.X.X.} ( v ..) < U T } -.,.X.T T Z a < & 3 0 ) C.C.d.a.k.k.5.M.>.1.^ t s.T.i.Q i.n.n.P.K.K.T.K.K.R.sXsXiXsXkXiXsXbXNXbXbXmXNXiXpXiX@XA. X&X&XC.1.L R #.+.R b d S G 4.m.m.t &.%.i.N F ! ^ M ! &.%.p.n.K.K.R.P.P.n.P.sXsXmXxXiXxXiX-XbXFXFXFXmXmXFXsXn.f.f.h.uXiXR.xXGXGXGXPXPXLXLXLXLXLXPXKXKXKXKXKXLXHXJXJXJXKXKXKXKXKXKXKX                                                                      ",
"                                                                                          R.s.g.#.#.P. Xn.P.XXP.XX&.#.&.L #.j r @.:.q.@.j j L j j u . X $ $ D P.D.XXcXR 1 1 3 1 $ $ t = L F.<XD.&.= e R d = : ^ t $ ; 4 ' ' ` i.Q Q i.g.W.g.H.H.g.j.i.J.H.g.H.T.h.j.j.g.K.H.g.p.g.g.E.E.H.H.T.E.T.fXfXaXfXwXp.t p x ..<.a.) C U a.d.K.L.2 > 5 0 B B M n x p x v v Z P Z 3 & p x n M C Y Y Y U ( } U m M n m m Z U U Z 1.1.<.,.>.1.) P U U P > U x.f.<.<.k.k.| | N.~.N.C f C M a | l._.*XS.| | 3.| J p < 7 ] ] V l l c 5 M n h [ 0.9.z.Q./././././.$X$X9. .9./.Q.!.!.^.].,X>XyX~ s x...a.k.f.<.L.A.V.<.1._ ) _ f.f.C.M.f.C.C.x.C.k.d.c.5.2.X.} ) M ..) < Y ( >.,.3.3.T | Z M 3 < 3 5 ) L.V.x.d.L.I.n.M.C.s.R y %.p.F j.E.H.R.n.n.K.K.R.K.T.sXmXkXiXkXkXkXMXNXxXiXsXuXpXpX&XM.5.1.v.v.R D 4.&.G #.&.R H u e i H S = F %.&.4 ` %.N F M N ^ p.n.n.n.C.P.P.K.K.P..XwXxXxXmX&XqXHXFXmXFXPXsXwXn.s.Y.f.iXpX-X-XxXFXGXPXPXPXLXLXLXLXLXLXLXLXKXKXJXJXJXJXKXKXJXKXKXKXKXKX                                                                        ",
"                                                                                            T.  P.D.GXmX.XJ.P.P.m.4.b.#.$.+.e j r.}.}.}.q.e j @.L S $ . $ t D..XXXXXD.j = g d 1 X & m $ & b R d % 1 D b b ^ 4 . : t N l N t z N ^ Q %.g.g.%.i.g.n.g.H.n.i.g.T.8Xg.g.H.H.E.H.H.H.h.T.T.j.g.E.R.9XT.wX9XfXR.9X_ p b U ..p.d.} a s 2.x.K.L.5 > 2 5 B P M n v a v v v Z P P 5 & p a M M C T ( E T | <./ P n n M m P ~ I Z 1.1.<.-.) >.~ P ^ ! ! < U a.a.h.d.k.d.} | M.).S.T T T Y s } V._.+XS.| X.5.} m p & 6 V V ] l V c 6 3 a s [  .8.Q.!././.!.]./.].].0.{ 0.!.!.Q.Q.^.).*X*XeXY a V.d.,./ 1...} } } >.>.1.) _ p.f.h.h.a.C.L.h.C.k.k.5.d.d.} ..} M ..( < ( } 3.,.3.5.} ,.Y Z 0 3 5 0 ) L.x.a.<.A.I.U.4.U D S F S b ` J.E.g.E.K.K.R.K.E.E.R.rXsXsXsXkXNXNXkXiXuXuXrXuXiX=XM.1.1.R P n F ^ &.R @.#.H S j y $.$.u e u S i.^ c F F b b c t F p.g.n.n.h.n.K.T.P.n.K.K.uXGXqXC.sXsXiXFXHXuXn.f.R.qXf.-XbXuXqXuXFXPXPXPXPXPXPXLXLXLXPXLXJXLXJXLXLXKXKXJXKXKXKXKXKXKXKXKX                                                                        ",
"                                                                                                P.    uXxX.XP.n.D.m.&.@.q.L j j r.r.|.r.|.L e j D u $ $ , F D.D.q.XXD.$.L D.%Xd . = R = & X # % % 1 F F F ^ F , o 4 b l b t 4 y y ^ s.P..XK.i.i.H.n.E.g.j.E.T.j.j.g.E.h.H.E.E.E.T.T.g.j.T.8XJ.T.R.K.T.9XT.E.B B B _ ..1.d...U Z ,.x.C.L.p > , 5 b M x v v v v x n Z Z P 5 & p a M m P Y | } ( | 2.} P s s v m U / I Z >.>.1.} ) <.^ P / ^ ! > B >.d.d.} V.k.| ,.S.+XN.| E ( ( M 2.V._.*XA.X.;.,.1.m p + , ] N l V ] 8 o & v T | ;.9.!.!.!.!.!./././.].9.{ 0.Q././.Q.!.).;X'.eXY 0 x.k.} >.} I / I / / ~ / P / >.f.f.a.<.h.L.f.V.k.k.a.a.d.} ..} M ..) < } } 5.,.3.3.,.X.~ Z a 3 3 0 ..L.x.a.<.A._.1.p F s.&.G u F j.j.E.H.E..X-XwX-XK.K.wX.XuXsXkXkXmXsX=X&X-X-X-XiXtXY.2.1.<.) U b H ^ R H D H G H r @.b.w.q.S e y G t ^ ^ b t t N F _ s.g.n.H.K.C.R.R.T.K.h.n.uXmXiXqXFXMXLXsXY.K.K.K..XP.Y.sXtXiXrX-XmXPXPXLXPXLXLXLXPXPXPXPXPXLXJXLXJXJXKXJXJXJXKXKXKXKXKX                                                                          ",
"                                                                                                      dXLXdXP.D.m.&.D $.j j :.j :.r.|.r.|.:.j L D b u , o F P.H :.6X}.B.B.G.%XW # 3 ) 1 1 1 1 : 1 $ $ 4 z F F 4 7 $ $ 4 u 1 u D %.D.4.D.zX-XuXs.s.n.H.g.h.T.h.i.H.g.W.j.H.E.E.E.E.J.H.8XT.g.J.R.E.W.8XfX.Xh.F _ B _ >.1.,.<.k.,.} 1.C.L.x > , 5 n x 0 x M n M x n m Z P 5 + 5 p n P I Y | | ( Y ,.} P a a s M Z I U M ..>.1.} ) >.^ F I ! ! 2 B 1.>.a.d.I.k.2.X.F.+XN.,.X.3.} T V.S._.;XS.} -.} ( B 5 , o , , ; ; , 8 , + < C T z.8.N.Q.Q.^.^./.$X/./.Q. .0.Q././.!.^.#XyX>XeXI a x.a.,.x.1.m / ( ~ U U U m / 1.h.a.<.<.h.C.a.V.d.k.d.2.a.} | ~ M ..( < ( ( ,.X.-.,.X.| ~ Z s p 0 a ..A.V.k.2.A.Y.%.1 R %.&.z u g.g.g.R.T.R.wXwX&XqXqXK.K.R.wXdXkXsXsXeXU.U.&X&XeXpXU.C.<.>.^ F F F y y S S d j H L j {.b.w.m.H u u b t %.s.Q c t F ^ p.h.n.H.K.K.K.T.T.P.P.K.Y.sXsXsXiXNXNXuXR.K.n.P.zXA.C.iXiXpXuX-XqXGXGXmXFXFXPXLXPXPXLXLXLXKXKXLXKXLXJXHXLXJXJXKXKXKXKXKX                                                                          ",
"                                                                                              K.        GXHXR.n.%.$.4.@.i +.w.@.j $.w.|.e.L L L R L b . X 1 = R %X3X}.OXr.w.}.}.r r R = = $ $ $ $ $ $ o 1 t t 4 7 , $ t y d #.b.}.D.D.v.v. XrXn.%.h.g.j.H.W._ p.g.p.j.j.h.H.H.H.E.E.E.R.W.H.8XT.K.K.9XfXwXj.1.%.m _ ..1.2.2.d.} ( / x.U.x > 2 5 x p 5 a M n v a s M M P 0 o 5 p a F Y Y ) ( ( T } } J s n M n M I U M ..>.<.>.) >./ I ! U ! 6 B 1.f.C.V.U.<.} ..F.#XF.N.c.l.3.,.I.A.*X;Xk.[ } ( B x ' c 8 7 ; 7 8 7 l B M 5 s U 8.;.8.!.!.Q.Q./.].^./.Q.;.;.z./.].!./.:XjXtXeXP n x.<.<.,.x.( v C M v M Z U ) ..a.p.<.<.h.k.2.k.d.k.d.3.3.} } Y M ..Y 3 ( ( } | } } T ( I I x x a v 1.V.x.k.2.V.Y.s.r d #.G 1 Q K.E.H.9XT.R.Y.U.R.&XqX.Xn.P.aXuXsXsXuXqX-X=X-X-X>XU.C.A.s.^ D D b D u = e d j H H e d b.q.b.q.L = % # : b ^ ^ %.%.%.%.i.h.h.g.H.K.T.K.T.R.T..XP.qXxXuXuXxX-XP.R.P.-X.XD.A.xXiXsXpX-X=XiXGXmXxXsXGXPXLXPXPXLXKXLXLXLXPXKXKXPXJXJXKXKXKXKXKXKX                                                                            ",
"                                                                                            T.R.        dXrXn.m.4.q.L i j :.:.+.r = d d g L +.+.:.#.D . # # r %X%X%X|.|.t.B.}. XD = d $ 1 # . # $ : $ $ $ ; ; ; ; 1 $ t d R v.b.{.B.{.B.v.-XrXp.%.s.p.n.T.H._ i.p.j.p.i.i.j.h.K.T.T.E.T.J.E.E.H.H.E.R.9XwXp.s.%.m _ ) 1.d.2.C C U / f.'.n , < 5 c a p x M v x a n m m I a o 5 p p M P I ( ( | E ( ,.Y M m M M Z / I C <.2.d.<.} 1./ I ! ! ! 7 x f.f.L.C.k.I <.2.~.^.Z.Z.Z.M.5.5.S.~.,X>XM.T T M 5 N R.u.V V ] l ' ! _ _ n 3 0 C X.;.8.!./.z.z.^./.!././.9.;.9.Q.].^.^.:XjXyXeXZ v C.} ) ( A.<.M U Z M M m ~ ....>.1.1.1.k.f.2.k.d.k.2.2.,.| X.Y M } Z 9 } ( } } | | Y ( Y Y M M a v ,.C.V.V.2.V.U.D.R 1 d u 1 i.T.T.H.9XR.L.C.=X=X-X&XiXT.R.xXuXsXsXuXeXpXpX=X&XU.A.Y.Y.A.#.b R F ^ y = e d H j j j i +.b.b.4.q.u % # % y ^ F ^ s.n.n.g.h.h.j.n.E.R.K.T..XR.R.n.h.&XuXiX=XR.-XP..X Xs.s.pXiXuX=XtXqXqXqXsXmXmXsXFXFXFXPXPXPXPXPXPXPXLXKXKXKXKXKXKXKXKXKXKXKX                                                                            ",
"                                                                                          R._ W.      wXh.K.n.n.s.H r r j w.$.w.#.e = % = D +.:.D.#.1 . & . E 6XOXB.|.}.+.B.%X%X%.= 1 . % 1 = % : $ $ : $ $ 7 ; 1 1 , & r / w.w.r.e.G.%XD.L 1.! %.%.g.E.E.E.T.T.9XT.g.p._ i.h.T.T.T.T.E.H.E.J.H.H.h.R.9X9X%.p.1.U ( ..2.<.} 0 Z s ) p.U.B > , 5 c n x n m M n s M C Z ~ x + 5 p a x n m E ( | T ( 5.) J C M m I ( Y P a.k.V.a.1.a./ F ! ! ! 4 b s.h.U.&Xx.a ( l.F.~.Z.~.~.l.c.l.A.`.,X+Xk.T n 9 4 c E.V V i.` g.p.! ! p X 5 v C X.l.z.N.!.z.9.Q././././.9. .9.Q.$X/.^.:XjXjXeXU m C.1.) ~ V.d.M ~ Z Z Z U Z ) >.) ....} d.d.2.f.2.k.,.a.2.~ ,.U Z ..C 0 } ( } } X.| ( Y ( ~ Z m a s >.C.V.x...d.A.C.v.F 1 1 b s.P.R.wXwXh.h.C.=XqXqXqXiX.XuXdXuXuXsXuXqXtX=XU.Y.&X<X2X XrX4.r b S d r e = d :.@.j $.$.@.w.|.v.v.d # % % F ^ &.%.b %.K.n.H.H.h.K.K.K.P.P.R..X.XR.h.P.uXrX-X.X.X.XP..X&..XuXqX-X&XpXtX&X&XmXmXsXmXGXGXmXGXLXPXPXPXPXKXKXKXKXKXKXKXKXKXKXKXKX                                                                              ",
"                                                                                          R.E.  E.R.T.K.K.        L d j L w.w.b.R % = 3 = = % g d 1 $ & $ X L <X}.}.%X}.j L  X<Xf.= # t R $.4.$.&.%.^ 1 # $ $ z Q N N = r #.b.}.B.L w.B. Xd b s.i.^ i.g.H.9XwXwXwXuXdXH._ K.R.E.H.K.E.g.j.E.T.J.H.g.9XwXwX_ h.p.B ..( >.2.) Y J } _ / U.P , > 5 x x n M m n v s C Z m U x & 2 5 5 a a f J ( -.T E -.( U C s Y Y ( ( Z d.I.V.d.1.a.) ! ! ` ! 6 B p.f.Y.C.d.0 Z a.F.+XZ.F.Z.).M.l.`.`.,X,X5.Y s s 6 N K.c , 6 6 c 4 , & X o 2 v a Y c.z.!.Q.9.9.Q.Q././.!.9. .0.Q.$X]./.4XjXhXpXU M A.1.} I <.d.I Z Z m ~ U ~ ( 1.} ~ } ..k.2.d.k.3.2.2.d.X.| X.I Y } v s ,...,.,.,.} X.} ( ( m M a s ,.V.I.k.,.) C.L.n.1.U 3 F h.P.qXqX'.K.U.=XeXeX=X-XqXrXsX.X.XrXiXpXiX&X X&XU.C.M.v.D.b.G d t D H S = g :.6.t.@.q.e.L $.B.v.4.u % # = H %.G %.R r G n.H.n.j.h.K.T..X.X9X9X.X.XR.rXrXiX.X.X.XP..XrXD.P. XqXqXU.qXuX.XR.uXsXuXmXsXGXPXPXPXPXPXFXLXKXKXLXLXKXKXKXKXKXKXKXKX                                                                              ",
"                                                                                          E.                      R @.H +.}.b.$.r # d F n r = = 1 = X o $ X & D B.6X%XL # e d #.H # u s.m.q.:.q.m.D.i.1 $ : $ ` V ! ^ 1 b v.D. Xq.k b.B.<X#.r D.%.F g.H.R.R.T.aX.XR.wXwXE.T.H.h.j.K.9XT.E.h.T.8XT.H..XwXwX! p.s.m ) ) ..1...2.a.d.>./ C.P & 7 x B n x x m M M x M J Z Z p & 6 5 p p 0 a m Y } E E ,.-.J C m U E } } U V._.L.x.2.C.1.) _ 1._ 6 x _ <.C.h.<.< M d.(.).Z.~.Z.~.l.k.F.`.>X_.d.U v v 4 l j.N , > o & , o & > > 2 ) 0 T z.Z.z.!.Q.9.9.Q.!.!.!.Q.0.0.Q.$X$X!.4XjXyXyXU v C.2.a...k.C.) I / Z I I / / ....I / } f.d.d.k.2.2.5.3.X.} ..Y ~ } v s <.<.a.2.X.,.2.| ~ ~ Z m x s ..f.A.d.../ >.C.h.%.F t ^ n.R.wXwXwXqXeXeXeXqX-XqXuXqXrXrXP.-XmXxX-X-X&Xf.R E L @.L R d u y S H R d $.6.6.6.e.q.b.@.u e d H $.b.m.@.d &.&.s.m.^ 1 t ^ n.H.K.R.R..XwX.X.XR.K..X.XY.K.P.P.m.s.D.cXP.4.C.C.P.C.P.&XuXuX.XuXmXsXmXFXPXKXKXKXHXPXPXPXLXPXLXKXKXKXKXKXKXKX                                                                                ",
"                                                                                        R.                      4.#.@.d $.{.$.i e = b R F a f d f 1 o o $ 7 $ $ g D.L # r u r y d = y v.b.q.$.b.D.&.t # # $ 4 4 , o N N 1 ^ D.4.j g v.D.<Xm.1 ` i.n.T.J.T.R.R.R.R.P.R..XR.wXR.P.R.wXdXdXdXT.E.E.H.j.E.9XR.F p.h.U ) ) 1.,.<.k.C.a./ ! p.Z , 5 b M n n x m M v s n J C Z 0 & 2 5 2 5 a f m J ( E E ,.5.T U J C ( ( | T A._.A.V.d.C.1.! / ` ! 2 c p.>.p.a.f.a Z k.`.).Z.~.Z.~.k.k.`.`.1X*Xd.Y I m c , ! B o 0 B n a x x a p X x Z a.`.`.z.!.Q.9.7.[.Q.Q.Q.Q.9.0.9.$X].z.:XjXyXyXY M x.2.d.d.V.I.d.( ) U ~ / } ( >.,.I ~ ..d.d.l.k.5.d.l.3.,.| } Y Y } v M d.d.d.2.X.X.2.} ~ ~ C m a 0 } 2.A.k.2.} Y f.<./ F t ` h.K.qXqX'.qXuXeXU.-X-XqXuXdX.X.XR.rXiX.X&X-X1.D R L +.$.@.@.i u u S D j R w.t.t.t.:.q.w.H e u &.b.XXXXXX{.$.H @.4.4.&.^ F t b i.P..XwX.XwX.XP.P.R.K.P.P.P.XXn.%..XP.P.rXs.rXxXmX-XqXY.qXsX-X.XsXJXGXmXmXFXPXHXJXHXPXPXPXPXLXKXKXKXKXKXKX                                                                                  ",
"                                                                                        K.                    D.#.q.+.j j H @.b.+.g r ^ R n #.D r $ , , , 4 7 & % % # = y d H @.4.&.d D v.b.:.m.$.# . u % $ : ; ; o l V 4 1 r u e d R m.D.^ t ` H.T.H.E.E.T.9XR.R.P.R..X-X-XR.wXwXK.E.wXaXR.h.h.p.' K.dXR.! p.n.P / ) a.d.k.V.k.1.( ~ / x , 6 b b n M n M v a s M Z Z U c + 2 5 5 p a a a C ( } | -.l.-.T J U } ,.} T V._.I.A.,.1.Z p 2 5 4 o b 1.` ~ / a.s Z l.`.#XF.~.F.).M.l.`.`.;X&X2./ P P F 6 t 5 X p ~ ../ M a 2 3 o 5 M a.'.`.~.!.!.Q.z.9.Q.Q.N.!.9.0.7./.].7.#XjXtXyX/ M x.a.x.x.A.I.V.....( ....,.1.<.<.Y ( ,.5.5.l.k.d.k.k.5.3.,.} Y Y } s M k.d.d.a.2.X.,.} ( Y v v a a ,.a.V.x.2...>.f.<.) P 5 ) %.h.wX-X=X=XeX-X-XqXeXqXrXuXY.K..XuXuXU.=Xv.D R 4.@.$.q.q.$.j H D j :.+.L e.t.@.6.b.b.$.e e H {.D.b.{.{.{.XXL H #.&.v.D.P. Xs.n.h.P.wXH.K.H.n.P.T.9XrXdXcXn.s.rXHXxXn.n.v.R.KX        sXsXqX-XqXsXsXmXGXGXFXPXPXHXPXJXPXPXLXLXPXLXLXKX                                                                                    ",
"                                                                                                              4.v.m.$.j d $.{.XXq.:.d r D d D D t = 2 4 6 ; ; 1 % # = d L #.j d j G @.&.#.$.v.m.m.y % : $ : 7 7 7 V l 6 t 6 t t = d 1 d b t N H..XJ.g.E.h.H.E.R.R.R.-X&X-XR.R.R.Y.` %.wXaX9X_ Q N l j.dXT.B p.C.Z / ..d.f.d.d.<.) } ) _ n > 6 x B n n a M v a v C Z Z Z c , 7 6 5 p a p a C ( } | -.l.c.| T } 3.d.,.T l.A.I.V.( v p 0 2 p 5 $ c 1.%.) ) a.n U V.(.+XF.~.F.).S.M.`.,X>X_.A.>.M ! ` 4 $ 2 2 a ~ Z m 0 3 2 X O b p.) x.(.).^./.Q.Q.0.Q.Q.9.Q.N.7.9.^.].8.,XjXtXpX( M x.k.I.A.I.I.A.2.<.<.d.<.<.a.a.2.Y ( 3.5.l.l.M.k.M.V.l.c.3.X.( Y } a M k.2.a.d.d...X.} } ~ v a a v 2.h.V.V.2.,.<.f.a.p.! x p.p.p.Y.P.R.&X-XR.qXeXqXrXwX-X-XU.qXmX-X-X&XD D q.q.*.$.b.q.@.i @.:.j j :.j e.e.+.e.q.b.L e u d m.XXXX{.{.{.:.H *.{.XX{.4.b.<XXXrX.X&.g..XdXwXwXK.H..XP..Xs.%.rXLXLXLXzXs.s.T.                sXqX&XqXuXmXFXFXPXJXJXJXPXJXLXKXKXKXKX                                                                                        ",
"                                                                                      Y.                      &.s.$.j e v.XXoX<Xw.}.b.D r 1 r = 3 r t $ , b F t 1 = = R 4.#.q.q.q.v.$.m.$.%.4.%.s.&.t 1 1 $ 7 t l i.Q 6 6 l V b t 4 t , 1 _ T.J.H.n.H.H.p._ R.qXR.&X-XU.R.-XqXR.K.p.E.fXaXaX.XR.h.W.E.dXE.t _ h.B ) 1.a.1.( } } <.>./ ..c , 6 B B x a a m M a x Z U Z B 6 + 7 2 5 5 a a s P ( } } 5.S.l.} | l.c.3.,.T c.k.k.l.| ( / U a M b , p 1.1.) ) <.M U k.`.`.S.(.~.`.S.S.*X;XhX=X-X<.U F 6 o 6 x 0 0 ..Z M 0 3 < o o 6 s.p.( A.`.!./.].Q.9.N.Q.9.Q.^.N.9.!.$Xz.4XkXtXiX( M V.A._._.I._.I.d.a.d.x.d.a.f.f.,.Y T 2.5.k.k.V.k.V.V.l.d.3.,.} Y } a Z V.2.2.a.3...X.( ~ ~ M s 0 x <.f.f.k.,.2.d.f.a.p.P c _ ! _ Y.&XP.U.-X-XY.-X-XwXR..XuX-XmXMXU..XY.b r d L $.$.*.$.@.i @.$.+.d +.+.@.@.:.r.b.$.u u u u u S $.b.e.q.e.q.*.b.b.%XXXq.&.m..XcXD.Q n.GXGXGXK.Q b F S %.rXLXLXJXLXLXrXs.wX                    sXqX-XwXsXFXPXPXFXJXPXPXLXKXKXKX                                                                                          ",
"                                                                                                              #.L d H #.D.cXcX<XXX{.v.R b 1 = = r = 1 t 1 4 b y = = # y :.:.e.B.w.b.u u 4.m.&.i.n.g.` 1 o 4 7 4 ] u.i.Q l l l t t l l 6 B K.T.J.H.J.J.H._ ' T.R.Y.L.U.&X-XU.'.&XK.C.-XwXuXdXSXaXdXAXwX9Xj.6 _ C.M ) } >.>.( >.d.d.1./ a.b , > x B p p p Z m a v M Z Z M 2 o 7 2 c 5 a a a m Y >.,.c.F.V.3.3.S.l.c.3.| l.S.S.V.,.} } I M P ! 2 p p.>.~ ~ <.P ~ d.I.`.S.~.F.`.S.F.+X_.tX*XY./ Z 2 o , 2 2 Z U U T C s v < + p , p p.U 2.(.!./.5X].Q.9.N.0.Q.$XN.9.!.:X~.gXhXeXhX) m I.I._.(._._.I.M.M.k.V.V.d.d.d.,.Y Y ,.5.V.V.V.k.V.k.V.d.3.,.} U } a C A.a.2.<.X.} ..~ Y Y M s 0 s <.d.d.d.-.,.a.<._ 1.B c B N g.K.h.1.f.P..X.X.X-XqXR.R..X&XsXP.Y.U.D.R r = i @.$.$.$.@.i @.b.w.:.L @.j @.e.e.@.u u d % = = = #.q.e.r.}.e.q.|.oXb.XX{.#.s.XX.X XP.! p.uXxXrXP..X^ F m.xXHXJXJXJXJXKXHX                              sXJXKXLXLXPXJXJXPXPX                                                                                              ",
"                                                                                                  D.D.D. X  cXXX XD.cXcX@.H $.{.{.b.@.#.s.#.R y d d r S y u u u = # y j $.$.e.b.{.$.= . y &.g.i.s.s.p.F , ; 6 6 7 N i.i.Q N l l l V V N l _ T.J.H.E.E.g.i.g.R.E.C.P.-X.X'.&XrX.XY.R.wXuXdXwXxXdXSXaXfXH.! 5 _ x.Z _ ) ,.d.2.d.V.x.p.~ p.N > 6 x B p 5 3 M M a M v Z P Z 5 o , 6 p 5 x n a a Z } ,.c.F.S.l.c.S.S.c.8.X.S.A.z.k.5.2.<.~ ~ ! ! > c p._ U U <.I ) k.(.).F.F.Z.`.S.S.+X>X>X*XL.U n o 7 c 5 n ( | s ..( M 3 & 2 V 6 , P >.( V.#X#X5X$XQ.N.N.0.N.^.N.8.$X4X#XjXjX>XkX} Z _._._._._._.I.A.I.V.V.A.k.2.2.,.( ( 3.3.x.k.V.k.A.V.F.l.3.X.| J } a n x.a.2.,.X.| X.( ~ U s a 0 a <.f.k.f.,.,.2.1...f.^ c N ! p.U U .XxXP.s.P.P.U.sX.Xh.E.rX-X_ M.n.f.1.H #.#.@.@.$.*.@.j d *.w.b.$.#.e e r e e e S u = = = @.b.|.b.r.|.|.oX|.|.{.b.{.m.%..X<X XcXn.F n.HXHXwXs.^ m.m.v.P.uXJXKXJXJXKX                                                                                                                                                ",
"                                                                                    rX-X        D.D.}.}.}.B.D.zXzXzXHXcX%.b H #.b.v.v.{.XXD.H y #.#.S G S S G y = = d j :.q.$.b.b.G . # . 4 F ^ %.i.%.N , ; 4 4 6 ] ` i.i._ i.` ` Q ! Q ` ' J.T.J.H.T.E.H.R.R.R.T.R.wXwXR.R.R.R.Y.wXqXwXqXaXsXdXSXxXdXs.b c ! p.B ) 1.h.d.a.d.k.a..._ p.c , 4 c b c 0 3 M B a x x M U B 2 o , 6 5 p m Z U I ( ,.5.l.S.S.l.k.F.`.N.l.3.F.F.F.S.k.d.2.,.>...) 5 c _ ! m / } ,.,.l.Z.#XS.F.Z.F.S.A.+X1X>XeXf.~ > , c 0 Z U ..<.Z 3 < & + + 6 N V 6 5 1.U L.`.).5X$X!.N.Q.7.N.Q.N.^.4X5X:XjXjX>XhX..Z _._.(._.+X`.I.A.I.V.V.V.d.a.a.X.T | 5.5.k.l.F.A.I.A.F.S.l.c.} U } a v V.<.2.2.,.} ..( ( Y M v 5 n a.f.f.d.d.2.d.<.>.n.^ c F b M 3 #. XY.Y.) 1.K.wXuXqXwXC.P.K.p.h.<.f.f.D.XX{.@.*.*.$.@.H L j q.{.b.H # = 1 u S S d y H e = w.|.|.w.|.b.e.b.b.b.}.}.D.XX4.D.rX.X.XrXP.b K.n.F ` rXP.n.m.v.B. XNXcXD. X<X                                                                                                                                              ",
"                                                                              D.Y.F.D. X{.:.4.%XB.e.w.OX%XB.w.@XxXzX.X%.^ H &.&.XX%XXXXXb.R S G q.D.@.&.4.G S S e % u u @.q.q.m.4.= X X $ 4 $ 1 t 4 4 , ; ; 4 V V 6 l N ` i.j.j.i.j.` Q ` i.T.9XE.T.8XT.R.wXwXwXwXqXqXwXwXqXwXE.-XwXwXqXqXqXuXsXdXaXSXR.b t P 1.B _ <.f.2.,.2.d.d.>./ ! 6 , 7 c B c p 5 M M a x n M U B 6 , 7 2 p p M P U Y } d.l.M.F.Z.k.M.(.`.S.N.c.(.(.(.~.V.c.d.2...>.1.c 5 ! / P ..>.d.3.l.~.#XN.Z.F.(.F.(.*X>X>X*X) U , x c n m ) <.d.>.a & X o , 4 7 7 6 2 / Z d.(.`.:X5X!.Q./.Q.Q././.].4X$X$X4XjX>XhX( C _.(.I._._.(.F.I.A.V.A.A.l.a.c.3.} } d.3.k.l.F.F._.(.F.S.M.k.,.Y ,.s v V.d.d.3.,.X.3...} Y m v p M a.h.k.k.l.d.M.f.<.P.%.4 b F 4.D R :.4.f.^ F K.rXwXuXuX-XP.C.h.f.1.<.f.P.Y.R H $.&.@.L :.$.R d G G = = % : t b S d y H d i $.B.e.b.b.|.q.b.oX|.b.}.XXD.v.D..X{.<X<XP.D t c .XrX9X Xn.b.v.4.#.{. Xb.4.q.v.D.                                                                                                                                          ",
"                                                                            A.P.zXcXF.<X XL B.}.:.:.e.B.B.B.4.D.zX XM %.m.&.S 4.<X<XXXXXb.@.#.q.4.{.:.H m.m.@.y r = e e H 4.m.4.d X $ o X 4 $ . ; $ : : 4 t 6 N ' l l N N ` ` ` i.g.i.! ` j.H.E.8XR.T.E.9XfXwXwXqXaXwX-XR..X.XR.uXdXwXR.R.wXuXuXfXwXxXrX! 6 M ^ U >...1.,.,.2.<.2.<._ ! 2 , , x B 0 0 0 n M a x s n U B 2 , 7 5 5 p M I U Y Y -.3.l.Z.F.Z.(.*X#XS.Z.l.~.(.`.`.A.l.l.d.,.1.p.x 5 ! _ ~ 1.>.5.3.c.S.).N.~.`.`.A._.>XyXtX*X/ B , b 0 ! Z ) ..<...I & & > o , , 8 6 6 ~ U ( I.`.#X5X/.Q.].Q.N.^./.!.$X$X#X4X4X>XhX( m _.(.I._.(.A.A.I.A.V.V.A.k.d.l.2.} X.5.3.k.k.F.F.I.(.F.S.M.l.3.} ,.a m A.d.k.l.X.} 2.>.( I m n p m f.k.k.k.l.d.C.M.) C.p.p %.n.n.&.D.n.v.D.&.U R.qXR.uXsXrX-XrXC.f.p.>.f.<Xm.y H H H @.q.{.XX{.R r e u r 1 1 1 u y u H H e H q.:.e.|.|.b.L b.oX}.|.w.XXXX4.v.XX<XXXq.H R #.d $. XxXHXcXXX$.#.v.D.zX Xv.v.v.v.P.                                                                                                                                        ",
"                                                                            C..X X4.4. X{.L {.}.w.e.e.e.B.q.:.4.<Xn.t %..Xm.G .X<X<XXXXXXXXXXXXXq.q.{.$.v.m.$.D t 1 u u t y d u = = o $ . $ 1 $ t t l N F z 6 N V 6 V ` ` ` ! N ! Q Q Q ` i.g.E.8XT.T.T.9XfX9XwXwXwXR.R.R.R..XrXGXsXR.K.-XuXuXwXdXfXdXaXg.N x U m ..1.,.} ..2.2.,.1.>.! 7 , , c B 0 2 5 M M x n M M U B 2 , 2 5 p x m U U / ( } 3.l.S.F.(.,X1X+XF.(.S.Z.~.).#XZ.k.l.d.2.p.p.c c ) ) ~ ..<.,.,.l.N.).~.).).(.S._.>XyXeX'./ x , 2 x ! ~ 1.h.L...) p & & o , 7 7 c 2 / I Z A.`.:X5XQ.Q./.z.9.!./.Q./.].:XjX:X>XgX..C *X_.I.(.(.F.A.A.I.V.V.A.V.l.d.2.} ,.3.3.l.k.(.F.(.`.(.A.V.l.d.,.a.s Z A.d.l.d.,.| 2.} Y U m n p m f.M.k.k.l.d.d.M.) f.h.^ s.n.4.4.v.b.D.n.F ` R.wXwXrXrXR.qXuX-XC.f.C.P.<XU d H S H @.b.XXXXXXv.e r y u # 1 u y y = @.#.= &.b.w.b.B.{.L e #.{.XX}.$.q.D.$.v.%XXXq.L $.XXXXq.y y S s.XXxXcXv.q. XNX<Xv.v.v.C.D..X                                                                                                                                      ",
"                                                                            h.C.D.#.R q.q.j {.}.e.e.:.:.w.:.:.#.D.n.N N s.i.m.cX<XXX XXX{.XX{.}.{.v.XXv.#.m.v.D 1 4 1 = $ . . # $ 1 $ X . 1 1 1 F Q ' Q ` V l z l 6 V _ i.i.Q Q Q Q ' V N j.T.T.E.E.9XwXwXwXwXwXuXqX-X-XwXwXqXsXsXsXuXrXrXwXwXuXSXaXdXdXE.! x B x _ 1.<.<.a.d.2.1._ ) B > , , 6 V c 0 p m m M P M x M b 2 , > 6 p a M U ) ( -.3.5.V.F.I.+XjXjX;X(.#XZ.Z.~.).#XZ.S.l.d.a.a.p.x n >.) I ) 1.-.3.l.N.].~.~.`.`.F.`.1XjX>XU./ M 7 , 5 0 ! ..a.K.h.p.Z 2 6 6 , 4 ] c 7 _ Z Z k.`.1X$XQ.!./.z.N./.Q.N./.^.:XjX,X;XhX..Z >X*XI._._.I.I.I.F.A.V.A.V.d.a.3.X.,.3.,.d.M.(.(.+X+X(.A.S.k.l.,.V.Z Z V.d.k.2.5.,.d...Y Z M v p m f.V.V.V.k.d.d.M.>.1.s.p.K.C.m.#.m.m.D.n.1 F R.qXuX.XR.Y.qX&XuXpXL.C.C. Xd r y R R H m.<X<XXXR u u y r r 1 1 b y % S G = :.b.v.D.{.q.u e y R $.H i d D L :.}.b.*.b.}.|.e.e.d t S G H R D.cX$.P.zXbXv.n.Y.C.n.                                                                                                                                        ",
"                                                                                        +.j w.}.:.e.:.@.@.@.+.H m.P.N F &.s.XX.X{.{.XXXXD.XXXXXXXX{.XXD.u = r 1 , 4 , o X . # 1 1 t 6 # X $ 1 $ b Q Q ' N z V V N l ' i.u.` ! ` ` u.` N ] i.E.E.T.R.9XfXwX9XwXwXmXsXuXwX-XqXsXmXmXmXsXuXsXuXwXaXSXdXSXdXE._ x B v >.<.<.a.d.2.} } ) ) B & , , 2 6 5 x v B m P / a p c x 6 , , 2 p p M / -.Y } 3.d.S._.+X;XgXgX:X(.+XZ.N.~.).#XF.S.M.k.d.h.h.M M 1.) U } } 3.3.8.z.~.~.~.).).`.+XgXyXyX'.I ! 7 , 2 2 5 x ! _ u.! B N V ] 6 6 c N 5 1.v Y l.`.5X]./.]./.z.Q.!.Q.N.^.Q.$X4X:X;XgX} C >X>X+X_._.(.I._.A.A.A.I.V.a.d.5.X.3.3.,.d.M.`.I.;X`.S.M.S.k.a.a.U.I U V.d.l.5.d.3.c.>.~ U M x a m h.V.k.k.k.d.d.f.>./ I ! s.s.%.R s.v.D.%.t F K.R.-XR.Y.-XuXqXiXbXU.L.L.D.^ S S $.4.@.@.D.b.H = r d d 1 F b u u u 1 d y % d R d S D r % d S y y y d &.#.@.$.w.$.e.|.}.B.e.}.j u G #.D @.&.m.4.v.NXMX-X      A.                                                                                                                                        ",
"                                                                                          j #.w.4.#.:.+.@.#.#.R n.rXQ ` g.s.XXXXXXXXD.$.@.m.XXXXXX}.D.D.r % % $ , , , $ : $ . . # $ $ 1 $ # y 4 ` ` ` ` N 4 l V ' l B _ u.i.j.i.i.` Q ` V Q j.J.wXfXwXwXfXwXwXuXPXGXsXqXqXuXmXmXmXGXFXiXrXuXeXuXSXIXSXwXT.p.x M v p.a.1...<...( Y >...B & o , 2 7 2 x B M n P U 5 x x b 5 & > 2 v M P ) ) Y ,.M.U.U.*X;X*X;X>X;XA._.Z.S.~.).#X~.Z.V.A.k.C.C.m M ..~ P >.>.3.3.8.3.N.!.(.).`.`.;XyX>XtX*X/ ~ 6 7 , p 5 5 c ] 6 V c c ] c V l V ! B p.0 ..V.(.,X].]././.9.N.!.!.!.!.N.$X5X1X;XhX..Z *X=X*X&X_.(._.*XI.A.F.I.V.d.k.d.,.5.5.5.l.S.(.(.*X`.S.S.A.V.d.k.'.Z Z A.d.l.c.3.3.d...( I m M a Z V.C.V.k.l.d.2.f.<.) F 2 1 1 1 d 4.s.J.&.1 ` %.C.K.Y.R.wXrXuXuXNX-XC.L.Y.C.4.m.&.m.{.S = 1 % r r S y 1 F n.b = % u H D = = % % # # u y u d y d #.@.q.q.$.@.:.{.w.e.e.w.B.|.H u S S R &.4.<Xm.m..XqX                                                                                                                                                  ",
"                                                                                          4.H H R #.  #.+.4.4.R n.cXQ ` g.F F m.n.&.R R d i $.XX<XXXD.%.# $ = & 1 $ 1 4 4 1 $ = # # # 1 = b R u Q Q ` ` ' z N N V l V Q i.j.g.h.j.i.` Q Q u.g.j.8XfXwX9XfXwXqXxXFXGXFXMXuXuXbXFXmXsXmXsXuXuXeXuXaXdXdXH.R.a.x N x >.../ ( ,.} ~ Y a._ x & , 7 2 2 2 n Z x a m x 5 v p x 0 , < 2 5 M U } ( ) d.A.A.k.f.d.d.d.V.I.A.+XF.F.(.^.+X~.S.V.F.S.A.C.M M p.U P >.2.} ,.3.8.8.N.~.).#X*X>XjXyX>X=X1.) B 5 2 > , l c 6 6 V l c V N V ' ` N _ >.< ,.S.(.#X].]././.N.N.!.!.Q.^.N.$X:X1X*XhX..U &X*X=X&X(.(._.*X_.I.A.I.A.k.V.k.2.l.k.l.M.S.F.I._.F.F.(.A.S.k.k.-XZ M x.d.c.5.3.3.d.} ( Y Z Z p P C.L.C.k.k.d.f.M.p.%.! , . . $ 1 G s.^ b t F p.Y.K.h.P.wXqXqXrXtX&Xn.C.C.v.P.v.$.$.m.H u u t y S &.&.1 t n.F = # = D R 1 b t = % 1 1 u % u u y H R @.$.G d q.b.w.e.:.e.|.|.u u H G &.#.&..XrXP.n.xX                                                                                                                                                  ",
"                                                                                                        %.R #.F s.rX^ ` %.b 1 b y ^ &.&.S = y $.XX<XD.d $ 6 & 1 1 6 d b t 1 t 1 = % % 1 D m.R $ ^ &.%.Q ' Q ` N z l V ` g.j.K.E.H.H.u.` ` j.j.g.R.fXaXaXaXuXsXFXFXFXFXMXkXsXbXMXFXmXsXuXsXsXsXsXwXdXGXK.rXp.N x x p.<.Y ..2...Y Y d.a.x , , , 2 7 5 n B M a x 5 0 p x c 0 , , 5 5 a P I I ( 5.} >.<.a.a.f.f.d.,.2.I.A.(.(.F.).F.N.F.A.V.A.L.x m 1.I ~ 1.} -.-.3.7.;.8.Z.~.+X#X;X4X>XyX*Xd./ _ 2 b t > 6 c V ' B N Q ` ` u.` N B C.p M x.A.A.~.^.^././.z.Q.Q.!.!.].9.$X:X1X=XpX,.C >XtX>X*X_._._.;X_.A.I.A.V.d.k.d.2.k.k.k.k.k.A.I._.F.F.`.F.V.l.l.'.Z M d.a.2.2.,.2.2.( ( Y m v a ~ L._.I.V.k.V.L.x.C.a.! > o X $ 1 F N z l t _ h.h.f.K..XwXuX=X-X-XY.f.4.#.R H y d H @.H y # y R 4.m.s.b 1 ) b $ = y R ^ t b b 1 & = 1 t u y y d S H S #.G u d S y d d j $.$.e y G G #.R &.XXrX.XP.                                                                                                                                                    ",
"                                                                                                          1.R p..XwX^ ! z t t 4 G %.&.&.b u u y #.D.) 1 t , 4 t 1 1 b y t y y r = % u S H R d 1 G i.%.z t N N z l l N ` i._ j.E.T.9XE.j.i.i.u.h.9XaXaXfXaXsXFXLXFXFXFXFXFXMXMXFXFXmXmXsXsXuXsXGXwXfXGXfXsXp.b x m p.,.~ 2.d.>.Y Y 1.L.B o $ 7 6 5 5 M B M a p p 0 5 p c c , 2 p a 5 s s C Y Y >.( ( U / / / h.x.>...V.A.(.~.`.^.~.F.S.V.L.Y.n m >.U U } } } -.3. .;.;.N.Z.).,X#X1X,X>X_.L.M h.x c p.! B ' i.p.i.j.p.u.! B 7 b n./ < Z L.x.A.).].^.!.!.z././.!.N.].8.$X#X1X=XhX) P tXyXtX*X_._._.+X_.I.I.A.A.k.k.d.d.k.V.V.V.d.M.I._.F.F.F.S.V.l.k.'.Z M d.<.,.,.,.,...~ ( I m v 0 U Y.=X&XI.A.I.&XC._ p p 2 1 , $ b F F c t N ` E.p.p.T.-X-X.X.X-X&X<XY.R t 1 y e u H H R H % y n.D.n.s.D 1 F y % D #.U y r & = & r 1 1 y S D y u y S S y y u H D u y S = e e y b S H &.&.m.4.%.m.rX                                                                                    =XuX                                                            ",
"                                                                                                                mXrX%.N l , 1 F %.%.^ S 1 y u 1 1 = 1 1 $ t F %.d # t d c t = % u @.#.@.$.H = = u y z : u z 1 4 t t z N ` ` i.R.wX8Xj.' _ u.i.T.fXaXaXaXuXdXPXLXFXFXMXMXMXMXMXFXFXmXmXsXuXuXmXGXwXwXdXfXGXh.B M U 1...( d.k.,.( ~ <.C.B & , 6 t 6 5 m m x 5 5 p x 5 c c c , 7 5 c 5 p a m Y / P a U / ! _ / / a.a.Y 5.V.F.~.`.).+X(.S.V.A.L.a x _ U P ) | } ;.;.[ ;.;.N.Z.#X1X#X:X1X,X&X_.) B K.b c j.K.K.p.` B c l 6 6 N P p.s.3 3 } '.k.(.).].^.Q.!.z.!./.N.Q./.8.^.;X1X=XhX/ P eXtX>X=X&X&X_.;X_.U.I.A.A.k.k.d.k.k.V.V.V.3.k.A.I.I._.(.A.V.2.k.U.M Z d.<.,.,.,.....Y ( I Z M a U Y.'._.L.L.L.1.I I ~ ~ a 3 b F F b F c t N ! h.p.R.wXrXrXrX.XpX Xf.S f d j H j @.#.$.$.H S y #.m.4.^ y # r t y ) F = b R r 1 d t 1 D &.@.R #.y u y G y u t &.&.^ &.^ y G S G G S S y H H G H 4.NXmX                      wXP..X          =X.X-X-X                                    MX=XxX                                                          ",
"                                                                                                                xXxX.Xn._ F ! %.&.^ b z b ^ Q 1 1 1 4 1 , b ! ! F % 1 t t = . e $.$.$.q.q.+.i # e u z : u b t 1 4 4 l ! H.g.j.T.8XE.i.V ` _ g.9XwXaXdXSXxXmXFXFXJXJXFXFXFXFXFXFXmXsXsXsXsXsXGXsXR.sXsXR.uXf.v x Z 1.,.} d.k.,.} } x.<.x , , 7 6 6 p B M x p p x x p x c p o > 6 c a p n Z I M 0 ~ / p.p.a.f.../ f...I M.F.~.+X~.`.F.A.V.V.h.3 x _ / I } } } | [ [ ;.3.z.N.+X1X).+X#X,X_.I.x.n ! K.B , ' W.K.T.g.l , 6 ' ) p.s.p & U x.'.S.].~.].!.!.!.z.!./.N.!./.7.N.4X,X=XeX~ U tXyXtX>X=X>X*X>X_.U.I.U.A.V.V.d.V.V.V.V.V.} d.A.I.I.(.I.A.A.a.d.I.a Z d.2.,.,.,...,.Y ( Y Z n v I U.'.U.L.A.f.n.n.P..XY.b $ t c t N %.Q F ! i.j.K.R.rXrXcX<XD.v.#.L D L H @.q.q.:.q.q.q.$.&.d % r u 1 1 1 1 b b r t = t F R = 1 r u H &.$.#.q.&.r # 1 % : t ^ %.m.&.b ^ i.Q ^ &.G y u H #.{.D.D.xX  =X                    h.P.            C..X2X&X-X                                  pX-XbX                                                          ",
"                                                                                                      s.4.4.v.n.P.K.n.n.%.n.n.s.%.%.&.b G %.^ t # 1 1 , F ! 6 $ 1 = $ # $ $ % H q.e.B.b.:.+.L e e S S u y t u 1 t t l ` E.g.j.J.W.H.` Q u.j.T.fXwXaXxXPXPXFXPXFXPXJXKXJXHXFXFXFXmXsXsXmXxXdXdXwXh.aXsXwXsXf.v v Z <.1.} 2.l.,.} ..C.p.p , , 7 6 6 5 n v x p x x c t x p 6 $ 6 5 t t 2 x ~ I 3 ! p.C.p.1.p.f.h.../ <.s d.I.(.).F.`.A.S.M.f.<.< x ) / ~ ..,.,.;.[ | ;.8.z.M.+X:X).:X+X1X*X_.&Xf.0 n K.j.x 6 c ! N 6 6 p ! h.a.x < m a._.*XZ.#X~.^.!.Z.!.8.!.].N.!./.7.7.#X,X*X=XY U tXyXeX=X*X*X&X*X_._._.+XA.A.V.2.V.A.A.V.V.E 1.S.I.I.(.I.F.A.a.k.I.a P d.2.,.,...,.2.Y } ~ U v a I '.&X.XU.M.I C.Y..Xs.U D ^ 4.^ 1 4 b B _ p.i.n..X.X.X<XD.q.w.b.e.L +.$.@.L w.|.b.w.q.b.b.q.R b t 1 1 t t = t $ # = & = r d f R 4.4.D j @.@.#.m.d # = 1 $ b s.%.%.&.%.g.^ Q ^ ^ G b R @.$.XXXXXX<X    uX                  1.T.            n.Y. XiX-X.X                                A.L.bX                                                          ",
"                                                                                                  D.4.:.v.v.#.R m.n.p.g.n.n.s.s.n.m.^ b &.n.i.u 1 4 , 4 ! ^ t $ , = , t t r r y @.$.e.*.*.t.*.j j G i % y u u y 4 4 z i.E.g.i.g.H.H.` Q ` g.T.9XwXaXdXGXLXPXPXPXFXPXPXFXMXFXMXMXmXuXuXsXsXdXGXwXR.uXdXaXsXp.p p U 1...( -.k.3.} <.x.C.M & , 6 2 2 2 x M x 2 p B b x b 5 6 $ 5 t p p p m / x p >.h.C.B V p.h._ _ U 2.M } I.~.^.~.`.S.V.f.a.1.> v ) ~ ( ..,.5.3.3.3.7.z.M.l.+X:X#X:X~.;X1X*X=XY.1.x 4 ) p.K.%.! ^ %.h.K.f.B 5 > m ,.k.'.*XF.#X^.!.N.N.Z.8.Z.^.N.^./.8.;.l.`.*XeXZ P eXtX>X*X'.*X*X*XU.*X+X+XI.U.C.2.V.A.A.V.V.T } V.I.(.+X`.F.A.2.x.L.p P d.2.a.2.X.,.2.~ } ( U n a ~ &X&XU.L.<.p r F H G %.m.D.D.D.b , t c F ` ` p.C..X.X%.4.q.q.w.*.j +.+.e.e.@.e.|.r.q.w.q.#.@.&.y % 1 d 1 $ t $ $ $ = # = # R B. X{.#.j H H D #.G a = $ $ d %.%.F G %.^ Q ` ^ F 1 b &.G #.{.B.{.<XNX    rXuX      f.C.  .XP.            zX<X<X1XCXxXrX                        -X-X  =XA.&X                                                            ",
"                                                                                                D.4.D.}. X XB.4.#.%.s.s.s.s.P.P.D.s.&.F G p.F 4 1 4 : F i.1 4 1 1 $ , B _ I D e # i *.e.t.t.e.@.@.$.G % y d y t t 4 V ` H.H.g.W.j.j.` ` i.H.8XwXfXaXdXGXLXPXJXPXJXPXFXmXmXFXFXFXuXqX-XuXmXGXGXqXwXuXuXeXkX1.p a Z ..} ( } k.3.>.a.f.L._ , , 6 6 6 c B ! n > x ! B b B t l $ 4 t t t a P I 5 ! 1.L._ x 5 B K.p.>.~ >.C ( S.~.~.~.`.V.V.f.a.<.> x >.( ..>.,.5.;.3.8.8.8.l.l.(.:X).:X~.1X4XyX>XpXC.1.B 5 5 x ! ^ ^ _ P 5 2 > 5 M 1.d.A.>X].`.#X).!.N.N.N.z.!.!.N.)./.z.3.3.A.>XeXZ P =XeXeX=X*X>X>X*XM.@X_.+X_.U.L.d.V.I.A.S.A.U J A._._._.(.F.A.d.k.C.5 U x.a.d.d.,.,...~ } ( P M x ) &X&XY.A.#.r t S H 4.{.b.b.m.XXF 1 t N F ! %.s..XP.4.v.4.$.e.e.@.:.t.e.e.e.*.e.r.|.e.w.B.#.#.%.G u u t 1 d b o X $ r = = r w.D.B.:.@.L @.q.w.b.w.#.b = $ t %.n.s.R y b ` %.i.Q : S H H @.B.b.XX XD.HX    wXR.iX-Xs.4.rXR..X      .XC.D.@XzX        qX                        &X&XtX&X                                                                ",
"                                                                                                C.D.}.B.}.}.B.#.D b D %.s.s.m.&.^ H d M a F b t l 1 1 ! t $ 1 t $ ; $ 2 ^ b r = e *.e.+.t.e.e.*.q.q.$.% % u y b 4 : N i.J.T.g.i.j.j.` ` h.T.9XfXaXdXuXGXLXLXPXFXJXPXGXkXNXFXFXNXmXuX-XuXGXsXuXK.T.kXGXrXmX_ 2 p Z ....} } l.,.>.2.d.h.f.2 , 6 c 5 x B ! M 2 x F M x b t c $ 4 p n a M M ~ a ! f.Y.! 2 2 b R.C.1.~ / n E M.~.~.Z.(.k.V.x.f.a.< v >.( ..>.,.8.;.8.l.8.8.N.M.^.:X~.#X~.4X*X>XgXjX=Xf._ p.U c 7 > X & & > 5 a / f.2.k._.jX`.#X;X~.!.!.N.8.8.^.^.N.^.^.Z.8.c.A.gXeXU Z -X=X=X=X&X*X>XU.) A._.*X_.A.I.C.I._.I.A.S.m g V._._._._.F.C.a.d.h.2 U C.<.2.d.2.>.} ~ ( ~ m v p ~ U.-XY.A.#.a R 4.R &.D.D.XX{.D.F : 4 N ! b ! p.s.F G v.$.q.w.q.@.e.e.e.|.|.b.e.|.|.|.b.w.q.R %.v.#.S 1 # R F % % r = % u 4. X}.B.:.:.$.@.b.q.w.D.B.#.& % F .X Xn.D.^ b F F ^ S z ^ G @.@.b.{.XX4.#.zXKXKXGXrXY.&X.Xv.Y.P.Y.      <XD.D.D.<X                      &XY.&XpX2X XC.D.&X                                                                  ",
"                                                                                                <X}.B.:.+.+.j u d t 3 r D R v.Y.G.B.-.f - 3 p 3 t o 4 4 4 t t 4 7 , ; $ t r = e +.e.$.+.:.e.+.t.q.m.b.u # 1 1 t V 4 ! j.h.H.H.H.j._ ` j.E.8XwXfXaXaXsXmXFXPXJXHXJXFXFXFXMXMXbXMXNXbXqXrXxXmXdXaXdXGXsXrXsX) a 0 m 2.( Y ,.k.3.X.2.k.C.L.5 > 5 5 5 x b B P p p B B B B N c $ 5 p a p m m ) a U 1.Y.f.n 2 B C.p...Z ~ 9 ( A.(.F.S.S.V.A.k.V.a.& Z a.( 1.3.;.3.;.M.N.l.8.8.3.).#X^.).~.4X,X,X,XjX>XL.h.f.p.~ ! c + 0 x U ) ,.,.d.d.V.;XjX+X`.`.F.Z.~.N.l.l.Z.!.Z.:X#X~.N.N.V.*XeXZ B =XqX'.*X=X*X1XF.m V._.U._.I.A.S.I.&XI.U.A.Y s V.I.I._.F.V.V.d.h.f.& U x.<.2.2.2.,.} Y ( ~ Z M x ~ Y..XY.M.I a %.v.4.4.m.P..Xs.b 1 1 4 ; t N ` _ b b #.R #.q.:.@.@.e.e.e.r.r.B.:.$.r.B.B.w.q.#.R #.D 1 # d R b t r d y u @.b.b.q.H :.:.@.+.:.w.B.B.4.@.d 1 F D.n.D.D.s.F S S S u H G H @.H $.b.b.D j XXJXKXKXKXzXD.) F D.v.1.&X    v.b.G.b. X                       XD. X2XzXF.f.n.                                                                    ",
"                                                                                              2X{.B.B.B.+.j L w.D.D.f.a & J F.%X3X7X%XG.E - < a 5 1 1 : t y : 1 4 7 $ $ 1 = r g 4.:.:.e.e.@.e @.b.q.b.d # : 1 $ 6 4 ' i.H.H.g.H.H.g.g.J.R.9XfXaXxXxXGXGXPXPXFXFXFXFXKXJXNXbXNXJXNXmXuXuXmXGXmXdXdXdXaXqXiX! 0 p Z a...( ,.l.3.,.,.d.V.U.x > 6 c 5 x B P U p x ! ! b N 6 , o 5 x 5 a P U / M v <.1.K.x._ C.f.f./ ( m s >.M.A.S.S.A.k.V.k.x.f.< Y k.-.3.3.5.8.;.5.8.8.8.N.| Z.:X~.`.~.4X,X:X:XjXlX>XU.C.h.a.L...0 f.f.x.l.,.X.l.A.I.,XjX*X*X(.,.S.).N.5.l.Z.Z.Z.#X).).~.M.c.*XeXZ B '.=X'.'.=X*XtXI.U k._._.I.I.A.A.I.+XS.A.A.1.Y A._._.I.F.V.V.a.x.h.> U k.1.<.1.,.,.<.( ( I m Z M ~ Y.U.L.C./ n f.D.D.v.s.s.` t $ . 4 6 $ $ ; 1 , $ D %.+.&.q.q.j j e.:.e.e.r.|.@.e j H L R R H y % $ 1 t F R R D y u d u q.XXw.u i w.$.@.$.@.w.b.B.D.S r 1 1 %.4.m.n.&.G %.%.S u S H G @.@.j @.@.H S {.JXzX<XNXxX.Xv.m.Y.%.R R %X  +.:.w.b. X                        Y.@X<XCX   XC.                                                                    ",
"                                                                          zX<X XD.U.Y.D.D.@X<X XB.B.w.r.+.@.}.%XD. X%XD 3 f -.B.G.OXG.OXG.f g m r 1 1 4 4 t 1 4 t 4 1 1 r r D D v.v.w.+.j % # L b.{.D.t # % 1 4 6 l ' i.h.H.H.T.K.K.T.9X9XfXdXSXPXPXPXPXPXJXHXHXFXFXFXFXMXMXNXMXFXFXmXmXGXGXGXGXGXsXaXwXuX! 5 0 Z ..~ ~ X.l.,.} ,.f.x.'.B , 4 t 5 c B B U c b U p > 6 > o o 5 x a n P U / Y p Z ) f.f.x.h.f.1.I I 9 M 2.k.F.V.F.I.k.V.k.V.k.< ( k.,.3.3.5.l.5.;.;.;.7.z.T 8.4X).`.~.4X,X:X,XjX1X,X;X'.'.U.sXf.a C.x.k.3.,.2.V.S.`.1XjX*X*X8.K F.).N.8.N.F.Z.).:X:XZ.F.S.3.*XeXm B '.'.'.-X>X;X>X_.,.V._._.A.I.V.S.I.+XI.U._.5.( A._.+XV.A.V.V.a.d.f.* P h.1.<.,.,.>.<.( ) Y m Z m U Y.Y.L.h.) n D f.D.1.) b = 1 1 1 1 ; o o ; $ # : c b D d d j e j e.:.$.e.r.B.L d j d y 1 r 1 % 1 t 4 b %.^ D y b y y e q.m.d e e $.:.@.$.@.#.{.{.D.D r = r R #.&.4.^ ^ s.i.z u F G S G *.H H @.H j D.<Xq.4.P.NXzXzXxXn.R R L D.  v.+.6.v.G.                        &XY.D.zX                                                                          ",
"                                                                        2X2X2XzXv.g E M.D.<XD.w.G.w.e.:.H @.b.}.{. Xv.L W +.t.t.r.r.OXOXG.J g f = r t t b b l F N l z t = r D D :.R d # # = u S D.XX&.% $ 4 t F ` ` ` j.g.h.h.H.H.E.9XfXfXaXGXGXPXPXPXFXFXJXHXJXJXJXJXJXHXFXFXHXFXJXFXFXGXGXGXIXIXGXdXwXqX/ 0 5 Z ( Y ~ X.l.5.,.,.x.x.=X! & 7 6 c c B B ! n n b x c c B c & x n P I >.../ U M a U 1.p.h.f.1.U Z a 9 Z 3.V.`.M.S.F.k.A.V.k.k.3 } V.3.5.5.3.8.8.;.;.;.8.l.;.| $X~.`.).4X1XjX1XjXlX,X>X*X=X'.pXa.a x.V.V.3.2.c.S.A.).4X1X].+X[ | ).;X~.c.N.l.N.#X:Xl.A 5.S.Y A.eXm B U.-X*X=X>X>X1X_.V.I.&X_.A.I.S.I.I._.I.U._.d.( A._._.k.S.M.f.a.2.a.* Z h.<.2.1.,.} } ~ ( ) U U P U Y.L.L.h.1.I g r 3 & 1 = $ , $ , , 4 c t t 1 $ : : % = # # # u i @.:.:.e.w.}.d r D y r 1 # : : 4 4 $ : t y = $ t r y d d j @.@.e i $.@.$.H = S #.S r r y s.s.&.R #.R ^ &.%.l y F #.#.G G H G @.y u b.q.&.q.m.D.rXHXMXv.R D #.      -.:.w.w.                          -X.X                                                                            ",
"                                                                        2X3X3XvX+.k 6.B.F.%X5.#.6.r.:.@.D d @.q.D.:.k G.r.+.r.t.t.t.r.G.8.g g f 3 a M F ! F N Q ^ F c t 1 M r % % = 1 = 1 1 r 1 D F 1 1 u 4 z Q ! i.` i.j.g.j.H.R.8XfXdXdXSXGXGXPXFXFXFXFXHXJXJXJXJXJXJXFXFXFXHXFXPXPXFXGXdXsXdXIXGXdXR.wX_ x p Z ) ( } ,.k.l.l.2.V.x.qX! , 6 5 c x B B ! U P P I ! P ! B o v I <.} f.>.P n m v n Z ~ ) ~ m U p 3 M I 3.S.F.N.M.V.l.A.V.d.k.9 ) M.3.3.5.3.8.8.7.7.z.N.N.Z.7.).~.F.).:X4XjX4XjXlX,X*X+X*X;XpXa.0 3.V.S.3.c.N.~.#X,XjX:X`.(.,.Z.,X;X~.k.Z.l.l.`.+XT s l.A.U x.eXZ m U.-X&X*X=X>X1X_.I.+X+X(.I.A.V.A.U._.F.A.U.k.} A.U.A.k.M.k.2.2.<.<.> M a.>.,.1.} ( } ~ / ) ~ / P U Y.L.A.k.f.2.P f f n n 1 > $ , 4 , l %.1._ ! F ^ ^ &.%.b % 1 = u u j $.b.{.D.r % r = % 1 u t t z l 4 $ $ $ 1 $ . % 1 e d q.}.{.b.j e d e % = = . % r u R XX{.m.#.R R ^ G Q 4 y S #.&.S S @.@.@.j u $.@.@.$.&.4.pXHX  2XD.) D.        E E 4.                                                                                                          ",
"                                                                      &X%X%XOXr.k |.B.:.@X}.-.R L @.$.j d d u d d g +.OXr.W r.r.6.W t.G.G.f J g r a ! _ ^ F Q F F ^ N t b c $ t % . $ 1 1 $ 4 1 1 u 1 z c l N Q Q u.i.j.i._ j.T.fXaXdXaXaXSXPXPXPXPXPXFXJXJXJXHXFXFXFXFXHXFXFXMXFXFXPXPXGXGXGXIXIXdXdXR.wXp.c x U ( } ..3.k.c.c.a.V.C.-X! , 6 5 x B Z Z ! ! ! / U U / / B & M >.2.>.5.,.Y C < < 0 v v B B p < & s m U d.M.S.Z.l.V.c.A.V.d.k.s | M.3.3.8.5.8.9.8.7.^.Z.Z.).~.^.).F.).,X:XjX1XlX1X).#X;X>X1XhX2.9 c.~.F.l.Z.~.~.).:XjXlX`.N.A.;X,X,X`.F.(.,.T 3.l.3.J c.V.( V.-XM m U.&X'.&X;X>XyX&X(.+X_._._.S.V.V.(.+XA.A.+XV.( A.I.S.M.M.k.2.2.p.<.* x <.) >.} } } } Y / / / / m P L.A.A.f.k.k.d.d.d.2.~ & & $ ; c t , b ^ 1.h.%.S %.n.s.&.y u y H u = S R :.R r & % 1 t y N t t l l 1 , 6 4 1 $ & $ . u :.B.B.|.{.b.e % # u S 1 % 1 1 b D.XXD.v.#.R ^ %.^ F : b D H G S 4.{.b.@.d u @.#.H @.#.<XJXJX                    4.                                                                                                            ",
"                                                                        :.6.+.k t.OXB.6.G.w.E D @.j d d d S D D j d 6.r.e.@.W G.G.6.t.8.8.f K g < n F ! ^ F N Q F N t 4 N 4 t F $ # $ , , ; 6 t t z t 4 t V N Q ! i.h.j.! ` H.wXaXdXdXaXaXGXLXLXPXPXPXJXHXJXJXHXBXJXJXJXHXHXJXJXFXFXGXFXGXGXPXGXIXaXdXR.qXs.p x I } } >.5.V.l.k.d.C.C.-X! , 2 6 B P ! U ! U m ! Z Z ) ) m & m P Y >.d.-.Y Z 9 a < + > > & + 3 a Z m Y l.k.F.N.c.S.c.S.V.l.M.C ( F.M.5.M.8.8.N.8.N.^.Z.N.Z.~.Z.).`.:X,X,XjX1XlX4X).:X,X1X>XhX2.a 3.k.~.Z.~.Z.~.#X1XjX,XN.l.#X,X,X,X_.(._.3.,.A.yX`.[ 5.V.k.Y.=Xm M U.&XU._.=X1X1X&X_._.+X_._.V.A.I._.I.V.A.+XS.| A.I.A.k.V.k.f.,.<.1.& a 1.) >.} ,.1.} / / ) ) I M P L.L.L.k.d.d.d.d.A.C.P & 7 , ; 4 4 c %.P.Y.P.P.^ D &.%.#.b b t u 1 b S % = g G & # 1 b R G ^ G G S r = 3 b F d = $ S @.$.$.q.b.:.q.j i u u D e % = r d %.m.&.R R ^ &.%.%.&.y F D b R 4. XrXcXD.H d v.q.H #.D.NXJXJX                                                                                                                                  ",
"                                                                        L k k L |.}.|.+.B.      D.v.v.P..XXX&.S d L 6.G.r.6.g f +.w.-.J J g m r m U F ! F F F Q N 6 4 F 1 4 Q t 1 , , $ $ $ $ 1 ; 4 N 4 l N ' ` ` i.j.Q B _ K.wXuXdXdXdXGXLXPXmXFXJXJXFXFXFXHXJXJXMXeXeXiXNXJXFXFXMXmXmXGXGXFXsXdXfXIXR.uXx.c c Z } } ..3.V.c.A.d.k.C.-X) > 6 6 b B U ~ / ~ m ) ) ) ..>.U & ~ a & I 5.5.2.( J s 0 v + > > & a v I J ( l.S.`.8.8.S.5.l.S.M.M.J E M.5.5.8.;.7.N.9.N.N.Z.N.Z.~.Z.+X~.#X#X#X1X,X1X4X#X:X#XgX1XnX2.s ,.5.Z.).~.Z.).:XjX4X~.7.Z.;X,X,X*X`.`.*XV.A.;XjX*X-.V._.C.L.=Xn M Y.&X&X&X2X1X;X+X_.I.&X_.A.V.A.U.I.I.A.A.I.V.} V.U.A.k.V.l.k.,.>.>.& a p.1.<.>.2.5.1.( / / _ U M Z V.A.A.k.d.l.M.V.M.f.) p 1 o t , t p.R..XP. Xm.&.y G &.y t y S y u b r 1 d R 3 . . 1 1 u H y y S y r 1 t ^ %.b 1 $ ^ v.&.+.q.w.:.e.B.}.w.d @.#.#.#.R d y D u d R &.&.&.&.%.S b b D H Y.<XrXNXzX#.D D.D.+.4.zXJXJXJXHX                                                                                                                                ",
"                                                                        4.W @.r.OX}.G.w.          HXxXSXxX.XG H H +.B.}.6.f # g d d f & & n m = t n M F B N F c 6 1 b , t Q b : 4 4 , $ $ o $ o o 4 ` B V ' p.i._ p.` B ^ p.n.T.wXsXmXGXFXsXR.C.R.xXFXLXJXMXFXuXY.a./ ) f.L.iXNXJXJXNXmXmXmXsXdXdXdXwXwXsXC.v a ~ } } ,.l.k.A.A.l.x.C.U...2 7 c B B v / ../ I / ~ ) 1.2.Y 3 ( U * C k.l.,.} Y I m a a a 9 0 v U ( Y d.S.A.S.l.l.N.5.S.F.l.l.Y T 5.-.3.5.;.8.N.N.N.!.~.Z.~.N.).).~.#X(.).,X*X:X,X+X#X#X1XyXgX2.s V.5.8.l.).#X#X,X:X`. .3.;X,X;X;X*X(.,X*Xk.(.;XgX+X| V._.I.&XU.n M U.'.&X&X>X1XyX_._.&X&X*XA.V.V.A._.F.A.A._.A.3.V._.k.2.V.M.5.1.} 1.5 a a.>.<.2.1.<.} ( ) ( ~ m v m C.L.A.d.d.k.M.,.} 1.f.^ b , 6 1 ^ K.Y.P.n.D.&.s.s.^ G b z F F S b y b t t = # = U m.4.d e d $.b.4.q.4.R ) d & # # F 4.$.q.b.e.e.B.}.}.B.w.}.}.B.q.}.L e S D b G %.%.4.%.s.&.d D ^ m..XrXzXzXbXiXD.tX&X4.-XCXJXJXJXJX                                                                                                                                ",
"                                                                        f.+.:.r.|.G.}.:.D.          xXHXxX.XS S @.L :.:.g # & d F B c t X x f = d ^ U b t N c 1 $ 4 , 1 F F 4 7 4 7 7 $ $ o O o O ; ! ! ` ` _ i.i.i.%.h.R.K.h.K.wXsXuXR.h.p.p.n.h.C.Y.uXuXC.p.) U / ( a.C.h.h.U.>XbXJXFXmXP.K.-XR.fXdXmXGXK.x v Y ( } ,.l.V.S.A.l.x.C.Y.1.2 2 c P B M ~ ) ~ I ) ) ) >.a.Y < } <.U | k.k.d.5.( Y ~ m s M U Z Z ( ( Y l.F.~.Z.l.l.N.l.Z.S.l.k.E J l.5.[ ;.l.N.N.N.Z.Q.Z.~.^.~.+X^.Z.).~.+X,X].*X#X#X:X#X,X>XjX3.v (.l.7.3.c.~.].).z.;.3.F.,X).*X,X,X].;X*XV.'.*X;X_.E A.*XA.&X=Xx M U.'.&X&X=X;X>X*X*X&X&X_.I.A.k.A.I.A.U.I._.S.2.V.U.k.2.k.k.5.1.) <.x a <.>.a.<.} <.>.( I I U M a M C.L.V.<.d.A.d.I >.f.f.! 6 , $ t ` %.%.F ) XX.X<XXXrX^ u 1 y y y t u t r % % d v.%X%XXXD.u D {.B.q.}. Xv.d # $ 1 $ r &.q.q.w.*.r.|.|.}.|.{.{.|.|.w.w.q.S b b y F J.n. X.X{.m.R H s..X<XNXtXzXNXJXCXbXtXtXJXCXJXJXJXKX                                                                                                                                ",
"                                                                        <.M.}.w.B.w.w.v.D.          fXfXSXaXG H q.:.D 3 % 1 2 4 V B F c $ b p 1 n b b b b 3 $ % $ X t Q F b 6 l b 4 7 o o o o ; ; 7 ! _ _ _ g.n.E.R.T.T..XR.K.K.R.K.p.! ! ! U B ! P P ! U B m B P I >.h.C.A.C.M.C.C.iXbX&Xp.P.sXsXGXGXGXmXL.p x Y ( 2.2.l.k.5.l.l.k.C.P._ 4 7 c ! ! U m I / ( >.1.( 1.f.Y * >.f.2.3.l.d.2.3.( E ,.U Z I ~ ~ Y ( } | l.Z.~.~.S.N.l.l.Z.S.5.5.E U l.5.J -.N.~.Z.!.8.N.~.).~.~.).~.~.+X~.#X:X+X#X#X~.+X+X;XtXjX2.C ~.`.Z.z.7.l.S.l.N.8.).:X#X).;X#X,X>X;X;XA.,X;X*X_.E d.;XU.U.=Xa M Y.'.&X&X>X*X>X_.+X*X;X_.(.A.2.S._.A.I.I.&XA.2.C.I.k.5.d.d.2.>.) <.P x 1.1.a.>.>.<.>.I P I / U a v h.L.C.>.<.V.1.J 1.f.I > o 4 1 N %.! b r &..X<X XD.XXG #.&.S u 1 y y D R u d b. X X XD.XXq.e e.r.e.w.w.w.f # $ $ $ = y 4.v.L d |.|.|.|.|.|.|.}.|.|.b.w.S S F b ^ 9XrX.XcXzXcXD.m.XX<XcXzXpXzXZXbXbXbXbXJXJXJXJXCXJXJXKX                                                                                                                              ",
"                                                                              M.B.B.5.                9X9XrXP.m.D.v.t # $ $ ; l N N N 1 $ N > 1 r d d 1 d d a = = = M G b 1 , t 6 7 ; : , $ ; ; o V _ j.h.g.P.n.K.K.n.C..X-XP.n._ U t > 2 5 2 > 2 2 6 > 2 p a a a 5 a Z <.&X=X-XA.C.U.Y.L._ C.FXGXxXGXFXFXR.a x U ( ,.2.l.l.5.k.k.k.C.L._ 2 7 c P / ../ >.1.) } 2.-.<.a.I < } 2.3.2.k.d.3.,.| } 5.-.>.>.} } ,.,.3.3.k.S.~.F.N.z.l.7.Z.S.| | E E l.5.C 3.Z.~.~.~.;.8.^.].~.~.).~.Z.).~.).:X`.`.`.~.+X#X,XyXyX} v `.].].).z.z.Z.z.Z.).:X#X).;X,X].,X1X*X*XA.,X=X>X+X3.Y S._.I.&Xp m Y.U.&X&X>X;X>X(._.*X;X_._.V.3.A._.A.A.A._.V.<.C.Y.V.f.d.2.2.} ( _ U n p.1.1...) } / m m P ! P x a p.x.h.} 1.M.2.Y >.f.B $ $ 4 t _ %.^ N t ^  X.XP.P.&.^ XXcXXX&.S R @.&.&.y u 4.b. X X}.%X{.g g :.r.|.B.v.4.r & $ = X # u r % u b.B.}.|.|.B.|.|.|.}.|.b.H r b N F m.9XrX.XXXXXm.$.q.m.cXcXNXzXnXMXMXMXJXJXMXMXJXJXJXKXKX                                                                                                                              ",
"                                                                                <.v.                    aX9Xn.&.&.b % $ , $ ; l N ' V 6 $ M d #.4.B.B.b.v.w.:.H # b f r = # u z 6 7 , l t , ; o $ p.g._ ! b B U I ! ! ! / / I F 5 , o > x B B B F B M x B / ) _ p.) ) m x ) A.U.A.Y.C.<.p.%.C.MXGXmXFXFXFXU.a v Z ( } ,.d.M.A._.k.C.L.Y._ 2 2 c P ! >.1.a.} ) 2.2.-.<.<.P < } 2.2.1.d.d.2.3.,.-.>.2.2.-.X.-.,.l.3.5.V.Z.`.Z.l.l.c.3.S.l.J T E | l.c.K 5.Z.~.~.~.8.8.^.~.~.^.).N.N.).~.).#XF.N.Z.~.~.~.`.*X*X( C ].`.`.].Z.S.Z.z.Z.].].).#X;X;X].,X,X_.].S.,X*XyX&XS.-.2.k._.-X0 m L.U.&X&X>X*X1X+X&X;X_._.(.5.k.I._.A.F.I.I.M.a.V.Y.A.k.d.2.,.) ) ) U x 1.>...( I ) / P m m P B a a <.a.1.I ( f.1.I %.f.I t 6 1 t ` %.%.N t F n.P.P.v.t ^ {.{.XX{.G @.$.v.4.D e = r R $.4.v.B.B.+.@.k :.b.v.m.d # # $ % u u = u d w.B.b.|.B.B.}.}.|.|.{.B.#.y 1 u y t F T.xX X+.S H G m.XX%XNXZXZXzXNXCXCXBXJXJXJXJXJXJXJX                                                                                                                              ",
"                                                                                                        D.^ y : u : 1 4 ; ; 4 6 l N B p & n M.vX6X6X%X}.r.+.+.j - r d 4.4.G t 4 b 4 t l t 6 ; o $ M N 4 6 x x B I P P P M p 2 > t b M B ! _ _ ^ _ ^ / ! ) p.f.f.f.f.f.f.p.I P <.Y.A.M.f.>.) a.-XsXxXGXmXHXR.n m U ( } ,.d.k.A.I.d.x.Y.U._ 2 > x ! / ..} ) Y } k.-.} 2.2.U * ( 2.,.,.d.d.2.2.2.,.5.2.5.5.5.3.3.l.l.l.N.Z.).Z.l.N.8.;.z.;.f E T E M.V.T 3.F.~.F.~.N.z.).~.~.].^.8.N.).).#X$XZ.l.Z.N.N.S.F.(._.( C `.`.).].~.Z.N.l.).#X#X;X*X,X,X#X,X*X_.`.A.,X].,X*XI.(.k.2.&X=X0 Z L.'.&X*X>X&X>X*X*X;XU._.A.-.M.I._.A.I.I._.V.f.V.Y.A.V.k.2.,.) ~ ) I a ) _ / P Z U P M m F P n a p _ _ ~ m / f./ U f.A.<.F 3 $ t ^ %.p.N N U _ n.s.b 1 F XXXXXXD.@.$.b.{.D.q.@.y % % e = = w.}.|.|.t.j e G v.D $ $ t d y u e e u #.b.b.B.}.b.B.XX{.}.{.q.j u 1 % 4 b u ` rXNXD.u S @.$.$.q.6XzX}.5.-XCXJXJXBXCXJXJXJXJXJXJX                                                                                                                            ",
"                                                                                                        D u y y F 1 $ : 1 4 1 6 c x c & & f M.6X%X|.|.|.r.+.L j e L b. X XD.D 1 4 1 6 l l l 7 o $ 2 p t 2 x x a ! M a a 2 & a ~ s.n.h.p.p.h.j.p.h.n.h.s.f.Y.&X&XK.Y.K.h.n.f._ m / n.C.f.a.a.1.p.uXFXPXJXJX-Xn P ( Y X.3.3.c.d.l.d.x.L.Y.) 2 , x ! _ >.} / ) 1.5.} } 2.,.U * Y ,.>.,.d.l.3.3.2.,.l.-.3.d.3.3.c.k.F.Z.S.F.).N.c.N.8.;.c.| C } Y ( V.S.| 5.F.).`.`.Z.N.#X).).).Z.8.M.~.).#X#XN.8.~.~.Z.~.~.I._.~ C `.`.].).~.^.~.~.~.#X#X+X).:X,X,X4X#X*X`.A.1X].>X,XI.1X_.2._.=Xp P L._.'.*X>X_.>X_.;X*X_.;XV.>.k.A._.I.I.A.+XF.d.V.L.V.V.k.2.,.) I >.I a / ) ~ P I I P x P / ) B p 2 I I U m ) C.<.Y 1.<._ M 3 & 1 %.%.^ D F b b V t t y u S &.s.@.H @.q.b.B.B.b.#.y 1 % % # #.}.|.|.|.w.r = b t $ & r D %.s.&.H u d @.v.B.{.R D v.{.{.{.m.u % u 1 # 4 t F C..Xn.d S G H #.m.<X Xw.w. X2XzXCXCXCXJXJXJXJXJXJX                                                                                                                            ",
"                                                                                                      F b t t &.F : ; 4 1 4 4 t t 6 p > * a f :.|.OX|.|.r.}.e.L +.:.w.v.b.{.s.1 4 t 6 l l V ] o X 2 2 6 > 2 t 5 x t 2 2 p ! h.K.P..X-XR.K.C.n.K.K.P.P.R.qXmXFXNXFXsXR.P.C.f.f.p.I M / C.h.1.%.1.h.&XU..X&XC.a Y 1.Y ,.5.d.k.c.k.l.k.L.L./ > , c / ) ~ ) Y ) 1.1.} >.<.) m * ~ 1.-.| 3.d.2.2.1.} -.-.-.,.3.3.d.Z.A.S.S.~.#XN.l.Z.c.3.l.} E 5.Y 3.V.M.,.k.Z.).;X`.~.N.].).).).N.8.N.~.^.#X#XM.8.#X~.~.^.~.A._.( C `.`.#X~.).#X).Z.`.#X*X).#X:X`.:X1X].,X`.A.lX,X1X,X`.*X_.d.I.>X0 P L.U._._.>X_.>X+X>X*X&X>XV.5.V.I.(.A._.F._.A.k.C.L.V.k.V.5.,.} / <.I p P ~ / / ~ ) ~ x F ^ ) M 3 2 ~ ) ) P / a.>.Y >.f.a.n t 1 = %.h.) U %.^ M 1 , t t 1 % d $.$.$.@.@.q.b.m.D.D.s.r # % # L %XB.B.|. XL # % % % 1 D v.{.{.{.{.R e y D @.D = = d D R v.$.d t = 1 1 $ 1 ! P.n.%.y S y R m.XX<XD.B. Xv.D.2XZXCXCXJXJXJXJXJXJX                                                                                                                            ",
"                                                                                                    n.F F F %.%.u F Q F N t l l 6 t N , $ t X - g 6.|.|.|.|.e.e.}.w.w.XXD.XXg.4 t l l z ] l 6 o O o > , , $ 2 6 6 o 5 b 1.C.K.Y..XK.K.R.R..XqXrXuXuXmXMXJXJXNXNXMXFXmXkX=XL.C.C.C.>.M x _ <.s.p.<._ F M U f.0 U d.} } c.c.V.5.V.l.V.I.L.~ , > c ! U ~ / ~ >.2.} ) -.} ) M & ~ ) / ) 5.3.3.3.1.-.} } -.3.5.l.8.Z.Z.~.Z.~.#X~.l.Z.l.c.S.c.3.k.T } M.A.l.S.~.).:X).^.N.~.).).`.l.3.N.~.(.;X;X3.3.+X).).#XA.A.I.Y C I.`.`.`.#X#X`.F.;X*X`.,X,X,X+X,X,X,X,X`.(.yX_.>X;X(._.*Xd.I.=X0 U U.U.&X&X*X+X>X&X*X+X;X_.k.d.V.I.U.I.A.I.U.I.d.M.I.V.V.d.2.1.) ) 1.Z a / / / / ~ U U 5 p m ) #.1.U I / P I F ) 1.Y 1.C.f.a 3 1 & ^ s.1.<.) %.%.t t b u 1 H $.q.m.$.@.q.S @.q.b.m.%.r # = % 3  X}.B.}.B.d % 1 $ u #.P.{.{.}.{.{.@.@.$.G e # = u d 1 = t b b t 1 1 1 1 1 F s.4.R S G y R 4.v.b.D.4.v.v.v.<X1XvXyXBXJXJXCXMX                                                                                                                              ",
"                                                                                            K..XwXrXP.H.%.^ P.G G &.P.P.^ N t t 1 l l 7 O > = - # +.|.OX%X|.r.|.}.}.4.G %.^ l : 6 z l l z N 7 o O X . $ . o o , 5 b ^ p.s.K.Y.R..X-XqXuXmXFXPXPXmXFXHXMXNXbXbXnXNXbXkXBXBXiX*XU.C.C.x.) x t M ~ 1.a.! / K.h.5 v a.2.,.3.5.V.k.S.V.A.I.C.U & 2 x B B P I I ..>.) ( ) ) ) M & ~ ) / ) d.d.5.2.1.} } } -.d.l.M.8.S.Z.Z.N.~.:X).N.Z.l.l.F.k.X.d.J >.F.F.V.S.S.~.#X#X).N.).).`.`.l.5.N.).+X#X$X-.3.+X`.`.,XV.l.*X( C I.`.).).#X,X`.(.].;X,X>X,X1X,X,X,X].*XI.(.,X_.>X>X_.'._.a.A.eXa U I.U.&X_.&X*X;X&X*X+X>X_.d.k.V.I.I.A.I.A.U.I.M.l.A.V.M.<.) ) ) / 1.P s / / ) / U ! I p U f.Y.<X2XM.d R Y.pXU.) / / 1.f.~ t a a = D s.#.s.4.C.I = R %.u y s.m.$.q.@.q.m.S # u t u # . = = # # D }.%Xv.j % . : : b D.XX{.XX{.B.oXq.q.{.{.4.= % % = t d 1 1 t c 4 $ 1 & $ m 1.s.R d S R 4.XX.Xv.&.b. Xb.v.I.vXgXvXvXBXJXJXJX                                                                                                                              ",
"                                                                                    s.%.&.n.%.s..XzX<XP.n.i.%.%.cXm.%.m.%.F l t t t 4 , o > & % g }.}.%XXX|.}.}.{.XXm.= 1 1 : l z V l l N l : N B , O o O o 1 b ! %.p.K.R.uXxXsXuXsXGXFXFXFXmXiXsXMXFXFXMXMXBXnXhXMXnXnXMXBXnXyX_.C.C.h.f.~ 2 & t P U ^ _ M 3 a ..k.2.X.5.k.A.(.A.I.U.Y.U , 5 x x B P I ~ >.>.( ( ) ) ) n & ~ ) ( } d.2.3.3.2.} } } -.l.k.S.8.N.~.F.N.~.4X#XZ.~.S.l.N.l.5.2.9 ,.&XA.M.F.`.+X#X#X).l.).#X`.`.N.l.N.).#X+X;X3.3.#X`.`.*X5.T _.( n I.`.).`.;X,X`.(.*X*X,X>X>X>X;X1X,X`.*XF.`.*X_.,X*X`.*X_.l.x.>Xa I I.U._.U.&X;X*X*X;X*X>XU.5.V.V.A.A.A.U.A.I.I.V.k.V.k.k.a.>.>.>.( a.U M >.) ) / ! ` M P  X-XY.D. XM.d #.<XzXzX X/ Y >.s.m b U ! y b 4.^ 4.v.I d ) n.^ . S %.m.q.G @.$.$.u # 1 # . % 1 1 = $ . % r d = . # : y u % S R 4.b.|.XX}.}.b.v.b.D.R = 1 t 1 1 $ 6 t c t 1 1 $ = ^ 4.s.R y S @.R &.XXcXXXv.v. X X2X2XyXyXgXnXMXBXJX                                                                                                                              ",
"                                                                                  P.#.H D m.v.R D..XrXrXrXP.G XXHX9X^ n.i.G z t t t 4 o $ $ X # :. X{.w.L XXXX}.<X XD % t l N N z l N N l 7 N N V o o ; ; 4 N ` ` n.wXxXsXuXsXsXqXiXmXmXFXmXsXsXNXMXbXbXnXBXBXnXbXnXgXhXhXgXkXMXnXeXY.f.h.C.>.m & & & 6 , & x M m a.2.,.M.l.V.S.A.I.U.Y.U , 5 c c P U P Y >.} ( ) >.} ( n & ~ ) ( } 2.,.2.3.1.} } } >.k.M.V.8.N.Z.~.N.~.4X#X~.~.~.Z.Z.l.k.,.X f _.I.V.F.+X*X).+X).3.F.).`.`.S.l.Z.).#X).:XM.c.#X).`.;X3.C (.( M (.`.`.`.,X,X`.(.*X_.>X1X>X,X*X1X,X`.,XA.`.*X_.>X_.`.*X_.V.d.*Xa ~ I.&X&XU.&X>X+X*X*X>X1XA.d.V.S.I.V.V.U.V.A.A.M.k.V.k.k.a.1.>.>.) a.U m <.1._ I P F n F n.<X<X%XM.4.#.#.4.Y.D.4.#.Y 1.1.b F U R F b R b t D 3 4.P.s.&.1 b &.%.&.&.S G u % d y b b b F G ^ b $ & # # # # % 1 S b = = = H {.XX}.|.b.q.D.v.D.4.# 1 r 2 1 2 d b N N b r = 1 ^ %.%.R G S S &.$.R {.cXD.R 4.<XzX2X1X2XpXvXvXNX                                                                                                                                ",
"                                                                                rX<X@.= j {.XX#.%.XX.XrXxXrX%.cXHXHXP.%.&.^ F t 1 b 4 $ o $ & # f D d u u m.XXXX%XR % 1 b z N ' N N N l : ; 4 7 4 4 t 4 l Q Q i.K.wXuXuXuXiXuXqXuXbXkXsXNXiXuXNXFXFXkXbXMXnXnXyX>XjXgX1XjXkXgX;XgXMXyXL.x.f.a.p.U a & & & > c c v ,.X.| c.5.x.A.I.I.U.L.B & 5 c x P P m U ) ( / ) -.>.) M & I / I ) 2.2.5.3.>.( ( } ,.l.l.l.3.l.z.Z.N.~.:X#X~.Z.Z.z.Z.3.k.k.* & ( A.S.V.F.).+X).).5.F.).`.`.S.l.Z.).+X+X:X^.z.).].).,Xk.3.&XY C `.`.`.].,X;X(._._._.>X>X;X*X*X,X,X`.,XS.`.*X].,X'.`.*X`.A.2.'.v ( U.&X&X_.&X>X+X*X+X>X>XC.C.V.A.I.V.A.U.V.A.V.M.d.V.k.k.2.,.<.<.( a.m M _ ) ) U ! B d 3 d R R 4.F.v.4.XXD.#.f.%.>.P 4.#.b F F F b t ^ #.b t t F #.s.D 1 4 G G H H u u 1 t S F ^ F G s.H.K.n.F # = = = = = u F ^ 1 e y @.{.}.|.{.b.R D.4.b.m.u r r x M F F U F b N F U ^ %.4.#.#.y H @.$.@.j #.cXXXb.s.s.zXZX*X+X1XhXbXbX                                                                                                                                ",
"                                                                              P.XXcXb.i $.XX%Xq.H m.P..XrXs.F xXGXHXxX^ S G b t t z t 6 o t r = % 1 S N 1 u D.<Xs.r t t z N N ' Q N l 4 ; N Q Q ` ` ' l ' ` i.E.wXuXuXuXrXuXR.-XpXuXiXbXuXpXbXNXNXNXNXnXBXMXnXgX1X1X>XlXjX>X;X*XhX_.*XkXL.<.>.U P U M 2 o 2 x M s } 3.,.c.c.V.A.I.I._.C.B , 5 c c B m M Z / / I Y ) } ) M & P U P ) d.3.5.3.-.( ( } } 3.,.3.-.8.l.Z.z.Z.:X#X~.N.~.Z.(.5.M.-.& g E A.V.M.F.).#X+X).M.~.#X`.~.N.c.F.).#X#X$X#XN.).].).).S.A.>XY n (.`.`.*X,X].(.;X;X_.;X>X*X(.+X,X,X`.,XV.I._._.,X_.(.]._.I.a.U.v ( U.&X*X&X*X>X+X&X_.1X*XV.I.V.A.L.V.A.U.V.A.V.M.d.V.k.d.<.,.<.<./ p.M a U F U I ! F t t 1 1 #.%X%X{.v. X Xv.4.C.f.D R U b b M G t b D.D.#.G D y t F b 1 y G y b y 1 u t y b t t G i.XX.X.XfXg.1 $ % % = u S F F d = d 4.{.}.{.}.:.u $.{.D.&.= 1 a F U ^ U F M F F ^ &.&.&.4.4.D.G y H @.G G #.{..XR D.XXzX%X@XI.>XhXMXBX                                                                                                                                ",
"                                                                            m.s.{.XXXX$.oXXX<X<X&.@.$.&.n.%.F n.n.n.%.b u G z N z z N b $ a d a F y ' N ' t t G 1 t b t z N N N N Q l ; z ` ` ` i.Q z z ` ` J.wXxXuXrXuXqXY.f.C.=XeXbXkXeXpXMXbXMXNXNXbXhXhXhXVXjXhXgX1X>X>X,X>X_._.;XtX_.C.>.I P I _ U > , x B x Y 2.X.,.l.V.I.I.L.'.C.B > 2 5 c B M n M Y Y I Y ( ) ) M & P P U } d.1.3.3.-.} } } | -.-.3.;.c.8.Z.N.~.4X:X).Z.Z.Z.).N.S.J @ 3.+X*XV.V.F.).#X#X^.N.Z.).(.(.N.l.~.^.:X#X#X#XS.Z.#X].`.A.(.>X( n (._.`.].;X*X`.;X>X&X;XtX*XA.*X,X,X`.;XS.I._.F.+X(.I._._.I.k.I.s } _._.-X&X=X>X*X*X&X1XU.A.U.I.A.A.M.V.A.V.V.M.M.l.V.d.d.,.} ) ) ) a.n a m M P I U M 6 p 1 R <X Xb.b.v.{.XXD.D ^ f.n t d t t c N 1 d D.m.m.m.R b 1 1 t 4 t 1 D D b u 1 S G z F b F F &.XX9Xn.N 1 $ 1 = 1 t G ^ S % % r #.B.{.{.XXH % y 4.m.4.u r b F D F F ^ ! G R &.p.s.s.4.n.<X{.S H G H j @.$.XXH v.NXzX@X@X2X*X>XpX                                                                                                                                  ",
"                                                                            n.s.P.{.XXXXoXXXXXXXD.H #.s.rXp.F %.n.T.K.s.^ t t z l b t 4 1 3 b = b Q Q Q Q z o : $ 1 c N N Q N z ' z : ; ` Q ' N ` z 7 ` ` g.dXdXuXuXbXqX&Xa._ 1.V.tXpX*XiXNXbXJXNXhXnXhXhXkXkXVXnXkXgXhXhX1XyXjXyX>X*X_.*X>XV.f.I Z f.&Xh.p 5 n 0 M 2.5.5.V.V.(.I.L.'.x.n , , 5 B P B M M / ) ) T | } ) M & U U U } d.,.3.,.-.} } } } 3.3.k.3.c.3.Z.N.).4X#X).~.~.~.(.S.I.,.9 } +X(.F.F.Z.).).@X~.Z.M.~.(.`.S.l.~.Z.#X^.].#XN.l.~.#X`.I.I.*X( M _.'._.`.,X>X_.&X*X>X>X>X_.F.1X,X#X`.#XF.(._.A._.`.(._.(.I.V.I.n } _.U.-X&X>X>X;X;X;XtXI.L.U._.A.A.M.V.V.V.V.M.M.2.d.a.d.1.) ..<.) <.a p F m U ! B b t 1 t n..X XD.R &.D.n.D.M a F x 2 t 6 t N b % d m.m.D.$.S r 1 u d t F d y y r r b &.z z N ^ F G S S b t : 1 $ F G u 1 d ^ S % 1 d #.b.XXXX:.= y d r ^ #.u r b ^ &.^ ^ ^ G ^ ^ v.P.D.v.4. XxXXXj j L :.L j L XX#.#..XzX4.B.vXBXbXbX                                                                                                                                  ",
"                                                                              n.P.XXXXXX{.XXXX<XXX%. XP.%.h.GXwXK.rX9Xn.XXs.%.t 4 t t 1 $ 1 a 1 c N ' ` Q ' l : $ , t F N ' ' V 4 ; o 4 Q ` ` N l 7 N H.g.9XSXaXqXsXuXuXY.<.) >.C.&X-XtXbXbXNXMXhXpXgXnXvXyXjXnXvXnXnXnXhXgX1XgXlX*X>XkX>X+XI.V.d.( qXmXqXf.x v p v 2.d.V.V.(.*X_.I.'.a.0 , 6 6 c P B n U ) ( ( Y } } >.n o ~ ) ) } >.3.1.,.1.} ,.-.| ,.3.d.3.8.3.N.N.Z.4X$XZ.Z.~.^.).).S.M.C E V.S.M.V.~.F.F.~.^.N.Z.~.(.(.N.l.~.Z.~.~.).#XS.7.!.:X).A.V.&X) C *X_.+X,X>X>X*X*X*X>X>X>X`.(.,X,X*X).*XF.(._.F.`.F.`._.`.I.L.L.v >.U.U.>X&X-X>X*X;X*X;XA._.I._.A.A.d.A.k.V.V.M.f.2.d.d.2./ ( ..>.) <.5 t B B ! P B N 5 $ b P.P.C.&.d #.m.f.v.D p p c 6 t t z b 4 $ = H D.D.#.q.q.S S F d t b d r y ^ m.XXS G F G t S y y 1 : : 1 1 &.XX$.G u u u % u R %.b.D.R e e u d b &.G D b b b %.%.^ ^ F ^ s.n..X XC.Y.tXpX%Xq.w.B.%X%Xv.L q.^ #.4. X:.:.}.BXJX                                                                                                                                    ",
"                                                                              C.P.XXXXXXD.D.XXcX<XD.C.! K.PXLXLXR.n.n.p.n.D.n.^ 4 4 t t & = D 1 b F ` ` Q ' 4 : $ , , 6 V N l ; 7 7 ; 4 V N V N l 7 j.9XaXxXdXaXsXqXqXpXC.} <.x.M.L.=XbXiXiXbXpXhXbXhXnXnXvXkXyXhXVXhXjXjXlXhX,X1XjXjXyX_._.I.k.L.C.mXFXFXY.F x p Z ,.k.V.A.(._.I.I._...v & 2 2 x U B M U / Y U Y } ) ) s & ) >.( } ,.3.,.>.,.} 2.} T X.,.5.3.5.;.N.N.Z.:X#X~.~.~.+X+X(.M.5.a U T | | 3.M.N.N.N.Z.N.Z.Z.~.F.l.N.).~.).Z.~.^.N.7.z.`.F.V.A._.( Z =X*X;X,X,X;X*X;X*X>X>X>X_._.,X1X#X`.*X~.`.`.A.`.F.`.+X(.A.L.I.s <._.U.=X&X2XyX>X;X1X;XU._.U.A.A.V.2.V.V.V.d.5.d.2.a.,.} / ) >...) >.5 3 B b P B B c t c b F D D b R b ) %.U a a t 4 c t t 4 1 1 = = = u H B.}.B.#.&.4.&.b D r D D..XcXXX@.H G G z S y S S y 1 : 1 y s.XXm.u = = 1 = b %.G y e u H R G F ^ S b R S u z i.J.XXm.Q ^ .XrXU.-XtXvXvX<X6XOXB.}.%X}.:.4.4.D.v.#.:.:.6. XHX                                                                                                                                    ",
"                                                                            C.C.P.      rXD.P.rX.X%.m K.LXLXKXKXHXP.J.n.n.^ r 1 1 r F a & = M d M F F N b b t , , ; 1 ; : V N N ' 4 o l ' ` Q i.4 ' 0XxXSXdXuXsXsXeXeXuXC.<.d.x.L.C.Y.pXpXsXbX=XiXkXiXiXhXvXhX1XyXjX,XyX1X*XyX1XVXjX>X'.A.I.U.A.d.C.FXmXJXwX/ a x ~ ..l.k.S.(._.I.U.U._ ! , , 6 x B M x Z I Y U U ( Y ~ p > >.>.} 1.2.2.,.,.1.-.2.( T } -.3.3.3.| l.z.N.).).Z.~.).+X`.`.V.5.9 J c.N.V.S.).#X+X^.^.~.~.Z.(.S.3.Z.`.Z.).N.!.!.z.8.N.~.Z.A.2.Y 0 I >X>X>X>X1X1X>X>X>X>X>X>X*X_.>X,X).`.*X(.`.`.A.].(.`.`.I.A.I.L.s <._.U.=X=XyXgX1X;XyX&X&X+X+XV.F.A.1.k.M.V.5.d.5.>.a.<.>.) } ) / ) _ 2 2 U B ! F B F ^ ^ b t t t t D r 1 3 r t t t 6 c 4 l t ; $ 1 s.R = D XX{.XXv.&.4.4.H r d  XrX.XXXP.D.&.&.$.&.F 1 u F i.%.b u : 1 S &.^ q.m.#.d = d y r y r b ^ ^ y b F p.g.F y u &.m.J.n.J.F P.iX=XiXnXvX1X;X6X%XB.e.}.%XM.5.4.tX<X#.w.r.w.v.bX                                                                                                                                    ",
"                                                                                            h.T.p.b T.KXKXKXKXKXLXrXP.n.m.b 1 1 1 = %.R % # M d a t = 1 % % 3 3 1 $ , ; 4 Q ` Q ' ; : ` i.i.` ` 4 g.aXSXdXuXrXrXqXuX=X=XU.L.L.C.C.C.C.U.qXqXqXtXiXkXiXhXhXgXhXhXhXyX;X,X;X1XjXnXlX_._.&XI._._.I.Y d.JXNXFXuXs.m m >.} k.k.V.A.A.A.U.L.a.1., , 6 c B x p m U I U C Y ( ~ 3 & 1.1.1.2.,.,.>.1.1.-.2.Y T } ,.5.3.5.| z.N.N.~.~.Z.~.).+X`.+XM.,.< E ).:X+X).#X:X$X#X#X#X~.Z.).l.| S.~.Z.#XN.~.!.N.N.l.N.M.F.( a * ( pXtX>X>XgXgX>X>XtX>X*X>X;X*X1X,X`.(.*X~.`.`.S.`.`.F.F.(.I.A.A.v 2._.U.-X=XyXyX1X;X1X_.*X+X+XV.I.M.,.d.5.5.2.f.2.1.d.2.} ~ / ) ( ) >.> 2 F M B B N U I M d 1 1 y D R H d d b d ^ v.s.n.i.l 1 , $ t XXD.S y q.XX{.D.G 4.D.^ r n.<X.XP.m.m.D.m.m.m.m.i.G : u &.m.i.%.z % d m.XXXXD.D.D.S u D 4.m.n.^ N 1 y F ^ _ F b b S &.%.g.%.^ d 4.tX-X*XpXhX2X1X4XOX:.6.B.w.@X XC.NXCXF.w.w.w.D.NX                                                                                                                                    ",
"                                                                                              n.F _ .XKXLXPXLXKXHXrXXXXXs.y r % = = r g - - D g % d L L L R d 1 1 1 : ; V ` Q ' ' ; ; l z l 7 o l T.aXSXdXuXuXsXuX=XU.=X=X=X=XR.C.C.C.Y.rXqX&XqXiXhXiXbXnXyX1XtX>XgXgXyXyXkXnXyXA.I.I._.I.'.*XU.( } NXNXmXrXh.~ P 2.>.A.S.A.V.l.M.I.k.C.p.> > 6 c b n x m Z Z m U T ( ( < & <.a.<.2.>.>.} 1.,.-.,.Y Y ,.,.c.8.8.;.N.N.N.~.^.~.~.).*X+X(.k.-.* Y +X,X#X~.).$X$X#X!.).Z.~.#X;.[ S.^.Z.:X~.).^.!.Z.8.z.c.F.} Y v ~ yXtX>X>XjXgX>X>X>X=X&X>X,X;XyX,X`.~.*XF.`.`.Z.`.F.Z.F.(.I.A.A.M f.'.U.&X-XyXpXpX>X*X+X;X_.U.V.V.d.5.V.5.2.5.V.d.1.a.a.) I I ) ) / ) > 2 F b B n x d F #.4.m.#.r &.4.4.$.4.4.#.G 4.v.P.m.F t t 1 b J.D.G d R XXD.@.1 S m.%.d  X.Xm.&.s.{.D.m.D.D.P.n.s.y % 1 b b u u ^ D.XXXX{.D.D..X#.t G m.D.XX.Xg.1 t N F b b y z ^ s.g.J.n.Q t s.-XC.A.;XgXhXZXvX3X6.w.F.M.2XZXZXMXZXzX:.+.+.D.zX&XY.uX                                                                                                                              ",
"                                                                                              M     p.FXKXKXLXdXn.#.G @.F t y u # r W 6.t.g g e d |.OX}.3X%Xv.L = 1 z b Q ` Q Q ' 7 o o : ] V l N 9XSXdXdXuXrXwX=XU.P.-XR.&XqXR.Y.K.P.R.qXuXqX-XuXiXpXpXhXyX>X;XtXyXyX*X>X1XkX_.A._.I.V.I.*X&X=X_.d.hXFXMXuXC.>.Z >.} A.(.(.A.c.M.A.a.Y.1., , 5 t x x p m m Z C T T ( ( & & a.d.<.d.,.,.-.3.,.>.,.Y ( 2.2.l.k.l.;.z.N.N.~.~.~.~.).;X;XF.k.3.* f ~.#X).~.^.).].^.^.].Z.~.`.T | Z.^.~.#X~.].^.^.!.8.z.8.V.( <.Z U pXtXtXtXyXyX>XtXeX>X*X>X,X;X1X,X`.~.;X~.`.#XA.`.Z.F.`.`.A.A.L.m a.&X_.U.-XiXiXpX>X+X;X=X_.I.I.V.2.1.k.1.,.<.M.2.<.<.<.>.) ~ ) / I ~ > & ! b B M a #.D.D.D.b.L y @.4.v.v.b.D.b.4.S G m.s.^ b z t b J.D.G ^ S G R 1 u 1 1 t t S S b &.D.{.D.P.{.XXXXJ.n.b % : 1 u : G n.P.m.D.XXXXXXD.&.#.G m.XXm. X.XF $ 6 d t 1 t b ^ n.P.n.n.%.%..XY.C.L.;XnXvXvXvXvXG.w.}.6XzXBXJXNXCXvXw.L k w.%X X<XrXuX                                                                                                                            ",
"                                                                                            s.)     E.R.PXLXxX^ S S u = u y u r d B.6XOX3X|.g # t.7XOXOXOXy.3XD.d t b F F ' Q Q ' ; o t ` i.` l Q .XxXaXxXuXR.f.C.L.P..XU.-XuX&XR.R.-X-X-X-XqXqXiXxXpXpXiXyXyXyXtX*XtX_.&XjX'.x._.'.U._.=XeX=XeXhX_.eXMXHXiXC.a.U } } S.`.`.`.k.V.F.f.U._ , , 2 5 p c p M M U U U Y } ( & < f.a.1.f.,.,.,.5.1.,.,.Y ( 2.,.k.N.z.;.8.l.N.^.~.~.~.S.(.;XS.5.| * C F.+X^.Z.^./.]./.$X#X~.~.Z.T -.~.^.~.).).#X].).!.8.z.5.l.} 2.Z ~ gXyXhXgXgXyX1XyXyXeX>XyX>X;X,X*X`.F.,X`.`.+XS.`.F.~.`.(.A.A.I.m 2.*X_.A.U.iXhX1X=X&X1X;XU.I.U.A.d.d.k.-.2.d.V.1.<.) ) ) / ~ ../ I I > & P x B x R D.b.b.D.$.y L v.q.$.q.B.v.4.v.q.y H &.^ b y : S P.n.z G y u % 1 1 : $ . $ $ $ b %.{.XXoXD.$.m.XXXXJ.N $ 1 : % t s.n.D.D.{.XXXXm.m.n.n.@.H J.XXn..XT.b 1 $ 1 3 1 F Q ^ p.s.p.&..X.XC.Y.&XyXvXyXvXZXvXG.w.@XvXNXNXMXMXKX2XB.L j +. XR ^ P.iX        tX<X                                                                                                                ",
"                                                                                            v -XHXxXuXp.dXLXn.N G @.y u y y r j B.OX|.OX3X3XW # k r.OX7XOXOX6X:.y t z F %.Q ' Q l ; l i.i.` ` l ` .XaXaXwXT.C.h.C.R.T..XwXwXaXrXrXuXsXuXuXiXrXrXsXsXpXpXiX>X>XgXpX>XnXd.( *XL.*XU.I.*XeX*XtXkXiXeXyX=XbXHXiXC.f./ } } S.`.(.`.c.V.A.k.U.) 2 + 2 0 c x c B M U Z Z T ..( & < h.a.<.d.} -.,.d.2.-.>.I Y 3.-.l.M.l.| 8.l.N.).^.~.^.l.V.(.k.3.T & C `.;X).Z.!.^././.^.^.~.~.N.[ 3.Z.).).).#X5X#X).Z.N.N.5.5.2.k.Z ~ hXyXgXhXNXhXtXyXyXtX>XjXyX;X,X*X`.F.:X`.).`.l.F.`.F.A.I.A.A.L.m d.=XU.f.M.>XiX>X;X;X1X+XA.A.U.A.5.k.V.} ,.d.A.2.Y m U / / ~ ) I U ! > 2 P B ! M C.v.q.D.:.q.:.@.b.b.b.{.B.b.D.v.b.#.y y S y u : b .Xm.1 1 1 1 $ 1 t y : : : t 1 1 G m.XXn.XXG u F i.n.F $ $ $ : F J.P..XP.D.D.R &.D.D.m.n.= G .XP.J..Xs.1 $ $ 1 F n.T.n.! F c F wXC.n.Y.-XvX=XyXyXvXZX<XF.vXNXvXxXMXJXBX<X XH L @.<X4.R %.f.-X    <XD.D. X                                                                                                              ",
"                                                                            D.v.D. X      1._ GXLXmXGXh.h.JX.Xb F H y d d j e :.3X|.OXOXOXy.k k y.y.y.OX7XOXe.g d S Q ` ` ` Q z 8 4 ` i.` i.` z u.9XSXxXwXE.n.h.K.P.E.R.wXwXwXaXdXxXdXrXsXsXrXqXiXuXqXNXkX&X>XtXpXuXC.) Z C.Y.=XA.U.=XtXyXtXeX>XbXkXeXNXNXsXC.<.( } 3.S.F.F.A.l.V.V.k.U.~ 2 + 6 c p b n n M U P T T 2.} & > f.a.a.k.1.-.-.,.) ) } Y } 5.-.5.c.M.;.3.z.N.~.Z.).).l.5.F.5.-.T & s Z.:X).^.Q.^.Q.$X/.^.~.^.Z.3.;.Z.~.#X+X5X4X).!.Z.N.z.8.M.3.d.Z ~ hXiXiXhXbXiXyXyXyX;X_.jX>X1X>X`.`.`.1X`.(._.V.(.A.F.k.k._.V.I.C 2.*X_.} ( =XNX>X*X;X*X+XV.-.Y k.d.M.d.Y 2.V.A...v I _ 3 Z ~ ( I I ~ & 3 Z M M B 1.^ D r $.}.e.q.w.oXb.q.4.4.D.v.@.j H H u 1 z u z P.&.1 1 1 # $ y b 1 $ l ^ Q 4 4 z ^ D.XXD.S : $ 4 N z ; $ $ 1 4 c S G G b t = &.oXD.m.v.u # ^ P.P.H..Xi.1 t i..X.X.XP.n.c 4 ) R.n.M.Y.&XpXhXhX1XvXvXZXvXvXCXMXbXbXFXJX<X6X$.L R cXrX#.R #.v.  cX%X<XD.:.}.%X                                                                                                          ",
"                                                                        B.q.$.4.q.v.m.D.  F R.KXPXxXPXwX_ uXmXY. XD.G r i r e @.y.|.OXOXOXy.t.e.OXOX7XOXOX3X6.e y S ^ %.` ` N t ; ' ` ` Q i.` l ` 9XSXaXdXT.K.C.K.T.T.T.9XfXaXdXuXxXwXwXdXwXuXuXqXrXsXuXiX=XC.Y.R.f.) C.U.&XU.L.C.'.tXeXtXeXyXyXNXiX=XbXMXkXC.f.Y | 3.V.F.(.Z.k.k.M.A._.I 5 & 4 6 6 5 x M M ~ m T | 2.) & < a.a.a.d.2.} >.d.1.) ( I } d.-.5.l.c.| 5.3.5.F.F.~.N.N.M.M.,.} ( @ s S.].).N.N.!.!./.$X/.^.^.~.9.8.N.+X).:X#X5X$X).~.Z.z.l.F.5.k.I / iXiXiXbXbXiXyXiX1XyX;X*X*X*X1X+X`.`.1X`.(._.V.(._.V.} } I.A.I.C a.&Xk.m ~ ( C.yX*X;X1X*X2.J J 5.l.M.d.( 1.k.V.( m B 5 X 0 ~ / / I / & & B M n p 6 1 = = :.|.e.r.B.|.|.v.S = D H R R H &.S : u 1 b XXG : % # 1 t b 4 ; b ^ N 4 1 b 4 t %.P.&.: % 4 6 1 1 1 $ $ o 1 1 1 t u 1 t u &.m.s.D.&.. # = %.n.R.P.XXn.J..Xg.%.%.p.P.n.s.C.Y.C.C.U.-XtXiXpX1X;X;XpXbXMXNXbXkXMXJXbX-XZX}.#.L P.HX.Xs..X     Xw.6X}.:.}.w.D.                                                                                                        ",
"                                                              D.q.b.B.|.@.@.q.+.@.@.@.D.s.M xXGXGXGXPXGXp.P.LXLXJX@X@.j @.k g g 6.r.OXOXOXOXy.y.OXy.OX7XOX7X|.g H S F ^ Q Q l : t ` ` ` i.i.' 6 j.fXaXfXdXwXR.K.K..XwXwXuXaXaXaXfXwXuXSXR.p.uXsXiXrXsXsX=XC.p.f.>./ p.&X=X'.&XY.U.&X=X-X>XyXhXiXkXtXR.uXmXuXC.k.( } ,.M.F.(.A.k.V.l.A.I.U x & 2 6 6 6 > 2 0 m U T } 2.( < > p.a.f.1.1.} 2.V.>.) Y C | d.| 3.l.5.K ;.5.c.M.k.M.-.l.F.M.3.-.} * s Z.).].Z.!.!.N.!.^.^./.].^.N.8.!.^.#X:X).#X).).~.l.Z.M.V.d.V.Y } iXiXkXmXnXgXpXhX>X>Xc.5.*X>X,X`.+X`.>X`.I._.V.I.&X2.s a a.L.L.M a.&Xf.9 < & <.yX>X>X>XI.Y M Y V.d.k.5.) >.k.k./ U p + X 2 ~ / I I I & < P n x c b c 3 3 w.G.|.|.B.e.B.XX#.= d R #.j R &.^ b : u y n.b # % 1 t t 4 . t Q z 1 4 t y t 4 y F u : 1 1 1 ; 1 1 $ l t ; 4 1 1 : 1 t u ^ J.P.n.t # $ X o 6 F i.n.n.&.N %.g..X.XP.n.C.C.f.n.A.&X2XpXhXyX;X(.@X+X1XnXMXNXbXHXJXzX&XCXJXtX-XzXJXJXJX      B.L +.:.{.%Xw.4.<X                                                                                                      ",
"                                                            D.4.w.r.|.|.@.d :.@.@.j j 4.F h.HXGXGXGXGXPXR.s.mXJX<XE W :.:.:.+.k k t.OXOXOXOXOXy.y.y.y.OXOXOX3Xt.S b Q %.` Q t 8 l ` ` Q i.` N ] g.aXaXaXaXuX.XR..XwXuXuXaXaXdXdXaXxXrXR.%.` rXaXrXqX-XqXY.C.Y.-X_ ) Y.P.L.&XU.C.C.C.L.-XuXkXpXpXbXuX&XuXFXiXC.f.} -.,.M.F.(.S.M.V.d.A.A.P M & > c 6 > > ! p.~ U Y } 2.) 3 & p.a.1.} ,.Y <.V.( Y Y J -.d.} 3.k.l.T ,.l.3.,.5.(.-.E S.l.5.-.( * C Z.~.^.Z.!.^.N.Z.N.Z.].#X~.l.8.^.^.:X:X#X#X).F.Z.Z.).M.k.k.A.Y 1.kXsXkXNXhXyXyXpX>XV.T X.3.F.,X`.+X`.1X`.I.`.V.A._.Y * & Y A.A.M 2._.A.) Z I _.>X*X>X>XU.1.,.d.I.2.k.2.} ,.k.2.Y I M 0 5 Z ) ~ P ~ P & 5 ~ n x B N F F d 5.{.D.B.b.4.D.D.D = d R R d y H b 1 : % 1 ^ b : 1 1 1 t $ 4 l t : : t t 1 1 1 $ $ $ : $ $ : $ : : : z : $ $ . $ 1 : : 1 y s.n.F $ 1 $ $ $ $ . t G c t &.n.n.P.n.n.P.Y.C.h.C.A.&XyXpXhXhX2X@X@X+X>XpXhXNXJXBXJX=X-XNXKXJXKXJXJXJX        %X+.+.q.6X3X:.$.v.      tX                                                                                              ",
"                                                            #.$.e.r.e.e.*.g @.$.j j d y u .XHXGXGXIXPXPXsX_ qXHX4.L e.6.t.6.t.@.e r.OXOXOXy.OXy.e.y.y.OXOXOX%XB.y z ^ ^ ` Q l 7 N ` ` Q ` Q N z h.9XSXdXuXR.wXwXuXuXrXrXfXaXaXAXdXfXT.K._ ` K.E.K.&XR.P.R.uXR.U.) ! U.Y.L.U.L.x.U.L.C.&X&XtXtXNXpXpXqXuXMXeXC.a.} -.,.V.F.A.N.S.l.d.I.V.m M & 2 B 6 2 > B a...( T } 2.,.5 & 1.p.~ >.} a P 2.~ / Y Y >.5.} ,.c.k.K X.c.-.| } V.U g 5.8.5.3.| * s c.~.].~.~.N.3.;.N.N.~.^./.N.8.^.^.#X:X~.#XZ.| 3.~.`.S.A.x.A.~ 1.kXhXhXkXyX1X1X1X>X3.f C C 3.+X+X*X+XyX`.F._.A.F.U.m * 9 Y A.I.Z 2.*X&X_.U.&X>X=X&X1X>X_.A.I.I.A.1.k.,.,.d.f.) U / Z Z U ~ 1.,.Z ~ I & 5 ~ B n x ! ` ! t D v.v.D.#.r g r - 3 r 3 d = % u $ 1 % b %.XXD.G y y 1 $ $ $ o $ : 1 y t t t 4 : $ 1 1 $ t Q ^ F 4 # % % : z t : : 1 1 t : b 4 $ ; ; $ $ o $ $ 1 t 4 _ p.%.s.h.s.h.n.C.n.C.n.A.2XbXtX1XhX>X_.I.;XyX>XyXZXnXMXMXY.=XMXJXHXJXJXKXJX        F.#.#.%X3X}.|.w.D.    Y.M.&X                                                                                            ",
"                                                          L H L e.r.e.t.:.k e L j H S u D xXGXHXGXGXGXPXLXs.A.JX:.W r.t.W t.W k k r.OXOXOXOXOX|.W g t.r.OX7X6X{.R G &.^ ` Q 4 6 ` ` ` ' Q Q N l H.9XdXdXwXK.T.rXrXwXrXaXdXdXdXdXdXT.s.p.` n.9XP.K.E.C.R.wXuXrX-X/ ! h.Y.Y.h.f.p.L.C.C.Y.x.C.C.&XkXuX-X-XbXiXL.a.( } 3.M.k.k.l.V.d.2.A...x B & 2 c 6 , o o p / ~ T X.,.a.3 , _ ..<.f.} * * p p I ( Y ,.5.} X.3.l.h | c.3.Y * 3 - * | l.l.l.>.9 C M.F.).Z.S.[ } S.3.N.Z.^.#XZ.8.!.~.$X4X~.#XX.s C | ~.`.`.A.I.~ ,.bXhXkXgX1X>X1X1X*X3.s s | S.`.`.+X+XgX_.I._.A.I._.m a I <.L.U.Z 2.*X>X=X=X*X&X>X;XpX&XA.I.+XU.A.1.d.-.,.f.d.Y C I I Z P / d.,.I Y / < 0 U Z M b ) ! U F p #.v.4.d X & - r g 3 3 % % 1 1 % $ b XX.XXXm.%.S 1 : 1 1 : . $ : 4 b b F ^ b : . $ $ t p.n.n.s.%.u . y &.s.%.&.^ z 1 1 4 : . $ ; $ $ . $ $ $ t b t ^ ^ ` %._ _ %.1.s.C.f.C.-XiXpX>X;XyX1XpX1XyX1X;X1XvXZXCXNXA.bXJXJXKXJXKXHXHXJX      5.#.}.6X:.:.w.%X      <XM.Y.                                                                                            ",
"                                                          D H L t.e.*.*.e.@.e j j j u e 4.HXxXxXGXGXIXGXLX.X<.zX+.:.t.W 6.6.W L W W y.OXy.OXOXy.g # e g t.+.D S r y b F %.` 7 l g.g.i.N N Q Q l i.9XfXaX9XR.T.wXuXaXaXaXaXdXAXdXaXT.s.n.9XdXfXdXwXR.T.wX.XY.-XR.p.C.U.qXK.>.s.h.L.Y.L.L.f.C.L.-X=XY.h.P.sXNXY.>.( } ,.d.5.c.k.c.,.3.C.C a B , > V 5 , p x P ) U Y ,.,.1.0 > ) ) ..1.Y 3 & & a 1.,.( 2.d.} } 3.d.M | d.5.Z X @ * g [ l.N.d.3.9 f l.l.l.l.l.9 9 T | ~.~.^.:X~.z.Z.Z.#X4X~.`.K * 9 A ).,X+X`.&XY 2.kXhXkXyX;X>XyX1X;Xd.} ,.k.*X1X_.*X*X1X_.I._.(.I._.~ ~ a.V.U.U.M <.&X*X*X>XyX>X>X+X>X_.U.I.I.A.V.2.d.>.,.2.d.( m P U Z Y Y a.<.Z I Y < 0 / Z B Z _ ! ! / p t F 3 = = & & 3 a g 9 1 1 1 $ 4 : G J.J.m.s.&.y : y u u b 1 . # $ $ : 4 t 1 : $ : $ ! g.i.s.s.m.u : G &.&.&.&.s.s.F $ : $ ; $ . $ $ . $ $ 1 b 4 c B N ^ ` ! ! / ) 1.f.f.A.pX2X&X;X>XyX=XiXvXgX1X2X3X2XvXZX2XF.CXJXJXJXJXKXKXJX        @X-X    b.:.:.<X      vX<X2X                                                                                            ",
"                                                            @.L :.e.@.@.@.@.j i H j j u D.GXSXxXGXIXGXPXGXdX) M.E :.+.:.t.L k W @.g k t.y.OXe.k e e r # k # . % : y u 4 z ` 4 z g.g.j.` Q ' Q z l T.aXfXdXuXwXwXuXdXdXaXaXdXdXfXdXdXuXaXxXdXfXaXdXuXwX%._ j.s.h.wXuXqXsX&XK.R.wX&XqXeX'.U.&X=X-Xa.h.L.=XsXuXP.f.) } X.3.3.l.V.d.E 2.A.M a P > , p 5 2 x U / U Y U ,.2.) a & ) / ( ) Y v 0 3 U f.a.E ,.2.( ( 2.3.f E 3.,.J Z Y U K ;.N.S.d.5.3 s | | T 3.l.s @ & [ `.~.~.#X~.N.~.~.^.4X).#X3.9 s z.:X,X,X*X;X( 2.hXhXhXtX_.*X1X,X*XI.A._.(.*X_.*X;X*X1X_.(.*X_._._.a.d.V.L.*X&Xv <.>X_.*X1XgX*X;X*X*XU._.F.V.V.S.d.d.,.,.1.d.} M C ~ ( ( ~ 1.} Z I U & 3 ~ U U m ~ ! _ ! ! t , 1 6 t & 3 n 9 g a t t z 6 . $ b %.m.m.4.&.S G &.y 1 b b 1 $ $ $ : : 1 1 1 $ $ o c %.&.s.&.4.u S 4.@.G @.#.&.s.&.t $ : : $ t ^ Q z $ $ : 1 1 l t F F ! F ! ) %.f.h.s.<.L.U._.=X;XyXhXpXbXvX2XG.6.6.G.3X%XF.CXCXJXJXJXJXHXKX                <Xv.4.        2XvXZX                                                                                            ",
"                                                            #.#.w.$.:.$.$.#.@.j d D H S rXGXFXGXdXIXGXIXSXLXv.a R :.w.-.d g E +.W :.k e g k e e j D L g n 1 . 1 t u t u 1 N c N n.g.g.j.i.` ` N 7 j.aXfXxXwXuXwXuXdXrXaXaXuXwXfXdXaXwXdXfX9XwXaXaXwXR.f.C.K.K.K..XR.uXsXrXuXuXqXwXuXqXeX=XmX-XU.P.qXuXsXuXsX&Xa.( } ,.2.5.k.V.2.} 2.A./ s P > & b t , c B U ~ ) Y ,.>.( p > ! ~ } Z s M Y m >.f.2.Y -.2.( T 2.d.s | 5.} E 2.M.l.;.8.l.S.k.3.9 s 3.c.c.S.M.,.9 C S.1X#X~.#X/.^.^.!.].5X#X:X`.l.(.4X4XjX1X,X>X..a.hXkXtX*X_._.yX,XtX*XA.*X(.*X_.(.+X*XyX;X_.;X+XI.>Xk.f.A.L.&XU.a 1.eX*X*X;X1X+X1X*X>XF.V.S.I.I.k.d.f.2...2.d.( J U ) Y ) Y >.} Z Y Z < 3 Y Z m M ! ! _ _ ! B c t c t > n M a a a t B b t $ # 1 G %.&.&.@.@.$.m.#.t t t $ 1 $ $ : : 1 4 4 , o $ , y H &.&.S u $.s.&.#.S S &.&.F u $ $ $ % &.&.&.&.b b 4 4 $ b F F N B ! ^ / %.p.f.a.%.f.U.+X*X1X1XiXpX2XvXF.+.W k k L t.|.ZXCXZXZXJXJXJXJX                                @XF.                                                                                            ",
"                                                            R #.:.      +.R #.D y S S #.zXmXxXxXsXdXSXPXSXT.4.= D E f - # # r R 4.w.:.W e e R H R ^ #.m x 1 $ 4 t t u u t t b ^ K.j.h.g.H.n.i.` , B wXaXfXwXuXuXdXdXuXdXdXuXaXfXwXdXdXaXT.T.R.R.wXwX.XK.E.K.K.K.E.R.wXuXuXsXuXuXuXsXqXqXuXqXU.-XxXmXmXqX-XmXR.C./ } 3.2.5.k.k.d.,.M.'.a.M m > , p x , t x Z / ~ Y 3.,.) p & ~ / Z Z I s I Z / x.2.( ,.2.| Y } d.C ( 2.} Y d.V.V.3.8.N.k.l.5.3 C F.I.S.l.M.k.,.k.`.:X).).:X)./.$X^.$X:X#XjX,X].1X1X4XvXjX,X>X..2.MXeXyX>XI.&XjXgXyX;XI.>X+X*X(.F.;X;XyX;X_.>X;X(.>XA.A.U.Y.&X'.s <.eX&X&X*X>X&X>X*X&XA.I.I._.I.V.,.d.d.,.,.,.( Y ( ( Y } Y 2.>.Z Y Z * p ) Z Z m ! _ ! Q Q N V N c t 1 P n n f m c V N V ; o $ 1 y &.$.$.4.q.$.&.t $ 4 4 4 1 1 $ 1 : , 4 1 $ $ , % % S G S i q.s.$.$.G u u y t # $ G #.y G m.%.&.^ %.F ` F c ^ ` ! ! ! ! _ 1.1.p.f.f.f.M.U.*X1XpXNXpXnX1X6.:.6.e.e.W k }.7Xr.G.}.1XCXJX                                  2XF.                                                                                            ",
"                                                            #.                    D.#.n.xXmXsXmXdXGXxXrX^ b D = . # X - # $ $ $ d 4.6.w.#.e r b R s.U 1 t o $ 1 1 1 : : 1 4 t ^ h.n.n.s.g.g.i.` 4 6 E.rXwXrXuXuXdXuXdXxXGXuX.Xg.! R.dXR.K.R.T.n.T.wX.XT.R.K.T.K.h.E.wXqXuXsXaXsXuXsXqXqXuXR.U.R.qX-X&XR.R.sX&XL.) } 1.,.5.k.k.k.2.V.&Xk.m B > , 2 B 2 > M I ~ } ( 1.<.1.M < ) U 0 } 2.U s U ~ x.d.) ,.,.,.} } 2.U ( 2.-.( k.V.F.5.3.l.3.l.l.* n V.V.S.k.F.M.l.S.).;X`.~.#X)./.$X!.].#X#XjX,X,XlXvXjXjX1X>XtX..2.kXnXeX_.U.*XyXyXyX=XA.*X_._.(.A.*X*XyX*X_.;X>X_.*XA.I._.U.&XU.a 1.>X_.&X;X>X*X*X_.(.I._._._.L.V.,.d.a.,.>.,.( Y Y Y U } ( 3.2.U Y C & s ) Z U Z U _ ! ! ! ' B F l 6 > I n P I I N l N N 7 o # # # y S d $.$.&.&.4 : t b t l 4 ; 1 1 ; $ o $ , $ % u @.&.&.@.m.m.m.m.m.D = $ $ % D m.n.m.G @.4.&.%.s.&.P.P.Q ! _ ! ^ ! ! %.>.%.<.a.f.h.A.I.Y.+XyXyXpXnX<XM.G.+.+.t.e.e.|.}.e.e.B.2XCXCX                                  <XF.yX                                                                                          ",
"                                                                                  P.R .XLXxXsXxXmXxXrX^ u y S % % & $ & & $ $ X % r #.4.E d % 1 b ^ F 2 6 . 4 t 1 u t 4 b 1 $ l ` s.p.i.s.n.H.` 4 4 h.R.uXuXsXxXsXdXxXdXdXuX-XK.1..XwXR.T.E.h.K..XaXaXaXaXR.wXR.K.E..XR.-XuXuXxXsXwXR.sXuXC.P.R.P.L.K.R.R.sXsXR./ ) <.5.d.k.V.S.3.V.I.k.m m > , 6 5 p o v ( I ) ) ,.} ..B 2 ~ 0 s U J Y 0 a / C.<./ 1.,.1.} } 2.I ( 2.1.} M.M.S.8.3.N.3.k.k.< s V.V.S.S.`.M.l.M.).1X#X).#X#X#X:X!.).$X$X4X#X,X1XjXjXgXgX1XjX>.<._.&XpX>X'.pXnXhXhX>XA.(._.(.(.A.+X+X>X;X_.>X>XI.;XI._.&X&X=X'.p >.eX&X-X>X>X*X(.U.I.+X_.U.I.A.k.2.d.<.} >.2.Y U J U Y >.} 2.2.Y Y C @ s } Z ~ U ~ I ! ! Q ! ! N b t 1 ~ m Y ( ) b c B V 6 o O $ $ % # % #.m.s.H 1 t z t 6 t 4 , , $ $ 1 1 o $ 1 % G &.&.&.&.b.$.m.m.%.S $ % $ 1 &.%.%.m.4.H #.^ s.n.g.K..Xn.` i.^ _ %.) _ ) ) _ >.>.V.&X_.A.U.-XyXnXvX<X2X3XW k @.6.+.e.r.e.e.r.%XVXvXBX                              2X@X%XtX                                                                                          ",
"                                                                                  .X_ uXGXGXGXuXuXuX Xd u S y = $ & , & & , $ $ $ # g #.#.L r 1 : : 1 6 t $ $ 1 F &.^ _ t 6 ^ 1.U c N F %.h.s.` 1 c K..XxXsXsXmXsXxXmXuXrXsXqXuXqXsXuXqXqX.XC.P.wXaXaXrXaXqXqX.XH.K.R.wXwXdXdXuXsXuXuXsXwXC.Y.Y.R.R.K.R..XsXrXR./ ) >.2.3.l.I.V.3.S.I.k.M Z > + 2 2 ! 5 & U ~ Y } 2.} ) M 2 U & < s U } s M Z a.a.( 2.2.<.,.>.2.Y } 3.3.,.l.S.M.8.;.N.c.d.d.0 x V.k.M.M.N.N.N.M.~.:X#X^.].#X].#X~.~.:X].#X).#X4X4X4XjXgX1XgX,.f.=Xx.L.&XtXNXhXnXnXtXI.I._.(.+XI.&X*X>X>X_.>X>XI.;X(.+X&X*XtX'.5 >.=X&X=X>X;X+XA._.I.*X_._.A.V.d.,.2.,.} } >.Y Y Y ( ~ ,...3.,.T T C @ s >.Y } I M a U ! Q ` Q V N b 6 / I Y ( ) N B ! N l , o $ 1 t $ : z %.G 1 z N t 7 6 t t 4 $ , 1 , $ X t S % H s.s.&.y &.&.%.s.s.^ 1 1 $ y m.m.{.m.&.4.m.m.m.m.n.n.9XT.Q ` ^ %.f.p.%.%.>._ >.<.C.&X&X&X@X_.tXhXvXvXvXzXw.L :.e.:.@.k $.e.:.w.vXZXCX                               XB.F.@X                                                                                          ",
"                                                                                    %.HXxXuXdXmXmXxX&.u d H u # 1 2 1 , o , 1 % 4 # D v.:.H r 4 : t $ t 1 # t %.%.n.%.y ) R.uX&XC.h._ b t N ^ N 4 F .X-XmXmXsXsXxXsXsXsXsXsX&XuXmXsXqXP.C.R.-XqXuXaXaXwXuXuXuXqXdXdXdXuXaXdXsXsXmXsXsXmXsXR.K.K.P.P.K.R.wXwXn.K.>.>.} >.3.V.A.,.} k._.k.m U > & > x / Z + n ( ( } 3...} Z 5 U 5 < v | U a Y M h.2.Y ..,.} } } >.T } 3.,.,.l.S.N.8.;.8.5.d.d.0 a V.k.k.N.N.Z.N.Z.).$X#X).#X#X].#X!.!.5X].$X).#X4XjXjX4XgX;XyX>.f.L.eX&XC.V.*XhXyX=X*XA.A._.I.;X_.*X>X>X>X_.*X>XI.*X_.*X*X*XeXU.5 1.-X&X&X>X=X&XF.I.(.*X_.I.k.x.k.>.2.,.( } } U U Y ( Y } ,.3.,.T T C @ s <.( ( U s x / ^ Q ! N N F N d ) I Y ( <.^ B ! Q N 4 ; ; 6 N l 4 : 1 : t N V 6 6 l l c 6 , , $ $ , $ t c 1 F m.%.G % u G %.s.s.G 1 % # b m.D.&.S s.XXm.XXD.m.s.^ n.p.Q ` ` %.h.h.%.%.1.%.%.C.Y.L.U.&X_.U.*X1XgXZXZXzX}.L L $.|.6.@.L k L w.vXnXnX                              pX@X XU.                                                                                          ",
"                                                                                    s.  HXGXGXGXxXrXS e H i e = $ t 6 , , $ % u ; ; x %.4.%.F u 1 : $ t = e H %.%.&.N n.uXrXsX=XY.R.A.n._ t t t 1 ` -X=XsXHXmXsXbXxXsXxXuXqXeXuXuXqXwXR.K.C.C.R.sXuXuXuXuXsXdXuXaXdXaXaXdXdXxXxXdXsXsX.XwXuXR.Y.Y.P.R.-XwX-XC.C.) >.>.5.x.k.,.U ( l._.k.m Z & > 2 c p M 3 v ( ( ( ,.( ..Z 2 Z v 0 * s a J Z U f.,.} 2.,.( Y } a.| | ,.} ,.8.N.N.8.;.3.3.d.x.a v A.d.l.l.M.N.N.Z.^.+X).~.).).).#X!.^.5X#X4X#X#X:X4X4X4XjX>XgX} <.U.'.&X=XY.Y.eXI.V.A.A.A.&XA.>X*X;X>XyX*X&X_.>XI.*X_.*X*X-XtXR.p <.-X-X&X>X>X&XI.I.+X&X_.A.k.x.d.,.a.,.( ( ( Z Z U Z Z } X.3.,.T ( U @ n 2.} ( P I / %.! N N c N F M b 4.I / } f.) b F Q V 4 ; 7 6 c V l t $ : V z l 4 l l l l 1 2 N b 1 $ 1 b d 1 b S : : 1 % 1 t ^ %.F $ $ $ 4 F S t 1 m.D.D.n.P.P.&.$ t B ` i.i.g.n.h._ _ _ >.<.A.U.L.Y.Y.Y.@X,XjXgXgXZXzX%Xw.w.%XB.}.6X|.B.w.%XZXZXiX                              <X2X                                                                                              ",
"                                                                                  n.K.  GXGXGXGXxXY.r j H u j #.d c ! N c 1 1 # : 4 %.%.#.^ 1 1 1 $ c 3 t #.R 4.&.F C..XqXpXiXuXU.&XR..XR._ t 1 1 n.wX-XuXsXbXmXNXbXuXuXsXuXsXR.=XuXuXqXeXU.h.R.sXsXuXuXsXdXxXuXaXxXfXaXdXuXdXxXsXqXwXh.p.-XsXxXsXdXuXrXY.uXuXC.~ ) 1.d.k.,.U ( X.k.&Xx.Z Z + & 3 > & s p 3 ~ } X.,.( } Z < M U Z < * 0 U n <.f.1.>.,.....~ } d.} E 3.} 3.5.l.l.;.;.;.,.a.V.a m V.k.V.5.M.~.Z.Z.).#X#X^.).).].5XZ.^.#X).5X).$X:X4X4X4XjX,XpX,.h.&XC.-XU.&XuXx.a.2.V.A.A.*XA.>X*X*X>XhX*X>X_.>XI.&X(._._.&X=XU.3 a.=X=X&X=X=X_.V.I.>XI.I.A.I.V.2...a.<.( ~ ~ C Z Z M C X.,.3.2.( ( U @ n 5.} ( Y / ) _ ! N c N F ! B n f.I ) >.a.^ F ^ Q N V 6 6 l l ] V N N N N N V l V z N l 6 F _ _ ^ ! b F t $ $ $ $ $ : : : $ : t 4 $ $ : : $ z b t ^ P.n.P.D.P.%.c ! %.%.i.g.g.s.h.p.s.>.s.C.C.Y. XU.Y.U.;X;XgXjXgXpXpXzXvXZXCXD.6XZXZX6XZXZXZXvXhX                                                                                                                                ",
"                                                                                  s.      GXGXxXFXP.d f d e D.HXuXn.N B p._ G y r %.s.C.p.F 6 b t 1 d r 4.n.n.p.b h.rX.XrXiXeXU.=XU.Y.Y.P.C.p > 2 n.wX.X.XtXNXMXbXpXuXiXiXiXsX-X'.qXeXqXqXuXC.Y.sXsXuXsXsXsXmXsXdXdXGXdXdXdXsXsXqXrXK.C.h.C.K.qXdXwXwXR.Y.uXbXC.P ) 1.d.,.} d.| -.2.*Xx.M M & & 3 3 9 s v 9 J >.} Y ) ( P & s M 0 + a U s U f.d.a.../ ( >...1.2.-.T ,.-.d.3.3.c.;.| } 3.k.k.a m C.k.V.d.k.F.Z.N.~.$X#X^.].].#X:X~.Z.^.~.4X).].5X:X#X4XgX*XgX} ~ -X'.K.C.U.1.~ a.1.d.d.x.U.A.*X*X*X>XgX>X>X_.yXI.;X_.+X*X'.=XL.< >.tX-X&X=X;XU.I.;X+XA.F.I.M.d.>.} 2.1.) ~ Y U M U C T | ,.3.,.| | T @ n d.( ( ) / ~ _ ! B B N ! _ B B h...} -.5.} P %.%.N c l l ' ' Q Q Q ' Q Q N l z V l c V c F ! ! ) _ ! B 6 $ # : u 1 t u : : o $ ; $ $ $ , 4 z F F 1 %.P..XP.n.! i.%.%.j.^ %.p.1.p.h.s.f.n.Y.A.L.Y.U.A._.;X>XjXvXiXiXzXzX%XNXzXF.vXvXvXpXvXVXZXZXBX                                                                                                                                ",
"                                                                                  n.        HXHXmXY.v.R r t 4.s.n.n.F 6 t R %.U d b m ^ ^ t 4 c 1 b # 1 %.) ^ 3 c n.C.-X=X&X-XU.*XI.L.R.U.h.m > & ! -XR.C.Y.-XtXxXuXeXtXuXsXsX=XL.L.=XsXsXsXR.-XiXsXkXkXmXmXsXuXsXsXuX.XwXuXmXxXmX.Xf.C.C.T.h.h.h.K.K.Y.-XmXsXf.M / ,.,.} 2.2.Y -.f._.f.m M X X 9 g s C n 9 Z } | ) / >.v & a & < 0 U n I f.1.2.>...>.1.>.) } ,.| E ,.,.,.| } 3.c.| | 3.M.V.s n h.k.A.d.l.F.F.Z.).#X]./.#X$X#X:X~.N.).^.$X~.:X#X$X:XjX4X*XvX>.Y f.U.=Xf./ P P I / } 2.x.I.L.'.>X*X>XhX;X>X_.yXU._.&X=X*X_.=XL.3 ..=X&X*X>X*X(.*X+XA.+X_.V.V.M.d.} <.} Y P I U U U C Y | ,.3.X.[ | T @ M k.>.( I P I ) ! ! B ' ! _ B B C.} } | 2.1.~ f.h.! N l ' j.` ` ` Q Q ` Q N ' N 4 ] V c c N ! ! F B F b 1 : 1 t y y b t t $ 1 1 1 ; $ ; $ l l l ^ t 3 %.n.H.p.z ` g.i.%.Q B _ p.p.f.h.f.s..XU.Y.Y.U.I.U.@XyX>XgXvXpXtXD.R 4.zXM.F.F.2X1XvXvXZXCXJXJX                                                                                                                              ",
"                                                                                  n.        xXH.h.P.xX%.p D s.P..XwXrXT.c ^ P.n.s.x # 2 c t F t b d r t = = . $ ^ h.n.Y.-X&XeX=X'.U.C.L.Y.P.p.o t c n.R.f.f.C.R.pXuXtXuXuXuXiX-XA.L.-XuXsXmXuXuXqXuXkXsXkXmXsXmXsXxXuXR.qXsXmXuXuXE.h.T.R.aX-XK.K.R.R.R.sXFX=X..M I ( -.3.l.} U } A.&Xa.P x X X < a s n s * Z ( ) ( ( >.Z & & & Z M a U f.<.5.<.<.) ..>.} >.2.-.E Y } -.,.,.3.l.l.E | c.M.V.n M C.M.S.5.5.S.N.8.Z.!.Z.^.$X$X].:X!.N.^.^.#X~.:X#X5X#X4XjX`.>X>.a...) C.x./ m U ( / / } a.V.I._.jX*X>XnX>X>XU.>X_.&X+X&X*X*X>XL.3 >.&X&X=X*X*X;X>X_.*XU.V.k.f.k.a.1.<.( Y Z I Z Z Z Z U | X.3.3.| | T & C k.>.( M v U / ! ! B ' ` _ ' Z L...,.E ,.a...C.h.) ! N ! J.i.` i.` ` ` Q ` ` N 6 V V c V b M F B N N 6 $ 4 b S b z S b t 1 1 1 1 4 4 $ ; , 4 l &.` 1 , t c F t ^ j.i.%.Q c B _ 1.h.C.s.1.C.U.U.U._._._._.*XgXpXpXNXzXw.#.L  Xv. X;XgXgXgX1XvXZXCXJX                                                                                                                              ",
"                                                                    :.D.@XB.5.M.5.P.      .Xn.n.uXLXJXn.C.zXHXFXHXHXLXPX! _ .Xn.s.! t b c l z = d r n.v.#.L #.t 2 ) %.P.&X=XU.&X'.Y.L.L.C.C.p.2 ^ F U .XP.K.=XiXpXuXpXiXiXkXiX=XU.=XeXeXkXsXuXuXtXiXNXmXNXFXNXFXxXFXFXsXmXFXFXmXqXR.wXfXaXaXaXY.E.9XwXdXGXuXC.m s ) -.,.3.d.E J -.I.>X<.U v X @ & 9 g f s < C ( E Y ) ( Y + * Z 0 3 ~ 1.f.f.,.2.<.<.,.1.<.} } 2.-.( -.( 3.k.l.z.z.;.8.V.M.l.s M V.k.V.5.8.N.l.;.z.z.N.!.^.!.!.:XN.8.N.N.$X~.).:X5X].:X4X*XjX,.2.C./ ..a...( ..( ) / ~ } 2.I._.hX;X>XhX1X>X(.*X_._.&X&X*X*X=XC.3 <.&X-X1X*X>XyX_.U.A.I.@XV.5.M.,.<.>./ I P I Z M M v C T | X.3.| | T * M l.} U a 0 U ) ! Z N N ` _ Z B L.,.d.} 3.x.1.h.f.! ` F ` J.i.` ` ` ` ` Q ` N N V N c c V b c N F B b 4 $ t N F S b S b z 1 % 1 1 4 t : 4 4 t N ^ 4.%.t N p.^ t N i.i.g.Q t N ) <.p.s.f.f.d.&X-X-X*X=X;X>XyXhXvXnXZXzXw.#.D 4.v.zXZX2X1XgX1XyXiXvX                                                                                                                                ",
"                                                                %X6.6.6.+.+.:.q.+.v.    P.n.uXLXKXKXKXKXHXxXxXGXGXGXHXGXs.N K.s.` F t 4 1 t 4 D r ^ D.v.4.L v.v.F F C.h.L.&XU.L.U.Y.Y.C.f.h.` c p.%.5 s.P.Y.uXiXuXqXtXiXbXbXtX-X-XeXiXpXiXuXkXuXpXiXiXbXNXMXFXMXFXGXmXmXGXGXxXsXdXaXsXsXGXmXSXfXwXdXGXGXsXR.f.n a U J -.d.d.Y Y ,.S.>X} I m X X & 9 s C s * n Y Y Y U Y Z X C v & ~ d.d.2.2.2.2.2.a.2.( I / 2.a.2.( ,.E 3.k.8.z.N.8.N.S.N.k.s C V.k.S.k.l.N.l.7.N.z.N.!.!.9.9.].N.;.8.7.!.!./.5X5X).$X4X;X>X} 2.L.2.>.1.>.....m U / I ( ,.A._.yX>X>XyXyX*X+X_._.F.>XtX_.U.*XA.< 1.-X=XpX>X1X;XI.(.A.1XU.V.d.k.,.<.) ( U I Y U Z M s C ( X.X. .X.X.| * v l.>.T 0 a Z ) ! P B V ` _ P B C.a.M.3.d.A.<.f.n.^ ! ! i.H.i.` ` ` ` ` ' Q N B N c l c c x b N B B b t , $ $ 1 z S S y u 1 1 u u u t 4 . 6 b F p.<.n.s.g.s.b : F j._ i.%.N F _ 1.%.4.f.n.M.-X1X2X=XyXpXgXnXvXgXvXvX2X#.J L :.B.<X4X;X2X1X>XpXbXMX                                                                                                                                ",
"                                                                |.OX%XOXe.=.|.}.w.w.:.4. XFXLXLXPXHXLXKXHXHXHXGXHXGXxXxXg.t s.p.! B 4 4 t b N b D 4.v.4.R f :.Y.v.m F s.C.Y.=X-XP.P.P.f._ p.F b %._ , B C.K.&XuXuXuXiXbXsXuX=X-XeXeXtXU.C.R.NXbXNXhX>X*X&X=XNXFXJXFXFXPXFXGXsXuXdXwXR.qXfXdXGXPXPXGXdXwX.XK.a.a a / U J -.5.) Z ( k.+XY / C X X & 9 s C a * s I ~ Y U ( m < C @ x ..a.d.a.d.<.2.d.>./ a 9 p / 2.1.I ,.| 3.3.3.N.N.l.z.l.S.V.s Z A.S.A.M.k.Z.8.8.~.N.N.^.!.8.9.^.9. .9.0.9.N.$X4X5X/.:X4X).(.T d._.k...1.1.~ } } m / Y } 2.V._.>X,X>X>XjX*X;XI.+XI.>X>X_.U.*XC.3 1.qX-X>XyX=X_.+X;X;X_.5.2.1.k.f.>.( } Y ~ Y I Z Z v U X.3.3. .;.X.3.9 n l.>.T C U I / B B B V _ ` U B C.k.V.l.l.V.<.a.h.) ! ! i.H.i.` ` ` ` Q ' ' N V l c c 6 5 x B b x c t c 6 1 # 1 d y u u u y u t r y b u 1 4 F 1.n.s.p.%.%.s.N 7 V j._ _ %.^ ! ^ %.1.<.f.f.C.&X2X2XtXpXvXhXhXnXpXyXZX6Xw.v.}.G.}.%XF.2XvX2X;XhXBX                                                                                                                                  ",
"                                                            @XG.|.OXOXOX|.t.t.|.r.|.w.b.HXLXHXLXLXLXLXLXLXHXHXHXHXLXHX9XF 4 b d 1 1 , 6 t b m r U M.F.F.-.f 5.M.P.<.U t m ^ ) >./ ^ ^ F t 4 ; 6 7 4 & p K.h.<.<.L.U.tXuXpXeX-XeX>X*XL.<./ >.L.hXhX+XS.l.,.2.A.Y.sXsXmXsXR.L.K.K.C.s.p.h.h.T.wXdXY.K.h.h.P.K.p.t n / 1.} ) ( J Y ( V._.I ) m O X * 3 a s 9 * a I Y I I ( m 0 0 X & a Z ( <.k.a.<.d.d./ a Z X & >.) I ) ( ,.,.5.l.S.l.l.k.S.M.g C V.S.V.l.M.Z.8.8.~.Z.!./.^.N.Q./.N.;.N.N.9.0./.5X].).:X:X).,XT } I.V.a.a.f.) ..2./ / ~ ,.x.C._.>X>X;X>XjX>X>XI.*X_.+X&X_._.'.C.3 <.eX=X2X>X;X+X;X*XV.d.V.5.} k.d.) / } Y I Y U m C v Y X.3.7. .3.X.c.s C d.} ( ( ../ U B P B N ! ! ! B A.k.V.l.c.k.2.a.f.) ) ! j.J.i.` ` ` ` ' N N c 6 6 l c 6 c V x x x c 5 c x N b ! F = : y G G u d b b d t ^ F 1.s.f.f.1.%.s.s.F V l %._ _ ^ ^ ` %.1.1.<.f.C.L.-XpXiXhXhXbXhXbXhXbXbXpX2X2X6X%XB.G.}.5.M.1X;X1XnX                                                                                                                                    ",
"                                                           Xw.B.|.OXOXOXy.y.=.y.r.|.B.B.zXMXKXLXLXLXHXaX.X.XrXrXXXv.%.y 1 1 1 1 $ # 1 & 3 d & D ) J #.F.#.J M.f.4.s.n.%.r t x M F I P F b N Q ! ! U c 5 h.h.<.) Z ~ <.h.Y.&XR.'.A.k.>./ I s Y gX_.l.5.5.3.3.2.>.<.1.1.p._ f.C.h.h.p.h.h.p.p.h.f.p._ _ p.R.K.1.a a U f.f.d.1.I T 3._._.U p.P X X & < 3 0 < < 0 B Z U Z ~ v & v 0 3 < & 3 U >.2.1.,.2...a m > 2 t P P P I } 5.k.M.l.5.M.S.S.k.a P d.A.F.M.l.S.5.8.~.^.).#X/.!.!.].N.9.Q.^.Q.{ 8.].].^.$X:X).+XT ,.I.A.h.a.f.1.,.f.<.~ Y <.I.A.I.&X>X*X>XjX1X>XI.*XI._.&X_.I._.V.3 a.=XtXiX=X>X1X_.A.I.A.V.d.d.2.d.>.( } Y U ( Y P U M ( X.3.8.;.3.X.k.s n c.} ( ( ) ~ U ! ! B N ' ! ! n C.k.V.M.8.M.d.h.h._ ! B T.K.` ` ` ' Q ' N N N c c 6 c 6 c V c b x x x x b N B ! b % d &.&.$.S y D G u t s.s.f.>.f.f.1.f.n.n.N N N %._ %._ _ %.s.%.%.n.K.L.&XtXkXhXiXeXiXiXhXiXtXtXzX2X<X6XG.:.M.}.G.M.pXvXtX                                                                                                                                      ",
"                                                          w.4.6.}.%XOXOXy.y.e.e.y.|.B.B.n.FXLXLXLXmXn.%.4.%.s.4.&.S = = b S D 1 # t $ 1 D = t #.4.) g f n E a.U.n.C.v.s.%.C.Y.Y.L.n.s.h.g.s.p.g.h.n.) 5 C.P.h.<.I n P I } a.f.a.2.3.} I m U d.M.,.3.8.;.5.,.J M v n m P M P _ h.K.h.p.1._ p.p.p.1.) ! 1.P.P.1.t p I >.f.d.-.T | V.>XU./ f.B o X o < > < + > 5 B U m m / M + & 0 5 2 5 0 0 a Z Z Z v M x b > & > c B B Z ..,.3.k.k.5.l.S.V.d.s U f.A.V.V.S.F.d.k.~.N.^.#X^.Q./.$XQ.N.].^./.{ { ;.!.].$X:X).].T } U.I.V.f.k.k.f.f.x.( I / A.V.A._.;X>XyX>XtXyX_._.I.A.'._.L.I.C.3 <.tXyXtX=X*XU.A.*XU.k.5.,.<.d.} <.} ( ( v ~ ( ~ Y C ( X.3.3.;.3.X.5.s n c.| T T ~ ~ ~ B ! P c ! ! P B L.k.S.l.5.l.d.V.C.<.! P K..X%.` Q B N l 7 N ` ! ! c t c c N B V V B x x n n F ^ t u #.4.$.&.y d S R F 1 ^ p.p.%.n.>.1.n.K.h.N F B i.i.p.p.s.s.s.s.g.h.n.C.U.uXpXbXbXpXpX-XeXiXpXtXbX2X<X2X%XD.M.}.@XV.pX                                                                                                                                          ",
"                                                        v.:.4.:.e.OX3XOXy.e.r.t.t.r.B.w.v.xXHXLXJXP.&.%.s.#.&.&.&.@.S y y y H R r r y b r & ^ 1.C.n.#.t n ) n.s.^ #.F D ^ s.P..XU.n.F f.n.p.n.n.K.C.^ 2 >.C.1.<...) M m U ~ I I Y ( Z m J J J J f J J s g * @ & 3 x M M n v p a P ) _ _ ) p.1._ F ! ! %.h.h._ p 5 U a.x.d.( ( 3.A.=XU./ h.n X O & o , , , > 6 c c x n B n 2 > < > 2 < 2 5 < < > > 2 0 2 x 5 o 6 c B c v ~ U >.2.d.d.C.f.a.a.s Z C.A.k.M.A.I.5.l.`.).~.#X].!.!.$X].Q.]././. .{ { N.].:X4X).+XT } I.L.V.d.k.k.d.f.V.<.( ( V.V.A._.>X>XgX>XjX>X(.U.I.A.&X_.U.U.C.< <.iXtX=X>X+XA.+XA.F.M.,.>.f.k.1.<.1./ ) Z ( ../ Y U | 3.5.7.3.3.X.3.s s 3.T ( T ( ) ~ P P B c ! ! B B L.V.F.l.l.M.d.V.C.a.) ! R.9Xi.! Q N l l c ` _ _ ! B c c c B 1.B B P x x c B M F r 1 ^ 4.&.y = 1 t b b 1 %.n.s.a.s.1.f.C.P.s.c ` B Q ^ i.p.s.h.n.n.n.h.h.h.&XbXMXbXuXeXtX=XqXpXNXbXtX2XiXzX2X<X X5.M.C.A.                                                                                                                                          ",
"                                                        ) R -.4.:.%X7XOX|.r.y.+.@.+.:.5.v.rXHXJXxXs.%.s.%.&.&.$.$.$.$.@.d d H $.D X r D d = 3 d R :.R r 1 t b a D #.4.#.#.#.%.v.Y.f.) ) 1.s.1.h.n.n.s.t ^ h.a.f.<.<.P M M M M J Z s a a g g f f h h h C C f f g a a 9 a n n p a s n M ! P B c 5 x B P ! p.f.I & 5 P f.f.d.2.2.d.V.'.L.~ f.c o , 2 2 5 6 7 c B B B F ! ! ) ) ! ! ! B B x x x 6 c c B ! B x 6 O > x x p 5 v x s Z Y U / I I ( p P f.C.V.V.S.F.5.V.A.3.[ 3.]./.].:X^.N.]././.;. . .N.#X:X4X;X,XE } _.I.I.V.k.f.d.d.V.f.( / k.A.A.*X*X>XyX1XgX*X_.(._.I.&X_.U.U.A.3 a.eXtXtX&X*X+X+X+XC.d.a.f.d.2.a.,.2./ ) ~ ( <...( Y X.3.7.7.3.;.X.7.C C c.( | ( Y I P ! P B c ' ! B M L.V.A.l.l.M.5.k.V.a.) ! R.wXj.! _ _ ` _ j.p._ B N Q N N N ! h.` ^ ` ! B n M n M 4 % r S d y d d b b M b s.s.p.C.f.f.f.h.K.g.6 V 6 $ $ 6 b F ^ ) %.s.h.K.-XbXMXbXiXbXMXNXsXbXNXtXtXiXNXiXiXzXzX2Xf.A.zXM.                                                                                                                                          ",
"                                                        ~ f E :.      OX6.w.r.e.g :.D.D.v.rXJXFXGXs.v.s.%.$.m.q.$.$.@.@.H H H R R 3 D d d :.:.S d f = = % 1 F v.s.:.D.b.m.4.G R f.f.f.1.U ^ s.s.P.s.p.a ~ A.C.<.<.) ) U m M s s a 3 s E d.A.V.5.3.;.8.N.l.8.M.3.3.2.( Y m a 3 a p p p a 2 2 a x n B B ! ! _ B 2 5 P a.h.f.d.d.d.V._.C./ f.p o 2 5 x c B ! _ p.h.h.K.P.T.R.R.T.T.R.h.j.p.! _ ! ! ! ` _ ! x 5 & p ) p...1./ Z U m v s m Z P m 3 v <.V.A.k.M.A.,.-.C f 9 *  .~.].5X$X!.$X]./.8.8.8.N.#X#X,X,X>X( } _.I.&XA.V.k.k.d.V.V.} Y d.I.A.*X+X>XyX1XtX*X_.(.&XI.*XI.I.L.C.3 <.iXpX>XyXpX+X(.2.a.a.,.,.<.f.x.( ,.~ Y / Y ,.>.} T ,.3.8.3.;.;.| 3.C C d.( | T C p x ! ! F c ' ! B b L.M.A.M.M.M.3.l.k.2./ U R.aXT.H.T.E.h.g.p._ ! ! ' ! ! ` ` i.E.K.f._ _ / ! n n N b b t d D F ^ R ^ ) %.^ s.s.h.f.f.P.h.P.P.^ ; o 4 V ^ _ ! 1.1.%._ 1.f.Y.NXMXNXMXNXNXMXNXMXHXFXMXMXiXNXMXiXtX<XtXY.F.JX&X&X                                                                                                                                        ",
"                                                          P             @XB.:.W D @XvXNXNXHXHXKXuX^ %.%.s.&.m.b.q.$.@.@.$.$.&.@.#.= d #.4.B. Xb.4.#.j j y d F #.#.R +.G R 4.R D #.n.A.U.a.b U %.s.I t & n L.C.>.<.) } / Y C a 0 a | A._.*X_.F.#X~.!.#X/.Z.Z.~.F.V.A.S.U.I.V.<.I a 3 p v s 3 v n v 0 p x 2 5 5 5 p M I f.V.k.l.k.A.&XL.) h.t o 6 c U _ _ ` u.p.p.K.R.T.E.T.R.R.K.W.K.j.p.! ! ! B ! u.p.! B 5 o n ..x.a.f.L.a...U ( x.Y.U.Y.x...~ } 1.2.2.V.(.( g f a s g s Z.].:X5X/.$X].].!.~.Z.N.$X#X;X;X;X) } _.I.*XA.A.C.k.d.A.A.>.( d._.V._._.yXyX1X*X*X_.I._.I.&XI.U.A.C.3 a.iXyX=X>X*XV.5.2.>.Y Y } ( 2.d.} } / I ( / ..<.,.Y 3.5.l.3.;.3. .3.s C 5.( } J a & x ! U F N ' ! P B L.V.F.M.M.V.5.k.k.2.~ U -XrXR.R.R.K.h.H.h.j._ ` i.` i.j.g.H.T.K.K.h.h.h.! P B M F U F U %.I I U ^ %.s.s.1.C.R.K.C.C.s.Y.T.N o 7 _ H.K.K.h.p.n.n.f.f.a.a.C.P.U.eX=X&X&XR.=X=X-XtXqX=XiXMXxXY.&X&X&XC.NXNX&X2X                                                                                                                                      ",
"                                                                              4.D   NXNXNXKXHXHXGXR.rXxXcXXX%.$.@.*.@.$.$.$.q.$.4.3 d v. Xv.v.D.XXb.L H d @.&.#.#.#.R #.@.@.R #.M d.&XU.Y.A.U = 3 F F 3 t _ ) P M ) U U U m P ( I.&X>X>X1X1X;X#X^.#X].Z.^.).).).+X+XI._.(._._.I.f./ Z Z m M ( 1.x.f.f.>.Z x a p M P m 2.V.V.k.k.V.&XA.) f.5 o 5 5 _ wX_ x ' _ p.h.K.g.h.W.h.H.h.j.h.W._ B V c j.g.! _ ! B 5 o U ) ) ~ Z <.~ B v Z <.f.x.C.C.U.U.A.d.} Y } 3.U 9 & & 0 g 9 z.#X$X:X/.:X].].).#X).N.;X:X1X;X*X} } _.U.&XA.A.A.k.k.V.I.2.( 5.+XV.(._.tXyX>X_.>X&XI.+X(._.I.U.I.A.3 a.eXpXyX*XI.k.2./ >.,.2.2.} 2.1.2.) ) Y ..} ,.a.1.( 3.5.l.3.;.3.3.5.s C c.X.} n * < P ! ! ! N B ! B B L.V.F.N.l.M.5.l.V.f.I ! wX-XY.R.T.E.h.K.K.h.i.` i.j.g.g.T.T.T.9XR.K.x.x.1.` ! / %.^ ^ ^ ! ! _ f.C.K.K.K.s.C.K.n.C.R.U.n.` 7 ; ! g.p.g.h.p.<.n.n.a.f.x.h.f.h.C.Y.A.L.U.Y.U.A. X=X.XU.P.P.L.&XpXsXJXU.Y.zX@XY.v.                                                                                                                                    ",
"                                                                                >.  JXNXqX=XxXGXFXJXHXHXxXcX&.G *.$.$.$.:.$.4.$.L = L D.D.{.{.XXb.w.$.:.R 4.m.@.#.v.4.v.m.m.m.v.Y -.V.I.d.Y.Y.>.<.U..XF & a M M P 2.>.>.<.f.A.tXyXkXnXvX1X>XgX:X#X:X$X/.:X:X,X(.F.(.S.(.+X;XyX1X;X_.A.<./ x.eXkXmXFXJXiXY.) p 3 Z ..( 1.x.k.l.l.F.>XA.) p.2 X 2 5 c M 5 ! ! V ` _ _ _ p.j.u._ _ ` ! _ ! V V l R.R.V V N Z < & Z ~ Z ~ ..m 0 p._ 9 M m I ) I >.<.V.k.x.d.X.( C 9 * m n * s z.~.:X:X#X5X#X].).].^.N.#X;X:X;X*X-.} U.U.*XA.A.L.k.k.f.I.d.( 3.+XV.I.(.>XyX>X+XyX;X(.&X_.I.I.L.L.C.3 a.iXtX*XU.d.( } a...<.d.a.Y } 2.a.( ) ) ..} ,.f.1.( 5.5.l.3.7.7.3.5.s Z d.X.| 9 & M U ! ! ! V N ' B M C.k.I.N.l.c.3.5.M.f.P I wXrXR.E.K.E.T.T.R.T.E.W.g.H.h.j.K.9XR.T.E.Y.R.h.h.p.%.%.%.! _ 1._ s.K.P.L.C.C.Y.P.C.K.P.Y.C.h.^ c t t ` s.%.%.p.s.>.f.n.a.f.C.C.f.V.A.Y.V.C.A.L.Y.Y.A.&XtXtXqX&Xh.C.pXFXJXBXY.M.%XC.1.                                                                                                                                    ",
"                                                                                <.bXbXY.v.%.s.v.D.uXxXcXHX.X&.s.q.$.$.$.$.$.#.R d = r #.v.4.:.B.|.q.w.$.@.$.XXq.$.q.q.4.$.m.D.#.5.A.F.A.A.&X&X X&XY.C.) p 1.h.d.k.V.A.M.U.yXiXhXBXVX>X*X1X1XjX1X4X4X5X4X4XjXvXM.,.).,X;X;X>XyXyX>X1X>X'.x.tXNXMXMXMXBXJXKXL.M p m ) ) ..V.V.k.V._.yXL./ <.2 X 6 c > o x ! B l 6 6 ] V V N B B ' B B V B V 6 7 ' ! 6 7 c ! & 3 C Z M C Y 2 & m ) 3 3 < 0 v 0 v m C ( k.A.V.k.l.( Y M & * f l.~.#X:X$X:X#X#X#X#X~.Z.;X:X1X1XyX2.} Y.U.*XI.I.I.k.k.a.I.k.} >._.V.A._.;XhX>X*XjX*XI.I.(.I.I.V.C.h.3 a.tXtX=XI.k.3.-.C U a.d.1.U / 1.a.( } ,.>.} 2.k.,.} c.5.l.8.8.8.7.8.g C 3.X.T < a ( P F ! B c V ' B M x.d.F.V.l.l.3.3.d.a.m / uXuXqXY.K.R.-Xh.K.wXT.T.H.H.E.R.E.K.R.p.f.T.R.R.R.h.h.h.K.K.R.K.C.h.Y.Y.P.C.K.P.P.L.C.C.h./ U F Q 4 F ` _ %._ p.<.#.<.f.v.M.V.V.M.M.A.A.A.Y.Y.Y.Y.Y.U.U.&X&XuXiXkXU.f.sXHX  NX Xd.f.=X                                                                                                                                    ",
"                                                                                s. X5.$.w.G.}.w.+.4.pXHXxXm.D.m.q.@.#.L R #.D L R r 3 - 3 d w.%XXX}.|.+.H $.{.b.B.{.{.{.#.d D #.F.F.D.w.A.@XU.&XY.I.I.Y E &XU.A.U.eXnXnXhXnXMXMXCX+X5.A.>XvX,XjXjXjXjXjX+X1XjX@XA.;X>X>XgXgXgXgXgXvXhXgXjXkXhXVXMXnXBXFXKXsX~ 0 ~ 1.....V.x.k.A._.yXU.~ _ > o 5 p 2 2 c c 6 7 2 6 4 6 6 7 6 c c 6 6 5 6 6 6 6 7 6 p , x Z + 9 v s n M v 0 0 2 < v < 9 0 s a 0 s v Z ,.3.5.,.( Y a * @ 0 C 5.Z.#X4X$X:X).:X:X+X).(.F.l.*X>X1Xf.1.I.I.eXL.L.I.k.V.d.V.L.,.} I.I.F._.+X1XyX*X1X>X_.F.V.d.C.C.f.h.3 a.tXtX*XI.V.5.J s <.C.A./ P Z } 2.} } d.d.-.c.k.,.3.7.8.z.8.7.;.7.5.9 Z c.| ( C / / P m U F N V ! B B C.l.F.M.8.l.} 2.2.<.n ~ pXuXuX-XqXsXE.h.R.wXR.T.R.T.T.R.E.R.R.h.p.h.T.R.Y.P.R.R.-X.XY.C.f.C.Y.Y.P.P.Y.L.h.C.f.>.! ! %._ N l Q ! ` ` %.p.%.) #.d.d.M.V.F.I.I.A.A.Y.Y.Y.L.&X2XtX=X-XqXuXiXNXMXR.qXHX                                                                                                                                                ",
"                                                                                R +.B.B.:.B.}.3X%X$.+.NX<Xn.D.m.&.&.$.$.+.H +.4.f.d a D r B.<X%X}.%X|.e.w.$.{.XX{.}.XX Xb.y R Y.M.F.D.A. XF.Y.D.A.A.I.I d.U.I.vXhXnXnXnXnXMXBXNX1X5.M.F.d.V.S.,XjXvXgX+XN.N.).*X_.tX>X>XjXkXhXhXvXvXvXvXkXVXkXVXBXnXnXnXJXFX_ 0 U _ ) / x.V.V.I._.>X_./ I & o > , > , < > > > , 2 , , 7 , 7 6 7 7 7 o + 7 , o 8 , , o ! < + 0 < 9 < * 3 9 0 9 < 9 9 9 9 9 9 5 9 a s n s f s 0 * + & 9 n T c.Z.#X4X:X:X).#X:X#X+XF.;X5.| V.nX2.,.'.I.>XI.A.I.k.k.d.V.I.2.>.I.I.F.F.*XyXyX&X>X*XS.S.k.M.A.C.f.f.3 f.pXgX>XI.V.l.,.2.k.k.d.~ Y P <.1.<.1.3.d.l.c.N.3.7.8.8.z.8.8.3.8.7.9 Z d.X.| T ( I U U F F B c ! Z B C.k.F.M.l.l.-.3.2...v P Y.=XbXNXuXuXwX'.aXqX-XqXaXR.K.K.K.wXR.E.K.Y.R.wX-X&XU.P.U.C.f.s.<.C.L.Y.Y.L.C.h.f.f.1.1.1.s.g.%.l c ! Q ` %.%.%._ >.#.5.d.M.V.F.(.U.A.I.Y.U.U.&XtXbXbXtX&XqXpXxXbXNXsXJXKX                        KXKXKXKXKXKXKXKXKXKXKXKX                                                                                                ",
"                                                                              #.L }.%X}.:.e.6X6X%Xv.d {.D.D.D.s.4.&.q.&.H j R R 4.n f ^ 3 F.%XD.}.XXb.XX}.w.}.}.XXXX}.D.XXR 4.v.F.F.I.@XY.M.Y.C.U.Y.) n A.pXpXNXBXBXnXnXNXBXBXNXZXM.5.2.5.A.V.F.jXjX_.S.S.S.S.S.(.nXnXyXyXjXvXBXVXvXvXnXkXVXVXBXCXCXBXnXBXFX..5 ~ ..( / x.A.V.A._.>X*X~ x X X o O X o X O O O O o O O O O O o O O O O O O O O o 8 o B 0 X X O O X X O X @ + @ X X + + X + + X X & @ X @ * @ @ & * 9 C Z T l.N.~.5X4X5X^.#X5X:X$XZ.:X,XF.| } U ( '.L.*X_.A.I.V.V.k.V._.f.-.A.F.S.A.*XgXyX&X;X*XF.V.k.V.C.C.f.f.< a.yXgXyX_.k.c.3.2.l.d.( / Y I } } ..2.d.l.V.l.l.3.7.8.8.z.8.8.7.8.7.w Z 3.| | | } M m I ! F V c B B B A.l.S.M.M.M.-.,.-.( v n 2.x.h.x.<.p.x.'.uXdXfXsXsXqXR.T.wXuXqX-X-XqX-XwX-XR.P.C.C.f.p.f.f.C.L.P.n.f.f.f.>.1.f.f.s.p.p.N $ 6 N F ` _ _ %.>.) ) d.d.k.d.V.+X+XU._._.&X X-XtXiXpX=X-XpXiXsXiXmXHXKXJX                  LXLXKXKXKXKXKXKXKXKXKXKXKXKXKXKXKXKXKXKX                                                                                      ",
"                                                                              L q.6XOX}.|.@.}.7X3X%Xj 4.{.s.%.m.4.#.@.j D :.4.R d 1 = n 1 s.<XD.}.b.{.6X{.}.XX{.b.XX6X}.D.%.D.M.I.M.V.M.) p p F / ) I >.&XyXCXnXvXvXnXnXVXVXVXVXVX*Xd.k.+X>X_.V._.jX>XI.A.F.A.I.&XBXBXtXjXnXnXvXCXnXnXVXnXCXBXCXBXBXCXBXMXFX1.x / >.( ) k.A.l.V._.;X=X~ 0 O X X & > > + X X O O X X O o o o 7 7 , , , , 8 , 7 7 7 V c o O O O > & > & & < 9 3 + 3 < < < < < @ & 9 < * < g 9 < s C C T T | S.N.~.5X4X4X).#X:X:X:X).:X,XhX>Xs @ } *XL.'._.A.U.A.V.V.V._.V.>.V.I.A.(.*XyXhX*X_.*X*XS.k.k.f.x.f.f.3 f.hXhXjX,XA.7.X.,.d.2.Y ( m ( / ( >.d.2.l.M.S.k.X.3.l.8.z.7.3.;.7.3.* Z 3.| T T I a p B _ ! c t B B M A.l.V.M.8.M.3.,.-.) a a } <.) ,.( } ..p.f.x.K.R.L.K.C.h.C.p.1.1.C.R.U.L.h.1.1.>.1.1.p.f.f.h.f.<.>.%.>.1.<.>.h.h.%.1.i.4 , l l F ` ` ` p.) ) ( 5.2.M.l.M.(.>X&X;X=X-X&X-X=XpX=X=XpXbXbXbXbXMXHXKXKX                KXKXKXKXKXKXKXKXKXKXKXKXKXKXKXKXKXKXKXKXKXKXLX                                                                                  ",
"                                                                            D.k +.%XOX|.|.@.r.OX3X6XL 4.XXD.&.&.$.$.#.v.<X6X<X Xf.P & & & I -XY.R H XX6X}.}.XXq.d L $.4.4.1.M.F.A.,.Y } <.P > , M ! U a -XMXnXVXvXvXnXVXVXZXNXBXBXpXI.>X*X_._.A.=XhXgXI.A._.;X>XnXBX>XA._.tXnXBXBXBXBXJXBXCXBXBXBXBXBXMXMXMX>.p / _ ) ) k.A.l.V.I.=XeX( 0 X X + < < < & o X o o o o o > , o 0 0 6 p 5 5 c c 6 6 V N O X X O + > > a p p 3 0 a a v a a a a x & a Z C n s M J s U E T ,.| 8.Z.N.^.:X4X5X).#X:X#X:X#X:X4X,XkXl.0 ( *XI.*X&XV.(.I.k.V.k.U.V.>.k.(.I._.*XyXhX*XI.&X*XV.M.V.x.C.p.a.3 a.hXjX>X*XF.8.| C U T Y Y M ) / ( d.d.2.A.V.k.N. .8.N.N.N.7.3.;.3.3.* K 3.| T Z M 3 2 t F ^ V 6 B B B L.k.V.M.M.l.5.2.,.( 3 < ) a.a.2.) ,.<.<.<._ p.1.>.>._ ) / / B m ) a.f.1.! B F ^ _ 1.p.f.s.1.1.1.>.>.1.s.f.f.p.1._ h.F 4 t l l F ` ! ` 1./ #.-.d.5.M.M.A.*X>X*X-X=X-X-X=X-XtXtXtXpXsXbXMXMXFXFXKXKXKX            KXLXKXKXKXKXKXKXKXKXKXKXKXKXKXKXKXKXKXKXKXKXKXKXKX                                                                                ",
"                                                                           XB.k e.OXOX}.}.t.t.}.%Xv.D v.D.s.R R $.#.v.%X%X%X2XzXzX XM = > & b a r d }.<X{.<X<XR u D d % b C.F.2.| } -.S.Y.Y./ # o $ & x tXBXnXVXVXvXjXnXnXnXZXVXCXgX>XyX_._.I.A.hXnXMX&XA._.hXBXJXhX_.'.yXgXgXgXBXBXJXJXBXCXVXVXJXJXJXNXNXbX_ p ) _ >./ x.V.k.V.L.*XtX>.p X X & < < 3 < + o o , > > , 5 2 o x b B b x p x 0 c c , O O O o o < 2 5 a p x x v M s m m U P Z I < C ,.( T E } 2.Y ,.-.| 5.3.N.~.N.~.:X5X:X).:X:X:X5X#X:X4X4X1X*X| } *X_.>X*XA._._.M.V.k.I.C.,.d.I.F._.*XyXgX&X_.>X&XV.k.f.h.x.>.p.3 d.hXjXgX,XF.l.3.E Y ( ( Y Y Y I <.d.,.k.F.V.l.S.3.l.N.N.N.7.8.8.7.3.* K 3.| T Z M > > 2 6 N V 6 B B B L.k.S.M.M.M.5.-.,.) 3 & U a.C.f.2.k.k.a.<.>.p._ 1.a.p.p.p.f.<.>.>.....) U ! P / %.1.1.<.p.f.f.f.<.<.f.h.h.h.s.>.s.%.2 , 6 6 V ' Q ^ ^ _ %.) 4.M.f.d.M.I.=X*X&XU.&X&X&X=X=X-XpXpXtXuXbXMXmXFXFXLXKXLX          KXPXLXKXKXKXKXKXKXKXKXKXKXKXKXKXKXKXKXKXKXKXKXKXKX                                                                                  ",
"                                                                         X}.|.L r.OX}.|.r.6.L r.B.#.H v.s.#.^ R @.#.%X%X}.%X%X}.}.M.J 3 a > = n b D v.%XD.6XD.L H D S d F 4.>.E V.l.d.S.d.D.) 1 t _ %.C.NXiXvXnXVXjXjXjXvXnXZXVXtX1XyXgXgX>X_.>XBXMXBXeX=XtXMXJXBXnXbXMXNXyXhXMXJXJXBXBXnXJXBXJXCXJXJXFXFXsX_ B ) >.1.( d.A.V.V.A.U.pXa.0 @ X * 9 9 9 3 & o , 2 6 > > x 5 & B B B M M x 6 , , X o O o o o + 0 a 5 M M P Z U ~ Y ( ( } } ( ( 3 C k.,.-.l.M.k.| l.3.-.l.8.~.).Z.~.#X:X#X^.5X5X5X4X#X:X:XjX,XjXl.( *X_.>X;XI._.+XV.A.k.I.A.2.d.A.A.(.+XyXpX*X;XbX+Xd.A.L.&X-XL.C.3 d.tXlXjX,XS.l.N.c.3.-.E U ( ( ( k.,.,.V.k.l.V.F.3.8.l.l.l.7.8.8.8.8.w K 3.| T Z Z 2 > 4 4 4 t 6 c B M L.k.V.M.l.M.3.) -.>.a & p ) h.a.x.C.d.,.>.U P m P m n v M M M M m M M m v p 5 x n m B ! _ ! ~ ) p.p._ I F ! _ ! ) c $ 1 t 6 N ! Q ^ ^ ) 1.,.5.M.M.M.A.I.F._.&X.X-X=X=XqXqX=XpXsXiXbXNXMXFXJXHXLXLXPXKX      KXKXKXKXKXKXKXKXKXKXKXKXKXKXKXKXKXKXKXKXKXKXKXKXKXKX                                                                                  ",
"                                                                        F.D.B.L w.6XB.B.:.@.@.L R R &.m.P.n.s.R G +.w.B.OXB.r.|.G.+.D g a 3 & m U F #. X%X Xb d S u y R R 1.5.f.d.5.5.M.2.#.a ^ n.s.%.s.NXMXJXVXnXjXjXjXvXnXZXVXyX;XyXnXBX*X*XBXMXnXMXpXiXMXBXBXBXBXMXBXhXyXbXBXBXBXhXtXtXBXBXJXBXMXFXFXFX=XU n ! >...( a.I.k.k.I.I.pXf.0 X + 9 9 9 0 9 & o , 5 5 2 3 B x & N x B B 5 o X o o X o $ o > 3 < x a v I U U J ( X.( ( | ( ,.,...0 U l.c.5.(.(.A.3.k.3.8.Z.l.~.).!.~.#X5X#X~.:X:X:X4X5X5XjX1X:XgX,.X.>X_.>X>X_._.+XV.C.f.I.A.d.d.S.V.I._.yXvXyXtXnXI.A.pX*XU.L.C.L.3 a.yXgX,X).~.~.~.F.M.d.} ( C Y } ( } l.k.l.M.N.z.3.8.l.N.N.8.8.8.z.8.9 A 3.| T C Z p 2 6 6 4 4 7 l N M A.k.V.M.l.l.1.-.1.) v > > M s.p.a./ n 3 * 2 & > & & > 3 M Z a 3 p v U / U U M m a 5 2 3 2 > 2 5 5 t 5 2 2 5 5 2 , , , 4 l 6 l ' Q ` ) _ ) 1.M.V.I.V.A.A.V.A.U. X=XtXqXqXqXpXiXiXbXMXNXNXHXJXKXKXLXPXKXKXKXKXKXLXKXKXKXKXKXKXKXKXKXKXKXKXKXKXKXKXKXKXKXKXKXKXKXKX                                                                                  ",
"                                                                          v.4.L 6.}.B.D.D.<XD.:.4.D.m.s..X.XP.S u k r.|.B.B.e.B.B.w.g f r p X a I U D 4.<X#.d t t b d t D f.M.S.V.5.,.5.M.U a R p.%.i.h.iXJXBXCXnXhXjXjXjXvXvX1X1XjXjXnXnXeXkXMXkXhXkXkXNXBXBXnXBXBXBXnXhXkXMXJXFX=X=XyXyXgXhXgX>XhXFXNXFX&Xx B _ >...) ..I.V.l.C.Y.pXC.a X < a 9 3 9 * & & 2 x a 3 p ~ 0 o M n U 3 o o & > > , > & 2 a 0 9 Z v M ( J C T } 3.3.| } | -.3.l.s J S.M.S.].#X`.5.z.5.N.~.z.).).).#X:X5X).^.:X5X:X:X:X4XjXjX:XjX5.T &XU.&X>X_.I.+XV.V.k.I.F.d.1.M.V.F._.hXvXhXnXyX_.;XU.C.L.C.L.Y.3 ,.jX4X:X#X).#X].~.c.,.( C M T T E 3.l.k.c.S.Z.z.| 8.z.N.8.8.7.7.8.8.w A 3.| A C m x 2 & 6 6 4 6 6 b M Y.d.V.l.l.c.1.} ) ) s x p 2 5 c 5 & & x B I P U U / _ f.U.U.a.>.>.a.f.p.f.h.p.h.a.1.f.) ) B B P U I F B ) %.! ! U B B l t l V Q ` %.^ ) %.d.S.A.A.A.M.M.A.L.L.Y.-XqXC.C.qXuXiXbXbXNXNXMXFXKXPXKXLXGXKXKXKXKXLXLXLXLXKXKXKXKXKXKXKXKXKXKXKXKXKXKXKXKXKXKXKXKXKXKX                                                                                  ",
"                                                                            M.-.:.ZXzXbXzXMX XD.f.Y.Y..XD.4.G u r e.|.|.e.e.e.|.|.}.:.f r n 3 > I >.) a R 1 1 F b b F ) R -.-.-.-.-.l.5.D.M R 4.i.%.&.%.uXMXJXBXJXVX1X4XjX4X;X(.1XjXjXnXnXkXBXMXpXpXkXkXnXMXBXMXBXBXBXnXyXpXMXJXJXeX>XiXyX*X_._.pXkXMXNXFXP.x U 1.<.1.} >.A.M.l.A.U.pXC.0 X * s a 3 3 9 + 3 5 x a 3 s ( v & M U v & & < 2 > > 5 3 3 0 a 0 9 Z C U E J C T ;.3.3.;.;.| 3.5.c.s K Z.N.Z.#X#X).c.S.5.S.).N.).).].:X5X5X^.^.:X4X:X5X5X4XjXjX1XhX5.E >X&X*X>X+XI.*XA.V.f.A.A.d.3.M.V._.>XvXnX*XhXbXI.M.f.f.Y.U.R.U.p >.yX,X:X].^.).).`.S.l.3.| T Y T ,.3.-.} l.S.S.S.;.8.z.l.8.9.8.7.8.c.w A 3.[ C C M P n 2 1 6 6 , 5 B M I.d.S.l.c.l.3.} ) Y a n B x > $ 1 F s..XqXqXL.C.C.U.'.=XuX=XqXU.C.x.C.x.h.x.f.f.x.C.Y.C.f.>.) %._ ^ ) ) ^ _ %.1.` _ s._ 6 c F ` ` _ ^ >.a.M.A.I.A.M.f.V.A.L.L.U.&X=XA.L.=XiXiXiXbXMXFXGXFXPXPXKXPXmXKXKXKXLXLXLXLXLXJXKXKXKXKXKXKXKXKXKXKXKXKXKXKXKXKXKXKXKXKXKX                                                                                  ",
"                                                                              Y.%.HXJXbXMXBX XC.P.<Xm.v.v.n.d r L B.e.t.+.L +.e.G.B.w.d e f a & n I ^ n 3 X $ a t d b L D f g f f m d.f.P p _ %.%.&.` ^ =XNXJXJXCXCXvX;X~.N.Z.#X1X1X*X*XhXBXnXtXeXhXkXkXNXMXMXMXjXnXnXyXyXpXNXJXJXNXhXhXtX=X>XgXnXnXNXFXFXC.p ! _ _ 1.( } F.S.k.V.U.iXU.a X X * s 0 a < & 5 p v v 9 m >.m & v / & & p 2 2 3 5 a a 0 a s 0 9 C U T U C C T 7.3.;.;.3.| 3.3.5.s [ ~.Z.~.#X].).l.A.l.F.].N.).`.#X4X4X:X).).4X4X4X4X5X4XjXjXgXvX5.( 1X>X*X>X*XI.;XI.A.V.I._.M.d.V.S.1XpXvXbXI.=XhXV.<.f.M.L.C.L.L.a X.1X#X].).!.].$X#XF.l.3.3.-.| J | | | | l.l.N.Z.3.z.z.8.7.8.8.8.8.c.9 A ,.( A C M / ) M 1 6 5 , p x M L.d.M.} | l.2.} ) P a a F c t 6 B K.T.T.-XuX-XqXqXuXsXiXuX-XeXqX'.P.C.C.f.C.L.C.L.C.h.p._ ) ) _ ^ P / _ ~ ` p._ ^ s.n.i.6 4 N ^ ` %.) #.a.M.k.I.Y.k.k.C.L.U.U.&X-X=X.X-XuXsXbXbXMXMXmXFXLXPXLXLXdXuXPXKXKXPXJXJXLXJXLXKXKXKXKXKXKXKXKXKXKXKXKXKXKXKXKXKXKXKXKXKX                                                                                  ",
"                                                                              <X4.xXPXxXmXNX&XC.Y.4.n.rXzXXXj j L L k @.@.k @.e.r.w.w.f g a f . 2 ) I R a $ & & & D R $.:.+.+.:.J g g a $ 3 ^ ` %.%.%.&.=XNX=X+X;XVXVXk.;.3.l.Z.#X:X`.F.tXkX>X*X>XhXhXkXNXBXnXyX_.yX>X>XhXkXkXJXJXJXNXyXtXyXnXBXNXNXMXJXJXf.5 ! ) _ >.) ( S.l.l.I._.>XL.p X X + 9 Z a & < 3 0 Z n 9 M ,.m & m / & & a 3 3 3 5 I v 0 s v a 0 C T ( C C C [ l.7.;.;.7. .3.3.3.h | ~.S.~.#X#X`.l.Z.k.`.#XS.`.).#X4X4X:X).#X4X4X4X4X4XjXjX4XgXnX3.| tX1X*X>X>XU.>X_.I.S.U.&XV.d.V.A.pXpXhXiXY.A.2XV.) <.f.f.L.&XP.3 X.1X).~.~./.$X$X#X).S.c.l.8.5.,.E T X.3.l.8.N.N.3.z.N.z.7.8.8.7.7.8.9 A ,.[ K C C / ..) B B B B n x M _.x.l.J J l.3.} ) P n a M t 6 6 %.aXwXP..X.XqXbXuXqXqXqX'.U.L.U.-XP.C.x.f.L.U.P.L.f.1.p.1.) %._ ~ ! ) ) _ %.%.` / h.s.%.c 4 b ^ ` ) _ <.M.C.d.M.A.I._.U.I.&X&X=XqX=XqXuXiXiXsXxXNXFXFXFXFXLXKXLXaXsXPXKXLXFXFXJXJXJXJXJXKXKXJXKXKXKXKXKXKXKXKXKXKXKXKXKXKXKXKXKX                                                                                  ",
"                                                                          C.s.-X1.uXGXPXmXNXY.P.s.v..XpX<X4.L L L k k t.:.t.+.+.:.v.B.R g 3 m & & F R 4.U X & X R v.B.B.w.6.t.e.:.:.f . & t %._ ^ ^ %.&..X.XL.C.U.>XVXl.| [ -.l.;XlX_.F.yXjXI.(.*XyXyXhXkXVXlXI.A.(._.;XyXiXkXFXJXJXyX_.*XyXnXhXnXNXMXJXJXf.t ! _ 1.1.} Y S.d.k.I._.*XL.0 & + + < Z < & 3 0 0 U n 0 n 2.M * Z m < & 3 a 5 p x _ m a v C s s C T | J C C 3.8.7.;.;.8.;.5.7.7.C | ~.Z.).#X;X).N.A.k.`.,XF.).#X).,X,X:X).;X4X4X4X4X4XjXjX1X1XvX,.} yXtX>X>XtX_.1X+XI.A._.*XA.l.A.I.>XyXtX2XL.d.U.L.f.<.a.L.-XY.x.s X.lX).Z.!.].$X$X$X#XZ.z.N.N.M.k.,.T | 5.3.8.N.l.8.z.z.z.8.8.7.;.3.3.w A ,.| T C Y ( ..) _ ) / ! B x M Y.k.5.C C 5.5.,.} I J x B N t l K.sXsXrX=X=XqXbXuXqXqXqX&XU.Y.U.L.K.Y.L.C.-X-XY.C.f.a.p.<.a.1._ >.p.p.1.p.>.! >.>.p.s.h.N 1 t F ) / >.f.A.I.A.M.L.*X=X=X=X=X=XqXeX=X=XtXtXqXiXmXNXmXmXsXsXGXPXFXdXGXLXLXPXFXPXPXJXLXJXJXKXKXLXJXKXKXKXJXKXKXKXKXKXKXKXKXKXKXKXKX                                                                                  ",
"                                                                         Xv.%.P.p.wXGXGXGX=Xf.v.v.<XrXtXD.L L :.k +.t.r.r.r.r.:.:.w.w.#.a & n 3 X a ^ s.I X X d v.v.w.6.:.t.e.e.t.w.B.D % b ) ^ ) F F ^ P.h.Y..X&X&XnXF.E K | N.;X,XA.S.*X_.V.A.*X>X>XgXkXnXyXl.k.k.(.;X*XtXMXMXJXBX>X*X>XgXnXMXBXFXFXMXFXf.p U _ >.>.) ( A.l.F.A.I.>XY.a & o o 3 0 + * a 9 a C C s C 2.M * Z a & X & n s n B ) P s m C C v Z X.X.C s C c.3.8.;.;.8.3.7.7.l.C | `.Z.`.;X,X*XS.Z.V.`.].Z.`.*X].,X,X,X#X:XjX4X4X4XjXjXjX1X1XhX} } yXyX>X>XyX_.;X+XU.I._.;XA.l.A.I.>XyXU._.M.f.x.C.f.A.&XL.C.C.f.a | lX).Z./.$X5X$X$X).N.N.Z.F.N.l.d.| T X.;.c.z.N.z.z.8.8.8.9.7.;.7.3.w A X.( K C ~ 2.a./ ) / I P B a s x.5.5.K T 3.l.2.} I C n m ! N B wXsXuXeXtXuX-XqXuXuX=XR.R.Y.=X-XC.L.'.L.Y.-X'.C.C.h.x.f.f.K.s.p.C.h.f.f.f.) ! 1.1.p.f.n.N , t N ! ^ >.f.M.A.U.A.U.tX=X=XeXqX=X=XtX=X=X=X=XtXNXMXsXuXuXsXGXkXGXkXkXPXPXPXGXPXJXJXLXKXJXFXLXKXLXJXLXKXJXJXKXKXKXKXKXKXKXKXKXKXKXKX                                                                                  ",
"                                                                #.4.B.w.4.v.4.n.K.R.  xXmXP.4.#.D.<X<X<Xw.@.@.:.k e.e.e.+.+.q.$.H d d M d 3 p p X & M n & < M ) %.R L L L +.t.6.e.W #.:.= d d D G d b ^ n.n.Y..XU.&XpX&XE T 3.3.Z.`._.`.A.c.x.A._.*X,XjXhXhXlXk.c.l.A._._.>XMXMXkXbXyXhXvXpXnXBXBXFXFXNXFXf.t B ) ) ..( } A.l.(.I.I.*XL.5 X o & 3 & & < s 3 s M s s C 3.C 3 J a 9 * @ s m n P >.~ v C C C v Y 3.5.C s K 8.3.8.3.3.5.3.7.c.z.C | `.Z.`.+X*X_.A.F.S.`.].A.`.,X*X1X,X1X,X1XjXjX4X4XjXjXvX>X1XhX| } gXtX>X;XyX_.*X+XI.(.(.*XV.d.V.F.2X>XA.Y.M.M.>.<.) <.C.f.h.h.a.9 T :X).Z./.5X4X$X].].Z.~.S.M.M.S.c.,.T } ,.l.l.N.8.8.8.8.8.9.8.7.8.3.w K X.T K C U 2.a.) / / ~ U B x s V.d.c.E E -.c.,.( U M M P p.! ` qXiXeX'.hXsX&X&XiXuX&XC.L.U.U.Y.L.U.'.L.L.&X'.L.C.f.x.C.L.L.f.f.h.f.1.p.1.%.>._ >.f.f.n.F 6 N c B ~ <.V.V.A.L.A.U.pXyX-X&X=XeX=XeX=XtX>XtXNXbXuXqXuXsXkXmXGXmXIXGXPXLXPXPXPXLXPXPXLXPXFXJXJXLXJXJXJXJXJXJXKXKXKXKXKXKXKXKXKXKX                                                                                    ",
"                                                            &XR :.}.}.:.H #.4.%.C.K.    qXC.4.R  X X Xv.b.w.@.q.*.t.t.e.t.:.:.+.H D G ^ U d p M X X & & R v.M.s.#.#.L d g g g k r.w.@.#.D = d D v.m.D.s.^ n.n.n.P.U.tXJX5.T ;.;.l.(.gXkX(.l.A.A.(.`.*XjXlXlX4XN.5.V.S.V._.tXgXbXhXiX=X1X>X*X>XyXMXNXFXMXJXC.5 M ! ~ ) Y 2.I.M.(._.A._.C.3 X & 2 & o < 3 0 9 s J h s A 3.C w C s C Y * & n n U >.( M U Z C n Y d.k.U C [ 8.3.8.3.8.3.3.c.z.S.C | `.Z.`.`.`.(.S.A.V._.#X(.;X>X;X1X1X1X,X4XjXjX4X1XjXjXvX>X1XhX( >.hXtXtX*XpX_.*X*XI._.(.*XS.k.F.(.+X_.Y.U.A.f.) <.2.) 1.1.f.f.1.0 T ,X^.N./.$X5X$X].^.N.Z.l.l.N.~.F.c.;.3.3.8.c.8.8.z.9.8.0.8.8.8.8.3.* T 3.( K C Y } ..>.( / U m M a s I.V.l.E ( X.5.} ( T C J I ..U f.kXuX=XU.yXbX-XU.iXiXqXL.Y.eXK.C.U.&X-XR.C.C.U.Y.U.L.A.L.R.P.L.f.f.h.f.f.a.f.p.) %.s.h.T.U 4 F b F >.M.A.V.A.L._.&X=X>X&X>XeXtX-X-X*X>X>XtXiXpX=XqXsXsXsXsXdXdXsXPXPXLXPXPXPXPXFXmXPXFXFXJXLXLXLXJXJXJXJXJXKXKXKXKXKXKXKXKXKXKX                                                                                    ",
"                                                            1.:.|.%X%Xr.@.:.B.#.1.K.    qXv.R #.<XXXb.q.B.q.j $.B.e.e.e.e.e.e.q.D e t F ! U 5 c $ $ X D D.5.:.R R L R L L L j g j $.:.#.D D B.B.XXb.}.D.D v.C.v.L.&XhXJX1X3.J | 5.(.yXgXS.5.F.`.F.*X4X4XlXlX4Xz.| c.l.c.(.>X&XgXyXyX>X>X=X'.*X>XiXNXMXNXFXP.p p P ~ ( I k.V.d.I.A.A.I.C.2 + > & o > & 0 s a s J C h K c.C * s C T T C @ s s P f.( M I M Z m T l.V.T C ;.8.8.8.8.8.z.3.c.l.S.h | ).Z.~.F.F.(.Z.A.S._.*XI.+X1X;X>XgX1X1XgXjXgX1X4X4XvXgX;X>XkX>.,.kXkXyXeXeX>X*X*XI.*X&XyXU.V._.*X&XI._.&XA.C.a.1.a.<...<._ ) >.a T ,X~.!.^.5X5X$X#X].Z.N.N.N.~.Z.~.Z.8.3.3.3.8.l.z.z.9.9.7.9.9. .7. .* T 3.T A C ( ,...} >._ ^ U m 9 Z _.V.l.T | } 2.,.( T C C ( ( / C.sXpXqXeXpXiXqXP.=XuXqX=XuXR.C.Y.P.-X&XR.f.<.L.-X=X'.C.Y.'.U.L.x.f.a.f.a.h.f.) _ / f.h.T.! 1 U P I f.2.A.A.L._.&X&X*X>XtX=X-X&XtX>X*X>X>X=X=X-X-XuXsXsXsXGXdXdXFXPXPXLXGXPXPXFXFXHXLXmXMXJXJXJXJXHXHXHXJXKXJXKXKXKXKXKXKXKXKXKX                                                                                    ",
"                                                            v.b.6XOX}.B.@.@.w.#.4.C.        v.@.{.{.w.B.b.:.j :.r.r.e.e.r.e.e.e.j r b d b F , 4 o X $ U M.w.:.+.+.d L L $.:.:.j e = D d e +.B.G.|.|.}.6XD.v.s.f.L.&XpXMXCXvXN.-.3.V.F.k.5.k.(.S.(.*X,X1X4X4XvX$X3.3.l.c.c.l.A.yXyX&XI.&X>X'.U.-XyXMXFXbXbXU.x p a B U ) V.V.d.F.A.V.A.h.< o 2 , & 2 > s v n v K C h T d.v * 9 C s T v * m P I <.) C ( Y ~ U Y l.S.T A 8.z.8.8.3.z.z.7.8.l.N.s [ ~.S.~.F.~.~.A.F.V._.*XI._.>X*X1XgXyX1XgXjXjX4X4X4XvXjX,X1XnX>.,.nXkXpXyXyXeX>X>X_.>X*X1X_.A.&X&X_.I.I._.A.A.A.k./ ) ) ~ ~ / 1.0 C 1X~.l.!.:X5X$X].$X!.z.z.z.Z.Z.z.z.3.3.;.;.8.8.8.z.8.8.0.7.7. .0. .* T 3.T A C ( >..._ >._ ! Z M 9 C A.k.k.T | 2.a.>.Y T C J ( Y I L.iXkXeX-X=XuXuX&X-XuXsX=XU.P.Y.&XR.&X&XR.f.p.L.=X-XL.Y.=XU.L.&XC.C.C.f.x.C.<.) _ >.h.K.T.! 2 N I ) >.f.M.M.U.&X=X>X=X&X*X*X&X_.*X=X>X;XU.Y.Y.=XuXsXsXmXmXGXsXuXmXPXKXGXuXGXsXHXHXFXmXHXLXJXFXHXHXHXHXJXJXJXJXKXJXJXKXKXKXKXKX                                                                                      ",
"                                                              w.r.r.e.+.@.q.{.B.v.f.        zXv.q.B.B.}.|.B.*.+.e.|.r.e.e.e.e.@.y S r 1 %.^ 1 5 $ . . r v.}.D.B.b.B.w.:.+.D j d d 4.b % # e j +.e.{.{.}. XR 4.v.A.U.=XMXJXJXBXVXgXA.,.| 3.k.k.V.F.`.).:XjX4XjX:XZ.3.3.X.3.k.*XgX>X*X&X_.=X*X'.yX>XkXNXiXbXuX~ M x I ) f.A.k.d.A.F.k.x.<.& + 2 > 2 2 > a a n n T A h Y d.v * * 9 C v + * 0 m ^ <.} C } | } Y T d.S.T K z.N.8.8.3.8.z.7.z.l.S.s T ).Z.~.~.~.~.S.F.V._.*X(.+X>X*XtXyX1X1XyXjXgX1X:X1XjXgX,X1XnX>.,.nXkXpXuXpXyX>X>X&X>X*X>X_.I.*X&X_.I.A.I.A.A.I.A.<./ ../ >.) <.a C ).!.N.!.$X4X$X^.^.!.z.z.8.z.z.8.8.3.7.;.;.8.8.3.8.8.7.7.7.7.0.;. .* A 3.[ T K | ..} ) _ ` ! m m a Z V.l.l.( ( } ,.} Y T J E ,.( I Y.eXsXqX=XuXsXkXsXsX=XU.L.Y.=XY.P.=X=X=X&XY.C.x.C.-X-X'.&XR.&X-XY.C.x.f.a.h.f.1._ p.h.K.P.! , t P >.1.5.4.f.U.=X2X*X&X&X2X=X&X-X-X&XU.A.V.A.U.qXiXmXNXFXmXsXrXuXsXGXY.p.-XqXxXFXFXFXGXPXmXmXHXFXFXJXJXJXHXJXJXLXLXJXKXKXKXKXKX                                                                                      ",
"                                                              D.W 6.+.+.#.B.<X XP.C.          B.:.b.{.B.w.w.:.j *.e.e.e.e.:.e.q.b = = t ^ U 2 > & X . = 4.w.}.}.B.B.|.w.D R L H 4.H = = u y e r j g q.XXb.B.v.C.n.R.iXJXCXCXBXvXnXZX>Xl.X.3.5.3.k.A.~.`.).Z.~.`.3.| 3.,.5.F.nXJXtX*X>X&X>XiXeXuXkXhXkXkXNXkX>.F U 1.f.V.A.5.l.I.I.d.f...& o > , > & 2 M M v n T J C ~ d.a < 0 X & + & v p n ) f.2.U } } ..T T 5.S.E [ l.8.8.l.3.7.8.7.z.l.S.C | ).Z.Z.~.`.`.(.F.V._.+XI.*XyX>X>X1X1X1XgXjX4X,X;X1XjX1X>X>XnX>.,.NXkXiXuXpXyX>XeX&XtX*X>X_.I.*X=X*XA.k.A.A.A.A.A.M.( >._ f._ >.a C Z.z.!.!.$X4X].^.Z.z.z.N.8.3.l.8.8.8.8.7.;.8.3.;.8.8.8.9.7.0.0. . .@ A 3.| T T } X.} ( / ! ! B M p I V.k.l.( ( <.d.,.E T C T >.} } &XtXsXqXqXsXbXkXqXR.P.Y.U.-XU.Y.U.-X&X-X&XU.h.a.a.L.=X&X&X=X-XuXU.h.C.C.p.a.f.>.) _ h.K.P.F o & > M >.<.f.V.&X=X+XY.I.*X<X&XU.L.M.f.h.M.C.Y.P.-XiXNXxXsXsXxXsXmXqXh.p.p.P.uXmXmXsXFXFXFXmXMXFXFXFXHXHXJXHXHXJXJXLXLXKXKXKXKXKX                                                                                      ",
"                                                              4.w.w.v.  D.v.<X-XpXqXC.      <X#.:.e.B.B.e.:.+.j L r.e.+.$.$.4.R r u 1 d %.D X # . X # . d w.D.B.B.w.+.$.$.H R 4.H % % u u u e H :.@.j w.D.<X4.f.f.R.pXMXBXJXJXVXnXBXVXgXF.l.k.l.c.l.8.c.l.l.N.Z.z.| } l.;XhXBXMX*X_.>X>X>XpXeXeXpXyXiXbXFXFXC.! ! _ f.h.V.3.k._.I.f.a.) & X & o o o 5 M M s C T C C } a.5 2 v & < 0 x B c B / f.d.Y >.2.2.| Y 5.M.[ [ 8.8.8.l.7.8.8.7.c.8.z.C | (.F.F.~.(.(.(.F.A._.&XI._.yX>X>X>X>XtXgXgX1X,X,X1XjX,X,X>XvX} ,.NXkXhXpXgXhXeXyX&XtX*XtX*XI.*X=X&XC.V.I.I.L.V.A.x.} 1.) .._ ,.0 s (.z.z.Q.$X5X].!.N.8.7.z.8.7.N.z.8.8.7.z.;.7.;. .7.7.7.9.0.0.0. . .* A 3.| T T } } ( / / ! ! B M p ~ V.V.d.U T ..2.} T T T } ,.I <.-XpXuXqXuXmXbXsXP.Y.R.R.R.P.U.R.-X&XR.R.&XU.h.a.<.C.&X-X-X=X-XuXC.C.U.C.<.a.<._ ..1.C.K.P.N X , > 5 p d / <.M.D.F.Y.D.C.M.f.d.f.M.L.Y.Y.Y.A.U.R.&XiXmXmXsXiXGXuXf.P.mXrXR.R.FXPXFXmXFXFXFXmXmXHXPXFXFXHXPXFXPXPXLXKXKXKXKXKX                                                                                        ",
"                                                            v.D. XD.                h.      n.L :.*.$.w.e.e.$.+.L j L +.+.j d = 1 y t y d a U ^ ) = . . = 4.D.B.:.L j @.j d R y % 1 d b u t H R @.q.L $.%X X1.f.C.U.eXJXJXBXBXBXVXVXhXnXkXgXgX(.).S.X.| 3.Z.).:X;XF.F.;XnXNXNXNX*X*XtX>X&XeXtXeXpXbXMXMXmXMXL.B P I <.f.V.3.V.(.A.a.a.) > o $ o o > p s a a C T C C } 1.6 5 p p p c B B M I >.<.2.U ,.a.a.} Y ,.l.T [ l.8.7.7.7.8.z.8.z.l.N.C [ `.`.`.).~.~.~.F.A._.*XI._.>X>X>X>X>XtXyXyX1X4XgX1XjX,X>X>XhX( ,.NXkXkXiXhXhXyXpX*XtX&XtX>X_.&X&X_.C.A._.I.A.V.I.L.1.>.) ) _ p.0 s z.8.z.Q.]./.Q.z.N.8.;.z.7.7.N.z.8.z.;.z.7.7.7. .0.7.7.9.0.0.o. .[ * K 3.| T T | ( ( ( / ! U m M p ) V.k.,.C J } 2.| T K C ( } M f.-XiXqXqXuXuXsXuXC.C.Y.U.-XR.R.R.=X&X-XU.R.Y.h._ <.Y.=XeXtXeX-XC.C.U.C.C.L.<._ ) >.p.C.K.E.N $ , p M 5 n m f n J U ( 1.f.C.D.A.L.U.U.Y.U.&XR.A.P..X=XuXGXmXmX-X%.n.iXqXsXsXwXR.sXPXFXGXsXGXHXFXFXFXHXPXFXFXPXPXLXKXKXKXKXKXKX                                                                                        ",
"                                                            f.C.Y. X                  h.    %.D +.@.j L @.q.:.q.B.d % = = = D ^ %.c 1 1 y %.D.D.<Xv.= . . r R d L j j D j H e = % r t 1 1 u d H @.:.w.@.D.4.t ^ n.R.-XkXBXJXVXjXhXBXCXCXnXjXgX,XhXjX,X;X;X4X4XjXvXvXvXnXnXhXbXNXkXbXtX*XeXkXiX=XeXkXNXNXMXFXqXU M I >.k.k.3.S.F.V.1.a.) > o $ $ & 5 x n s s C J C C } 1.5 5 t c n x P ! B B <.2.2.Y ,.d.2.| T X.c.T | l.8.7.3.8.z.z.l.S.N.Z.C [ F.`.).).`.`.`.(.A.I._.I._.>X>X>X1X1XtXpXgXyXyXgXlXgX*X>X>XgX( >.nXkXnXkXkXkXyXhX&XyX*XtX>X&X*X&XU.A.A._.U.A.C.I.U.>..._ _ ) a.3 s 7.8.8.9.Q.Q.8.0.z.7.;.8.;.7.z.8.7.z.7.8.8.7.8.;.0.8.9.9.0.7.o. .[ @ A 3.| [ [ [ ( ( ( / ! U M a 0 ) k.k.2.J E } 2.} T T C ( ( M C.uXmXiXqX'.C.-XxXY.C.P.&XU.h.C.&XuXR.U.R.Y.f./ >.C.&X-XuXpX-XC.R.'.C.L.pX_.C.>.) ) 1.h.K.E.! , , t M t m 1.<.4.#.J J ) f.D.F.U.Y.Y.Y.R.R..XR.Y.R.R.-XsXHXxX.X! P.wX.XqXuXdXxXsXwXwXdXHXGXmXxXFXxXxXFXGXGXGXLXPXLXKXKXKXKXKXKX                                                                                        ",
"                                                               X-X                    p.    1.d L @.L H +.q.#.4.w.+.u e #.D. X<XXX%.1 1 d R v.D.F. Xv.r . # = = e H d u r = r 1 # 1 1 1 u y d D @.*.b.b.d = 1 #.f.-XuXNXBXVXnXjXnXVXVXnXVXvXjXnXvXjXjXvXjXnXjXjXvXvXnXVXnXkXnXNXMXCXhXyXNXbXeXeXyXhXkXkXMXFXiXU a / ,.x.d.2.F.A.k.>.a.) > X o $ > p p s a a U T A J | a.2 6 N c B ! ! _ / U 1.2.d.E 3.d.3.| T X.8.[ ;.8.8.8.8.8.N.z.8.z.l.Z.C [ ~.`.`.`.`._._.A.k.V.A.L.&X>X*X*X>X1XyXgXgXyX1X1XgX4X+X>X*XyX( ,.nXkXMXnXnXnXpXkXU.pX>XyX>X*X>X*X_.I.A._._.I.L.L.C.) 1.>.1._ x.9 s Z.^.0.8.9.9.9.7.z. . .8. .;.z.7.;.z.7.;.z.8.8.;.;.7.7.9.0.0. .0. .@ A 3.X.| | [ ( ( ) / ! U M v a } k.d.,.J E } ,.| T T J E J Z C.uXiXiXuX'.h.C.qXY.K.Y.U.P.L.-X=X&XL.Y.&XY.f.<.L.=X=XuXuXU.C.U.'.U.tXpX&XU.L.L.f.1.h.K.R.Y.! o $ 2 M B a %.>.M.M.M.v.,.U ) 4.C.Y.Y.U.&XP.P.P.R.-X-XqXwX.Xs.B R.rXmXdXsXxXmXsXwXP.s.h.P.wXuXmXxXmXxXsXdXGXPXGXFXPXKXKXKXKXKXKX                                                                                        ",
"                                                                                        p.    b d @.R +.D.4.R #.R d % ) rXrX.X.X.Xn.b r S 4.v.%X X2X<XB.= . & % % e # # # = d u 1 $ 4 $ 1 b D b L +.q.{.#.r 4.4.s.&XpXNXBXVXJXnXnXhXCXVXVXnXnXjXjXvXvXvXnXvXjXvX1XvXvXhXyXyXyXbXbXbXbXNXJXNXiXNXkXnXFXFXMXNXsX/ Z ) } k.2.>.V.V.a.<.f.>.2 o o $ , 7 p x a s U | K T | } < 6 V c B F ^ _ / ~ -.5.l.| 2.l.2.( Y | 3.| 3.8.l.l.7.8.8.N.8.z.z.z.C T `.`.`.`._.+X_.A.k.V.A.A.I.pXU.I._._.*X>XgXyX1X1XjXgX_.*X&XgX( 2.MXnXMXbXkXMXkXkXI.eXyXtXiXeX>X=XU.I.A.&XI.I.U.I.x.>.f.1.p...x.0 0 N.z.{ ;.9.Q.9.8.7. .0.0. .0.9. .7.z.9. .8.N.7. . .0.0.0.0. .0.7.0.* A 3.| [ [ [ | | ) ~ U B n M 3 ..k.d.} Y } ,.3.| T T E | f m -XsXmXsXqXU.x.f.Y.Y.U.R.-X-XqX-XY.P.L.&XuX=XqXqXiX-XuXtX*XL.Y.R.=XhXNXtX&X'.&X-XL.C.C.R.T.R.) $ $ 1 U U 1 #.D.D.F.F.D.C.v.>.D M F I m F M x ! s.C.p.! h.R.1.B _ p.h.p._ ^ ! ! p.n.R..XK.n.h.h.n.E.wXdXuXuXrX.XR.Y.qXGXPXPXKXKX                                                                                        ",
"                                                                                                ^ 4.D.zX<Xv.s.4.v.F t _ Y.P.D..XP.%.G d #. X4.v.%X2X2X<XD X # X # % % d %.n.%.t t $ $ $ $ r D H H :.q.4.D.#.4.%.s.U.>XgXZXnXVXVXvXvXvXVXCXnXvX4XjXvXjXjXjX4X1X1X;X4X>X;X>XgXiXgX-X*X>X-XtXhXNXbXnXnXNXiXNXFXMX>.M / } f.} ,.k.d.d.a.<._ 2 & o $ , 5 x n a M Y E K T } } < 5 M b F I _ p.) U | 5.l.} d.d.3.( T | 3. .;.8.l.z.8.8.8.z.8.z.z.z.C T ).).(.`.`._._._.V.V.V.A.I.=XC.a.L.A.A.&XyXyX1X1XhXjX`.&X*XgX( ,.MXnXMXbXkXMXkXhX'.gXhXtXhXpXyX=X&X_.L.'._.I._._.L...<.<.p._ x.a 0 | T  .0.Q.Q.9.7.7.0.0.;.{ 0.9.[ 7.z.z.0.8.8. .{ { 0.0.7.7.o.0.7.;.* A 7.X.| [ [ X.| Y / P n M x 3 ,.k.2.( U ( X.,.( T T T ( s / uXxXmXmXqXU.K.K.U.R.qXuXsXqX&XY.C.C.U.&XeXuXuXeXuX=XpXtX&XL.R.eXbXMXpX&X&X-X&X&XU.L.P.Y.R.R.^ o & , t t 3 R Y.%X@XF.@XD.D.A.P.U $ = d P _ p.h.h.p.b x uXFXGXR.%.F b t 2 6 ! K.dXdXmXGXGXdXrX.XK.K.T.R.P.R.wXwXqXqX-XR.R.-XuXsX                                                                                        ",
"                                                                                          _       xXHXMXD.v.C.n.h.%.%.b F 4.s.s.4.m.G S 4.%X Xd L b. X5.= # & # = $ U .X=XxXn.t 1 b $ $ $ X b ^ D #.b.D.D.%.D D %.f.&XyXgXvXjXjXjXyX(.;XvXvXvXjXvXjX4XjX4X^.Z.^.~.+X+XI.I.;XyXyX*XU.*XI.U.&XtX=XV.C.Y.L.pXFXFXa.x ~ 1.a.( d.k.2.f.f...) > & $ , , 5 x x a C T T K T | ( & 0 M M ~ ~ ( a.2.Y } 5.l.,.l.d.,.| Z T 3.;.3.8.8.8.7.z.8.8.8.N.z.z.C | ).`.(.`.`._.I._.V.x.V.V.d.x.a.2.L.C.k._.>XtXyXjXjXyX(._.*XgX( 2.BXnXMXbXbXMXnXkXeXbXbXpXhXhXpX>X=X*XI._._.I._.U.A.1.p.1.1._ C.a v T A ;.8.!./.0.0.;.;.;. .{ 7.9. .7.z.z.7.7.7.;.{ { 0.7.0.0.o.0.7. .@ A 3.X.| [ [  .| Y ~ U M M a 3 } k.5.} T ( X.,.| T U T E a } sXFXmXrX-X-X-X&X-XqXuXsXsX&XL.Y.P.P.-XuXeXuXuXqX=XqXiXtX-XL.-XJXMXNXtXeXtXpX-X=X&XK.&X-XR.wX_ $ 1 o & t p 3 f.@X@X2X<X&X<XD.U a m f.Y.qXuXuXFXFXqXwXp.1.K.R.h._ _ 1.%.f.R.aXGXmXxXmXxXsXsXGXHXLXGXxXxXxXGXHXFXGXPXPXmXsXmXmX                                                                                          ",
"                                                                  P.n.T.h.n.D.D.D.D.        %.    LXJX=Xf.v.n.C.K.n.n.^ b b y D m.m.G #.D.XX%Xd # = = = X = X $ > %.rX-X<X.X X%.t s.U . # # X 1 d R v.XXXX1.d R ) I A.*X(.2XjX4XgX1XF.+XgXjX4X4XjX4X4XjX:XZ.M.Z.).#X).F.A.;X1X;XA.F.(.V.M.&XpXpXA.k.A.C.-XNXFXC.x / a.1.( d.d.1.d.k.../ > o , , 4 p x s a C T T K T X.} & p m M ~ / ( d.f.) } 3.M.3.k.l.3.} C T 3.;.3.7.8.3.3.z.8.7.7.N.z.z.Z | `.`.`.`.(._.(.I.V.V.A.V.( / 1.f.A.x.2.L.>X>XyXyXjXyXI._.=XgX} 2.BXNXMXnXnXBXNXNXhXkXkXhXnXhXpXeX*X*XI._._.I.L.A.M.1.a.>._ _ C.s C | T  .0.9.Q.0. . . . . .{ 7.7.;.0.8.z.8.8.7.9.;.;.0.0.0.0.o.0.9. .* K 3.X.| [ [ | } ( U U B x a 0 ( k.2.} E | ,.X.E T J T Y 3 <.uXmXuXR.qXuX-XP.R.uXuXqXuXR.C.K.K.K.U.uXuX=X-X'.R.eXiXuX=XL.=XFXNXbXpXtX=XtXtXqXR.L.-X-XR..X_ o $ t I U U 3 3 -.M.v.D.#.R f a f.R.qX-XqXuXqXR.R.rXR.rXp.B ` s.R.wXiXsXsXGXmXsXxXdXxXxXGXxXGXGXGXxXGXGXGXGXFXFXFXFXPXLXKXKXLX                                                                                          ",
"                                                                ) U F F F %.XXD.b. XP.      p.f.  PXFX-XP.P.P.P.n.n.n.%.R F d ^ XXv.R 4.XX<X.XD # = 1 & & 3 3 X 3 rXrXpXrXrXrX.X^ y y # c s.s.F r = d f.Y.^ b ^ U D D.@XS.).:X$X@X#X`.#X:X:X+X:X4X4X4X:X#X+X).@X^.+X(.S.V.@X;X+X(.M.M.S.M.S.F.yXpX&X&X&X-XiXkXC.x / 1./ ..f.2.d.d.f.>.~ > X , 7 5 p x a a C T T { [ ,...< a P M P ( >.x.l.( ( 3.M.3.k.k.5.X.Z T 3.;.;.7.z.8.8.z.7.;.7.z.z.N.K | `.`.`.(.A.+X+X_.V.V.A.x./ I ..a.V.f.2.C.*X*X>X>XyXyX_._.>XyX( a.BXNXBXnXkXMXMXBXkXhXkXhXNXkXiXyX*X*XU.'._.I.A.V.M.<.a.1._ / x.a C 3.A K ;.z.9. . . . .o. .{ 7.;. .0.9.z.9.z.7.8.;.;.0.0.0.o. .0.7.[ @ K ;. .| [ { [ | ( U Z M p p a ) M.,.E E | ,.} E T T E J 3 <.tXmXrXR.wX-XY.L.R.uXuXqXuXqXC.C.f.C.L.U.qX-XY.U.U.uXpXuXqXP.'.MXMXbXpXeXeX=X>X=X&X-X&X&X.XwX_ o , b ^ ! 4.R = g n m Y f 3 / s.h.P.C.R.wXU.Y.L.R.K.R.R.f.C.xXNXFXmXbXsXsXsXsXmXsXsXmXGXPXmXmXsXmXmXGXFXFXGXPXPXFXmXFXLXLXKXKX                                                                                          ",
"                                                              _ #.s.R u 1 b %.{.4.v.XX        B   KXxXC.A.P.P.n.s.v.n.v.%.D d $. Xq.#.4.XXcXD.r a D D M 3 = n . = b n.rXtX<XD..Xv.= . t R.cXwX.X.X^ % $ t 3 t m M ~ Y.+XF.Z.Z.F.).+X+X+X#X+X~.^.:X:X$X).#X$X@X^.Z.).~.F.F.;X2X;XF.E f E -.5.5.F.=X&X=XpX=XbXMXY.v / ( I <.d.a.V.d.2.,./ > o , , 5 c x a 9 C T [ [ [ X.X.< a I C P } 2.x.k.} ( 5.k.3.l.k.5.} K T ;.;.;.8.z.z.z.N.7.;.8.z.z.S.T ( `.`.`.(.A.+XU._.L.V.A.k.) } <.a.L.L.V.A.*X;XyX>X=X>XI._.>X>X( 2.BXNXBXnXkXMXMXBXbXkXbXiXbXNXbXpX*X=X_.&X_.I.I.A.C.a.f.1.>.` h.3 m c.[ K ;.!.9.{  . . .;.{ { 7. .{ ;.9.9.8.z.7.7. . .;.0.o.{  .o.0.{ @ K ;.X.[ { T | | ( I M p 5 p a I M.,.E E | } | | T T E C 3 <.qXmXrXqXR.C.Y.f.h.K.L.U.qXuXP.C.f.h.C.P.=XR.Y.&X-XiXuXuXeXL.P.FXMXiXiXpXtX=X2X>X&XqX-XqXqXqX_ $ & c s.p.M r r a <.D.) < U <.f.f.f.s.-XqXK.U.wX-XY.L.K.p.Y.NXxXxXbXsXiXiXsXsXsXmXmXGXGXmXxXGXFXFXGXmXmXFXGXGXmXFXFXJXJXJXKXKX                                                                                          ",
"                                                              F XXXXR 1 t R &.D.<Xv.P.          P uXHXY.n.A.C.f.n.n.n.s.^ b H D.D.#.4.v.XXXXD 1 a R ^ ) M = R r % r d  X<X<X XD.v.v.n.%.XXrX.XP.T.dXp.$ . 6 t ! m %.A.F.F.S.Z.M.[ | ;.3.M.Z.~.N.^.^.^./.+X^.Z.~.#X#X).#XgXvX+XM.J g g f T 5.( J M.Y.U.U.&XtXkXC.x ~ ~ / 2.2.2.f.2.>.<...< + > > 5 x v a g J [ [ [ | X.2.3 x ( Y ) >.a.x.V.2.( 3.l.3.d.k.3.} T T X.| 3.8.z.8.z.N.7.;.8.N.N.Z.T Y +X*X`.`.+X_.V._.L.V.L.k.1.a.k.x.'.=X*X'.>XyXjX>X;X=XI._.>X>X~ 2.BXNXMXbXbXMXMXBXMXkXbXpXkXnXnXkX=X=X&X=X_._.+XU.C.f.f.1.p._ h.3 a l.l.3.0.Q.9.;. . . .0.{ { 8. . . .7.7.7.z.8.8.;.;.0.0.o.{  .o.0. .* { 7.;.[ K T { | ( U v p t p a C M.2.| E T T E | T T T f 9 <.P.qXuXiXR.C.K.C.L.K.L.U.-XuXY.h.h.C.C.U.-XR.-XqXeXiXtXiXuXL.A.kXNXbXpX2X-X=XpX>X&X-XqXrXuXqX! $ & 6 M t t ^ #.f U P & U L.p.>.f.p.Y.mXP.C.-X&XC.Y.C.C.1..XsXiXxXsXxXbXxXuXxXFXmXmXxXmXxXGXmXdXsXmXGXmXmXmXGXFXFXHXJXFXFXLX                                                                                            ",
"                                                            n.n.XX4.G S ^ P.XXv.b..X            B h.FXiXn.C.n.n.Y.n.n.s.#.b +.<XD.4.m.{.<Xv.= 1 y F ) 1.%.3 D D # r 4.%XzX X X XD.XX.X.Xn.^ .X.X.XwXR.l ; t c N B ) C.A.(.F.Z.;.C C f f J | M.8.M.Z.~.~.~.Z.F.@X+X#X@X:XgX+X-.f s 9 f J J -.-.| -.Y. XY.&X=X=X>.a U Z ) 1...} } >.} 2.a.> & > 2 5 x v a 0 J [ T T [ X.2.5 s ,.) ,.2.d.k.A.d.E ,.l.5.c.M.3.X.| T ;.| ;.8.z.8.z.z.8.;.z.N.z.S.T T `.*XI.(.*XF.1.U.U.L._.x.a.V.V.V._.eXeX-X*XhXhXyXeX>XI._.tX>X~ d.FXNXMXNXNXMXMXMXBXiXkXpXiXhXhXMX>X>X=XtX*X*X>X_.A.f.a.s.f._ h.s 0 T 3.8.N.Q.9. .{  .{ ;.{  .9. .;. .7.8.7.8.7.z.9.8.0.0. . . .0.;. .* [ 3.;.K h { K | } Z x x p p a Z V.2.( T T C T | T Y J a 3 / p.-XsXqXP.h.h.Y.-X-XqXqX-XuXR.K.K.U.-XR.R.-X&XeXuXuXuXkXtXP.A.iXMXNX=X>XpXpXeX>XpXuXiXqXuXqXM & 2 $ $ a %.m.%.a = = D <.n.n.n.f.n.-XiXY.Y.R.Y.C.P.C.C.%.-XxXxXxXiXpXbXNXbXsXtXxXsXuXsXxXGXGXsXsXGXGXxXGXGXPXHXFXJXFXMXJXLX                                                                                            ",
"                                                            %.%.S &.m.G R XX<XXXD.s.              c sXLXqXY.n.C.n.D.n.s.F R m..Xb.v.4.XXv.d = r d U ) #.>.f - g r 4.<X<X%X X X XD. X X.X.Xc 1 Q g.E.` , O ; V c b f.L.L.A.F.M.3.[ [ E T [ T E -.| E ;.5.3.M.Z.S.V.M.@XvX(.U J J g s m f J J -.5.d.A.&XC.Y.U.L.P x ! U / ,.,.} } } ,.x.x.2 & > > 5 c M s f Y E [ [  .-.,.9 a } >.2.d.l.k.A.( M 2.k.l.c.l.3.| ;.T | -. .8.z.z.z.z.8.8.N.z.N.Z.T Z `.`.(._._.C.Y I.U.U._.V.f.L.x.L._.eXeX-XeXyXpXkXjXlX`.&XyX*X~ a.JXFXMXMXNXMXBXMXFXiXbXiXpXeXmXNXeXeX>XyX=X*X>X&XL.f.f.f.h.1.C.a M 3.T ;.z.N.8. .{ { { 0. . .7.{ ;. .9.7.0.7.7.N.9.7.7.;. . . .0.0.| * | 7.3.| h A T [ ~ Z a a 0 a s P _.d.( n n T | E T Y n a 2 F p.s.R.-XuXR.R.U.K.qXuXR.R.'.-X-XR.=XuX-X-X=X&X-XuXuXpXpX=XA.M.iXNXiX-X=XpXpXpXsXuXsXbXuXiX.Xp $ > 3 M ) 4.^ # 3 M / f.f.s.f.A.f.P.uXuXK.Y.U.C.C.P.C.h.) U.pXbXbXpXsXFXiXtXxXiX.XP.Y.R.-XxXPXuXGXmXmXGXFXFXNXbXNXCXHXFXJXKX                                                                                            ",
"                                                            ^ z H &.m.q.@.b.XXXXXXm.D.            ! p.LXHXiXP.v.s.D.n.R U 4.%.%.4.4.4.D.d = u y D #.#.#.#.U - g s.<XrX X X{.F. XP.XX.X XR.&.$ . , ; O O o o 6 t x p.h.f.C.V.1.) | -.( | ( | ) m g 3 g f s C J J s Y U.pX5.a J m g f f a J 2.V.A._._.&XY.&X'.h.5 p ! U / ,.,.( } X.2.A.C.3 & > > p x n s M ( | | T | -.-.9 a >.<.d.k.M.V.S.E C 5.l.c.c.N.8.;.;.T | ;.;.l.z.z.z.z.z.9.N.N.N.Z.T C +X_._._._.k.I A._.U._.A.x.I.C.L.'.eXeX-X>X>XeXhXjXjX_.*XtX&X~ 2.FXMXHXJXFXFXFXFXHXkXbXiXpXtXkXMXiXtX>XyXeX=X&X_.U.A.h.f.h.1.x.v M 5.[ [ 0.9.7.{ { A  .7. .8.0.{ ;.;.9.8.7.7.7.z.8.0.0.;. . . .7.7.[ * [ 7.3.| A C K Y ~ Z a 0 a a s C +Xd.Y f C T | | ( / M x 5 7 ! ^ p.P.-XqXK.h.L.qXeXR.R.qXrXqXqXqXqX=X&X&X&XiXiXuXiXtX*XY.*XNXbXtX>XtXtXtXsXsXuXiXtXiXbXf.> $ 2 P s.4.^ = p 1.f.) 2.M.f.h.C.C.R.uXrXC.K.L.C.L.L.n.f._ &XbXbXkXkXsXkXsXxXuXP.n.C.Y.T.P.-XsXxXGXGXFXFXmXNXNXNXMXCXBXFXLXKX                                                                                            ",
"                                                            %.z G &.m.s.#.D.XX{.XXXXs.              t R.LXHXrXC.v.p.F ^ %.F t r R v.m.R = = d D F #.4.4.4.4.a 3 f.&XD.D. XD.v.R n. X=X.X.Xn.1 $ . . O . o O ; , O 2 p p M U ) ) ) ( U ,.-.-.( s g 3 9 g 9 s f C Y -.;XpXf.a m s a m M m I f.A.I.L.&X&XY.L.A.a.6 5 Z Z ) 1.>.} 3.d.l.L.C.3 & 2 2 p p x a n Y T | T | | -.3 a >.<.f.M.S.k.M.X.E d.k.c.c.V.c.,.3.[ | ;.;.z.z.z.z.N.z.9.z.z.N.Z.T C +X_._._._.x.I V.&X&X&XL.L.'.Y.Y.'.>XyXeX*X'.eXyXyXyX_._.>X_.~ a.KXFXFXFXFXFXMXMXJXbXbXiXpXpXiXFXkXpXpXpXpX=X_._.U.L.C.h.h.p.h.s M 3.[ K ;.9.7.0. .K 7.7.[ 8.;. .0.0.z.7.8.8.7.z.8.;.0.0.;. . .0.;.[ @ [ 7.3.| A h A T ( Y v 0 a x n C _.d.Y n T T | | | ) Z x x o t ! _ 1.p.C.s.K.qXuXqXR.Y.-XwXqXqX&XR.U.P.R.sXuXiXpXyXtX2X>XyXnXnXpX1XyXpXiXbXxXbXiXiXsXK.t & > d ^ s.n & d v.f.) ) C.n.n.C.n.-XuXrXqXC.C.P.L.Y.L.C.A.%.K.iXiXbXbXkXsXsXrX.XC.D.P.P.T.R.qXxXGXGXmXGXGXmXNXMXNXNXMXNXMXJXKX                                                                                            ",
"                                                            ` S @.&.s.s.&.D.XXXXD.D.n.              _ ! xXHXxXrX%.M b b d b b b r 4.#.= r y S F ^ #.4.4.-.5.U < r U ^ D d d # # 4.D.D.P.rX.Xt $ $ $ $ . O O o O o O o X o X < 5 p a a U U m P Y C C M C s J J T ( M.>XyXA.U M s U F x P <.U.U.U.C.C.h.f.h.C._ 2 c B B _ 2.>.,.l.k.k.V.C.p & > 7 p x n a s J T | [ | | } 3 a >.<.d.M.V.l.k.d.,.c.A.k.c.N.c.;.3.| X.;.;.8.8.c.z.N.z.z.z.z.N.Z.T A +X+X_._.'.V.Y h.&X&X=X_.U.-X'.'.'.=XiXeXeX*XyXpX>X1X(._.&XI.I <.JXMXMXJXJXJXFXMXJXbXhXhXpXpXtXMXiXtXnXkXiX>X*X*X_.C.C.C.f.s.C.a C 3.| K ;.9.0.0.;. .8.8. .0.;.;.0.7.9.0.8.7.7.z.7.;.0.0.0.o. . . .[ * [ 3.;.[ A h C T Y Z v 0 0 v m M I.d.( M U T T | ( ( m M P 2 O 2 I _ 1.s.Y.qXsXsXuXU.C.R.-XqXR.Y.&X=X.XR.qXuXuX>X>XyXpXgXvXnXnXgXyXiXbXhXpXsXxXsXqX<.p & & 2 B %._ 3 & ^ #.U ~ 1.C.Y.C.s.K.qXuXrXuXU.P.Y.C.Y.A.C.C.) f.iXbXbXbXbXNXsX-XU.P.D.P.P.P.-XdXmXGXGXmXmXmXmXNXNXbXnXnXNXFXJXKX                                                                                            ",
"                                                            F S %.m.P.{.%.m.XXXXXXD.P.                p n.KXKX-XF d N G b d y t u D D b d D D R #.%.4.4.v.f.-.a n $ X & = r # # D D.P.n.P.XX^ $ $ $ $ O o . O o o $ $ o & . 3 P n p 3 & = 3 s P J U U E Y ( Y Y } V.k.,.~ m a 0 m / ) I ! >.p.f.1.>.1...~ b > > x B m ) <.>.,.d.l.d.V.A.v o > > t x n a n U T | [ | | | 3 a >.<.V.d.k.k.V.l.3.l.A.V.c.N.c.,.3.| X.;.3.8.7.8.8.z.z.z.N.N.N.Z.K C +X;X;X_.'.A.( h.=X=XeX&X&X=X-X&X-X-XeXeX>X=XyXyXyXgX(.I._.A.U 1.FXMXFXJXJXJXHXHXJXbXiXhXuXtXeXkXiXeXMXMXiXyXyX>X=XC.h.C.f.h.L.v C 5. .T 7.Q.9.0. .7.9.z.8.7.;.0.0.7.9.;.7.0.7.z.7.;.0.7.0.{  . . .[ * [ 7.;.| K A s A Y C v 0 0 v m v A.k.Y v C T T | ( Y m M ! 5 o 2 & 5 M M ! _ f.U.uXuX-X&X&XR.'.=XeXtX=X=XqX=X*X*X*X+XF.F.F.(.;XgXvXgXyXpXbXtX-Xp.a > o $ o > p B 5 & m / ~ %.Y.f.s.n.f.n..XuXdXaXuX&XP.P.C.L.P.L.f.%.f.bXsXpXiXbXNXbXiXrXY.C.P.P..XuXGXFXFXGXGXGXmXmXbXbXbXnXNXMXJXKX                                                                                              ",
"                                                            F ^ n.XXXXP.m.&.P. X.XP.P.                  b rXHXp.^ s.%.` b y F b b D ^ 4.^ F R R #.1.#.R f.1.1.Y f U # # D L g r t ) s.K.K.P.s.1 : ; o . o o . o X o $ X o X b 1.>.>.f.I 3 X @ @ * & * g s C M C C M 9 & & < 3 & 3 M m 5 2 5 p x a p x x t , o 5 x B B ) <.2.2.3.c.5.M.L.M o > 6 t x x p n T T | [ | | | 3 a >.<.k.k.V.k.V.l.5.k.S.k.c.V.l.3.3.[ ;.3.3.8.8.8.8.9.z.z.N.N.N.Z.A C *X>X>X_.&XL.1.C.qXeXtX-X-X=X-X'.*X*X>X>X=X*XtXyXyXyXI.A.I.A.P 1.JXMXMXHXJXJXHXMXFXbXpXhXpXtXeXpXkX=XkXMXiXyXpX=X=XY.x.x.h.h.h.s M ,.X.[ z.!.z.7.;.8.9.9.9.9. .0.0.7.9.;.7.;.7.8.7.7.0.0.0.{  . . .{ @ { 7.7.| T T v C Y C a p x n m x A.V.Z a C T T } } / m B U p o p U <.f.C.a.p./ U ) C.=XuXuXqXuXiXkXiX=XL.a.Y C M C ( 3.5.5.M.M.F.+XyXpX&XC.>.n = X t I U 5 > o & X n >.a.h.uXsX=XC.<.f.n.n.R..XR.-XR.P.Y.P.C.P.P.f.s.s.tXmXiXsXbXbXiXbXsXY.D.Y.-XqXsXmXmXxXFXmXmXNXNXbXbXbXbXNXMXJXKX                                                                                              ",
"                                                            ! _ g.n.XX    v.m.n.XXP..X                  m 4.Y.4.-XT.%.F M F b d F ^ 4.s.1.R R R ) 1.#.1.v.1.%.^ r F b X 3 ) U r 3 t ^ K.n.p.G 4 : : o $ $ $ . X X O o o & 6 F F / ) <.>.m a 9 g g g 9 * @ @ @ * @ @ @ * & @ & @ @ & & X X X & > 5 x b v 5 , 6 c x B M ) a.2.2.5.l.c.M.A.M $ 2 5 t x x p m T T | [  .| } 3 a >.<.d.V.V.5.l.k.l.l.M.k.c.V.k.3.3.[ 3.3.8.8.8.z.z.z.N.Q.N.Q.Z.~.A Z *X*X>X_.-XL.a.L.tXeXuX-X=X=X=X&X-X&XeXeX>X&X>XtXyX1XA.k.A.V.P <.MXMXMXMXFXHXHXMXJXvXtXhXiXyXpXeXkX=XeXBXkXiXpXeX>XU.L.L.K.h.h.a C ,.X.;.!.Q.9.8.7.9.z.8.8.8.;.8.8.7.9.0.7.;.7.7.7.7.0.7.0.{  . . .{ @ { 7.3.| [ T C C Z C 0 0 n M Z s A.A.C s C C T | } ( P I F 2 x f.&XtXiXtXY.A.C.<./ ~ / f.Y.-X=XY.f.) M p a a m T J J J J C J K T J C m a * X X & a I >.s.1._ p X p h.A.&XA.bXbXMXpXU.Y.f.<.f.h.h.K.Y.Y.P.Y.C.C.n.s.s.) K.NXsXbXkXiXiXpXuX&X.X=XiXmXmXxXxXGXGXmXsXmXmXNXbXiXnXNXMXBXJX                                                                                              ",
"                                                            ` ` H.          n.n.D.C.        4.s.p.%.%.1.^ d ^ P.xXrX%.^ F F ^ F U <.1.4.<.>.U E E E #.4.1.1.4.>.^ 5 m M & = D a 2 1 t F F c $ : 1 z F &.t . . 1 b ^ F 6 1 4 6 1 3 s a a s f C T 8.l.7.A w q s g q 9 g g g g f C U E ( Y M 3 + X X > 5 N 5 ; c c b b M ..d.2.3.l.d.d.k.C.M & > , 6 x x 0 M T T | [  .;.-.3 a >.<.k.M.M.3.l.l.5.l.S.V.c.k.k.5.3.| 8.5.3.8.8.N.z.N.Q.N.z.z.z.Z.C C ;X*X=X'.-XL.a.Y.tXeXeX-XqXeXeX=X'.'.eXtX>X&X*X1XyX>XV.l.V.V.P 1.JXFXbX=XU.&XbXJXJXbX>XhXhXuXkXeXiXeX>XBXBXhXhXhXpXU._.U.L.h.C.x s X.3.7.!.!.N.9.7.z.z.z.8.7.7.8.8.0.8.;.7. .7.;.;.;.0.7.0.{ [ [ [ [ * | 7.;.| [ T [ Z C C a v m m U s x.I.J s s C T ( | / U ^ B B L.=X*XhXvX,./ ,.V.d.V.V.( C M n n a a a a m 3.S.S.F.F.S.S.S.M.8.M.l.-.s * a m J ) / / 3 s n.n.h.I & U I.&X&XL.*XhXhXbXiXbXpX-XU.L.x.f.C.C.C.L.C.K.f.f.h.^ ^ C.uXbXiXpXiXiXqX.X=XY.R.uXGXmXxXsXmXmXmXMXNXbXxXbXNXNXnXMXJX                                                                                              ",
"                                                                              P.s.D.    f.D ^ v.s.D u y r y b P..Xv.) s.<.s.) #.f.f.f.s.f.1.) -.#.#.) 4.1.#.#.#.f.F 3 ^ p . p m 2 1 1 , $ 1 $ t G ^ &.s.%.1 $ 4. XC.P.n.` 4 4 t < 9 s g s g g w { N.9.{ {  .;.0.0.0.;.8.8.8.N.~.+X#X+X*X+Xk.} 0 + o o 7 , 4 V c x B v ..k.2.3.d.k.5.d.k.m > , 2 5 c x p M T ( X.| ;.| } 9 a >.2.2.d.l.5.l.l.l.c.S.S.3.S.l.5.-.3.8.3.3.l.z.8.N.N.N.N.z.N.N.~.A C ;X*X*XL.'.L.a.R.tXpX-XL.eXeX=X-X&X'.tX>X*X*X_.1X1X&Xk.3.V.k.m <.FXMXNX-XU.&XtXhXBXMX>XpXiX>XiXeXeXeX-XMXMXhXkXeXeXeX'.L.P.L.h.p v ,.3.8.z.!.N.8.8.N.z.z.8.;.7.8.8.8.7.;.7.;.;. . .;. .7.0.{ { [ { { * { 7. .| T A | K Z M 0 0 Z m m v C.I.J 0 s U C E ( I U ! U p.qX&XyXvX5.f -.5.l.3.-.5.l.l.E C J } l.S.k.l._.;X2X+XF.~.~.S.Z.S.^.F.l.5.M.(.>X2X;XA.M.U 3 h.C.} P X Y V.*X*X_.I._._.+X+X1X-X=XpX=XqXU.C.M.h.h.p.>.^ %._ ^ ^ ) -XsXiXpXsXbXqX.X&XP.-XxXmXxXxXGXmXmXmXsXbXNXbXbXnXNXMXBXJX                                                                                              ",
"                                                                                        D &.s.v.&.d d @.d S u R D..XuXFXuXf.<.L.Y.Y.M.5.5.2.-.-.#.#.1.#.>.1.^ ) ^ U b 1 F 5 X = $ X , , 1 $ y ^ &.@.&.%.%.t y D.P.P.P.K.K.^ , 4 3 g g C ;.;.K h { 9.9.9.Q.Q.Q.9.9.9.9.Q.Q.Q.!.].).5X:X+X:X#X*XF.1.x & o o 6 V B b B M >.d.,.d.x.l.d.k.V.P & , 5 t x a 0 n T T | | ;.-.-.9 0 ,.d.k.k.k.5.l.l.d.5.V.S.3.M.k.5.-.3.8.3.3.8.z.N.!.Z.Q.Q.N.z.N.`.A C *X*X*X_.=XU.f.&XsXiXR.x.qXtX=X-X'.&XeXeXeX&X=X>X>XA.,.d.V.2.s a.JXkXiXpXpXNXbXyXhXJXyX*XhXtX=XkXiXeX'.iXBXhXkXkXhXeX'.'.'.L.h.0 M 3.3.z.!.!.z.8.8.N.N.z.7.;.7.9.0.7.;.;.7.;.7. . .;.[ 8.7.{ { [ { [ * [ 7. . .T T [ T Z C x v m m Z s k.I.Y a s Z T E ( Y I ! P h.=X>XVX2XE C 5.F.M.3.3.c.N.(.~.N.V.~.F.F.).;XvXZXvX1X2X1X:X).~.).@X@X+X;X2X1X;XyX>X=XM.<.s f.<.>.E 3 ) V.U.+X;X(.(.(._.+X;X_._.&XY.L.h.f.M.k.A.A.>.p 2 d %.f.%.-XxXpXqXpXbXiX-X.X.XuXxXxXmXxXxXmXmXmXmXNXNXbXxXbXNXBXFXJX                                                                                              ",
"                                                                                      ^ F s.4.&.d S @.@.H R ^ d -XHXHXHXpXY.&XtX-X-XA.5.5.d.5.5.3.4.f.#.#.#.^ ^ _ ^ %.d a d $ & 6 t c , $ : S ^ R &.&.#.G = u %.v.m.D.n.s.N $ , 3 g f T ;.0.;.0.Q.Q.[.9.[.Q./.Q.[.[.Q././.Q./.5X4X$X5X:X:X5X4X)._.Y._ 0 + 7 c F B M v >.d.2.d.d.l.d.V.M.P & & 2 t p p 3 s U K E | | | -.9 a 2.d.x.M.k.5.c.c.c.d.k.S.5.k.k.5.;.5.8.3.3.8.8.N.!.N.N.Q.N.z.Z.~.C C *X'.*X*XeXU.x.-XpXpXY.a.qXpXeXqXU.L.-X=XeX_.>X*X>XV.} d.A.<.n 2.=X&XeXhXtXhXyXeX=XgXnXyXpXkXeXkXkXuX-X'.MXkXiXkXhXeX'.-XU.h.f.0 v ,.3.z.!.!.z.8.8.z.N.z.;. .7.8.;.;.;.;.;.;.;. .;.;. .7.;.{ [  .{ | * [ 3. .[ K T T T U M v M m Z P a a.I.( s n C T Y E I ) ~ B L.-X>XvXF.[ ;.M.(.F.S.N.M.S.^.+X~.~.^.Z.).4X4X4XvXvXvXZXZXZXgXgXvX4X2X2XgXgXyX1XyXpXyXA.V.1.f.1.2.} 9 E V.(.F.N.(.).).).@X+X(.(.I.,.) Y <.M.2.d.U.R.%.a b %.n.^ Y.tXrXuXsXuXtX=X-XrXxXxXsXxXmXmXNXbXxXbXNXbXNXFXNXJXJXHXJX                                                                                              ",
"                                                                                       XF S ^ S y j H S #.R m.#.^ pXNXJXsXtXtXpXpXtXU.5.5.d.M.F.M.5.4.,.^ D #.v.n.s.&.! r > & 2 1 4 1 o . t &.%.%.s.m.m.@.y y &.&.D.4.1 1 $ $ & 3 9 K [ ;.{ 9.Q.Q.Q.[.9.9.Q.]./.Q.Q././././.$X5XN.9.$X4X5X$X5X4X>XyX=XL.B o 2 B P m P a.d.>.d.k.k.k.A.V.I & > 2 5 p a 0 a C K [ ;.[ [ } 9 a 2.a.d.k.l.5.5.l.c.l.k.S.5.k.l.5.-.c.l.3.3.8.8.z.Z.z.N.Z.!.Z.Z.F.C Z >X'.*X=XeX'.L.eXpXsXY.>.=XuXuXeX=XL.eXeXeX>X'.&X*XV.} 2.V.1.M ..*X>XkXkX=X*X*XtX*X&XnXMXuXhXkXeXiXkXeX'.kXMXNXhXhXtX-X-XK.p.h.p a 2.5.z.~.^.z.8.8.z.N.z.3.;.7.7.;. .;.;.;.;.;.{ ;.;. .0.;. .;. .[  .* | ;. .[ K A T T Z v v v Z Z P 0 1.I.1.v M C T T ) I #.) U C.=XgXgXl.;.N.Z.).).N.l.N.$X$X#X:X).Z.~.:X4X:X5X1XgXZXvXvXZXZXvXvXgX4XgXgXgXgXgX2XgX;X_.V.A.V.1.} 1.C E V.@X@XF.Z.^.^.Z.Z.Z.F.(.V.J J C ) f.2.f.n.L.f.U M F D.%.C.=X-XpXiXuXbXbXmXxXxXxXxXxXsXsXsXxXbXMXFXmXMXJXJXJXJXJX                                                                                                ",
"                                                                                      rX&.y y S i H H G #.S 4.D.r U.KXsXqXNXiXpX-XtX;XA.F.F.M.S.V.5.-.^ R #.n.P.n.s.^ ` M & x c & o X $ # $ b G s.m.q.q.@.@.H &.$.m.s.t $ ; , $ a g T -.;.;.9.9.9.[.[.0.;.9././././././.$X$X$X/.{ { [ 8.:XjX:XjXjXyXgXBXU.B , x U I / f.<.} d.V.l.k.A.V./ & > 4 t p a 9 g C K | ;.[ T | 9 a <.<.d.k.d.3.5.k.d.5.l.V.3.M.l.5.| 8.l.3.3.8.8.z.N.z.8.N.N.N.Z.`.Z U >X*X*X>XeX'.U.uXkXkXL...&XuXpXuXqXU.eXeX=X>X'.>X_.V.} d.V.} n 1.=X>XeX=X*X&X&X;X>X=XeXhXpX>XeXuXeXeX=XY.=XMXNXuXkXiX=X-XY.K.K.0 a 2.3.k.~.~.z.7.8.z.N.N.3.;.8.7. . .;.0.0.7.;.[ ;. . .8.7. .0. . .| * | 3. .[ { A T T U M v v m Z Z 9 } I.2.C C Z T E } U ) / I '.>XhXvX8.8.8.N.Z.+X#X#X+X$X#X$X$X@XZ.~.:X:X#XjXgXgXvXvXvXZXvXgXvXgXgXvXnXZXvXyXyXpX1X;X_.Y.A.>.-.M.-.| V.F.).^.Z.^.^.N.M.M.Z.I.l.P I U U a.v.D.M.<.f.4.%.D n.4.s.rXiXxXuXiXxXiXxXxXxXxXsXsXiXxXmXmXbXbXiXuXuXNXHXJXKXKX                                                                                                ",
"                                                                                      rX&.y S S i H H H H S #.<X) ^ HXmXmXmXbXiXiXpX*XV.S.F.M.M.5.1.-.P ) P.P.n.s.&.Q F t , c o o O o $ 1 $ % % $.D.m.*.@.q.*.@.q.@.%.^ $ $ $ 2 a T | | ;.8.0.0.9.[.[.;.O.{ 0.[./././././.^.9. .[ ;.3.;.~.1X1X4X4XnXnXhXFXU.5 6 P ~ ) 2.,.} 2.d.d.k.A.k.I & & 2 p a a 0 a J T [  .[ [ } 9 0 ,.<.k.l.5.3.5.k.d.3.c.M.c.M.l.8.| 3.l.8.3.3.8.z.N.N.N.N.N.z.S.).T n *X*X'.>XtX'._.yXiXiXY.p.-XpXuX-Xx.U.=XeXeX>X*X=X_.A.k.A.A.( v a.=X=X=X_.=X>X>XtXtX>X'.>XeX'.*XhXuXeXqX=X'.nXMXkXNXiXqX-XR.R.L.5 a ..,.l.Z.S.8.7.8.N.N.8.;.;.8.7. . .;.0.;.7. .[ ;. . .7.0.;.8.;. . .* | ;. .[ { K T T U Z M a v Z P a ) A.k.T C J Y E ( U ) U ( eXyXgX:X8.8.8.Z.:XyX1X1X1X2X+X+X~.^.~.^.:X4X:XZXvXgXvXZXvX1X;X1XnXnXnXnXvXvXvXpXjXgXhXyX>X_.&X2.,.d.} T V.F.~.).Z.~.Z.8.M.N.F.F.M.U J P ) C.M.>.>.<.n.n.P.^ %.&.U P.rXmXxXsXmXxXuXxXGXxXxXxXxXmXbXiXqX&XY.Y..XuXmXmXFXPX      JXPXPXPXFX                                                                                ",
"                                                                                      P.S S G i S y i j d H R  XC.t R.HXmXmXJXbXhXhX*XV.S.F.M.5.-.-.-.) v.D.h.s.&.^ F y 4 p 6 O o $ o . $ 1 1 1 m.b.q.$.$.b.*.@.q.&.&.^ 1 1 , t p } ,.-.[ 7.8.Q.Q.9.9.0.;.;.0.9.N.Q.N.Q.Q.Z.9.;.8.N.~.M.S.;XgX1XjXjXnXhXmXsX_ > n ) 1.5.,.( } 2.V.V.A.f.I & > 2 p p a g s J T [ [ [ [ -.0 0 ..<.2.d.5.3.5.k.d.3.c.k.l.l.l.c.;.3.M.M.8.8.8.z.N.z.Z.N.N.N.S.`.Z a _.*X'.=XtX_._.eXiXiX'.x.-XeXqXY.1.L.'.L.'.eX*X'.(._.I.A.A.( s a.eX=X>X*X_._.=X>X>X*X'.>X*XU.>XhXkXkXeXeX-XiXkXkXNXiXeX-XR.R.K.5 s ,.,.l.S.N.8.8.8.N.N.7.;.;.7.;. .;.;.;.;.7.[ [  . . .0. .0.N.7.;.3.* [  . .[ K T K T T C M x M P U a ( V.A.,.C T E ( E / ) m 1.eXnXnX+X;.8.N./.+XgXgXyX1X:X2X1X@X@X~.^.;X1X4XvXvXvXnXnXgX+X(.;XgXvXVXVXvXvXgXhXhXhXyXgXeX>X&XM.2.k.1.U V.V.S.Z.N.N.8.8.N.S.~.I.F.) m ) C.&XC.) d.U.Y.v.Y.%.D ^ U n.wXrXuX-XrXsXmXmXxXsXxXmXuX=XY.U.U.Y.Y.Y..XqXxXxXmXPX      GXPXLXPXmXmX                                                                              ",
"                                                                                      4.y &.S y d y S @.u H R n.xXx ^ FXmX-XqXuXpXhX>XA.F.@XM.5.3.,.E Y Y.P.n.%.Q F F t $ 1 & X & , X $ $ 1 $ b m.q.$.@.$.q.*.@.*.#.&.s.1 $ c 5 p / 2.-.T ;.9.Q.9.9.[.9.Q.Q.9.Q.Q.^.!.!.N.N.N.N.Z.).).^.#X,XgXjX4XCXvXpXkXJXY.p a / ) } -.} } ,.A.V.k.<.U > , 2 5 a v a a J T [  . .| -.0 0 ( >.1.d.l.5.3.c.5.d.c.l.k.3.c.5.3.3.l.N.l.8.z.N.z.8.;. .3.z.S.`.C s _.>X*X>XyX*X'.yXtXuX-XC.'.uXiX=XL.'.x.C ,._.'.,X_.*XI.A.A./ a d.kX*X*X>X_.'.;X*X>X>X=X>X'.Y.=XkXkXMXkXkXeXuXkXbXMXiXtXqXqX-XC.5 x 2.3.5.l.z.7.8.z.Z.N.7.;.7.7.[  .;.;.;.7.7.[ [ ;. . .0.0. .z.7. .3.w [  .;. .K T C K T v v M Z Z P a Y k.I.d.C T | ( Y ) ) s p.yXkXvX~.;.;.N.Z.1XvXyXyXvX;X:X#X^.~.~.#X:X1XvXgXvXvXnXvXvXyX>XhXVXnXnXvXgXyXpXhXkXkXkXhXkXpX&XC.<.k.1.J V.S.F.N.N.M.l.M.F.F.@X@XI.d.1.Y.tX=X-XU._.+XY.U.Y.s.b b F s..XP.R.C.P.Y..XwXrXwX-X.XY.Y.R.R.R.U.R.U.&XrXsXxXGXLX    PXmXPXLXPXsXsX                                                                              ",
"                                                                                      p.r G G S u y &.#.y R R ^ <X4.p iXJXmXuXqX=XeXeX>X+XF.I.5.} 1.P U n.s.%.^ F N u 1 1 2 , X o , o , 1 1 t %.q.$.H j q.$.@.@.@.@.&.%.1 , N V p M <.-.| 8.N.N.Q.^./././.^.N.^.~.N.!.!.N.Z.l.z.Z.N.`.`.#X#X4XhXjXgXnXtXbXMXpXU 0 ( ) ) ( ( } } c.d.| ..~ > > 2 p a a 0 s Y K | ;.[ [ ,.a a ( ,.1.d.d.,.,.l.c.d.c.8.N.5.c.3.c.-.8.M.z.8.l.z.l.;.;.7.N.8.N.(.v U >X,X*XeXeX'.'.kXiXeXeXC.R.uXeXeX-XL.K.x ~ *X,X,X,X].(.I.I.( a x.kX'.yX>X*X=X&X>XeX>X=X=X&XY.-XkXmXFXFXmXsXeXmXkXMXkXuX=X=X-XL.< n <.5.c.z.N.8.8.8.Z.N.z.;.0.;.[ {  .;.;.3.7.{ { 0.[ { ;. .{ 8. .[ 8.w T ;.;.K h C T A C C M x M Z M a / k.A.k.J | | } ~ ) I x C.hXVX5XN.9.7.;.Z.2XyX1X1XgX1X#X+X^.^.~.@X2XgX1X1X1XgXvXvXnXnXVXBXNXnXnXNXyX_.&XgXBXMXBXnXkXhX=Xk.a.M.k.J l.l.l.l.l.S.S.F.(.+X+X@XU.Y.A._.=X-X@X=X+XI.M.Y.-XP.^ M _ p ` P.R.P.Y.L.L.K.P.Y.R.R.R..XR.R.R.R..XiXmXHXKXKXLXKXKX  GXsXmXFXNXmX=X                                                                              ",
"                                                                                      ` 1 D R H S d &.G e d y D P. X> p.HXKXLXLXFXNX=XY.I.I.*XM.) ) a n ^ R ^ y c t 1 = 1 > $ X o o o , $ = #.s.&.H e i m.q.$.H R #.^ F $ , N B B B ..2.c.Z.!.^.^.]./.#X#X).#X#X^.!.^.^.Z.~.~.).Z.N.Z.8.N.~.1X1X1X1XhXhXgXNXmX>.5 / <.1.} | T T T | | a...2 > > a x s a M E T | ;. .| ;.s 3 Y ,.3.d.5.3.3.l.5.3.3.8.k.3.l.d.l.5.5.l.8.3.8.c.8.8.N.!.~.Z.~.`.C T >X'.'.yXyX*X=XeXkXiXuXL.U.qXqXuXqXY.V.I ..`.'.>X,X,X+XI.L.( v h.kX=XyXeX>X>X*X>XeXtXtX>X=X-X=XsXsXGXmXmXkXeXkXkXMXpXqX=XqX&XC.2 v <.d.k.N.N.7.7.8.N.z.8.;.0.0. .K ;.8.;.;.7.[ [ ;. . . .{ { 8. .[ 8.9 T ;.;.{ A C K K C C v a n m Z s ) d.U.V.T | | } ( _ Z v L.hXgX:X9.7.;.9.$X;XhXvX1X1X1X#XZ.Z.Z.~.@X2X1XgX1XvXvXZXvXNXnXNXnXyXbXNXNXyX*X>XhXJXMXMXkXnXbX>XV.d.M.V.J 5.d.S.F.A.A.I.*X2X*X@X1XU.A.U.yX2X=X<XY.S.A.U.=X&X&XA.d %.s.N B f.Y.P.U.Y.R.U.Y.Y.U.R.R.R.&XqXxXFXHXJXKXJXKXLXKXKXKXFXuXiXuX=XqXqX                                                                              ",
"                                                                                      ! r b d S d $.{.$.u y $.XXcX.Xa 5 rXKXKXHXJXKXzXf.>.M.F.f.D 3 P #.D P..X%.t 1 $ 1 2 2 $ , o o o > $ , F ^ S u % z m.s.&.y G H b t 4 4 V B B M I d.M.~.^.$X$X$X#X$X/.~.#X].$X:X#X^.).#X4X:X:X#X#XZ.N.l.#XjXjX1XgXnXgXnXJXx.3 P d.2.,.} T T T -.5.A.1.> > 2 p n n g Z ( E | ;.| | ,.s 3 ( ,.2.d.3.5.5.c.3.,.,.c.M.3.l.3.c.M.c.8.;.;.8.l.l.N.!.!.N.~.).`.C T >X'.*XeXeX'.uXiXkXeX'.L.-XsXuXuX'.L.C.( ,._.,X,X;X,X*X_._./ a h.kX>XyXyXyXtXyXtXtXyXpX*X&XqXtXmXkXFXFXMXmXuXkXkXkXpXeXeX=X-Xf.> x 1.2.l.N.Z.8.c.8.N.z.7. .;.;.{ {  .;.;.7.7.{ [ ;. . . .;.{ 0. .[ 8.q [ ;.;.[ K s s C C M a a x m Z v / k._.V.( X.| } ( ( M P *XnX$X~.8.;.;.N.@X1XyXgXgX1X4X#XN.M.Z.@X@X@X#X1XgXgXgXnXgXvXpXhXyXyXvXnXbXgXyXhXnXMXBXBXnXkXiXtXL.f.C.A./ ( M.A.A.V.*XpX=X-X2X&X&XY.Y.&X<XpX<XtX-XU.+XU.&X=X&XP.m ^ R.R.f.I >.Y.&XY..XU.R.U.Y..XU.Y.L.C.L.U.&X=X.XuXsXPXKXKXKXLXxXqX&XU.-X                                                                                ",
"                                                                                      ! 4 #.v.{.cXcXcXcX$.#.v.D.P.n.R r M U.sXuXcXP.v.R L #.D f 3 3 D d % D .XrXN 4 $ = 2 2 $ > o O O o 4 , $ 1 % 1 1 u %.&.u # u 1 $ 1 t 6 c B x M ) V.S.~.#X$XN.8.N.#X:X:X5X#X^.).).#X:X#X5X4XjX4X4XjX:XF.#XjXjX4X1XnXjXkXJXU.s Z a.2.5.3.,.,.3.d.V.U.<.> > 2 a n s a I E T |  .[ | ,.s 3 / >.<.3.,.3.3.3.5.,.3.c.V.c.c.X.3.N.l.c.3.;.7.l.z.!.^.!.!.).).`.C Z _.*XyXeXeXL.'.>X*X'.U.L.'.iXeXuX-XL.L.,.a.,XgX,X;X*X*X*X'./ a f.kXeXeXyXyXyXhXyX>X>X>X*X>XkXtXpXGXFXFXBXFXiXkXkXkXkXkXtX=X-Xp.+ v <.5.l.N.N.7.c.z.Z.N.8.;.;. .{ { { ;.;.7.0.{  . .[ { ;.0.{ 0. .[ 8.s | ;.;.[ K C s C C C n a v Z m a I d.I.3.| ,.| } ) ~ x ) hXyX+XZ.8.7.;.N.#X1X>X1XgXjXgX#XZ.^.#X2X$X@X;XgXvXvXgXgX2X1X1XvXnXbXnXnXNXnXvXvXBXnXNXNXbXNXbXyXA.f.U.Y.d.M d.k.I._._.*X_.*X2XY.C.&XiXpXtXiX=X-XpX*XU.d.n.U.>.D #.) h.-X-XU.<.I / h.f.f.M.V.a.1.) / h.Y.=XpXpXbXpXiXmXKXKXLXKXKXJX  iXiX                                                                                  ",
"                                                                                      n.p.zXLXzX.Xb.v.XXD.&.H $.b.m.v.b d b p ^ R &.q.$.&.$.@.L r g j e = # S n.z 1 $ , 1 2 o > 6 X o o 1 $ ; $ $ : 4 $ : : $ 1 : : : 4 4 l V Q F P <.F.`.#X#X9.{ K z.^.).).~.N.N.).4X:X:X:X5X4XjXjX4XjXgX4XjXjX:X4XjXnXhXyXBXeXM Z 2.1.d.3.c.l.c.5.l.I.a.2 > 2 a n a s E T T | -.[ -.,.s 3 I ( ,.2.3.3.,.3.5.,.3.5.k.c.5.,.8.l.k.l.c.;.;.8.z.!.!.N.!.^.~.`.s C '.*X>X*XeXf.x.U.=XuXeXU.'.pXuXsXL.1.V.d.V.'.,X,X,X>X>X_._.} x f.kXyXeXyXyXeXgXtX&X;XyX>XtXiXeXpXMXFXFXBXFXiXhXmXmXFXFXsXqX-Xp.+ x 1.d.k.N.N.7.8.N.!.z.7.0. .{ K {  .;. .7.7.{ [ [ ;.{  .0.{ 7.{ { 7.s | ;.;.[ T K C C C C m a x M M 0 ) a.d.U 3.,.} } ( I v >.nX1X$XN.N.7.;.8.^.;XyXgXgXjX1X$X+X+X#X#X#X+X2XgXgX1X1X1XhXhXhXpXhXbXnXNXnXBXNXvXbXbXnXbXbXMXNXhXL.f.U.&XC.n U / a.M.M.&X2XpXtX&X-X-X=XqXtX-X-XuXpX-XY.U.C.I U 4.P.U %.Y.1.~ a 3 a n m I U J U } M.;XnXBXCXMXNXJXCXKXJXJXLXFXJXKXKX                                                                                        ",
"                                                                                          xX.XP.D.&.H #.&.@.$.{.v.<XXX#.D D $ b $.m.q.q.$.@.$.$.H R :.q.S e % 1 t 6 t 2 $ X O & c 5 & , & > , $ $ . ; 4 ; $ 4 : 4 4 t N l l V Q ^ ) C.+X#X#X~.[ h  .:X:X$X:X:X:X#X4XvX:X:X4XjXlXjXjX4XjXgXjX,X,X:XjXnXnXnXgXMXpXm Z >.>.5.-.5.k.5.3.l.U.a.3 > 2 x M a C ( T T -.| [ | ,.s < U / 1.2.3.2.} 3.5.,.-.5.V.5.| | l.l.l.N.z.;.;.l.N.!.z.8.!.~.~.].C M _.>XeXeX'.1.C.kXuXiX=XL.'.uXuXeXC.( A.A._.*X,XhX:X,X>X*X'.a.x a.kXyXyXyXyXtXgX>X;X1XgXyXyXtXeXkXMXFXBXMXMXtXuXNXFXFXFXNXeXR.p.+ x ..2.l.N.S.l.z.N.N.8.;.;.{ { A K { ;.;.8.7.[ [  .;.{  .;.{ 7.{ { 3.q |  .;.[ [ T C s v M M 0 a m v a ) k.( T 5.-.} >.) I M 1.nXvX:XN.N.7.;.7.Z.1XgXgXgXjX:X+X$X#X:X:X2X;X2X1X1XyX1X;XyX1XgXpXvXhXnXNXhXhXNXnXnXNXMXNXNXbXbXbXL.f.U.=XU.<.a m I I Y <.f.C.&X=XqXpX-X-XiX=XqXpX=X&X.Xf.I D s.Y.C.~ F m I s.f.V.U.@X*X>X@X_.*X>XvXBXNXhXnXVXNXJXJXJXMXJXJXFXJXJXKX                                                                                        ",
"                                                                                          P.K.zXzX<X4.#.R #.{.<Xv.v.D.D.s.b b t y H *.q.$.:.+.j $.{.&.D.4.$.R % t N ` ^ b 5 & . 2 c $ $ & 7 X $ $ 4 1 ; 4 ; , t 6 6 l N l l V Q ! 1.Y.&X~.Z.l.;.{ 0.#X].:X5X5X5XlX:X#X4X4X4XjXjX#XZ.l.N.`.,X1XvX4XjXnXhXjXjXnXyXY C ,.,.l.,.,.l.5.5.k.U.a.3 > 3 x M a J E T T ;.[ [ | ,.a < P / } -.,.,.| ,.>.| X.5.S.5.| | c.l.S.l.l.;.;.N.!.Z.z.8.!.!.~.`.v s '.>X>XeXeXf.L.eXeXiXeXY.&XeXiXsXL.2.L.L.`.*X>X>X,X*X1XeX>Xk.p a.kXyXhXjXjXjXhXtX>X>X>XyXhXhXtXtXMXFXBXNXNXeXeXNXFXGXNXNXuX'.h., M 1.d.k.l.Z.N.N.Z.N.8. . .{ { K K { ;.7.8.;. . .;.;.{ ;. .{ ;.[ [ 3.q |  .;.[ { T A s s M v a v Z s p Y k.m -.3.} | -.} I C -.hX1X+XN.!.9.8.Z.:XjXyX1XjXjX:X#X#X#X:X2X:X#X).F.S.*X1XyXpX>XtXiXNXnXMXNXhXbXMXMXNXCXNXbXbXNXMXbXf.A.qXtX-XY.I A.tX&XL.h.1.I I <.C.L.f.h..X-X-X-XP.L.>.) f.Y.Y.>.D D #.1.C.Y.U.*XyX1XyXyX1XyXgXZXCXCXBXCXCXCXCXCXJXBXCXJXJXJXJXJXJX                                                                                        ",
"                                                                                        T.wXxXxXzX XXX.X$.v.XX<XXXD. XD.s.r b m.$.y u d j H d j b.XXv.b.XXD.D.t $ 4 t F F ^ m > . p n X $ . o b t 4 , . $ 4 b F b N N 6 7 6 V F N I >.d.8.l.;.[  .8.).#X4X4X5X4X:X4X:XjX4XjXjX~.;.| 3.8.S.l.k.F.:X4XjX4X`.>XhXyX( C ,.X.l.5.X.c.5.3.l.I.d.p & > a n a J E T [ ;.T [ | 1.g - C ) } ) >.,.} 3.>.| ,.5.M.l.5.3.8.8.S.l.l.;. .N.Z.N.z.8.N.!.~.(.C 0 L.eXiX-XC...C.=XeXeXeXY.=XeXiXhX=XV.A.I.`.>XgXlX#X,XjX>X-XA.x a.kXpXkXhXjXjXjXyX;X>X;X*X=X*XuXnXMXMXMXbXnXeXeXMXmXFXFXkXiXqXK.> v ..d.V.S.`.~.Z.N.N.8.[ { A K { K  .;.;.z.7. .T ;.7.;.;.[ [ ;.{ [ 3.q | |  .[ K T T v s M a a v M M 3 ) } g 5.3.-.} -.) U m ( 1X:XN.9.!.N.N.+X:X1X1XjXjX1X1X:X#X).).^.+X1X;XF.V.F.2XhX1X_.+XyXMXnXnXnXMXJXBXNXbXNXNXNXMXbXbXpX>.h.iX-XuX.X/ >.>.I M a p 3 5 U 1.~ a 5 M I ! _ ^ F 1 %.D.v.R a D n.C.v.Y.-X2X2XyXyX1X;XvXCXVXCXVXCXCXCXCXCXCXBXBXBXJXJXJXJXKXKXJXJX                                                                                      ",
"                                                                                        P.xXHXFXrXP.rXcXv.{.<X%X<Xv.v.1.b ^ $ ^ {.b.q.H d e r b.b.D.D.+.D.<Xm.1 $ $ u 4 $ = 1 & . . r 3 # . 1 R t # # 1 X 4 t N V N c t 6 l Q ! I / d.5.3. .h K ;.N.N.).4X4X5X$X#X4XjX4XjX4XZ.c.z.Z.S.`.,XS.| [ | l.:XlXF.>XNXyX,.Z ..} l.M.5.8.8.c.k.A.V.a & < p v s U J T [ ;.[ | | ,.9 3 U / ) } } ) -.3.,.} c.F.S.V.F.3.5.3.S.F.N.3.3.N.N.N.z.z.N.~.~.(.C 9 '.eX'.L.C.a.C.qX=XeX>XI.-XeXuXiX=XI._.I._.>X1X1X].*XyXhX=X'.U a.kXhXpXyXyXyX1XyX>X,X_.A._.>XhXkXNXMXnXBXnXeX>XBXkXJXkXhXiXqXK.< c 1.k.M.F.#X`.Z.Z.N.8.{ A A { [ [  .;.8.8.;. .[ 3.8.7.;. .[ [ T [ 8.q [ |  .[ K T C C v v n a v x v 3 ) C J k.3.| ,.,.( m M -.yX#X8.8.Q.!.^.$X4XgXgXhX1X1X1X+X~.Z.~.#X:X+X+X+XF.I.1XyX+X*XyXhXbXbXMXNXBXBXhX*XbXMXNXNXNXNXiXuXP m a.n.>.) U m x p n ! <.f.>.Y.uX-XC.U 5 ! Y.R.Y.C.^ a b t r #.f.f.D.Y.-X2X;X2X2XyXgXZXVXBXCXCXVXVXCXCXCXCXCXBXCXCXJXJXJXJXJXJXKXJX                                                                                      ",
"                                                                                        E.dXHXxX.X.XcXzXD..XzXXXtXD.f n R .Xa r S 4.{.{.v.q.w.b.w.B.{.&.R n.D : % $ $ 1 1 = 1 d D D r r 1 % b t # r U C.%.1 F ` ^ V l N B N N N %.h.+X(.).#XZ.!.N.~.8.8.~.^.].4X4X:X:XvX:X~.~.`.).,XF.l.,.-.5.S.5.T | k.I.yXBXtX2.C } 3.l.k.5.8.l.l.l.L.C.a & 2 s v M Y C T | | T | | -.3 3 / ) ) 1.( I E -.-.E c.S.S.k.F.l.3.8.Z.~.Z.3.;.S.N.z.z.z.!.~.~.F.C 9 *X-XY.U.Y.h.C.=X=XeX=XY.-XuXyXyX>XU._._.*XlXyX,X].,X,XeX'.'.~ a.MXhXlXyX>X,X*X;X;X>X_.A.A.*XpXiXFXFXMXFXBXyX=XkXNXFXNXkXeX=XL.< x a.k.V.Z.).`.S.F.N.z. .[ |  . .[ ;.;.7.8.3. .[ 3.8.;.7. . . .T [ 3.9 T | [ { A T A A n s s a v n v 3 U n | l.3.;.,.| T C m ( ;X:X9.7.N.^.:X:X1XgXgXhX4X:X:X#X+X^.~.+X$X#X+X+X+X;X1X1X>XpXnXbXgXbXiXhXNXhXA.M.*XbXpX2XpXbXxXqXm M M P F P <.U.U.Y.-XqXU.&X&XU.pXpXxXuXf.F ) R.wX.X.Xs.t b #.C.,.F.-X1XyXpX2X2X;XgXZXCXCXCXCXCXBXVXBXCXCXCXCXBXCXVXCXJXJXKXKXKXKXJXJX                                                                                    ",
"                                                                                        n.P.rXrXrXxXzXxX.XP.zX<X<Xv.r D tXHXv.t % r D +.w.v.:.B.v.%X<XD.y 1 1 1 = 1 1 1 1 y #.XX Xw.$.D j = r = L w.4.C.Y.D d ! B N Q ` ! F F ^ >.A.+X(.).#X).+X).:X).Z.Z.N.N.).~.#X).).~.).;X).S.k.-.5.k.k.V.V.8.8.Z.5.A.>XhXtXf.C } 5.l.l.c.8.l.N.V._.V.a & 2 s s m Y M J | [ [ -.-.-.< 3 I / >.<.E Y | | } Y 8.Z.F.l.k.k.3.c.S.F.Z.7.;.Z.Z.N.9.N.^.~.~.F.C 9 Y.'.U.'.L.f.C.U.=XeX-XY.*XyXhXpX=X_.=X_.;XjXlX,X].,X;XeX'.*X) <.NXhXhXjX>X>X;X*X*X,X_.I.A.'.yXyXMXBXBXMXnXeX=XkXkXkXkXiXeX=XR.6 0 p.d.A.F.+X+XF.Z.Z.Z.8.3.3.7.7.;.8.3.8.l.7. . .8.8.;.7. . . .K T [ w T [ [ K A T K Z C s a p v n s 3 a a 2.-.,.-.,.E U P J T +X:XN.8.^.^.$X@X#XgXyX1X;X:X:X#X#X+X).$X:X2X1X1XvXyXyXpXhXnXnXhXbXiXyXpXpX=Xf.f.A.A.A.Y.<XpXyX-Xm ~ / I ) C.&X=XtXeXU.Y.'.=X-X=X=XtXpX-X.Xh.n M P..X1.b x s.v.Y.&XtXvXpXyX1X2X2X2XgXZXVXVXVXVXBXBXCXJXCXCXCXCXBXBXCXCXJXJXJXJXJXJXJXJX                                                                                    ",
"                                                                                        T.s.s.P.zXzX<XzXrXP.zXzXzXC.d F.CXzXzX1.r g - y +.B. Xw.#.v.XXv.d r t $ $ 1 $ 1 G m.XX{.B.b.w.$.L u = u +.:.:.v.D.1.t F B ` p.s.^ ! ^ _ <.A.U.(.+X+X+X$X:X).).:X#X~.^.).).#X`.).:X:X`.Z.k.F.k.F.1XjX,XN.8.z.`.S.A._.nXyXk.M ,.2.d.k.l.8.l.S.k.A.f.a & < x n Z T M T X.[ [ } -.>.3 3 I / ) -.Y E | ( | | l.~.`.c.5.k.3.8.l.S.N.8.;.Z.!.!.8.N.~.Z.S.(.C < f.'.-X-Xx.f.C.K.L.L.Y.I.eXhXhXhX*X*XyX*X;XyXjX>X`.].`.,X'.=X} <.NXyXjXjX>X>X>X;X+X,X*X&XI.&XpXyXNXBXBXkXhX=X'.kXiXNXpXtXiXeXL.0 p p.d.F.F.+X+XS.S.Z.F.z.c.8.l.l.8.M.c.8.z.8.;.3.8.8.3.3. . .;.K h K w K T T K K T K Z C v s p s v a 3 3 s <.U ( } ,.| T U J J ).$X8.9.^.N.Z.^.@X+X>XgX1X:X#X#X#X^.).$X#X;X1X1XgX1XyXhXvXvXpXgXNXpXiXkXbX-Xh.f.V.I.@X>XvXiXiX&Xm I ~ >.C.&X=X=XU.&X=X&X&XY.-X;XA.I.U.A.C.U.p.5 x N t d ^ f.Y.=XtXpX2X;X=X1X>X2X1XvXZXVXVXCXBXVXJXBXCXCXCXJXCXCXCXCXCXCXJXJXJXJXKXJXJX                                                                                    ",
"                                                                                          .Xs.uXzXpXzXNXNX.XzXrX-Xf.f.2XD.M.5.#.r j g D 4.}.b.d # u y = r 1 3 4 1 1 1 ^ .X<X{.}.B.|.b.e.$.@.u H g j j R 4.R t b ` g.h.n._ ! ` %.f.Y.(.+X:X#X#X:X#X).:X$X~.).:X:X;X4X4X4X1XZ.~.`.F.1X*X).>X;X`.F.l.Z.5.N.*X_.vXvXd.a ,.,.l.V.k.8.l.S.l.f.,.x > < a n C J C T | T [ | } >.3 9 U / / -.} E E } ,.3.F.`.F.l.5.V.l.3.l.N.Z.8.;.S.N.z.8.!.^.S.S.(.Z * d.'.=X-XC.L.x.p.1.,.x.Y.yXhXhXhX=X>XjX,X;X1XlX>X].(.A.'.L.'...<.NXpXhXgX>X>X>X;X*X,X*X;X_.&XhXeXkXNXNXiXeX_.x.I.=XpXiXtX=XU.K.c c a.d.I.I.+X+XA.A.S.F.l.k.N.S.M.l.N.c.c.N.8.3.;.l.8.3.7.;.;.3.K s T 9 C A K T K T K K C M s a v v a < & M ( n J -.,.} E U J C Z.#XN.N.N.N.M.Z.~.+X;X;X;X#X$X:X:X^.@X;X:X2X1X2X1XtX1XyXpXhXhXhXbXbXhXpXpX=X=X&X+XyXyXyXyXtXpXL.n ~ U f.-X-X&XY.I 2.*X=X;X&X>X,.d.I.U.U.Y.U.P.U , t l F C.Y.-XpXtXtX&XU.(.*X;X2XgXnXZXZXZXCXVXVXCXBXCXCXCXCXBXVXVXCXCXJXJXJXJXJXJXJXKXKX                                                                                  ",
"                                                                                            n.GXxX<XzXNXNXP.n.s.m C.iXY.D. X}.d = d L :.v.q.$.4.D.d % % % 1 1 t 4 1 $ r ^ s.{. X%X}.b.*.:.$.L v.$.#.R % 1 1 b F ^ g.K.n._ ` %.p.L.*X_.+X:X:X:X:X#X:X:X).#X4X:X#XjX4X#X:X).N.:X`.`.*X`.`._.V.M.~.F.N.l.S.F.+XnXhX,.9 >.3.k.V.c.3.l.F.A.2.( a & < a M C C C [ | E | -.} -.* 3 P / } ,.3.,.| -.3.M.(.).A.k.5.k.l.3.5.N.~.c.;.Z.N.8.8.^.).S.Z.(.C 3 L.-X=XqXL.L.1./ a.2.x.U.yXpXhXgXgXgXjX>X>XyXlX*XA.c.V.*XL.'.....kXyXyXyX>X>X>X>X,X,X*X>X*X'.pXeXNXNXNXNXkXeXk.k.C.I.>X>XA.C.L.n x f.f.A.I.*X_.F.S.A.A.k.M.S.F.F.k.S.l.l.V.c.3.3.l.c.3.8.;.7.;.K s | 9 s C T [ T T K T C n a 0 x x a & & Z Y n C -.-.| T J I J l.$X!.Q.N.^.;.-.S.;X*XI.~.#X1X4X$XF.~.(.+X+X+X+X;XtX>XyXpXhXvXbXbXhX=X&X>XpXkX2X=X2X1X2X=X=XiXn.M I <.Y.U.M.d.M.d.A.-XU.F._.3.U F.F.+XA.Y.Y.C.%.> N B _ P.qX2XpX2XyX>X*XI.U.;X;XpXvXvXZXZXVXZXZXVXJXJXJXCXCXVXVXVXJXJXJXJXJXJXJXJXKXKXKX                                                                                  ",
"                                                                                            K.uXxXzXcX Xv.D d b R D.@X X2XzX}.+.v.q.R $.$.@.b.XXcXD.G y u 1 t 1 t t 1 1 # % d d L e.e.e.|.@.q.v.w.B. XH . 1 F B ! s.K.h._ p.p.<.I.+XI.(.#X:X4X:X#X).#X;X:X:X:XlX#X).#X4XS.8.].`.A.`.].A.A.F.A.S.N.8.8.l.A.&XtXyXJ 9 ) 2.l.M.c.3.5.(.;Xf./ p & < v M J J T | ;.[ [ X.} } & 0 I ) ,.,.d.l.3.-.d.S.(.`.S.k.c.5.7.c.5.z.~.z.7.Z.N.z.;.Z.!.N.Z.A.C s qX=XqXuXL.x.~ } I.A.U.'.eXhXhXhXjXjXjX,X>XyXlX*X3.T l.'.L.'...) yXeXgX>X>XjXyX>X1X,X*X>X>X_.eX'.NXkXkXNXkXeXk.x.V.k.U._.C.C.Y.M B x.C.I.F.+XA.A.V.A.F.M.k.V.F.I.V.V.l.k.S.k.5.3.3.3.3.3. .;.[ K h 3.g s J [ | T T K T J n a 9 s p a < & Y ( U J } | } Y M Y J 5.#X!.^.^.^.;.3.~.(.(.(.+X2X2X2X+X).@X).+X@X(.;X;X>X;XyXhXgXhXbXbX=XU.tXbXbX=XL.-X&X;XyX>X=XpX<.m / a.A.M.>.-.d.2.2.V.V.d.d.f ( V.S.M.5.A.C.a.s.a t F h.C.-X-X&X+X;X;X>X*X;X;X+X@X4XvXZXVXVXCXVXVXVXCXCXCXCXCXCXJXCXCXCXJXJXJXKXKXJXKXKX                                                                                  ",
"                                                                                            -XiXtX X4.D #.%.#.R n.tX<X<X<X<XB.}.}.%Xw.@.$.@.$.b.D.<XXXb y y u t t 4 $ $ $ # # . d B.}.|.b.:.B.{.D.{.B.%.$ 3 t c b %.T.n._ f.p.f._._.I.).:X5X5X$X#X+X:X#X#X4X:X~.z.l.`.).l.Z.N.k.V.k._.(._.*X_.V.Z.~.l.N.S.I.nXF.9 3 Y ,.5.S.M.5.5.Z.+X2./ s & 2 v n J J J [ ;.T [ ;.-.} & p I } ,.d.l.M.3.3.S.S.`.(.k.5.l.3.| 8.c.l.!.Z.8.z.z.z. .N.Z.N.~.F.J I uX-X=XpXL.C._ x.'.U.*X*XeXgXhXjX>XyXjX>X>X1XjX,Xc.T x._.V.I...) yXhXhXyXgXjX>X,XyX*X_.;X>XI.'.L.NXMXkXNXeX*Xl.L.'.A.A.A.L.U.Y.n n x.C.I.I.*XS.F.A.F.F.M.M.S.A.A.V.V.l.k.V.k.c.3.| ,.8.;.[ [ [ T K l.s f T [ [ A T T T C n s 0 a 5 a < < ( 2.} Y } } ,.E M E J ;.$X^.^.^.Z.^.#X#X+X(.F.(.;X2X2X#X#X2X*X+XI.I.;X(.*X+X;XyXpXiXiXpXtXpXbX-XpXMXpX2X*X;XiXtXtXiX>.U ) f.C.d.<.) ) Y ) ,.5.5.3.,.3.l.c.l.d.M.f.d.f.) c B h.C.U.&X&X&X&XY._.&X>X;X_.+X#X2XvXZXZXCXCXVXVXCXCXCXVXVXVXCXJXJXJXJXJXJXJXJXJXKXKX                                                                                  ",
"                                                                                            -XP. XtX XD.bXJXzX2XtXZX2X<X3X}.G.}.}.%XB.@.:.e.b.e.$.{.<XG = u u u t t : . $ $ $ # R  X{.B.4.{.{.D.#.4. XD $ 2 6 c x i.R.K.f.f.a.C._.*X).+X:X5X:X$X#X#X:X5X:X#XN.z.Z.Z.N.N.k.+XS.F.*XA.F.*X,X(.S.l.N.).~.^.~.*XvX2.3 a P f.l.V.c.8.;.F.`.d./ v + < s Z Y T T -.-.[ | ;.3.( X x I ..2.d.l.V.l.k.(.(.~.`.V.c.d.3.| 3.S.S.N.~.l.z.z.z.;.!.Z.~.~.S.C ..eX=XiXsXU.V.x.U.eX=X=X=XhXyXjXjX>X1XjX;X,XgXgX+XA.V.V.A.V._.,...kXhXkXhXhXkXjX,X>X*X(.*X>XA.I.L.pXMXMXMXkX*XV.I.>X&X*X*XY.L.L.B n h.A._.(.*XI.A.A.A.F.M.V.I.S.V.V.A.V.k.k.l.8.3.X.5.3. .[ | [ [ T l.h s K T [ A T C J C s a 9 p p p * a Y ,.,.1.-.-.,.E C E E | #X/.^.^.^.#X:X;X;XA.A.;XhX2X;X2X+X+X+X+X(.+X&XI.*X*X_.&X*X&X2XiXbXbXY.C.A.bXbXiX>XtXiXeXpXpX1.I _ f.C.M.1.-.1.Y E 2.f.M.3.3.5.l.l.5.S.V.2.5.f.) t b f.h.C.R.A.Y.f.m I <.a.L.=X*X2XyXZXVXCXCXVXCXVXCXCXCXVXVXCXCXJXJXJXJXJXJXJXJXKXKXKXKX                                                                                ",
"                                                                                            xXiXHXtX<XNXMXMXNXMXNX<X<X%X%X}.w.}.}.|.}.*.e.}.}.|.q.w.XX{.d u u t b t t : o o o X b f.4.L d D.B.v.r = d = $ 2 c N b p..XK.h.h.f.L.;X;X+X+X:X:X:X$X/.$X$X:X).N.8.^.:XZ.3.l.l.F.M.S.;XA.A.`.`.M.k.M.Z.^.^.^.+X;X;Xn 3 M Z 2.d.V.l.3.8.`.*X2.) m > 2 x Z T T E -. .T  .X.2.P + v ~ | 2.d.d.M.V.F._.(.Z.(.V.l.k.2.( | l.S.l.Z.z.z.N.z.;.^.!.~.Z.l.C ..>XeXeXpX=XY.A.;XyXyX>X>XgXjXjXjX>XyXhX,X,X1X1X+X`.c.k.A.l.I.<...kXhXkXpXhXhXjX;X>X,X,XjX1XA.A.A.yXBXMXkXhXeX_.yX>X=X>X&XL.L.L.M x h.C.I._.*XF.F.A.A.F.k.M.A.V.A.A.F.V.k.M.l.8.3.3.5.5.;. . .| [ T l.f s K T | K T C C C s a 3 3 0 0 * a ( ,.3.,.-.3.3.E C E | [ ^.#X#X#X+X@X#X+X+X*X1X>X>X1XyX>XtX>X&X(.(.*X>X;XyX=X&X&X&X-X=XpXNXtXA.A.U.iXhXbXkXiXiXtXpXeX/ M ( a.f.f.d.) d.d.1.f.M.<.,.d.V.M.V.V.F.M.5.2.d.f.p p h.h.%.f.n.Y.C.1.>.) f.U.&XpX1XgXnXVXCXCXCXVXCXVXVXVXCXJXJXCXJXCXJXJXJXCXJXJXKXKXKXKX                                                                                ",
"                                                                                            qXY.-XF.-XCXNXNXJXHXbX<X<X6X}.w.B.}.|.%X|.}.e.e.XX}.XX{. XD.d d G ^ ^ D d = # # # . . 1 $ . . 4. Xv.= . # # & 2 b b V %.R.K.h.h.f._.*X#X*X).;X:X#X#X#X:X+XN.N.M.N.#X).l.8.~.Z.~.l.M.`.S.V.I.k.,.,.8.N.~.+X+X:X1XM.* p m n >.l.k.l.8.c.`._.2.1.U & 3 s Z T T [ ;.-.[ [ X.d.P + a ) ..d.k.V.V.S.I.A.`.F.`.S.c.k.d.-.T 2.V.c.z.l.z.N.z.3.^.~.~.Z.k.n } _.=XeXuXeX&X*XgXyXgXyX>XhXhXhXjX>XyXkX,X,X>X1X*X`.V.l.k.a.I.,...hXyXkXhXhXhXjX1XjX>X;XgX>XA.x.k.*XMXMXkXkXkX*X>X>X>X>X_.L.L.L.M a h.C.I._.&XA.(.A.S.A.V.V.A.V.A.A.I.V.k.M.l.8.8.5.3.3.;.|  . .[ K c.C s K T | K [ K C n s a 3 0 3 3 < m } ,.5.3.-.3.5.E C E | [ ~.+X#X^.^.).@X+X2X2XyX>X;X>XyX>X*X_._.&X;X>X>X>X1X*X-X;X=XtXpXiXzXpXU.Y.'.iXbXNXMXnXbXpXpXtX~ P ) h.C.a.d.1.M.C.f.5.M.M.V.V.V.F.(.(.*XI.2.d.M.f.M > p.p._ p.C.C.Y.L.Y..XU.Y.-X&X=XyXhXvXZXBXVXZXCXVXVXVXCXCXJXJXJXCXCXJXJXJXJXJXJXJXJXKX                                                                                ",
"                                                                                            pX=XiXZXvXtXNXbXiXiXpX X<X%XB.B.w.b.|.|.|.|.{.:.|.%X{.XX X#.S D %.%.R #.d 1 1 $ $ # $ . . X . b P.4.= % X $ & , b c c _ Y.K.C.x.C.&X+X*X,X`.#X:X#X#X).#X~.l.Z.~.Z.N.8.z.).Z.c.+X(.c.S.S.A.F.c.3.3.8.l.^.#X:X1X1X1.< n U m } M.k.5.8.l.Z.A.a.f.~ + 3 v J T T [ ;.| T  .;.2.Y X a ) d.x.V.M.V.A.(.l.S.F.`.(.k.V.k.3.T 3.S.c.z.z.z.N.8.7.^.^.~.Z.S.s Y C.'.=XhX=X&XpXhXhXgXyX>XjXkXhXlX1XyXkX,X>X>X1X,X`.V.l.d.2._.,.,.hXyXkXnXMXkXjXgXjXjXjXvXyXV.2.k.*XMXNXkXkXkX*X=XeX>X=XI.C.C.P.m p f.C.I._._.A.I.F.S.S.M.S.I.V.A.S.F.M.k.M.c.8.l.c.3.3.;.| ;.3.| J 8.C s T T | K T K C s a 0 < 5 3 3 3 Y -.2.d.3.-.,.5.E m T [ [ ).#X#X^.@X#X+X:X;X;X1X>XtX>X;X;X;XI.A.+X>X;X;X1X;XU.=X>X=XiXpXpXpXbXzX=XpXNXNXiXbXMXMXkXiXiX/ I ~ <.P.M.a.C.C.Y.A.V.V.F.F.+X(.+XI.(.S.M.d.d.M..XI , B K.s.P.R.&X.X&X.X-X-X&XtXpXyXpXyXvXBXCXCXCXVXCXCXCXCXVXCXJXJXJXJXJXJXJXJXJXJXKXKXKX                                                                                ",
"                                                                                            JXJXNXZXCXCXBXZXNX-X<XD.D.D.b.w.w.b.XXXX6Xb.XXq.H b.L +.d = r r t r = r 1 1 1 $ , 1 & . . o X . B t X $ X o X o x x N p.R.Y.C.f.C.&X*X;X;XF.~.+X).+X#X^.F.l.l.l.N.N.l.l.:X).c.N.(.l.V.Z.S.d.| 3.l.l.~.).#X:X2X4Xd.3 a m P I k.M.3.3.z.Z.V.k.C.~ + 3 s Z T T | ;.| [ ;.3.,./ + M } d.k.k.k.V.A.A.3.k.`.`.(.l.k.l.d.| 5.~.l.N.Z.N.S.8.8.^.^.~.Z.S.s C f.L.'.iX>X*XgXyXgXhXtXeXhXhXjXhXyXyXjX;X,X,X1X,X*Xl.l.k.2.I.<.,.MXkXnXhXnXnXhXjXgXhXhXnXvXV.) k._.BXMXkXhXhX'.yXyX>X=X_.L.L.L.m p a.A._.I.(.A.F.F.S.S.k.V.I.A.F.V.A.l.k.S.c.8.l.5.;.;.[ T  .3.[ A 8.C 9 C T | T T K C n a 0 < 3 0 a 3 ,.-.5.3.-.3.3.5.T f E [ [ @X:X$X@X+X#X+X+X;X1X1X;X;X(.(.gXhX;X_.*XtX2X-X*X>X+X>X=X=XpXpXtXiXbXMXNXMXbXtX&X&X>XiXbXbXbX) I I B f.A.f.C.C._.&XA.V.I.(.(.F.@XF.V.M.S.S.2.V.bXK.c > f.C.R.C.n.f.n.qX&XY.=X&X&XtXpXtXbXCXBXBXCXCXCXCXCXCXCXCXCXCXJXJXJXJXJXJXJXKXKXKXKX                                                                                ",
"                                                                                          JXJXBXCXCXZXBXZXBXZXZXvXF.5.B.w.+.q.w.B.|.}.{.B.$.i d % r r d %.4.4.%.d # % $ $ $ $ 1 , $ o X $ . X . X $ o $ o o 5 B c ! T.Y.C.h._.1X>X;X_.V.N.F.~.@X+X).#X~.l.3.8.z.N.Z.:X:Xl.;.Z.c.8.c.5.,.} 3.c.8.Z.!.$X:X$XgX;Xm 9 m I I V.S.8.l.z.~.M.x.C./ & 5 a Z T T | ;. .[ ;.3.5./ & M ..d.2.c.V.S.V.k.,.c.S.F.`.V.S.k.5.,.V.`.N.N.!.S.Z.z.8.^.).~.S.S.a Z a.L.Y.>XyX>X>X>XpXyX>XyXgXhXyXjXyXyXlX*X1XlXlX,X*XS.V.c.2._.2.,.nXgXhXhXnXkXyX>XnXnXjXyXvXV.Z 2.L.NXMXnXnXkX`.>XyX>X>X*XU.L.L.M a d.L._.I.(.A.F.S.V.A.k.V.I.A.I.V.A.d.M.S.l.l.l.3.,.;.[ K  .3.[ A 3.s * C T | K K C f s 0 3 < < p a 3 <.,.d.3.| -.5.l.T f | E E +X#X#X^.^.^.(.+X2X;X+X+X_.M.S.hXhXhXhXpXtX>X*X_.1X;X>X>XtXbXbXbXbXbXbXNXNXyX&XU.A._.=XiXbXiX_ / U a ) h.I.U.tXpX*XI.S.M.S.F.F.F.S.V.V.5.) ( U.MXFX_ , F h.^ M F P P L.-XA.Y.h.>.C.tXhXbXhX1XyXpXBXCXVXVXCXJXCXCXCXJXJXJXJXJXJXJXKXKXKX                                                                                  ",
"                                                                                        JXJXJXCXZXZXZXVXvXBXZXvX2X-.E 4.w.b.b.B.{.@.B.{.D.&.d r D 4. X<XzXrX<XXX%.1 $ X X $ o $ o X o . o & . $ o $ o o , o 2 ! N P R.P.h.k.U.*X*X_.S.M.M.N.N.~.#X#X$X~.l.z.N.F.).~.#X:XZ.3.N.(.3.X.3.S.`.~.N.5.z.!.#X:X:XgXvX) 3 M U P k.d.3.5.M.(.l.C.C.U & 3 M Y E E -.;.[ T | 3.d./ & x ..a.d.l.k.k.M.M.5.c.A.F.`.V.M.d.3.k.Z.~.N.z.Z.S.S.N.7.~.).~.S.S.g C a.C.L.'.eX>X>X>XtXeX>XyXlXhXgXhX1XyXlX+XlXhXjX1X+X`.F.,.5.*X2...nXhXyX&XeXgXjXyXhXBXnXgXgXV.M ,.V.kXnXkXkXkX`.,XtX>XeX>X'.L.L.m a h.L._.I.(.A.F.V.V.A.V.S.A.V.A.V.A.l.V.S.l.l.c.3.;.| [ K [ ;.[ K 3.f < K E | K T Z C n a 9 3 3 a a 9 1.3.k.3.-.-.8.M.| f ( T -.1X$X^.~.~.@X+X+X+X(.(.+X+Xk.S.gXhXnXBXhX*X&X&X&X;X=X>X1XiXbXpX-XtXpXpXpXpXyX=X&X&X;X=XpXbXiX) M ! P / ) C.L.U.&XyX+XS.S.F.M.F.F.l.-.f s | A.pXbXFXmX! & 5 b I >.n.f.<.A.-XM.Y J <.tXbXpX-X-X2X;XyXBXCXCXCXJXCXJXJXJXJXJXJXJXJXJXKXKXKX                                                                                  ",
"                                                                                      JXKXJXJXBXCXCXCXZXVXVXVXvX(.E E 5.v.F. XB.:.d w.XX{.G u R <XzXrX<X Xv.#.#.F 1 : $ 1 1 t b c $ o . X & X o o o o o , , , ! B b P.L.M.I.=X>X_.F.M.M.N.8.8.M.Z.^.#X).~.).~.#X#X#X:X:X;X4X+X1X#X8.8.`.jX;X~.N.N.:X#X4XvXjXyX} * C I m d.l.l.l.N.(.d.A.C.m + 3 n Y E E ;.;.[ [ ;.3.3.) & v ) <.a.l.k.d.5.d.l.k.(.F.*XF.V.5.-.M.F.Z.z.z.S.S.N.N.3.Z.~.F.S.V.a M f.x.L.-X*X>XyX>XyXyX>XyXlXhXyXhXyXlXjX*XlXjXjX:X,X`.F.-.3.;Xd...hXpXx.v C V.eXeXpXnXnXgXvXF.n Y a.hXBXVXkXhX_.>X>X>XtX>X'.Y.L.m p x.L.I.I.I.V.S.F.M.V.V.S.A.V.A.V.A.l.V.V.l.k.c.3.3.-.| T | ;.| | 5.f 9 T [ [ K T C s s 0 3 5 3 n a a ,.5.M.5.,.3.5.5.| f ( T 5.vX$X~.F.^.@X@X(.;X@X@XF.S.V.;XZXnXvXnXvX=XU.&X&X&X>X2XyXiX=XL.d.C.I.&X>X>XeX=X>X1X1X&X=XMXMX_ > 5 n M p m U m <._.1X+X+X(.F.M.| f g J A.>XhXBXNXbXFXp.5 %.1.1.1.C.f.a.C.-XA.Y I f.iXpXL.I.>XiX&X;XNXJXCXJXJXCXJXCXCXJXJXJXJXJXKXKXJXKX                                                                                  ",
"                                                                                      JXJXJXJXCXCXCXCXVXVXCXvX:XS.5.8.M.5.5.v.:.L D d :.4.r t R m.P.<XD.4.4.4.$.R t 1 t b y u c F N $ X . $ o $ o $ o o o o , 5 ! c f.'.&X&X>X;X+X(.S.M.M.8.7.N.!.#X#X/.).+X#X:X:X5X5X4X4X:X1XjX,XS.3.~.;X#X).+X).#X#X4XZX:Xl.m 3 M / C 2.l.M.c.V.V.l.U.<.m + 0 M Y T } ;.;.[ T ;.3.d.} & p / <.d.d.k.5.2.3.l.F.`.(.`.A.V.5.| 8.S.Z.z.Z.F.S.Z.l.;.3.l.Z.S.M.9 C x.x.U.'._.>XeX>XhXyXyXhXhXhXyXgXyXyXyX*XhX:XjX4X:X).).| 3.;Xl.} hXyXI.~ Z 2.yXhXpXBXJXBXnX1Xs s a.kXMXnXkXvX].,XeXtXeX>X-XY.C.U p C.C.I.I.A.A.V.V.V.S.k.V.F.V.A.V.A.k.l.A.k.S.l.8.c.3.-.[ | ;.;.} c.f 9 T [ [ K T K s s 9 3 3 3 v 9 a 2.M.M.5.3.3.5.3.T E -.T 8.jX+XF.~.^.@X@X+X(.F.F.~.M.M.+XVXvXvXZXpX&X&X-X&X=X=XhXiXpXU.M.M.C.C.A.*XiXiXhXhXhXhXyX=XNXMXC.a & > a U ) >.) ) J ( 5.,.-.U E T g 5.;X2XpXvXvXbXNXuX! ! &Xf.U s.C.n.C.Y.Y.1.m Y L.tXpXC.A.U.U.L.L.bXJXCXJXJXCXCXJXJXJXJXJXJXJXKXJXJXJX                                                                                  ",
"                                                                                      JXJXJXCXBXVXCXCXCXCXCXZX:X^.Z.~.F.M.5.5.#.J L D r r d r = = r D {.<XXXq.@.#.y u G H F u y t t 6 $ X . o . o O o , o , , , ! P _ R.-X>XyX*X+X+X^.~.~.N.N.N./.#X].^.).$X$X5X:X:X:X4X4X4XjXjX:XS.M.l.l.#X4X:X:X5X4X4XN.[ [ | 3 n I m } d.5.3.l.l.d.M.>.n & 0 v U Y } 3.3.[ | ;.;.5.} & 5 I ..a.d.M.M.,.,.k.(.#X~.`._.F.c.| l.S.Z.l.N.S.~.~.N.|  .3.N.F.V.3 C V.C.'.L.L.eXyXeXyXeXyXhXkXhXgXhXyX1X,X*XhXlXjX:X,X).).| 5.,Xk...pXkXpX'.A.'.MXkXMXMXMXMXnX1Xs 9 l.hXkXkXhXhX].1XhXyXeX>X-XI.C.Z p x.V._.I.S.k.V.V.V.V.d.M.S.M.A.V.V.V.k.S.k.V.V.l.c.3.-.[ ;.;.3.} 3.s < T [ [ K T K s s 3 < 3 3 v a a 5.l.k.5.5.d.5.| J E | C M.vX:X@X+X:X+X#X(.M.M.F.@Xl.M.1X1XVXVXBXpX&X&X>X=X=XpX>XU.&X*X=X&XA.C.V._.iXbXMXNXnXBXbXNXbXuX=Xp.> 2 U C.-XU.F.1XV.U 9 g C -.5.C d.*X;XyXgX1XhXnXFX-Xx f.=Xf.I ) f.Y.U.U.d.m I d.U.-X>XC.<.C._.Y.Y.NXJXCXCXBXCXJXJXJXJXCXJXJXJXJXJXJX                                                                                    ",
"                                                                                      KXKXJXJXCXCXCXCXCXVXVXZX4X;X~.F.F.M.d.-.J M D R d t y = 1 t = d .XcXXXb.b.G u H &.G S t b b r $ $ $ o o , o O o 6 o o 7 o p ! ! Y.=X=X>X;X#X:X:X#X/.!.Q.^.$X$X/.^.$X:X4X4X4X:X:X:X4XjXjXjXjX#X).Z.^.4X5X#X#X:X:X8.h K M.V.0 a P C } M.l.l.M.k.V.2...a & 5 M Y E -.3.3.[ | | ;.5.>.& 3 Z ) a.5.d.f.-.,.k.A.`.A.F.*X(.l.| 8.N.~.l.N.N.~.~.N.T [ 7.N.F.M.9 Z L.A.'.d.V.eX>X>XyXeXhXlXkXhXlXlX>X>X,X,XhXjXjX:X,X:X).| 5.;Xk.} kXBXhX-XU.eXMXkXhXMXBXBXBXtXa a d.yXhXnXkXjX`.1XhXyX>X>X-XU.L.Z s k.x.A.V.M.l.V.S.V.V.k.V.V.k.I.M.M.M.k.A.V.M.V.l.5.5.;.| 3.;.;.-.5.s 9 E | [ K T C s s 3 < 3 3 n a s f.l.M.5.5.5.-.Y M | | f S.1X:X$X:X4X:X+X5.M.F.~.~.M.S.gXgXnXVXBXgX_.Y.*X=X>X2XI.I.2X2XtXU.Y.U._.2XNXBXMXhXhXnXhXMXMXxX-XM 2 5 m 1.A.A.A.2X1XyX( -.V.k.a E =XpXvXhXhXgX>XBXFXK.x <.qXL.I f.f.M.@XY.M.d.A.A._._.-X*Xk.f.V.C.tXBXCXBXCXCXCXJXJXJXJXJXJXKXKXJXKXKX                                                                                    ",
"                                                                                      JXJXJXJXJXJXCXCXCXVXZXZXZXZX2X~.F.M.l.2.#.Y ^ D b F 4.^ a r t s.rXXX{.{.D.$.H $.$.q.R H D D b 1 t 4 O o o $ O o 4 o O > 2 o p ) C.&XU.*X>X+X#X#X~.~.!.^.$X/.^.N.N./.$X:X5X:X5X4XjXjXjXvXjX4XjX#XZ.~.).jXZX4XZ.K h [ 3.F.1XC 9 P U >.V.k.V.V.d.k.} ) p & 5 m Y ( ,.;.;.T [  .X.2.>.& 2 m ( d.d.k.d.3.5.k.F.S.Z.F.+XF.k.-.3.N.~.N.S.S.S.Z.N.K [ l.N.F.V.a U A.A.-Xd.C.uX>XeXhXeXkXlXkXlXlXlX,X,X*X1XjXjXjX4X:X4X#XX.5.*Xx.} hXMXkXeX'.L.} I x.hXBXnXBXtXa n k.eXhXnXnXjX`.,XhXyX>X=X=X'.L.m a k.C.A.V.V.d.l.M.M.V.M.V.V.k.A.V.M.d.d.F.V.k.V.d.d.l.3.X.3.-.-.| 3.s 9 T | [ A K C s n 9 9 5 3 n a s k.k.S.5.5.,.[ C f | -.C M.N.~.$X$X:X:X@X3.-.F.~.8.3.Z.4XgXhXvXnXhX>X+X+X+XU.U.A.U.&XU.&XU.M.U.>XiXkXhXhXiXhXhXNXbXkXMXC.$ 2 n m I x.U.U.*XgXvXM.d.;XE f I.&XyXgXhXgX1XkXMXC.B n F C.a.f I >.>.A.A._.2X1XU.U.*XU.;X1X&XA.pXnXJXBXCXJXJXCXCXJXJXJXJXJXKXKXKXKX                                                                                      ",
"                                                                                      LXJXJXJXJXJXBXVXVXVXZXVXZXCXvX@XM.M.F.C.s.D D R .XzXNXrX.X&.1 n.rX<X{.{.b.v.q.b.q.b.$.d = r b d t b O , o $ o o , , o & 6 , o b 1.L.&XtX+X+X+X+X).#X$X#X/.$X!.z.N./.:X:X:X4X4X4X4X5X5X4XjX4XjXjX4X:X:X5XZ.;.K A { ;.8.#XjXE < M Z 1.M.l.S.M.3.3./ ) p & p M Y | ;.;.;.T  .| | 3.>.& 2 M ~ 2.2.M.-.3.3.c.`.S.~.F.`.F.N.3.-.N.~.N.z.!.N.Z.N.| | 8.z.F.F.s Z V.V.-Xx.U.hXeXhXkXyXkXlXhXeXyXgX1X;X`.yXjXjXlX4X:XjX;X3.c.;XV.} MXkXhXiXuXC.v U a.yXnXhXVXhXZ s V.yXkXkXhXlX*X,XjXyXeX>X*X'.L.x a k.A.V.k.l.5.c.M.l.M.k.V.V.d.A.k.V.2.d.A.M.V.V.l.l.l.3.} 3.,.3.E ,.s * K | [ A T C s s 9 0 9 3 v a a k.k.A.5.5.,.| C C | E C ;.E ;.#X$X#X#X;XF.3.-.-.-.5.~.1XjXnXgXgXvXvXgX>X;XA.A.A.A.I.tXtXY.U.tXhXbXkXkXnXnXnXhXBXbXiXmXf., t B B ~ C.U.Y.(.>XyXV.l.1.f ,.=XyXiXpX;X_.U.kXBXC.5 a M P M P f 3 f M | +X+X*X;X*XI.@X1X1XhXNXNXnXCXCXCXJXCXJXJXJXJXJXJXJXJXKXKXKX                                                                                      ",
"                                                                                      KXKXKXKXJXJXBXCXCXCXVXZXvXZX1X@XI.F.Y.4.F a F b 4..XNXuXNX.Xr D.<X<XXXD.m.v.b.B.q.v.4.#.G f r = 3 M X & & X o o , 6 $ X > 2 $ o p ) f.I._.,X;X#X+X).+X#X$X$X/.!.!.$X5X4X4X:X4XjX4X4X:X:X4X:X4XVXVXVXjXl.K [ { [ 8.N.Z.#XvX,.- a n >.d.k.A.V.2.-.) ..p & p m Y } 3.3.;.T | | | 3.>.& 2 M ~ a.5.k.) 5.d.l.*X`.`.S.).`.Z.l.3.S.F.z.l.~.S.~.S.l.3.3.N.~.F.C U C.C.'.L.=XhXuXhXkXyXkXyXhXeXyXgXgX_.F.1XjXjX4X4X4XjX:Xc.l.*Xx.( NXkXiXeXeXL.U a.'.kXnXkXBXVX,.a V.pXkXkXkXkX,X1XgXtXtX>X-X'.L.s v k.V.d.2.-.5.V.V.M.V.d.l.k.d.V.k.A.d.f.V.l.V.A.d.k.l.d.;.3.5.d.E 5.s 3 E ;.| K T C s s 9 a 0 5 n a n k.k.S.5.c.,.E f J | E J ;.C K Z.$X;X+X+X;X+X8.-.8.@X:X+XjXjXjXjXvXnXvXhXhX>Xk.5.A.&X2X&X=XhXbXhXiXkXkXkXpXhXbXnXNXNXNXf., 5 M M ) L.U.I.;X>XhXd.M m A.M.5.C.C.U.A.I.I.*XnXNX_ s 1.f.f.<.U J J f Y I.@X(.+X;X@X;X2XgXgXhXvXBXCXBXJXJXCXJXJXJXJXJXJXJXKXKXKXKX                                                                                      ",
"                                                                                      KXKXJXJXJXJXCXCXCXCXVXZXvXvXF.-.R d b d F n..X^ y &..X.X Xs.r v..X.XXX{.{.v.#.b.b.b.$.q.v.4.r 3 g M X X X o X $ $ 7 $ O , $ > . . & & 0 J | ;.l.N.N.l.8.;.8.N.N.N.Z.~.).$X5X:X~.8.| K T ;.l.`.4XjX4X^.;.;.8.;.;.9.N.^.4XvXd.* a a } d.d.M.k.3.} } >.3 & 3 Z ( -.3.;.;.T  .| | 3.} & 2 B / 2.d.5.-.5.5.V.`.`.~.S.`.`.Z.N.8.N.~.z.l.Z.Z.).~.~.l.7.Z.F.F.Z Z C.L.R.-XuXhXyXuXhXyXkXhXhXyXyXlXjX_.Z.lXjXjXlXjX4X4X4XV.c._.d.~ kXNXkXeXeX=XC.-XnXnXnXjXnXnXA.Z L.hXNXkXnXkX>XyXgXeXeX>X-X_.L.v v C.V.k.d.2.k.V.F.F.A.d.d.l.5.V.f.C.k.k.M.k.V.A.d.M.c.l.5.5.l.5.E d.f 9 | -.[ K [ J s s 0 s 0 5 M s M M.k.V.3.5.-.T s C | E K 3.C h 3.^.+X@X(.@X@X;X;X@X2X2X~.).+X1XgXhXjXgXjXgX;X_.V.d.M.I.Y.2XbXbXyXiXnXNXnXhXNXMXNXbXiXbXh.> 2 M F %.Y.U.I.;X>X1XM.< / pXA.Y f.Y.M.A.I.V.I.pXkXL.m >.C.C.>.<.1.) 1.1.l.I.F.I.;X@X;X2X1X1XhXnXCXCXCXJXJXJXJXCXJXJXJXJXKXKXKXKXKX                                                                                      ",
"                                                                                      KXKXKXKXKXJXCXCXVXVXVXZXZX2X:.j D f G %.XXcXD.D D s..XrXP.G = y b G .XXXm.4.% D v.P.v.b.D.4.f #.g g X g a > X $ X $ $ o o , X o & 2 p 0 < @ & 9 M T E J f * 9 g s A K J K  .[ K T ;.;.;.3.8.8.;.7.;.;.;.;.;.9.!.^.+XZ.N.+X3.& 3 p } d.k.V.3.1.) >.<.5 & p m T } ,.-.;.T ;.[ | ,.) & 5 U ) <.k.d.5.5.3.S.`.Z.`.Z.~.Z.N.S.8.z.).S.z.Z.~.).).^.N.8.~.Z.F.T s x.L.U.eXkXkXkXeXhXyXkXkXhXlXyXlXgX`.(.jXjX4XlXnX4X,XjXA.l.'.a.~ MXMXNXkXiXyX>XkXkXMXhXgXnXhX&X2.*XMXMXkXkXhX,XyXkXeXeXeX'.L.C.v M V.d.3.3.d.S.V.V.F.F.d.5.k.d.V.a.d.k.k.M.V.V.V.k.M.5.l.5.d.k.5.| d.s 9 | X.[ T T J f s a n 0 0 n a M V.M.S.3.3.} T C C | | J 3.C h [ N.Z.F.+X@X+X(.;X2X+X~.@X).~.:XgXhXnXnXgX;X-XtXU.C.A.C.d.*XbXbXiXhXnXbXnXnXMXvXbXiXqXsXh.> 2 n n / C.A.I.;X;X>X,.3 1.V.V.f.U f.M.Y.&XI.k.*XMX-XP / f.n.d.,.) -.2.f.f.l.S.F.(.@X;X+X;XyXhXnXVXCXJXJXCXBXJXJXCXJXJXJXJXKXKXKX                                                                                        ",
"                                                                                  KXKXKXKXKXKXJXJXCXBXVXVXZXZXZX<X#.E S R G F R #.#.D.m.s.<XzXrX<Xd $ . & f. XP.%.. . y ^ s.C.R - g 5.g r 3 T U a 2 , & & $ o o $ 5 P ) <.>.>./ Y J 9 3 s Y } ) Z m U C C h T [ 7.0.;.7.z.N.9. .N.N.8.;.{  .7.9.!.N.N.N.8.| [ } Y & 3 a ) d.x.V.,.2.Y 2._ 5 > p M Y ,.-.3.;.T -.T | ,.} & p U ( d.k.V.5.c.k.F.`.~.S.~.F.~.l.l.l.l.~.N.l.!.~.).).!.!.Z.Z.`.(.Y v V.Y.'.uXkXkXhXyXiXyXNXyXeXyX>XlXjX`.`.jXjXjXlXjX:X4X4X~.A.&Xx.~ MXMXNXkXkXhXuXkXkXkXhXyXBXMX>X_.yXnXVXVXnXhXyX,XgXyX>X*X>XL.C.Z m V.l.,.,.l.l.M.Z.F.F.V.5.5.d.d.2.k.5.d.d.k.M.M.d.M.d.k.l.k.l.3.Y d.f 9 | X.| [ | T C s s v 3 5 x p M V.V.A.,.3.;.E s 9 E E T 5.h h T 8.F.(.F.F.@X2X;X;X;X@X^.$X5.l.gXvXZXpX@X&XtXqXtX=X=X&XL.U.pXyXbXpXNXbXiXnXvXhX;X=XtXsXC.> 6 b b I a.A.Y.*X1X2XT * I l.M.d.C m f.f.C.'.x.L.MXpXM f >.v.V.-.E -.5.v.M.M.d.5.Y.U.&X@X+XyXpXvXBXJXJXJXBXBXJXCXJXJXJXJXKXKXKXKX                                                                                        ",
"                                                                                GXmXFXLXJXbXsXNXJXJXJXVXVXCXZXZXD.+.R D 4.&.r t S {.<X{.XXD.cXrXzXU d d $ F P.L.U $ $ X # > 1 % # # D J a f E f D x p 2 2 o X , p I f.P.A.L.Y.V.a.d.-.Y a a n U Y P Y } | 3.5.8.8.7.z.Q.N.9.9.;.9.7.;.;.;.0.7.7.;.[ K K C C C Y m & < s } d.A.V.d.,.Y d...2 & 0 M Y ,.| ;.;.T } T ( ..} & p ~ ..a.k.M.k.l.3.M.(.F.S.(.A.~.k.c.c.8.N.l.N.~.).#X).!.^.Z.Z.`.(.Y s x.I.'.iXkXkXkXkXpXeXhXpXyX>XeXlXlX].,XnXjX4XjXjX;X,X4X`._.nXL.) NXMXNXkXkXkXuXiXNXnXgXyXnXnXyXtXnXMXMXBXVXhX>X].*X>X;X'.*XL.C.Z M V.l.,.3.N.l.M.Z.l.F.F.l.5.3.5.2.k.d.k.d.d.l.l.5.d.d.V.l.3.3.,.U l.C g | X.| T | T C s v n 5 p n a C V.k.S.3.5.X.T s q E T K l.T A J | S.F.M.F.;X;XF.F.+X#X@X~.-.-.;XgXyX;X;X>XtX'.tXhXtX-X*X2X1XpXbXbXbXyX=X>XpX*X&X_.&XbXY.2 2 b F ~ s.L.&X*X;XV.E ( E J a J f g s ) ) a.L.L.eXbX%.a I f.1.-.T -.5.5.5.5.V.M.k.A.&X=XyX1X>XvXCXBXMXJXJXJXJXJXJXJXJXKXKXKXKXKX                                                                                        ",
"                                                                                  mXsXuXuXuXmXFXBXJXJXJXJXCXNXCXF.L j R XXn.b D D.<XXXD..Xv.v.zXzXF $ #.= & n M & $ $ . # # # . # # - M r g J U m 2 1 & > o o , x ` h.P.M.'.pX=X_.A.d.d.1.( C a s a f ( | 3.3.3.;. .;.8.8.[ h h h h h h K K A s g h C h s C Z m a & < n >.d.V.l.d.| ( M._ 5 & p M Y -.[ -.;.E | T T } ) & 0 Y } 2.k.k.k.l.,.M.`.F.Z.`.F.F.z.5.c.3.c.8.~.~.].#X).!.].!.~.~.`.Y s x.Y.=XiXkXiXhXkXiXhXpXyXeX*XyXgXyXgXjXlXjXhXhXjXjXjX,X*XyXJXA.( FXBXBXNXNXkXeXyXnXnXkXnXBXBXhXhXMXnXnXnXVXjX,X`.*X>X_._.*XA.C.m v V.d.;.5.N.8.8.N.8.N.S.M.d.,.,.5.d.2.d.2.2.d.l.5.d.d.k.k.d.f.} I k.C s ;.;.;.[ [ T C s n n p a M a C V.l.S.5.3.X.| C s | E J N.;.K T -.N.Z.M.F.F.~.F.~.^.F.~.Z.[ E @XvX1X+X2XyX-X2X1X>X2XtX1X1X>XpX1X*X&X>X>X1XU.F.U.Y.&XbX-Xt , c N ) a.M.'.+X;X,.d.F.V.5.3.( f 3 < a s ( a.x.U.pXf.& 3 m I I n / 1.Y / ) F / <.A.;X_.&X=XyXvXMXNXbXbXJXJXHXJXJXKXKXKXKXKXPXLX                                                                                        ",
"                                                                                      sXsX    sXiXbXFXJXJXJXBXCXM.L R b.<XXXR y XXcXD.XXcX4.y 4.4.d # U I X X . . $ $ $ $ . % g R E f r r r f r = # , $ $ , , , ! a.P.R.Y.>XkX>X>X1X;X(.M.d.3.} M * * 9 a C J C 9 * * w w w q g J K  .;.N.9. .s @ * q s s s M m p & 3 n ,.d.l.l.d.( } M./ p > p M Y | T | -.E } T T } } & 3 I ..a.k.k.k.M.c.A.`.~.F.~.F.S.S.5.l.3.8.N.).N.).].^.^./.N.F.S.F.Y s C.U.eXuXkXuXkXkXkXkXhXyXeX*XeXgXjX,XyXhXnXjXjXjX4X`.k.jXVXVXV.( NXMXNXkXkXhXeXyXMXBXkXnXkXMXyXnXMXnXnXhXnXlX>X`.:X,X_.&X'.V.x.n C A.c.3.z.N.8.8.M.8.5.8.M.5.| 3.5.2.1.3.,.3.k.k.l.3.2.d.k.>.( U Y k.M C c.3.X.T | T C s M M a n M a Z k.l.S.8.;.} } T s | | C 8.;.K [ ;.N.^.~.F.@X).Z.@X^.N.N.8.T K ~.gX;X+X2X;X;XyX1XyXyX>X;X>XhX1XI._.;XyX;X_.I.U._.2XbXFXR.> > x p I ) >.A.V.E 3.Z.3.V.S.+XI.5.| Y 9 * g a I _ C.C.m a > a 3 & < & * 3 5 2 > 0 f ) M.@X2XiXvXhXBXKXJXJXKXKXKXJXKXKXKXKXPXPXLX                                                                                        ",
"                                                                                              uXqXqXpXtX=XtX-XP.C.4.#.{.<XP.^ R D.cX{.cXcX&.% b d t = = ) r & X X $ X . a %.v.D.<X X4.d = 3 d = 1 $ $ $ $ , > c _ C.U.'.>XtXpX>X>XgXhXyX*X`.~.c.l.K 9 @ @ 3 * & 9 a < < E Z.).#X#X:X5X~.N.8.8.8.K * X @ a s v P 2 & 3 m 2.l.l.c.l.( -.V.I a > 0 M Y | [ -.| T | T Y >.>.< 3 / 1.d.k.S.S.A.M.S.(.F.Z.S.Z.l.F.8.M.8.c.`.~.N.`.).^.^.!.N.~.Z.F.Y v x.'.eXuXkXiXkXyXhXuXhXyXeX*X>XhXlX,XjXjX>XjXnX*XF.5.c.hXnXCXk.P uXpXiXpXkXhXyXhXnXFXnXnXkXNXtXyXMXBXBXkXkXyX>X*X1X,X;X>XU.d.h.s J A.5.8.N.N.8.8.9.;.[ 7.N.[ | c.5.,.,.5.d.d.M.k.2.2.d.2.2.a.h.<...A.C T c.,.X.T | E C s C C s M M a P l.k.S.8.} ,.| U f E | f 8.8.[ [ [ N.Z.9.M.;.-.E -.6.8.N.6.K E Z.:X:X:X1X;X4X2X4X1X+X+XyXyXtX&XI.>X>X*X(._.+X2XhXMXFXbXh.2 > , 1 B n / a.M E c.3.-.Z.2X2X+X+XS.3.T C s g 3 a M Z ) ~ Z U p 0 a 5 3 ^ K.K.1.& * * a m U | d.A.U.uXiXiXMXJXJXHXHXmXqXR.K.T.                                                                                          ",
"                                                                                                  rX-XU.K.P.L.n.D.4.v.XXm.@.#.$.4.XX.XzXD.y d d r d & X d I & X $ . . F  XtX%X%XD.+.r = = # = d G F u = ; , & F 1.C.U.U.yXyXhXkXgX>X>X,X:X,X:X~.N.8.T * @ 3 3 s 2.J U A.VXnXjXVXvX5X$X~.Z.N.!.~.).7.s X X + , $ , 1 5 I f.l.k.3.l.Y } M.~ x > p n Y } | ;.| T | C I ,.1.3 3 / <.f.d.S.A.F.M.M.`.F.S.S.~.N.~.l.N.l.l.).F.~.].).~./.!.!.).F.(.T M V.'.eXeXkXkXkXyXeXeXeX_._.*XyXhXlXeX*X(.1XgX*XS.l.3.k.jXVXnXU m =XeXeXeXyXyX=XeXhXMXNXMXnXBX>X>XkXVXVXkXjXyX*X*X1X#X;XtXU.k.a.a J S.5.l.Z.N.8.M.N.[ h K K s 5.F.c.,.,.d.M.V.V.d.d.,.a.x.d...1.1.( L.Z T 3.X.X.T | E f s C C s M M a I k.M.N.5.-.3.| J C | | C 5.N.;.[ ;.9.9.0.0.[ { K A K -.7.;.;.8.@X:X:X1X4X2X2X2X#X).(.;X1X>X_.'.*X=X*X*XtXnXhXyXiXeXL.f.p & t c > > ~ >.v s k.l.;.M.(.4X4X#X:X+X5.E 3.3.-.T J n v M n n P I U ) } ) I ! R./ a 5.l.3.5.5.3.3.,.>.a.a...( / / 1.1.p.h.                                                                                                ",
"                                                                                                  qXR.K.Y.R..X=X.Xs.$.&.@.H G #.G &.<X.X+.r d r r R M 1 3 F a X X o o #.<XD.4.+.:.w.+.d = = r u S %.%.b = $ , B p.L.'.*XgXhXyXyXyX;X:X1X5X#X$X~.N.N.| 9 @ & & P } ( A.nXgXvXCX4XjX4X:X:X$X#X#X#X].:X`.T X X , , , 6 c P 2.l.l.5.M.Y ( C./ x > p v Y } | ;.-.T ( C J ..<.3 2 / 1.a.l.V.S.S.l.V.(.F.N.F.~.S.Z.N.l.l.S.~.Z.).].).~.^.N.^.~.Z.I.T s V.'.eXuXiXkXkXpX>X*X_.L.I._.eXhXyX_.I.>XCXF.3.5.5.;.3.gXnXA.9 U eXeXeX=XtXyX>X>XkXNXkXnXNXNXeXtXjXnXhXkXjXyX`.,X1X*X*X*XU.C.<.3 U S.8.N.~.Z.M.N.;.{ K K h K l.M.3.-.3.d.V.V.M.2.1.2.C.C.a.1./ m Z x.M ~ 3.| | A } T s a C Z a M n a Y l.V.V.8.;.3.| T T [ | C [ N.;.;.0.;.;.0.0.;.[ ;.[ [ -.;.;.N.^.@X$X$X#X#X^.F.Z.F.~.;X;XU.*X*X'.=X*X=XtX>X*XA.2.<.a._ n & > c ` ! > 5 3 a d.S.M.8.M.).#X+X+X+X:X(.3.M.Z.M.M.S.,.,.T } | -.,.,.E 1.M.s.F a 0 ,.F.I.@X2X2X:X1XvXvXkXhX>XA.V.h.L.-X                                                                                                    ",
"                                                                                                  FXiXqXsXGXmXHX X$.&.R &.R ^ P.D.@.D &.G S d t ^ D.#.m 2 & U n o $ X & 3 = r b.%X}.{.{.+.L +.R u b ^ F 1 $ t ^ f.U.*XtXhXnXjX>XyX;X4X4X:X].$X^.!.7.[ s C 9 & C ) I.hXvXvXjX4XvX:X4X:X:X#X:X$X].:X).,XI.Z & > 6 6 l x p I d.c.l.V.( ) C./ n < 5 x / } | ;.;.| ( M Z ) <.5 2 / <.<.M.V.S.A.k.V.V.F.N.~.S.l.c.M.5.c.Z.S.S.].`.^.^.].Z.].~.S.(.T s V.'.=XuXpXkXhXyX-XL.V.*XeXI.*XhX;XA.yXBX>X,.,.l.3.5.3.*XI.d.Z Z mXkXsXiXMXBXMXFXpXsXkXMXBXNX>X>XnXVXjXnXkXyX(.1X:X;X+X(.L.C.} < J S.8.N.Z.N.8.8.[ ;.K K h ;.N.N.| | 5.k.V.M.d.2.,.d.C.f.) } ) U / x.v ( 2.| | T X.E s a Z U s M n a U d.S.V.5.;.3.-.| E [ -.C K Z.8.[ { {  .;.;.[ [ N.^.N.;.;.9./.^.Z.^.!.Z.N.8.N.N.@X~.F.*X>XyXeX&XeX-XY.h.>.} ) / ) a.) & > x b U ! 5 & & >.M.l.5.M.N.Z.@X#X$X#X^.~.N.N.).^.~.).N.N.l.l.N.F.F.F.M.5.d.,.d.M } 5.;.l.@X#X@X4XvXvXCXvXvXnXvXBXJXJX                                                                                                      ",
"                                                                                                  LXPXmXuXqXuX.Xs.#.#.$.R #.XX{.XXP.D s.v.R R S s.P.s.G m a & ) M O X X # . 4.%X}.B.{.B.{.w.$.v.#.% u b u $ x >.f.*X>X1XhXjX1X>XyX,X4X5X:X$X].$X].N.[ C | Y & 0 d.jXkXVXvXgXjXjX5X4X5X$X5X4X5X/.!.$XS.`.L.0 2 6 6 l B x m V.l.A.V.Y -.V.) n , p v I -.| 3.| ( Y n C >.<.a 2 I 1.a.M.M.A.S.k.S.Z.~.N.~.c.Z.5.l.3.l.Z.z.N.).).).N.~.!.).~.~.A.K v V.'.>XpXeXhXhXyXU.A.=XBX_.x.,XeXA.*XkXVX_.3.l.,.| c.,.l.,.V.Z U eX-XU.C.&X=XyXFXNXuX'.=XtX*XyXnXJXnXkXgXyX,X+X4X1X+X(._.I.C.,.3 J S.3.N.N.8.N.8.7.0.{ K [ N.!.8.[ 3.M.V.k.k.l.1.<.x.x.,.) 1.1./ ~ x.M Y d.X.| T | T s a Z U s m m a J d.A.F.5.3.3.,.} | E -.K f Z.~.7.;.;. .{  .9.N.!././.N.9.9.^.!.#X^.Z.^.^.^.F.F.~.@X;X;X>XpXeX'.Y.f.) ) >.<.d.f.M.h.5 & x p > 7 & & & Y V.5.-.8.N.z.).#X:X+XZ.Z.).~.~.].Z.Z.@X^.N.^.~.~.:X+XS.F.F.S.l.M.M U 3.-.S.^.N.$X4XjXvXjXjXvXZXZXZXVXNX                                                                                                      ",
"                                                                                                mXuXsXuXwXmXxX%.F #.4.&.@.{.<XP.D.<Xs.%.v.+.R y v.<XC.v.s.b & $ ! B o X X g  X}.B.{.}.%X}.B.w.w.D.S # % # $ P ) M.*X;X1XgX,XlX1X>X,X4X5X5X:X$X5X5X!. .K X.X.9 M >XnXjXjXjXvXnX4X4X4X5X:X5X5X$X^.5X^.N.`.I...> 4 6 l ! B M k.x.I.k.~ 2.L...M , 0 n Y -.-.;.| | J a m ..1.5 5 ) ..<.k.k.A.A.M.V.S.Z.Z.Z.8.N.3.N.c.l.Z.c.F.~.`.!.z.!.Z.^.Z.N.S.U n V.'.>XuXtXiXpX>XI.&XpX>XV._.>X_.`.lXVXnXA.c.k.,.3.8.| T X.l.Z P -XC.a.1.h.L.-XbXMXFXbXeX>X=XnXnXMXnXnXkXjX,X,XvX,X+X+X*XU.A.2.9 J S.3.N.N.8.M.8.N.N.;.[ 8.!.N.;. .M.N.M.k.M.l.1.d.2.<.) ( a.f.) U x.Z } k.X.T K | T s a M U Z Z s a U 2.F.F.5.3.3.| 3.3.E -.E g ;.^.!.^.9.9.Q.Q.!.].$X$X$X/./.$X/.5X:X@X$X$X+X#X~.S.(.2XyX1X-XY.C...) ..<.f.n.A.Y.L.a.p X & > , o $ p U p a.M.3.M.N.l.Z.+X:X#XN.N.~.].)./.^.!.Z.!.N.#X).#X#X:X#X#X#X1X;X;XU.( M J [ N.$X#X5X4XjXVXZX4X4XjXvXVXVXMXFX                                                                                                    ",
"                                                                                              FXsXmXHXPXmXmXuXn.^ G R ^ R P.<XzXrXD.D D s.4.S S v.D.m.n.1.t = X , I M X . D <XD.}.}.%X}.%XB.B.b.b.+.. # X r / ) Y.*X;X1X>X*XyX>X1XgXjX:X:X$X].$X/.8.K T | ( < E vX1X,XjX4XjX4X:X4X4X4X4X5X$X#X#X$XN.Z.#X*XL.5 4 6 l ` ! n f.A.I.c.( d.I.1.B , p v / 3.,.-.[ T s 0 a / p.p 3 _ ) <.d.l.S.F.S.V.S.S.N.Z.8.l.3.c.5.l.N.8.`.~.~.!.z.!.!.^.S.z.A.T M A.'.>XuXyXhXpX>XC.*XkXI.d.I._.I._.hXVXhXV.Z.S.c.c.l.| s } 2.Z Y MXkXiX-XeXNXFXMXJXJXJXJXJXBXJXhXMXBXnXkXjX,X,XgX*X(.+X_.A.C.a.0 J S.8.N.N.8.8.8.N.Q.;.;.N.^.7.K 8.Z.N.M.M.5.3.| 5.,.>.1...>._ ! ~ C.m ) a.| T T X.| s s C U Z x a s U ,.I.(.3.-.3.| 3.-.E ,.,.s C l.!.$X^./.$X/./././.$X$X5X4X4X4X4X:X:X4X1X:X@X@XF.F.S.V.<.) / Z P _ f.x.C.C.A.n.>.5 X > & $ $ , b C.&XI C ,.k.l.N.N.~.:X:Xz.N.Z.].].$X^.!./.^.#X$X#X#X+XjX+X1XS.M.V.I.>X>XV.I T ;.N.$X$X$X5XVX4X4X4XvXZXZXVXVXJXFX                                                                                                    ",
"                                                                                          LXFXNXHXFXbXmXFXrXR..XrXs.b y 1 4.rX-XC.U 4.^ b #.F R  XP.P..Xs.b 1 $ $ & n 3 . = D.XX<X%X:.r w. Xb.w.m.G # # & m ) d.;X*X+X;X;X;X>X>X>X1X1X:X:X$X$X:X].8.T T | C & | *X`.+XjXjXjX4XjXvX4X4X4X4X:X:X:X^.z.^.:X>XL.! 6 6 x %.` P f.I.I.5.( d.I.1.Z > p n ) 3.-.-.| C < 0 3 M 1.p 2 _ ( <.d.l.A.(.S.S.S.S.8.Z.3.3.5.,.3.8.3.l.Z.Z.~.!.z.!.Z.!.N.l.A.T n L.'.>XeXyXhXgX>XL.*XtXA.A._.I.A.*XlXnXjXA.`.`.F.l.3.f g ,.k.~ Y JXJXKXKXKXKXKXJXKXJXFXJXJXnXnXyXeXkXjXjXjX*X,XgX,X(._.I.V.C.f.a U S.8.N.l.8.8.8.N.Q.0.;.^.Q.;.[ 8.N.8.N.M.-.-.3.>.,.,.d.C.f.) I U C.Z ..d.,.T K | T s s C Z m x s a U 3.I.F.3.| 3.-.-.E ) 2.-.f 3 [ N.N.^././.!.$X$X5X5X5X4X4X4X1XjXjX4X1X2X+X5.-.-.E Y I C C Y ../ I / <.f.p.) a & & n M o o 5 2 ! L.C.U m l.I.N.M.~.#X4X).l.~.#X:X).^.~./.$X~.Z.5.l.~.,X1XgX(.| -.} | 3.I.A.( T 3.^.#X$X5X5X5X4X4X4XvXZXVXVXVXJXMX                                                                                                    ",
"                                                                                    KXKXKXLXFXbXpXxXMXFX-Xh.p.n.P.P.h.p.) C.sXU.I >.zXzXs.d D R rX.XY.C.U t 1 X X . $ t = . b s. X4.d . d {. XD.v.t . $ p ~ ) L.>X;X+X*X1X>X>XtX>X1X:X:X1X:X:X:X#X!.;.T X.s 9 3.).#X:X:X:XjX4XZXjXvXjX4X:X#X:X4X].N.).:X*XL.f.2 2 M p.) ~ d.A.A.3.E l.I.<.I 2 p M / ,.-.;.| s 9 s 5 0 ~ 5 5 >.) <.f.M.A.(.N.l.M.S.5.S.3.;.5.,.5.3.3.Z.S.Z.~.Z.z.N.N.N.z.l.F.T C I.*X>XeXtXhXhX=XA.>X>Xk.A._.`.F.].,XnXjX`.;X].`.N.;.s C d.V.<.Y JXJXJXJXJXJXFXJXBXCXnXkXhXBXBXgXI.yXjXjXyX_.>XyX;XF.(.I.A.C.x.s J S.8.N.8.N.8.9.N.Z.7.8.^.8.{ ;.8.9.8.8.3.-.5.l.[ 5.k.V.L.C.>.^ Z C.P ) ,.| K K ( C a a s M v v a 0 Y d.A.S.5.;.3.3.-.) 1.f.2.Y & g [ [ [ ;.8.7.;.7.9.Z.^.@XZ.M.N.M.5.5.,.Y C n M s M J I Y } ) 1.) U J Z v 3 & & # m >.M & , ! ^ p >.L.P 2.A.N.S.Z.).4X).l.~.#X#X#X).^.#X5X^.7.-.3.;.3.A.,X*Xd.3.-.,.,.-.>.2.k.E E ~.4XZX4X$X$X4X4X4XvXZXZXZXnXBXNX                                                                                                    ",
"                                                                                KXKXKXKXKXLXFXMXFXNXNXsXY.n.h.n.n.n.n..XxXFXLXFXxX=X-XY.zXC.t U .XP.P.h.F b , & o & X $ 2 & . & r % = # . D C.f.d # . $ B _ 1.U.*X>X>X>XtX>X>XyXtX1X1X1X1X:X:X#X~.~.8.[ [ * C ~.#X:X:X#X:XjX4XvXjXjXjX4X:X:X1X4X#X!.#X;X_._.C.5 > B s.) ) 2.V.V.,.| M.I.2.) 6 0 M ~ 3.-.;.T s Z C 3 2 ~ p p >.) <.f.k.V.F.k.l.S.l.8.l.5.3.;.3.;.,.8.~.S.N.).N.z.!.z.z.z.z.(.( U U.=XeX>XyXiXhX*XV.yX>Xd.V.V.`.(.`.#XhX,X`.1X,X`.N.;.Z -.l.M.x.Y FXKXKXJXJXJXMXbXnXBXnXkXhXJXBXkX_.yXnXjXjX_.;X_.(.F.(.A.L.A.V.s Z M.8.N.l.N.N.N.N.N.8.N.Z.;.{ ;.8.8.;.[ [ 3.l.5.;.5.k.M.C.Y.f.P n h.I >.<.| C Z | C a 0 a m a a a 3 I V.S.F.l.3.3.3.-.-.-.f.f.) a @ s C h g s h h { ;.7.;.-.E K T J f g 3 9 a a a a g a a s s a a 9 < < * & @ X < 3 P %.n $ 2 s.n.^ 2 m ) I.S.l.Z.@X#X:XZ.N.#X:X:X).$X4X:X^.8.;.5.M.M.5.T d.M.3.5.c.S.5.,.| } 2.| T V.#XjXjX4X#X/.#X:X4XnXnXvXvXNX                                                                                                      ",
"                                                                            KXKXKXKXKXKXKXKXLXHXFXNXbXmXsXaXR.R.K.K.P..XmXFXFXJXMXJXhXU.U. X>.R .XD.s.%.F b > , & . & X > 5 , X . 2 b X X . > $ . X o o U 1.x.=X=X>XtXtX>X>X>X>X*X>X1XgX1X1X4X+X^.Z.-.[ K w ;.).).#X+X$X1XjXjXvXvX1X:X2XgXvXgX2X#X).:X,X*X*X'.M > F s.1.) d.V.M.-.} S.I.<.) 5 p n / 3.-.-.T f U M < 0 >.p p >.) a.k.l.k.A.N.l.F.l.5.k.c.3.| X.| | c.Z.N.z.~.z.8.N.7.3.l.l.(.Y U U.*XeX>XyXyXyX'.I.tX&Xd.k.V.A.F.F.#XjX,X#XjX:X`.l.| K 3.V._.I.U FXJXJXKXJXFXMXNXkXVXkXyX*X>XeXhX>XyXhXhXhX,X;XA.(.(.+XI.I.Y.A.M C M.5.M.8.Z.N.N.N.Z.8.N.N.;.;.8.;.;.K A [ l.8.-.;.5.V.M.5.f.h.>.I C.I } 2.} T E T M 9 0 x M x x a 0 ~ V.V.I.c.-.;.;.3.-.-.2.<.M 9 O @ s C f J K ;.0.8.8.9.8.-.E f a f m a * & 9 s Z U Y -.3.d.V.l.d.-.Y C m m a & & > M x o a C.K._ = I M.d.l.F.#X:X:X).#X4X:X4X:X#X$X:X#XN.8.M.M.5.M.-.E J T M.(.F.(.S.5.T J Y f.<.k.>XhXjX4X:X:X:X4XjXvXvXnXBX                                                                                                        ",
"                                                                            KXKXKXKXKXKXKXKXJXJXHXMXmXmXmXGXwXwXR.wXrXuXmXPXJXmXkXMXMXzX.XD. Xs.n.P.#.F c 1 1 # 3 U 1.#.U 3 1 $ . 7 c O o o . X . o X o _ h.h.&X>X*XtXtX>X>X>X+X+X>XjXjX1XgXgX^.^.N.h K h f Z.F.~.:X#X#X+X1XjX1X4X1XgXgXgX1X1X4X4X4XjX;X>X*XeX/ & M >.>.Y d.M.d.X.} S.A.1.) 5 p M ( -.| | | J s a 3 M <.2 5 1.) d.d.l.V.(.S.c.V.N.3.S.c.,.| | | [ z.N.z.N.~.N.8.N.7.;.l.S.`.( Y A.'.>X=XeXtXtXU.A.>X&Xd.,.5.c.V.(.#X4X,X;XjX:X~.l.3.[ l.M.>X_.I FXJXHXNX-XpXBXbXjXhXhX>X>X>XeXgXgXgXkXyXyX;X*Xk.`._.*XA.I.U.L.C C k.5.8.5.N.9.N.Z.Z.8.M.8.;.9.9.;.{ A K ;.8.[ [ 5.l.M.5.} / _ s.) C.U ) 2.} C J Y m 9 a a 0 a Z p s ) A.V.A.3.} 3.3.,.E ,.2.1.f s 0 X @ 9 f [ -.8.8.8.8.8.;.K C E M.&X>X&X2.( V.`.;XgXjX1XjXhXjXgX;XS.8.5.l.N.5.-.a & & 2 & 2 _ f.n 3 a.A.M.V.+X+X;X4X~.Z.Z.#X#X$X:X).Z.F.~.Z.Z.M.M.-.J f J J -.~.G.F.(.3.J J E k.k.2.I._.1XhX,X4XvX                                                                                                                    ",
"                                                                          LXJXJXKXKXKXKXKXJXJXJXCXJXJXBXMXNXmXxXbXpXuXmXFXHXMXNXMXMXNXJXMXP.n.m.s.s.%.U t 1 & d s.D. XD.s.F 1 = o 1 6 O X O . . O o O $ _ h.L.-XeX>XeX>X*X1XyX(.+X;XhXjX1X4X,X~.).T h E g E @X^.$X).:X(.:X*X+XgX1XhXgX1X1X1X4X4X4X4X#X,X,X=XtXa.> B >.( <.A.x.l.| ;.A.V.<.1.3 n v U ,.| | | -.f * < U <.& 3 ) >.2.d.k.k.F.S.l.k.N.3.k.d.5.( T E | N.Z.z.N.N.N.8.N.;.z.N.l.F.E T I._.tX>X>X>X;XI.I.-X-XA.V.F._.I._.(.,X,X,X4X:X).N.;.;.l.A.hX>XM Y.pXhXC.( <._.tXhXjX>X>XyXjXyXVX>XnXhXnX*X+X*XI.&X*X&XI.I.U.A.n M k.5.8.8.N.9.N.!.N.8.8.;.8.N.8.{ K K { 0.{ { 0.Q.8.[ K E Y U %.1.C.P >.1.Y J J U n 3 * s s + a s v ) L.V.I.3.X.3.-.3.} ,.l.2.U ~ M & X O X s T ;.;.8.-.f f E M.;X1XgX:X4X:X).Z.~.).$X:X#X#X:X$X]./.!.^.$X$X/.Z.M.V.I & * $ X U I & P d.M.M.~.@X(.+X8.J T l.).).~.N.Z.Z.N.Z.S.5.-.6.-.J E E J E F.+X+X(.M.5.M.V.V._.d.M.d.A.A.>XtX                                                                                                                      ",
"                                                                          JXJXJXKXKXKXKXJXJXJXJXJXCXNXNXNXNXNXNXbXsXxXFXMXNXbXbXBXJXJXMXHXHXn.%.s.%._ U 2 d b 1 r b D d d u 1 t t 4 , O O X O . O O O o ) h.Y.*XeXyX>X*X;X;X;X;X;X1XyXyXlX:X:X).N.[ C E s -.+X#X$X#X:X:X1X;XgXF.S.1XhXjXjX4X4X4X4X$X^.#X>X>XpXC.> P p.>.<.x.x.k.;.5.F.V.<.>.> a m U -.| | E ,.C < a ( 2.< a 1.2.d.5.l.l.F.S.l.M.l.;.c.5.5.| T | | M.z.l.N.N.z.8.8.7.N.N.l.(.| Y I.&X>X=X>X=X*X(.U.tXtX&X>XgXyX;X_.(.*X1X:X4X:X~.N.7.7.N.A.iX>Xm Y.eXpX'.d.} d.F.yXjXyX>XyXnXhXVX>XyXpXnX&X_._.F.&X_.I.I.'._.L.Z C V.c.l.M.N.9.N.!.N.8.7.8.N.Q.0.{ h { 0.{ { o.9.0.{ K K E } I n I L.~ 1.} U Z I Z 9 & * J T * & a v >.Y.k.F.3.3.} -.5.-.,.l.2.I / U c + o . X + * g g 3 f 3.@X2XjX4XjX5X5X#X$X^.^.].#X$X].].$X$X/.].].5X$X/./.@XZ.S.3.J J p & U n > <.M.l.F.@X).(.M.E T 8.#X#X).~.8.;.3.;.3.5.5.M.-.J R -.3.| 5.+X+X+X+X+X2XgX2X+X;X(.I.tX*Xf._.iX                                                                                                                      ",
"                                                                          JXKXJXJXJXKXJXJXJXJXJXJXCXNXNXNXNXNXMXNXbXbXbXNXbXbXNXNXNXNXNXrXXXn.4.^ ^ ^ ^ t F 3 . . = G D y u d 3 1 1 1 $ 1 & . . O o O o / C.U.*X>XeX>X>X>X*X;XyXgXgX>X;X1X*X:X$X;.T T ( s l.+X+X$X$X:XjX1X1X;X5.(.gXjX1X4X4X4X4X4X].!.~.,X*X>XC.6 U p.....l.k.d.X.l.F.x.<...> p n m } } | T } J < f } <.& p >.,.d.2.l.k.F.k.c.k.z.3.c.5.5.} T ( X.z.l.8.l.N.z.8.z.8.N.l.8.~.| U A.I._.&X*X&X>X&X&XhXgX>X>XtX1XhX&X*X*X1X,X4X:X~.z.z.l.F.A.tX=XZ eXNXNXiX>XI.A.(.].yXyX>XgXVXnXnXyXtXhXvX+X&X_.(.*X+X_._.'.U.A.s C M.c.8.M.N.N.N.^.N.7.7.9.!.9.;.{ { 0.;.A { 0.0.[ K K E T Y U p U P.U 1.) U C U m * s s 9 9 * * a s ,.U.k.A.3.,.} ,.5.-.} 2.<.I ( / ! a o & & X X @ * T Z.$X4XvX4XZX4X4X4X:X5X:X:X:X:X$X$X$X$X5X].$X$X$X/.!.^.^.~.F.M.) I D = b 3 t M.C.M.@X+X).Z.| [ 8.N.^.^.M.8.8.3.5.| | 5.8.M.E J J -.S.M.M.F.@X;X1X2X1XvXgX1X1XU.V.nXMXpXL.bX                                                                                                                      ",
"                                                                        JXJXJXJXJXJXJXJXJXJXJXJXJXCXCXCXCXMXMXMXJXNXbXxXNXbXNXBXMXMXiXv.#.d d D R R R t t %.o # u %.D.4.G y y y u y # u v.4.1 . o o o $ ! C._.*X=X=XtXtX;X;XyXyXyXgX>X*X,X`.].Z.[ K T C 9 d.2X+X#X$X4X4X;X1Xl.S.gX1X:X:X4X4X5X5X^.^.!.~.:X;XeXf.3 I 1.} } k.k.d.| l.F.k.<.) 3 a v M } ,.} T -.U 3 J 1.2.< p >.<.d.d.k.M.F.M.c.l.M.3.5.l.d.} T E 3.N.z.8.l.N.N.l.8.8.N.N.S.`.C * J ( ( >.,.( 3.2.a.V.A._.>X1X*X>X>X;X,X,X#X:X4X~.z.N.N.F.A.tX=XZ eXMXkXyXhXiX>X*X(.*X,X,XyXVXnXvX>X>XvXyXI.*X_.(._.+X_._._.L.V.a C k.d.5.M.N.N.N.!.N.8.9.N.N.0.[ 0.0.;.A {  .;.{ K ;.;.3.X.I P Z I U.U <.( C M J v & } 3.h q 9 9 a a } I.f.A.3.} -.-.3.} | ,.<.~ / U ! U & > < - a T c.Z.:XvX4X4XvX5XN.N.9.8.9.^.$X:X:X$X$X$X$X$X5X5X].^.$X$X$X^.^.~.F.F.M.1.3 a m ) M.V.A.(.(.~.l.8.M.N.M.l.l.8.N.N.l.S.M.N.l.T J C E E M.@X#X(.(.*XyXvXvXgXgXyXvX;XtXk.-XtXf.L.                                                                                                                        ",
"                                                                        JXJXJXJXJXJXJXJXJXJXCXCXCXCXJXJXJXBXnXNXbXbXbXbXNXbXbXbXZXpX4.#.b.w.d e d ^ F & 5 t $ o y s.m.s.m.#.d e y u % S 4.v.%.# X o o X B C.&X=X>X*X=X>X;XyXpX>X;X,X>X>X,X].!.[ [ [ C s 9 } +X;X#X:X4X:X1X@X5.1X4X#X:XvXjX4X:X^.^.].^.~.,X>XyX>.> U >.( ~ d.x.l.X.S.A.k.a...3 a n m } >.} T ,.T 9 Y <.a.< 0 ..2.d.l.k.l.S.k.d.l.l.3.3.l.d.} U | ;.N.N.N.N.~.Z.l.8.z.Z.z.8.S.T C x.A.I.U.A.k.F.(.U.*X>X*XyXCXBXhX1X*XgX+X).:X:XZ.z.N.N.F.A.tX>XZ eXmXNXNXMXhXyX1X`.`.*X,XjXnXvXkX;X;XkX>XA._.I.I.+X_._._.I.f.2.a n l.5.3.l.N.N.N.!.9.9.N.N.9. .;.Q.;.h K {  .h h { 3.;.X.2.) U m ~ '.I <.Y m f M a 3 k.`.z. .h s q 9 ( L.k.S.2.} | | ,.,.,.2.2.( ( I ) ) a > a / d.M.(.).:X4X5X4X$X{ h q w w g K 8.Z.^.^.$X$X$X/.Q.N.N./.$X$X/.!.Z.~.+X;X*XA.a n f.C.C.M.F.).).).~.#X#XZ.N.Z.Z.~.^.).^.(.S.@X+X5.J W R E l.@X+X(.+X;XyXpXhXhXgXgXMXMXpXI.U Z x.FX                                                                                                                        ",
"                                                                        JXJXJXCXCXCXCXJXJXJXJXJXCXCXCXJXCXCXZXvXhXbXNXbXbXiXiXbXHX X:.w.B.w.$.D # r U t > 2 X o S D.m.$.q.q.+.j @.G u d R 4.4.= . o o $ M C._.*X1X&XI.I.;XpX1X+X;X*X>X>X,X,XN.C [ K C a 0 ( 3.:X1X4X:X1X:Xl.~.1X1X:X4X4X#X].^.N.$X$X^.~.*X>XtXI 2 P / ~ Y l.k.3.3.S.A.d.a.1.5 a n M ) } } Y } T 9 T <.a.< 3 ( ,.5.d.k.c.k.l.d.l.k.3.,.d.2.} U } -.N.N.N.z.Z.Z.l.N.z.N.z.l.).5.} I.I.&X*XI.k.(.*X=XhX>X} ( I.VXBXhX+X1X+X).#X#XZ.N.N.z.F.A.tX>XU uXbXNXMXMXnXhXgX*X).,X,XhXvXhXvX>X;XhX>XI.(.A.(.@X(.I.A.k.2.,.a f l.3.3.8.M.N.N.!.9.9.N.N.7.[ 7.9.{ h { { K h {  .[ C s C ~ I a ~ L.Z <.Y Z M a 3 a (.;XN.;.{ A 9 9 ) V.k.V.1.} ( ( -.-.,.2.f.} ( ~ ~ ~ 3 a ) C.I.(.;X#X:X5X5XvX9.{ { w q h K { 8.G.^.Z.Q.!.N.9.N.9.9.9.9.N.N.N.Z.$X:X+X=X-XI P C.M.A.V.V.+X#X).$X^.).).~.~.~./.#X#X:X+XN.Z.@XM.[ -.E E 5.V.(.M._.yXnXgXyXvXnXnXBXhXkXL.v L.JXJX                                                                                                                        ",
"                                                                        JXJXJXCXCXCXCXJXJXJXJXJXCXCXVXVXVXVXNXnXNXNXNXNXbXnXNXZX2X4.D.w.$.:.$.L d g d D 3 t X . c XXD.q.D.B.b.q.w.$.j D R #.4.b X o $ & M C._.*X*XA.V._.;X>X=X+X;X+X>X>X*X4Xz.K  .h s 0 < ) Y F.:X1X:X:XS.8.:X:X4X4X5X!.8.9.N.N.!./.^.^.`.>X=XZ p B U / ( x.x.3.3.k.V.d.a.1.5 p n M ( >.1.Y | E s ( 2.d.3 3 } ,.d.l.k.k.S.k.l.M.l.5.,.3.,.} T ,.3.S.z.l.8.N.N.l.z.N.!.N.c.`.3.( I.A.&X&XA.V.+X1XyXNX=XC s ,.>XnXVX+X+X*X).).).Z.S.Z.z.Z.A.>X=XU pXMXnXbXMXVXvXgX,X;X:X:XjXvXnXkXtX>XgX&XF.I.A.I.F.V.V.d.5.l.2.a s d.,.;.5.9.9.N.N.8.9.N.8.0.{ 8.{ h { { { K {  .{ A s * < C ~ Z U d.m <.U M M M * a `.:X8.;.{ h 9 < ( k.x.k.>.) ( | -.} } >.5.( ) ~ P / n f.V.V.;X#X).$X4X4X4X$X0.9.9.h { 9.0.9.8.9.N.9.9.9.Q.Q.!.^./.^.N.9.9.9.^.#X:X2X;X&X) I f.f.A.V.k.~.).~.;X#X$X4XvX:X^.4X:X+X:X1XgX2X(.8.E E 5.M.F.F.2X+X&X>XpXyXhXnXkXbXNXNXJXC.>.JXKXKX                                                                                                                        ",
"                                                                        JXJXJXCXCXCXCXCXJXCXCXCXCXCXCXZXZXZXVXBXnXvXvXNXbXBXBXZXv.R :.6.L @.j j d j r a 3 a & $ $ %.XXXXb.:.|.|.w.:.L +.v.$.4.%.$ o o $ a C.&X>X_.d.A.>X=X*X>X+X@X_.;X>X,X,Xc. . .C g C 9 ( ( -.+X#X1X#X;.S.1X4X4XjX5XZ.9.9.9.9.N.^.:X#X_.tX&Xn 2 n Z / ( l.k.5.5.k.A.d.a.>.2 5 v n Y } ,.U ( | s } 2.d.9 0 >.2.d.d.k.M.A.l.d.l.8.5.-.,.} } ( 3.5.Z.z.N.z.N.N.8.8.N.!.N.l.+Xd.Y _.A.&X_.V.V.*XpX&X>X&XU m Y M.yXnX`.F.:X).).~.N.Z.Z.z.S.S.*X*XU pXFXBXNXBXvXyXgX,X:XjX:XgXhXnXjXgXjXhX_.A.(.F.I.F.c.l.3.5.k.<.a s 5.} | ;.9.9.N.9.8.N.N.7.0. .9.h { { K h { K h { K [ C 0 n I / I / 5 } U M n M 3 M `.:X8.{ h s w * T f.C.k.>./ T } 1.} ( } 2.Y I I ~ / ) I.A.@X(.#XZ.#X4X4X5X9.0.9./.;.;.^.9.N.N.N.N.9.9.9.Q././.Q./.^.N.9.8.9.^.:X4X#X(.-Xf./ f.C.k.k.M.Z.:X:X:X#XjXjX4XZXvXvXjX4XZXjXgX@X~.F.5.E 5.@X+X@X;X>X;X*X>XtXnXBXnXBXbXNXbXf.L.JXJXFX                                      GXGXGX                                                                            ",
"                                                                        JXJXCXCXCXCXCXCXVXnXCXCXCXVXVXZXnXvXvXvXnXnXY.&X&X*XI.4.L j L @.k k k L j j r = 1 5 a X . 1 ^ 4.d - b.XX|.e.$.+.D.4.D.v.$ . o $ p h.*X;X+XV.*X>X;X*X1X@XF.F.*XyX].#X8.;.;.A C T 3 s d.Y F.+X@XF.c.#XjX1X:X4X#XN.9.N.9.N.!.$X#X^.;X1XC.5 2 a U ( Y l.k.X.3.V.A...a.) 2 p x a ~ 2.,.T | | C } 2.d.0 3 } <.a.d.l.l.S.l.,.l.c.3.-.,.,.,.-.5.5.Z.N.N.z.N.N.z.8.N.Z.N.l.`.5.Y A.I.&X*XL.A.>XhX>XyX>Xa.( -.,.>XCXF.| ;X).N.z.8.~.N.N.S.k.I.>XI yXBXBXBXNXhXvXjX,X).:X:XlXvXkXjX1XgXgX_.(.(._.A.l.5.l.l.M.d.a.M a 5.| | ;.7.z.9.9.7.!.!.;.;.9.0.{ {  .A h K h g h { [ T C C Y ( } ) 5 ..m v m x 3 f :X^.;.{ A h 9 < U f.M.n./ / I } } J Y ,.>.) ( / ( I f.A._.;X$X^.;.9.$X$X/.0.9./.5X^.0.G.$X$X9.9.$X$XQ.N.9.Q.[.9.9.9.9.0.;.N.$X:X$X:X2XtXd.) f.M.V.V.S.~.;X#X:X4XvXvXvXZXVXVXvXvXVXvXF.[ 5.M.5.J J 5.@XI.+X;X*X>X=X=XtXkXNXNXMXCXMX<.&XJXJXKXKX                                  uXGXPXsXPX                                                                          ",
"                                                                        JXJXCXCXCXCXVXCXJXJXJXCXnXvXVXZXVXvXgXvX+X-.J J >.>.,./ D j k t.6.t.6.r.+.e - r 3 $ n & o X . . . # w.}.B.r.w.j 4.D.P.) X . $ $ 5 f.*X;X;X_.tX*X*X*X+X;X(.+X*X*X].].7.0.;.C A C a 3 1.>.5.;X(.Z.`.1XgX;X:X:X#XN.l.9.9.^.$X).).+X;X&Xh.3 5 x / C ,.S.l.X.5.l.k.} a._ 2 5 n a J } } T } -.U X.2.d.p 9 } 2.2.l.k.l.V.l.5.l.5.3.>.,.,.>.-.c.c.Z.z.8.8.z.z.l.8.N.!.N.3.~.3.U A.I._.&XI.A.>XvX>XtX>Xk.C J 2.;XgX`.3.N.`.S.3.z.N.N.Z.S.c._.*XI yXMXMXBXnXhXvX4X#X~.:X,X:XhXkXhX1X1XyX(.;X+X+Xk.M.8.M.M.M.l.d.M s 5.| | ;.;.8.8.8.0.N.9.0.9.9.;.{ 0.{ h h h h K { { K K K E ( U d.d.0 ~ m M M p < C 1X).0.{ K h 9 w U 2.f.n.) / Y -.} J J ,.a.) ( ~ ) ( k.S.+X+X$X^.8.N.9.0.9.9.Q.Q.$X$XOX/.$X!.{ 0.$X$X/./.9.9.9.9.9.9.;.{  .9.^.:X1X;X;X2XC.>.f.V.V.M.F.#X4X#X4XvXvXjXjXvXvXVXVXvXvX+X[ 5.F.F.M.E f E I.;X*X&XyXtX>X=X=XyXnXMXMXMXNX2.-XHXJXKXKX                                  uXsXmXGXPX                                                                          ",
"                                                                        JXJXJXJXCXJXCXJXJXCXCXBXnXVXVXvXvXhXgX+X) ) 2.-.) d.M.R D $.e.B.|.r.|.|.e.L R +.g . = t $ X X # . # :.}.B.w.w.% # R %.$ . . $ $ 2 2.*X>X>X>X;X*X1X1X_.F.M.`.,X,X].~.;.;. .T K C Z 3 I f.( S.;X(.gXgX;X#X#X#X+XZ.Z.~.~.^.$X#X+X*X;XL.>.2 5 n I M k.S.c.;.3.l.V.} a._ 2 5 v s I >.>.U ( -.T ,.2.d.p 3 } <.2.l.c.c.V.k.d.d.c.3.-.,.<.2.>.5.c.Z.N.8.7.N.z.8.7.N.Z.z.T S.5.T A.I._.'.L.A.>XvXtX&X_.A.( C 2.+X`.(.Z.N.Z.N.8.N.Z.Z.Z.5.,.A.=XI yXMXMXnXnXhXhX4X:X).:X:X,XgXjXjX>X1XgX(.*X_._.M.M.l.V.V.M.k.M.m g ,.| T | -.7.7.7.8.^.N.8.9.9. .{  .h h K A K [ ;.[ K J C | ( I d.x.< U U m x p & s ].`.;.K K K q * I a.f.a./ E Y J m C J ,.a.) ( ( ) ,.V.A.;X#X@XN.N.^.9.9.[.Q.9.Q.$X$X$X5X:X7.h { Q.5X5X/.9.9.9.0.0.{ h h { 9.@X:X:X#X;XyXY.) 2.f.f.V.(.#X:X4XvXZXZXjXvXvXvXVXZXjXZX1XM.F.;X@XV.M.5.5.(.;X;X*X>X>XtX>X=XtXNXJXJXNXbX<.-XHXPXLXLXKX                                qXqXR.qXuX                                                                          ",
"                                                                        JXJXJXCXVXCXJXJXCXVXVXVXVXVXvXvXvXnX+XI ) d.d.5.,.f.a.D L B.%X}.B.r.}.|.B.v.B.v.L & X f 3 . > m = . H %X}.D.+.% # # $ X X o $ o > >.*X>X*X>X&X>X;X_.I.M.V.~.*X*X`.^.;.{ A ;.T C J 9 a f.3.E 3.d.M.S.S.(.(.+X:X#X+X$X$X^.#X#X;XF.2.2._ 2 6 M m ( V.S.l.;.3.l.A.,.d.>.2 5 M M U ) } J E 3.( ,.3.d.a 3 ( ,.5.l.5.c.V.k.l.5.c.3.>.,.>.2.,.5.5.Z.N.8.7.N.l.8.7.N.Z.z.T M.d.Y A.I._.'.L.A.&XgX>X&XU.*XI.5.l.(.~.M.).~.l.N.8.z.N.N.l.-.X.2.eXI uXMXBXnXvXgXjX5X:X).#X).#X1XjXgX>XgXyX_._._.(.V.M.M.S.V.5.l.M.m 9 ) T C T | 3.;.;.9.$XN.9.9.8.{ K { h K K K { K { [ [ J f T Y Y >.d.< Z ~ m x a * M `.F.8.3. .A q * Y f.f.1.U I Z s M C I >.>.I ~ ..) ,.I.(.;X1XN.N.$X/.9.9.r.Q.Q./.$X5X$X5X:XN.K { 0.9.[.9.0.9.9.9.0.{ h h ;.!.:X:X#X#X1X2XU.) >.a.f.S.`.).:XvXjXvXZXZXVXVXvXvXvX4XvX4XF.-.5.3.5.M.F.(.>X2X>X>X>XyXyX>X=X*XpXBXJXNXpX<.=XKXKXLXKXKX                                uXR.h.R.-X                                                                          ",
"                                                                        HXJXJXJXJXCXCXCXCXJXCXVXvXvXvXvXhXyX1.s 2.C.1.n.D.v.R D 4.w.B.{.G.B.|.}.}.b.q.4.#.= & = P & X M n X r  X Xv.d % 1 t $ O O X o X & ) +X+X&X*X`.*X,X(.F.F.(.`._.`.].#Xz.;.{ ;.K C Z a * Y V.,.J ) } d.5.3.5.8.S.(.).#X#X#X+X).M.2.h.C.) 2 5 M ~ x.V.S.l. .7.l.V.,.d.a.5 0 n n Z ( } Y T ,.( ,.3.k.a 3 ( ,.a.l.l.k.V.k.l.a.,.,.,.} ( ,.,.d.l.Z.N.7.;.z.8.8.8.N.^.!. .S.c.J A.I.&X&XI.A.+XgXtXtX+XA.S.k.d.V.M.l.`.l.;.l.;.z.N.8.;.;.3.U a.m eXNXBXnXhXjX4X4X#XZ.!.!.).1XjXyXtXgX>X_.+X+XI.M.N.M.V.M.3.d.d.s 0 ( U s C | ;.| ;.N.N.9.9.7.0.K { h h { K h h s s h J J M Y U J } f.3 v M x a 0 < s ;X].7.[ h s 9 * ~ a.f.<.Y C a U 2.Y Y >.) U U ) ( d._.`.,X:X~.Q.^.Q.!.OX^.$X$X$X5X4X$X4X4X$X;.0.0.9.9.9.9.9.9.Q.Q.9.0.{ 8.Q.:X:X#X#X;X+X&X<.) d.V.F.+X:X4XvX4XvXvXZXVXVXvXvXvX1X4XZXF.-.E f R M.F.F.;X1X>XyXyXgX=X_.&X_.-XbXJXMXpXf.-XFXPXPXLXJXPX              KXKXKXKXKXKXKXKXPXqXU.sX                                                                            ",
"                                                                        FXMXNXBXJXCXBXBXCXCXVXvXvXhXvXhXhXU.C Y <.A.A.C.D.D.^ D q.4.w.B.}.%X}.w.w.D.v.v.R = = . s Z @ & a = # L R = # u t t o O O o o O X Y U.S._.+X*X`.,XS.,.M.(.#X`.`.;X].9.8.7.;.T T U a * 3 f.A.M.M.*X_.S.I.A.S.F.F.F.).+X).F.M.M.A.C.s.F 5 5 a 1.V.k.A.l.| 3.l.A.2.d.a.5 p x M U } >.T Y } ( -.2.k.a 3 ( 2.d.c.c.k.V.k.d.2.3.,.,.} ~ ,.,.5.c.N.l.3.;.z.8.z.8.N.^.~.8.Z.c.C A.I.&X&XI.I._.tXyX>X&XV.l.l.l.l.} k.).8.[ z.;.N.Z.8.[ 3.c.s 3 v eXNXBXnXvXvXjX4X$XN.N.Z.#X4XjX1XgXyX;XI.;X+X(.V.S.Z.M.l.5.k.d.s a ) C g f -.| [ -.8.8.8.7.[ ;.h h h h A K A s w * 9 g C M J C C } <.3 a p 0 5 0 * a `.Z.X.[ C 0 3 & I <.h.<.U s s ( k.( ) <.) P ~ Y } A._.*XjX#X^.$X$X^.^.$X$X5X$X$X5X$X5XVX4X~.;.7.0.9.Q.r.Q.Q.Q.Q.Q././.8.8.N.$X:X:X+X*X*X-Xf.) f.A._.*X:X4XjXZXvXvXZXVXnXvXnXvXjXgXvX@X5.f g J S.1X@X@X*X1XtX>X>XU.I.&X*X=XyXMXJXtXC.U.uXGXPXmXGXPX          KXKXKXKXKXKXKXKXJXKXKXFX                                                                                ",
"                                                                          sXtXpXhXhXnXvXhXhX1X1XpXhXvXNXBXA.P Y <.C.U.U.Y.C.P r #.v.v.w.B.F.:.r g 4.v.4.d 1 = - & U v X & < % # . = r d t , O o o o o $ X C F.V.A.;X1X`.S.T J l.@X(.F.`.).N.;.;.9.;.T T s * & & f M.;Xd._._.I.A.I._.+XI.A.(.(.I.I.I.V.A.f.P 1 7 2 5 1.f.k.S.l.| X.l.I.a.a.a.5 p n Z U ( ) U T ,.| -.3.k.s 9 ( 2.d.d.l.c.M.V.d.,.d.,.>.} ( 2.,.3.3.l.l.3.;.z.8.z.8.N.!.!.l.Z.5.J A.I._._.U._._.>XgX>X1X+XA.d.,.T E M.).8.[ z.7.N.N.8.[ 3.c.a + v yXNXBXnXvXnXjX4X$XN.z.Z.#X:XjX1XgX1X*XI.*X(.F.S.S.Z.M.M.l.k.2.M 9 T s 9 s | T K [ 7.;.;.[ { [ h s h A A h h s 9 9 9 0 C Z Z U I ~ / & 0 0 3 > 0 9 9 k.z.A 9 * 9 < & ~ <.C.1.m a m I / ( >.2.) P / U ,._._.1XvX).!.].].$X5X4X4X4X4X4X5X5X4X5X!.9.N.9.0.9.N.9.Q././.Q.Q.$X/.9.0.!.+X$X:X;X;X>X&Xf.>.f.A.+X*X+X4XvXZXZXZXVXVXvXjXvXhXnXvX#XS.E J E T l.@X+X*X;XgX;X>X_._.&X&X;X;X+X=XMX&XC.C.-XkXIXkXuXR.K.      KXJXJXJXJXJXJXJXJXJXJXJXKX                                                                                ",
"                                                                            MXMXiXhXNXhXyX>X&XU.+XBXCXJXyX>.) U 1.P.C.L..Xn.D d D C.C.F.@X X4.r # r R y = r r 1 X & Y 0 X & < # & r r = o . o o ; o o > X M I.F.F.,X#X(.8.f 3.).@XZ.`.).S.3.0.9.N.0.h g < < & X X a ) A.U.V.U.+X*X_.(.(.+X_.S.V.F.U.L.C.1.B 2 6 5 5 / a.V.k.l.X.3.l.I.2.a.a.5 p a M C Y ) Y Y | } ,.3.V.s 9 ( ,.2.c.k.c.l.M.d.3.a.} >.} ( ,.,.d.3.8.8.;.;.z.8.z.8.!.^.~.N.F.3.C I.I._._._.&X_.>X>XtXgX;X_.F.V.-.-.Z.F.;. .z.3.z.N.N.;.c.c.a < x yXbXMXhXhXvX4X:X^.8.7.N.).,XjXjXyX1X+X_.*X+XS.N.Z.~.N.N.M.l.,.Z 3 U a 9 s ( f f | -.K A A K [ h h s h A v s s s 9 * < n C M Z U J I & < 3 0 & < 3 & X.3.s * * * + > _ <.n.<.J 9 a C C >.1.<.) P ~ U >._.*XgXjX).!.^.].4X$X~.$X$X:XvXgX$X^.8.9.N.N.Z.N.N.Q.Q.Q./.$X/./.$X/.9.0./.^.#X:X2X>X=XL.>.>.C._._.(.#XjXVXvXvXZXVXVXjX4X4XvXnXnXvXS.E J J -.-.,.V.1X>X1X>X*XI.=XtX_.*XtX_.I.NXL.>._ h.Y.x.f._ ! ..    LXKXKXJXJXJXJXJXKXJXKXKXJXKXLX                                                                              ",
"                                                                                mXiXMXmXNXHXMXHXMXKXFXY._ <.) ) >.p.n.p.<.>.K.qXrXrXs.^ 4.C..Xa = # % % = t 1 1 & X 2 / & X - 3 & . . . . # $ o ; ; 4 o X x L.A.c.).#X~.K [ S.F.S.).;X`.!.;.z.9.N.;.s * 3 < > & * < & U C.U._.F.S.I.(.A.F.(.F.I.A.A.V.a.n 2 b M t 6 ) ..d.k.k.| X.c.I.a.<.a.0 0 p n n Y E J U -.} 3.5.k.s 3 ( 1.3.k.3.l.M.S.5.3.2.....) U X.,.5.5.z.;. .;.;.8.z.8.^.^.Z.Z.(.;.C A.I.'.I._.&X*X*X>X&X>X1X>X(.(.S.S.F.z.T ;.8.8.Z.M.8.[ N.-.Z ( s yXhXvXnXvXhXjX4X~.;.8.N.).1X1XgX1X>XU._.(.(.F.Z.^.N.Z.M.l.k.d.I < s 9 s a U M s E | A C h C A s h C C s s s 0 3 0 0 < a I J M s n C & s 0 * * < < + C ..0 0 9 3 3 & / f.C.2.( g s C ,.5.} 1.) Z Z Z a.&X*XgXhX(.^.).^.4X8.h K K [ ;.M.8.;.8.Z.N.M.5.Z.Z.~.$X$X$X$X5X$X/.$XN.;.N.#X$X;X+X*X-Xa.I <.C._.+X@X$XjXvXVXZXZXZXvX4X:XnXVXvX;X;X5.f J E 5.I.} -.+X;X1X>X*X*X-XeXgXyX*X_.-XNXh.C.R.=XpXqXK.! p.      LXKXKXJXJXJXJXJXJXJXJXKXKXKXKXKX                                                                            ",
"                                                                                      eXqXsXuXrXFXJXJX-Xs.%._ >.p.p.f./ f.iXKXHXHXP.^ %.%.N b 2 2 $ 1 1 1 1 4 3 & X & x I & X n 5 . X . # $ o o ; ; 7 ; o 5 C.V.c.l.N. .h 3.A.S.~.).;X#X8.7.7.z.N.[ C 9 3 9 < & s Y M < f U U g a U 3.5.3.| T | P M a 3 & > x N c 6 P _ 2.2.c.| X.c.`.d.,.<.5 0 x 3 v J ( } | -.| } ,.k.s < Y ,.,.3.3.5.d.M.d.,.2.} } ( Y ,.,.3.-.8.3.3. .| z.z.z.~./.^.~.).-.C A.A._.'._.'.>X=XyX>X_.>XjX1X+X1X(.).M.-.7.N.N.l.8.3.| M.3.A.C.J tXvXnXnXvXgXjX1X).7.7.z.).;X,X;X>X;XI.(.(.(.^.~.N.N.Z.l.f.d.2.~ & a < a 9 m v a C T C h s s h s C v s s a 0 a 5 0 0 9 3 9 s M s n U & 3 C C M Y ( | } d.x.x.} Y v < / h.L.f.1.T U ( 1.2.1.<./ Z P m k.*X1XVXgX(.#X#X4X~.h s g h h K -.3.5.8.N.Z.@X~.S.^.^.@X^.^./.^.#X$X$X8.;.^.4X:X+X+X>XL.>.n >.V.I.(.).:XvXvXvXvXZXjXjXjXjXvXBXgXS.M.5.5.-.J 5.*X2.E I.;X=X*X=XeXeXyXhXgX>X*X=XbXC.&XNXJXJXJXuXuXGX      JXKXJXJXJXJXJXJXJXJXJXJXKXKXKXJXLX                                                                          ",
"                                                                                              Y.Y.Y.sXxX.Xs.f.C.f.h.! h.PXKXJXFXmX<.>.s.%.B 1 $ # = & 1 b t t t o X o o / n X 3 $ . X 1 r % # $ $ ; ; o o 2 f.k.,.Z h h T 8.,X`.).).#Xz.7.8.7.8.9.K K C 9 a & 2 ~ / n & @ & @ @ & s Y ) | ( T | ) ) / I a > & t V 5 M _ } 2.c.X.| c.`.l.,.1.0 p p 5 M C ,.} [ ;.| | -.l.n < / -.,.>.,.3.2.d.2.1.2.....} Y ,.,.-.3.3.;. .;.3.3.z.N.!.].).).+X} C A.I.I.U.U.*X>X-XtXyX>X;X_.*X_.F.~.M.8.l.M.8.Z.Z.M.8.;.M.k.yXA.J tXvXnXnXhXgX4X:X!.7.;.8.).].#X#X;X+X(.+X).Z.N.Z.M.M.S.M.M.<./ P + 5 < 0 9 n s 0 C C s s s s s s s s 0 s 0 0 s 0 a a Z C n C Y ( d.<.n Y A._.V.M.F.M.Z K V.X.v a < < ..x.L.f.5.Y E | | } 1.>.P M m m I.&X*XvX>X;X).#X4X;.h h h h K ;.N.Z.Z.M.N.@X@X:X).S.M.M.Z.$X:X$X+X~.N.8.N.#X:X@X@X;X>X<.( n a.I.U.(.(.$XVXvXvXvXZXjXnXBXnXvXVXBX_.M.@X+X5.f T M.l.2.U.*X&X*XyXpXyXyXpXgXtX=XkXMXh.I.NXNXNXC.C.sXKX      FXJXJXJXJXJXJXJXJXJXJXJXKXKXJXHXFXFX                                                                        ",
"                                                                                                uXK.f.s.p.! ^ ^ B Z h.mXLXKXFXsXqXn.p.1._ b p 1 3 d t b b 6 4 ; o O O o x ) p & $ . 3 4.4.#.y $ $ $ $ $ & > I J f s q s T X.(.F.~.$X!.;.9.0.8.8.9.K T T s 3 X a U 9 3 I -.,.) ) l.S._.*X>X1X>XyX>X*X&XU.a.m > & c b x ) ~ a.c.X.| c.(.k.>.>.5 a 5 s n M X.T K | -.T E 5.s < Y ( | ,.2.3.>.2.<.a.<.} ,.} Y ,.X.,.;.7.c.| | 8.3.z.N.!.#X).`.#X} C A._.I.A._.&X>X>X>XiXtX;X>XS.V.F.M.M.Z.Z.Z.^.:XZ.N.l.3.S.*XyXA.U yXvXnXvXhX4X4X:X!.9.7.N.~.^.~.).1X+XF.(.F.Z.Z.Z.Z.M.S.A.V.I n p > 3 & < * 0 0 3 s s g s f f M n C Z T ,.2.2.a.d.Y.eX*XV.d.d.,.,.d.d.2.k.V.V.k.5.l.;.g 9 [ T h 0 * 0 <.f.V.k.k.( E ( E } <.>.Z M M Z _.*X>XnX).).#X4X$X8.;.[ ;.;.;.Z.$X~.l.M.N.^.~.8.M.5.F.F.+X4X:X#X^.Z.~.^.#X+X$X).+X1XL.m I n a.Y._.@X(.#XvXvXZXvXvX4XjXnXBXJXCXVX>XM.d.M.-.g g D E 2.A._.*XhXiXpXtXtXiXiX>X*XpXMXC.Y.JXBXU._ iXKXKX      FXJXJXJXJXJXJXJXJXJXJXJXJXJXJXFXNXmXFXFXFX                                                                  ",
"                                                                                                  sXqXK.p.! ! / ) K.FXKXFXFXqX-XuXf.>.I B F t 1 2 t $ t t t t : o o O , > ) P * & 1 b m.:.4.S # # . & 1 & X a M J s s q s T X.S././.0.;.9.0.0.9.Q.{ [ | C 9 < M < Z d.U.>X+X>X;X+X&X>XtX>X+X_.*XtX1X>XtX=XC.! 5 > c x ! U ,.d.X.X.l.I.V.....3 5 p x m P Y C C | [ T T 3.s < Y Y } >.1.1.) a.a.<.,.} ,.} Y X.,.3.3.3.} -.| X.c.8.z.~.#X^.~.+X-.C I.I.U.L.&X&X>XtX*XiX>X;XgX+X;X+X~.F.(.(.`.).).F.k.3.5.V.+X>XI.J hXnXkXvXhXjXjX5X^.N.0.N.N.~.Z.).).(.F.F.F.(.(.Z.S.S.V.A.a.v x 5 & 5 3 a s U } <.d.k.l.d.l.l.l.l.M.V.A.I.I.A.l.V._._.M.d.3.| | ,.,.3.d.l.d.l.8.7.;.{ g q A C s q * 3 ..x.L.l.a.~ ) ( ) ,.<.>.Z n v I _.*XgXVX;X;X4X4XN.!.N.;.;.Z.Z.$X:XF.;.8.N.Z.M.;.F.).2XZ.+X4X+X+X).).:X$X#X#X#X@X+X*X1.s P 5 <.A.;X+X+XjXVXnXvXvXZXVXVXVXnXvXBXCXvXM.-.-.5.-.J g g J ,.*X>XgXyXyXpXiXkXyX=X*XiXMXC.f.NXbX<.&XJXFXsX      NXNXJXJXJXJXJXJXJXJXCXJXJXJXJXMXsXiXmXMXFXmXsXmX                                                            ",
"                                                                                                -XR.n.n.K.K.R.qXqXmXJXKXKXMXR.U.P.n._ / P F 1 $ 1 r . # u y 1 . . o o o 2 n f & # # D {.$.D #.&.4.R S 3 X X g f T K h K [ { { 8.Q.9.0.9.9.0.9.9.Q.{ { ;.C 3 < 3 M A.tX;X*X+X+X+X1X1XtX;X+X_.A.M.S.A._.yXhX&XC.1.7 7 t B ~ } l.3.| c.I.V.....3 5 5 a m Z Y K q A T K T ,.s < I / ) ) } / s ~ a...,.} ,.) ~ ,.2.3.,.,.| ( U C T c.l.!.#X^.F.*X3.C A.I.U.L.U.=X&XL.>XtX>XiXyX>XgX+XF.).+X~.).~.~.F.A.5.V.(._.yXI.U gXhXhXhXjX4X4X:X^.N.;.z.8.^.Z.).~.F.S.S.d.5.l.V.M.A.V.k.) a x 0 2 x Z ..V.*XeX&X`.*X`.F.S.V.M.S.k.S.F.F.F.k.X.3.k.M.3.;.| X.c.,.( v C | | |  . . .K s h A s q s 0 0 <.x.L.k.d.>.) ( } 2.<.) m x s ) _.+XyXgX2X4X+X8.8.^.^.7.;.^.vXvXvX1XM.N.Z.N.F.Z.+X1X:X~.:X@X+X:X;X+X;X+X+X#X+X+X@XV.M n P p f.U.1XI.F.4XjX4X4XyXgX;X_.(.(.(.I.+XyX@XV.M.M.J f R E J ( (.*XyXyXpXiXiXpXeX=XtXbXNX=Xa.kX-Xh.bXHXsX        sXsXJXJXJXJXJXJXJXJXCXJXJXJXJXMXsXuXpXpXuXqX&XuX                                                            ",
"                                                                                              uXR.C.h.R.uXsXuXsXqX-XsXpXuXuXC.C.f.L.f.%.^ a 3 ) v.4.^ G y y u # $ . O o a = = r 1 . #.:.j $.b.b.v.b.v.R - X g s f K K K K A {  .{  .[.Q.[.9.[.9.9.0. .7.[ 0 < 0 k.+X;X*X_.+X+X1X1XyXgX>X;X;XI.k.M.5.k.(.>XI.C.U._ 5 5 B ~ } k.3.| c.I.A.>...5 5 a n n a T | s K [ T T } s * C I U / I n & > ~ 1.,...2.} ~ ..,.,.X.5.} s Y } 0 C 7.Z.).^.F.*X5.C A.I.L.A.U.&Xa.2.C.=XhX=X>XhXgX(.F.`.+X(.l.| } T 5.d.M._._.>XA.U yXhXhXhXjX1X:X#X^.M.8.N.z.^.N.Z.#XF.c.2.T J } 2.d.k.<./ v p 0 5 M } d.A.`.`._.(.A.`.`.S.l.5.M.(.S.S.M.5.8.7.7.l.8.3.;.;.| | | T s * * s [  . .{ K K h q h s q q * 0 a.x.L.d.a.( | | ,.2.<.) m M n >._.+XhXgX).~.N.;.N.$X/.;.N.4XZXvXZXZX#XN.^.^.@X:X:X2XF.~.;X(.F.#X;X+X+X+X;X@X+X(.I.a.a M M n 1.V.U.A.(.jXnXgXyXF.5.3.d.A.I.I.V.M.(.l.T T M.-.K K J g ( +XyXhXyXpXpXuXtXeXpXbXMXbXpX1.I.L.bXbXsX          iX-XMXJXJXJXCXJXJXJXCXJXJXBXBXNXbXiX=X'.U.R.R.uX                                                            ",
"                                                                                              wXK.L.qXmXsXqX=X&X'.=XuXkXuX*XU.Y.C.A.C.<.P r D..X Xv.4.#.H d d G 1 X . X 3 = r d = # d j +.e.@.:.q.4.R g X # f g h J ;.[ K { {  .{ { { 0.Q.Q.Q.9.9.9.[ ;.X.s < ~ I.V.+X+X(.+X;X;X>X;X1X1XI.M.M.(.Z.c.N.S.*XV.h.&XqXB 5 U U 2.k.| | d.I.A...) 2 5 2 a 3 X & w s | 8.-.E -.C * Z I / U 2 o > o M 1...} 2.} Y } X.,.,.,.U U l...& * ;.N.~.^.~.+X5.C S.+XA.L.'.M.n a.( ..*X>XiXgXgX(.F.).;XS.[ 3.F.C T S.V.U.&X*XA.Z yXhXvXvXgX1X:X#X5.-.5.8.8.N.l.l.`.S.,.( Z ~ ( U ( I n 3 > 5 2 v } a.2.2.l.S.F.z.N.N.l.5.3.3.3.S.l.l.8.3.3. .;. . .;.[ K [  .[ A w C h * C K K A h h s q q w s s w 0 ,.d.A.k.d.( } ,.,.1.1./ M M s >.&X_.gX1X(.^.^.$XQ.^.N.;.~.ZXZXvXZXZX5XN.$X$X#X:X4X2XS.S.F.F.(.;X;X@X(.@X;XF.M.d.l.-.a M 5 n >.f.M.V.F.F.F.d.Y U -.M.A.I._.*XI.@X1.g J f E 3.J f E -.M.+X>X>X>XtXuXpXkXbXNXMXFXMXsXp.<.C.bXuX              -XpXMXJXJXCXJXJXJXJXJXCXNXnXNXNXNXpX&XR.&XR.qX                                                            ",
"                                                                                            uXR.h.uXsXuX-X=X&X&XeXiXbXbXbXgXyXiX=XU.L.f.1.F 4.v.D.D.q.$.@.j j R r r & # r f #.w.$.D r j $.@.j +.R r = 1 > & m 3 Z T K T  . .;.9.9.0.o.{ o.9.Q.Q.[.9.K [ ;.s * a._.+X,X+X).@X;X;X;X1X4X+XF.S.l.(.N.8.N.M.`.V.2.L.&X1.2 n I 5.l.| } ,.I.A.>.I 3 2 5 p < @ * q T 8.Z.8.[ } M < U I I ~ 2 & & o B ..} } ..) Y ..X.X...,.| v a & X @ -.N.~.~.~.).d.f V.A.A.A.U./ 3 U s P A.>XtXpXyX`.(.#X#Xl.T (.k.9 f 5.M.+XA._.V.C yXnXhXjX4X#X:X;.g g 3.3.;.7.3.X.k.l.} U U Z a 0 < & < a M _ >.! } c.3.X.c.7.c.c.7.;.;.| | [ | ~.l.N.3.8.7.;. . .[ g A  .3.{ A A C l.A * s A A A A C h q q q w q 3 0 ..f.C.f.2.( -.| >.,.<.( v n s f.I.>XyX:X).~.$X/.N.N.9.[ $XvXZXZXvXvX:XN./.$X@X#X4X#X(.(._.I.*X1X+XV.U.@Xf.I m Y <.<.M n 2 3 I / ) E ,.} ( U m } f.A.U.U.&XI.Y.+X>.J J s f f f J J F.:X+X2X>XyXgXpXpXMXMXkXMXFXFXFXf.I C.uX                &X_.tXJXJXJXJXCXCXCXJXnXnXBXNXbXbXhXpX=X&X&XiX                                                            ",
"                                                                                          qX-XC.Y.=X&X&XR.=X=X=XpXbXMXnXvXhXhXnXgXtXL.f.<.#.L e j w.:.$.L L +.@.L R & = #.6.w.}.B.$.g j d k u d u # $ & + o v 0 s U C A [ 7.N.z.[.9.9.o.0.9.{ 0./.N.{  .-.s < I.,X(.~.).;X1X1X+X#X2X1X+XS.M.l.Z.8.5.3.M.+XA.>.P.iX>.2 a P d.l.-.X.3.(.V.>.I 2 > p M a * s T 3.3.3.;.| ;.M 3 ~ / ~ ~ a p 5 b 1.1...} ( } } X.X...,.,.} a X O X 3 ;.N.~.N.Z.+Xl.f V.A.C.A.U.I o & < n f.U.*XyXgX+X).).F.S.T 9 * @ * 2.V.I.M._.V.U jXvXhXjX,X`.:XM.s J l.d.| 3.| T } M a 0 < < 0 a m / f.>.f.p.1.Z < C | | X.X.X. . . .{ T | T T N.F.3.A 3.7.;.[ { s @ A  .| [ | X.3.| q v [ K A C A A s q 9 * * 9 < 0 ..f.M.d.2.) ( E } 1.<./ n n m V._.*XyX+X).Z.@X^.N.Z.!.8.$XZXZXvXvXZX4XZ.^.^.#X:X:X#X;X;X_.;X;XM.C.A.M.1.J s M ( f.f.M x 3 & 3 U / I } >.} ~ / 1.d.M.A.A.Y.A.A.A.d.m J f f | J f f M.+X(.V.+XhXnXkXkXNXnXnXFXFXFXmX) 1.                    qXU.-XNXJXJXJXCXCXJXJXBXBXCXnXbXbXhXpXiXMXHXJX                                                            ",
"                                                                                        -X&XY.h.&X XI.*X&X=X-X_.>XhXhXhXVXZXgX1XyXpXU.M.<.) f g 4.B.:.:.L +.e.:.v.#.# r w.B.r.r.B.:.@.*.j j j j r 1 & 2 > & 9 Z Z C C T [  .8.Q.9.9.9.9.9.{ w h 8.Z.;.[ ( s 0 &X+XS.c.(.2X2X2X+XgX:XN.5.5.5.5.5.N.Z.Z.(.A.k.<.L.h.P 3 p Y k.3.| ;.c._.d.<.I 2 > p m m s C | 7.;.[ [ [ -.s < ~ ( / ! M M x / p.) } } ( } } I ~ ,.2.5.} s O & 3 C 3.Z.N.8.l.).l.s d.S.k.A.&X) 3 X + v f.U.>XyX,X`.`.#X~.N.;.g @ X g k.A.F.S.,XA.U jXhXjXjX;X`.:X#X(.V.A.3.T ( Y s < < 0 M I ..d.C.d.2.<.<.p.! M v s * C [ { [ |  .[ { T [ | C s | S. .A 7.[ K A h 9 h | T A { | | 3.~ Z ( Z s v s s s 9 < * @ * * @ 3 >.h.M.2.2.| E ( } >.<.I M n M M.U.+XgX:X#X^.+X$X$X$X$XG.$XZXvXvXvXvX5XN.!.^.#X;X:X1X;X;X_._.C.1.f.<.Y M M E ) 1.f.<.m p p p > = 3 f M Y ( Z I ) <.f.x.A.L.A.Y.U.@X1.3.3.E U J J C U 5.V.,.d.iXNXMXMXbXbXMXJXFXmXkXp.uX                    sX'.U.tXCXJXJXBXJXJXJXCXCXBXhXiXNXbXbXJXKXKXKX                                                            ",
"                                                                                      xX&XqX.XY.-X&X&X=X=X&X&XY.+XpXvXhXvXhX2X;X>X>X_.d.,.U D :.G.q.6.b.q.B.w.w.v.d # E B.w.|.|.OXr.e.e.t.j L #.r & x I 9 + < Y 2.-.5.;.[  .{ 0.Q.Q.9.9.{ w w q ;.~.;.K J g 9 d.@X+XV.@X:X@X;X1X:Xl.T E ;.M.V.M.Z.Z.S.S.d.1.} _ / B 3 5 } k.| | X.k._.,.<.P 2 > p x M C T [  .[ [ [ T | a < ~ I ) / n m P / ..) ( } ..} } M Z 2.3.d.X.v 0 C v } 8.~.N.3.8.(.c.s 5.A.k.A.&X2./ a v ..A.L.&X1X:X^.~.S.~.S.z.5.T s T S.A.(.A.*XS.K yXjXgXgX;X`.,XjX,XV.A.d.} Z 9 < m / <.h.C.d.1.} ,.,.( ( U Z v v } 9 C T A T [ K { A K [ T C h K N.| C [ C h h s s | T C A T T v M v 0 0 9 9 w @ + + @ X @ X @ @ O < >.h.M.2.2.| | } } } 1.U M n M C.I.;X2X:X^.^.#X$X5X$X$X^.Z.4XZXVXZXZX1XN.^.$X$X+X#X:X2X1X_.V.2.1.>.P U U U ) / <.f.~ 5 o 2 ^ U = < I >./ n p C I ) <.2.M.A.L.A.A.U._.M.V.M.5.| J f a } *X;X>XhXhXbXbXkXkXbXkXkXFXMXqXsXpX                    -XL.U.hXBXJXCXCXJXJXCXJXBXiXpXMXCXJXKXJXHXJX                                                            ",
"                                                                      JXKXKX    FXMXFXiX&X=XK.L.=X-X-X&X2X_.*X*X>XhXhXyXyX1X;X;X+X2X>XM.1.E R D.D.w.{.{.v. XD.D.1.& $ :.B.B.OXOX|.r.e.q.r.:.j #.J - M s v X @ s } ( 5.-.T [ K K 7.Q.0.{ q w q * K S.E g s a 3 0 d.1X;X;X2X;X2X2XV.-.-.5.M.F.l.M.M.l.,.5.l.<.~ I ) B 2 a a.d.| ;.-.k.A.} <.P 3 & 2 a Z C K [  .{ ;. .T | a 3 / U ) ~ a m U ~ >.....} 2.( >.U C ,.3.3.X.C T } U } 8.!.N.8.l.~.5.s d.U.V.A._.x.L.<.a.U.=XI._.>X;X~.Z.l.Z.`.~.F.z.l.3.M.S.(.S.`.V.J ,XlX4X:X;X).#X4X#XS.S.3.~ 0 a / ) ~ _ a.>...,.} } ~ U s n M x & < a v v C T A A T C C C s C v a X.C s C s s q q J Z s s 9 * * & @ X O o + X @ + X O + X @ @ @ + @ 3 >.f.k.5.5.| | } } ( 1.P x a D A.Y.;X2X#X~.^.:X1XgX5XN.8.8.$XZXZXvXvX5XN.!.^.^.@X$X+X2X+XM.l.f.a./ I ) / I ) <.C.C.M > & 5 _ t 3 ) f.a.h.d.) Z Z P ) >.f.x.C.A.&X_.@X3.l.V.k.U C ) 2.k.&XyXtXvXnXMXNXkXNXBXMXFXFXL.&XqX&Xx.M.f.P.            qXL.A.&XNXJXJXCXJXCXJXJXJXbXhXJXJXJXJXJXHXJX                                                            ",
"                                                                    JXJXJXJXMXbXiXiXsXuXR.&Xs.h._.&X*X&XtX+X;X;X*X>XtX1X1X;X+X(.(.;X1XU.<.) U 4.D. XD.L S v.<XD.x X $ d D.%X|.e.B.|.e.:.|.|.:.r R g E J M @ X + a 3 g C C A s g  . .h w w w w * C 5.C < 3 3 * X } ;X;X>X1X2X;X+XF.M.Z.Z.l.M.5.c.M.k.2.l.,.2.) / / p > P f.2.X.X.3.k.l.} a.P 5 & & a I C A K  .[ ;.| T T a 3 / U ~ m a B U U a...,.} 2.) 2.} C X.d.,.,.T T ( ( X.3.N.N.l.z.F.3.g k.U.A.A.'.L.=XL.x.>XyX_.;X,X;XZ.N.Z.Z.).~.`.`.S.5.M.S.(.S.`.l.C ;X1X:X,X#X`.).#X#XM.8.-.s * m P 5 0 n P I Y T C s 0 v a p < 2 & O + @ * * * @ * * * * * 3 3 < 3 s m Z v 9 & & * < & @ X X X & a 0 X O < 0 < 5 0 + O 2 < & * + & + 3 ..f.V.d.5.( | } } ( <.I a p M M.U.;X1X$X^.^.$X;X:X#X8.8.N.$XZXvXjX4X@X8.N.N.M.M.#X:X;XV.3.2.2.) / } I P <.C.Y.h._ 5 , 2 > t & F f.>.p.L.C.V.a.} Y I ) 2.f.C.&X&X*X-XA.,.-.V.5.I } V.L.A.tXgXgXhXNXNXbXMXFXMXmXp.h.pXpX&XC.>.1.C.uXFX          &XC.C.*XiXnXNXVXnXBXJXJXBXNXJXKXJXJXKXJXHX                                                            ",
"                                                                    KXKXJXJXMXNXJXMXpX&X&XtXa.C.A.A._.=X>X+X+X_.A._.>X1X*X_._.`.;X+X+XA.<.>.P F ) D r = = t ^ ! $ O X 1 #.k e k }.|.r.:.e.B. XD f g M C Z s X + & < < a 9 s q w h s s q s w * 9 < 3 X X & & * 9 I.pX;X;X+X;X1XyX+XF.F.M.5.S.F.F.k.2.,.2./ _ ) P P 5 5 ) a.2.X.X.7.S.5...<.M p > 2 p U C T  . .{ [ [ K T a < I U ! M x P ) ( a.....} <.} d.>.T ,.3.X.X.T | T | 3.8.Z.N.N.N.~.3.g k.I.A.A._.A.-XL.V.=X>X(.*X,X,X~.~.Z.N.).`.`.`.S.3.Z.~.~.N.N.3.h ].,X#X;X,X~.).).+X8.3.[ 3 a C > o 2 3 3 s C s q s s 0 < < > 2 p o O O @ X X X X X X X X @ X X & 3 a < + X O X X . X & & s f 9 0 M > X 5 N 0 p 0 < o 3 3 3 * * * @ 3 ..d.x.d.2.( | } } ) <.( a 5 M M.U.+X+X#X~.Z.M.~.:X:X9.;.8.1XVXZXZXvXOX8.N.9.8.;.Z.1X@XM.2.} 1.>.<.a.I <.Y..Xf._ n 2 > $ O 2 _ P I f.C.L.Y.L.V.V.k.k.C.h.<.f.f.C.&XU._.-.J Y } a s ,.V.<.I.nXnXnXNXMXFXFXiX'./ a L.iX>XA.U.U.&X=XuXsXNX          Y.f.M.Y.+XyX1XyXhXhXNXJXMXbXMXbXbXMXHXJX                                                            ",
"                                                                    JXJXJXJXJXJXJXNX=XU.-XxX<.a.Y.L.U.>XU.Y._.U.I.A.I._._.+X>X>X;X@X@XM.2.1.#.U a = = a a 1 & X o o . 2 - # # @.|.w.e.j e j L f # & f Z | v X + + & 3 3 * a 9 s s h A s 9 * 9 * & & X X & 3 < * V.L.k.k.1.k.I.U.+X;X+X(.F.;X+Xl.,.( } 1.) U U ! 2 4 M >.a.2.| 3.c.S.,.,.) a p 2 2 s ( Y | 7.;. .[ [ A T a < U P U n n I f.1.......} >.>.k.3.( X.,.3.| T 3.| T 5.z.!.Z.z.N.~.3.s l.A.I.L.&XL.*XU.V.*X*X(.*X,X:X~.).z.~.#XF.`.`.F.8.`.~.F.Z.N.| s ).;X;X;X:X~.).).~.8.3.C * U a + + + + + * 9 q 9 < 3 < & < o 2 Z X < 3 & & * > & * 9 n m m U U v x v X & 3 5 v a p 2 3 s C a s a P x & c ! x c c 0 + < 9 a 9 0 * @ 0 2.d.d.<.2.} } } ( ) <.) p 3 F A.A.F.S.^.Z.S.[ [ 3.+X@XM.N.:XVXvXZXZX$X9.N.0.5.5.F.+Xl.| Y ( a.a.f.>.U f.A.f.%./ t > 2 o & ! Y.%.! C.h.C.&XU.C.L.L.L.'.P.C.-XY.V.<.>.A.f.2.) a < & a } Y Y Y d.C.I.U.L.V.>.I x I &XY.I.&X=X&XqXiXbXNXmX          =XC.f.h.C.*X;X>XyX=XiXJXNX>X'.L.L.&XbXJX                                                            ",
"                                                                  KXKXJXJXJXJXJXJXmX-X-XuX-Xh.p.Y.U.U.Y.C.C.P.U.'.L.V.-XyXpX;X2XzX<X Xf.<.<.) E U D a p & M 2 $ o O X = X = = w.D.v.b.y = . $ $ . @ v | s 9 X + + & < & & @ s A C s 9 9 * < 0 + + + X X & 3 > X P x.a...Y Y Y I } 1.5.5.d.5.) M J U ) h.../ ! 2 . x B <.1.,.| 3.5.k.,.,.U M p > 2 a Y T ;.7.7. .[ T K T a 3 m m F a P >.d.d.<.1.( } ,.X.2.2.} | X.3.3.X.3.| | 7.8.!.N.N.8.~.3.9 d.I.I.V.+XI.*X*XA._.*X(.(.+X:X~.~.Z.~.#X~.~.Z.`.z.`.`.~.M.c.E s +X;X,X1X:X~.).).~.N.3.s @ m & @ 0 0 < < @ @ & & & < & o & 2 5 B & n C a a s 5 & a <.f.C.L._ a 2 p a 2 M F P P B x 5 5 m a a n n P ) 3 M M B B p p @ 9 9 s s w q * q 3.x.f.<.<.>.} ) ) / >.) n 5 M f.1.M.S.F.F.M.E | E 5.#X+X:XvXvXZXvX4X~.8.M.5.M.Z.+XF.Y s U <.f.C.C.>./ >.b F %.! $ 1 = . & 1.C.P.>.! ! f.L.rX-XU.L.Y.'.=XeX=XqXU.U.) n M n n 3 0 < s 5.d.3.J / J M I M M 5 n a h.=Xh.U.-X=XiXmXFXFXGX                C.p.a.M.A.Y.>XpXbXFXtXU.U.K.K.C.&X                                                              ",
"                                                                  JXJXJXJXJXJXJXJXsX-XqXiXmXR.) h.f.p.1.%./ _ p.s.>.f.C.L.I.A.U.F.v.C.v.d.f.-.( E M ^ U t d 1 X O X & & X = t B.{.D.v.y 1 $ $ . + & * Z ( K X X X > > & 9 s h C q 9 9 9 < & + X X X X o + X o o + P a...P } <./ ) ) I I E ( ( E 2.2.f.>.! ! 2 o & b B <.2.} } -.3.5.} } m m c > < s Y T | ;.;. .[ T A U a 3 m M F n I >.f.d.2...( -.>.} 3.,.X.| X.3.3.| 3. .| 7.8.N.z.z.l.Z.-.9 l.A.I.S._.I.>X>XF.&X>X`.`.).:X`.S.~.~.#X!.!.`.`.l.`.`.~.M.5.T g `.*X;X:X#X~././.].Z.8.C @ 3 & 3 ~ ~ Z Y v * X X & & $ & 1 d M ~ # P 1.) I J f r a m ) 1.>.F > $ 3 t 5 n m M p x 0 a M v n n P m / <.a m P P P M a @ g s q s h q * s 3.x.x.a.a.>.} ) ) Y >./ n p 5 / <.V.A.F.F.5.Y Y ( ,.(.4X1X5X:X5X:X@X8.5.Z.#X#X+X+X5.m n / 1.h.h.a.>.m t F %.m $ X $ X . & / <.h.C.>.P 1.h.qXxXrXR.&X=XkXkXeX-XL.Y.-X<.3 3 n / f...s 1.M.-.T / <.<.) M B C.K.5 ) R.Y.qXuXxXMXFXHXJXPX                    K.f.C.C.R.-XsXJXuXY.R.R.-XU.qX                                                              ",
"                                                                  HXJXJXJXCXCXCXJXiXqXsXuXwXK.p.h.K.T.R.R.E.C.K.h.C._ B x U I n a n f U ) f.1.-./ P I x d p $ & O O & X & 1 3 R s.v.R % 1 $ o $ o @ @ 9 | s @ * o o > a m C s s q q g * @ @ X & * * & + + X @ X & @ a Y ,.2.-.,.d.d.5.d.5.d.M.M.l.-.Y I m 2 O o , x P p.d.} 3.-.l.3.} ) x B c > > s I T [ ;.{ [ [ T f C s 3 M x B m ) >.a.a.2.X.( >.>.,.3.,.,.T X.3.3.X.3.;.;.7.9.N.N.N.N.Z.-.9 l.V.I.A._.I.>X1XA._.1X`.`.`.:X).Z.).~.].Z.N.).`.z.`.`.).N.5.T g (.).;X,X#X~./.].~.Z.l.| * X & m ~ ( Z Y ~ U a 3 > 5 t t d M n M & J <.>.( / Y J U m a t 5 3 2 5 5 a 3 t a t 2 a g a m M I n M m / <.a m I U U B a & s s s A h q * s 2.V.C.a.a.) } } } ) <.) M a & p f.L.L.A.F.5.I Y ,.( V.jXF.[ 8.8.N.M.8.N.).:X).(.k.M C I I P I I M 3 = U ^ a $ X & & g r = U >.f.P.A.f.h.f.&X=X-X=XuXeXMXFXBXkXeX-XpXA.a n m >.h.a.n >.( U -.F.Y.F m K.xXHXuX_ a a.P.R.qXNXmXNXNXPXKX                            &X&X        &X.XqX                                                                  ",
"                                                                  JXJXJXCXCXCXCXMXsXuXsXwXR.R.wXaXdXdXdXxXxXdXxXGXuX_ 5 U qX=X<.b 4.M.) n J J U ^ P U d 6 p , o O X X o 5 t 3 t y r = $ $ $ 4 1 o & + * s v + X O O & 5 a s q w * w * @ @ * * g f C C C Z C s & X X * < s U E -.-.E ( 3.3.3.2.( J C n s 2 o o , 6 b ^ p.d.} ,.-.l.-.} I s U x 2 > s U T [ ;.{ [ [ T s C v 3 x 5 x m ) >.<.d.d.X.( ,.>.3.3.,.3.C | 5.3. .7.8.7.8.9.Q.!.Z.N.(.3.9 d.V.I.I._.I.>X>XF.(.>XF.`.).:X).`.].Z.].Z.z.).).z.~.`.).S.l.E 9 F.+X,X,X;X~./.].!.Z.z.5.C * g Y ( } I ~ ( U Z P B F F N x a a n & P 2.2.-.,.) I ) ) U >.I f F P t D 3 3 p 3 a a a f C n n s n I I >.p m U ! F B M + Z T q h h s * s 3.l.k.a.s.) ) | } ) <.) M a 2 > / h.L.L.A.5.m m ) Y 3.S.5.3.[ [ ;.5.M.S.F.(.;X1X2.< v v s p 0 < 3 3 M a.f # r & 3 J E E f r R a.f.L.=X.XU.tX=XR.=XmXbXFXFXFXuXqXqXY.C.~ / ~ ~ ~ Y a C ) 5.U.<X/ F A.uXNXbXMXuXC./ >.-X=XR.sXFXMXPXPXGX                                                                                                              ",
"                                                                  JXJXJXCXJXJXCXbXtXrXqXR.9XfXfXfXwXR.h._ ` h.uXuX` 6 5 n.HXxXzXf.) A.&XC.Y a 3 a M n 5 & 4 $ O X o X , l l N N c 4 1 1 $ o 4 6 > & + < Z ~ < o + X X O X X @ * g s g w q h h T | 3.l.F.F.c.,.| a * * & @ & g m J C f C f s s g g g 3 @ o o $ 7 l B _ p.1.} X.3.d.} } P a U x > 2 v T T | ;.{ { [ | n Z v > p , 5 M / ) 1.a.l.X.} 3.X.3.3.3.3.C T 5.7. .7.z.z.N.9.Q.!.!.Z.~.3.9 d.A.A.A._._.*X>X(.(.,XF.`.(.:X).~.].).#X!.N.~.).z.~.).~.N.S.| 9 F.+X#X:X:X~.^.].).!.z.l.3.T | -.| ,.Y I P M M F B M N a 5 2 t M & U d.5.-.-.-.E E >./ E r P 1.M 3 P p r a s M a g f D J f a f U I >.5 B P ! B x x X C V.A s s s w C 3.d.f.<.f.>.} } } / >._ B x 5 O 4 ) Y.'.C./ m P I I 1.M.5.5.-.E J C C J -.V.+X*X>.3 p 3 0 3 3 0 s C d.U.f.n = f g g L :.D e f 4.f.n.U. XpXpX&XI.eXiXiXbXFXMXFXeXU.<.) U ( a.Y ~ ( U C V.&X1Xf.3 >.qXU.R.&X&XsXKXqX-XY.C.&XqXiXNXFXFXmXsX                                                                                                            ",
"                                                                  JXJXJXCXCXVXpX2XzXiX-XP.wXwXh._ ! ' F B F ) %.m N f.f.L.tXiX-XpX1.a m I Y P 3 3 d t 1 1 , X o $ $ $ 1 6 6 N ' N V ; o $ o , 5 5 X X & U Y < & > o o + @ & A 3.7.7.[ { [ ;.7.N.N.Z.~.#X).F.~.`.k.,.T C J f g - * s g 3 9 * * - @ - * a 5 o 6 6 l B p.p...| | 3.2.) ) M a ~ p & 3 v Y T [ [ { { [ | C I a & 5 2 2 v ! / ..a.k.,.( ,.X.5.3.3.,.C T 7.7.;.8.N.N.Z.N.Q.!.!.Z.F.3.9 d.I.V.A._.&X*X>X`.`.,XF.F.F.#X#XZ.#X#X].S.S.~.].z.).).~.Z.~.3.9 S.].;X:X:XZ.!.^.~.Z.N.l.8.3.5.,.3.5.Y C P I P M n a d a d t a M & I d.1.( | -.( #.#.U f g 1.) r 3 n d 3 r n n f a D ( 2.Y a a m P ) 2 M B ! V x x + 0 '.l.q 9 q * C 3.l.f.<.d.,.} } } / >._ B c c o O 4 U >./ M n n M / ( n g s C E T J f a g s P J v 3 3 < 0 3 a C T -.-.,.5.E f g - - f f f R g R f.v.C.A.U.A.f.M.-X-X=XpXMXNXkX&X<.I I P Z I U a.2.| J ) U.&Xf.^ P ! ^ ^ M ) f.wX    U.Y.&XR.qXsXGXFXPXFX                                                                                                            ",
"                                                                  HXJXJXZXvX2X;XvX-XR.P._ B F %.K..XrXmXuXD.R # d Y.<XY.D.M.F.<X XD.R d r r p 5 d a b b b d 1 . 5 o > 4 l l l N Q V 7 ; ; $ & o > > & & a I > . > 2 2 2 X f M.N.8.;.;.8.N.N.N.N.^.].].).).).#X).`.+X`.).:X(.Z.Z.N.+X~.N.Z.Z.5.[ J ;.M.I.~ $ l 4 l ' j.p...T E X.( ~ U n x _ x 3 < s J Y T T { K K Y J U 5 o p 5 5 B ! / ..a.x.,.T ,.X.5.3.3.,.A | 8.7.7.z.Z.N.!.Q.Q.!.!.Z.F.3.9 d.V.x.A._._.=XyX`.`.*XZ.Z.~.#X#XZ.].).).N.N.!.].z.).#X^.Z.~.3.g S.].;X,X:XN.Z.^.Z.Z.N.M.8.5.5.;.5.,.J U m n c b n t t t a a a n - ( M.5.-.-.( E J / D r Y <.a X r r a 3 < a a s f -.4.#.n a M P m ~ 2 x B B B v n + * x.3.* w q * C 5.M.k.<.5.,.( | -.( >._ B p c ; o o & 2 2 > t p 3 p a 3 * @ 3 m T T Y I f a 3 0 a v x M I >.2.d.l.N.8.N.5.| [ g g g f d - - r r 1.M.A.A.M.2.a.f.&X&X=XpXiXqXR.C.) m / ( / I ( I.`.l.3.U l.C.f.tXC.! B %.f.&XsX      C.h.h.U.  sXsX                                                                                                                  ",
"                                                                    JXCXgX;X;X2X;X@X&Xn.x P R.GXxXxXpXxXpX X5.g d R R -.L 4.w.M.@XB. XD D P g 3 t d b b F I t > n X 1 4 V N V N N l 7 o , o o , $ 1 b b U m t $ 2 5 & 2 3 E N.8.9.N.!.^.Q.N.N.Q.].$X].).#X:X:X).:X:XjX4X+X#X:X:X4X:X:X4X#X$X:X+XZ.+X+XV.I > 4 6 4 B p.1.>.Y | ,.) ) P v x >.p < < n J T K K { K C J C Z 2 o c c c B ~ / ..a.k.,.| ,.| ,. .3.3.[  .8.7.7.z.N.z.!.Q.Q.!.N.N.~.5.9 2.l.k.I.I._.;X>X_.(.+XF.~.`.;X#XZ.).!.).!.N.Z.^.z.).#X).Z.~.3.g S.`.;X:X:XN.N.~.).N.M.8.5.5.5.3.| | I J n a d b d t a a x a n f @ ) V.5.-.-.| E E J g r E m 1 3 3 < r a r 3 p 5 I -.m s 5 a m m m P 3 p b b B V x + + ~ c.s * q * C 5.k.k.1.d.3.} ,.3.-.2.<.U N B , o , & 2 > 3 t x a M s C ( Y ( Y ( E ) ( M P 3 3 3 n / C.V.tXgXCXjX$X4X4X:X$X@X3.K g 9 g g r 3 d 4.C.A.C.C.f.a.k.&X-X-X=X=XqX.XC.f.U >.~ >.x.'.`.`.k.3.) m 1.<.P..XP..XsXJXMX                                                                                                                                        ",
"                                                                    MX=XF.2X2XF.M.}.@XD.v.&XxXsXzXNX2X<X2X<XD.B.:.M.w.B.G.}.B.6.}.D.B.f #.M.4./ d 3 d d D R p a a X , 6 c V N N N z l $ O $ 2 , t v.pX<X&Xn.#.1 1 > 3 < M 5.8.N.^.^.Z.~.^.N.!.].].^.#X#X:X1X:X2X:XjXjX:X;X:X:X:X$X:X4X4X#X).^.#X~.#XM.| C 2 5 t l B i.%.) Y 3.} I ~ n M x <.p & < s Z U A T K h C J n M < O c c V P ) ( ,.a.V.| | ;.[ ,.;.;.7.| 7.z.7.7.z.N.Z.^.!.^.!.Z.~.Z.5.* 3.5.k.A.V.`.*XyX).`.;X`.~.`.:X:XZ.).^.].N.7.!.^.8.~.:X~.Z.Z.8.g A.`.,X4X:XZ.!.#X^.Z.M.M.8.3.-.[ J J U m a b t d U m m I m D a M & -.d.3.,.| T J C M r 3 f & = r 3 r a g M a 3 a M p 3 a a x x M M ! 2 a 5 x x p 0 & O 9 d.C * 3 * Z 1.k.5.1.5.5.-.d.d.2.a.s.U F B 1 O 7 n U ! ) ) ) ..>.>.1.} ,.2.2.>.>.2.2.) Y s 9 n f.Y.tXnXBXVXjX#X$X^.:X:X#X#X@X3.f - g g g d J <.f.Y.Y.Y.A.k.d.Y.&XU.Y.U.&X.XY.P.~ f./ 1.V.S.l.3.V.M.-.3 P v.U.uXP.K.qXpXkX                                                                                                                                        ",
"                      C.                                              M.M.F.N.G.F.@XD.D.D.&XzXpXNXiXzX@X%X2X%X}.}.%XOXB.G.@X@XG.D.}.B.D r #.L #.#.r = d d r < m 3 & & 4 6 l z N V B l 1 $ $ > r P.cX<XXXb.:.D.^ $ > 5 * ( M.M.^.!.^.!./.].^./.#X#X$X:X$X#X2X1X2X1X4XgX1X,X:X:X5X4X4X5X4X4X#X/.$X].N.[ | ( s , 1 6 F p.) / Y ,.( Z U v n M a.p < 3 s Z U J J A C U Z s a , X c x b ! ) ( ..3.x.| | X.T X. .;.7. .8.z.7.7.9.Z.Z.!.Q.^.!.!.!.Z.5.9 3.2.l.S.V.S.'.>X).`.,X`.~.`.4X4X~.$X].^.N.8.!.!.7.!.#X~.Z.Z.8.g A.`.;X4X:XZ.~.$X^.Z.l.8.5.-.-.-.E C f f f n b M U F P ~ U U n n < ,.c.5.3.-.T J E T a - < = 3 3 3 3 d g g J 3 p t 3 3 p 5 5 p c F I > x 5 2 5 p 5 + X X M C * @ * J >.a.5.d.d.3.3.d.d.2.<.1.P B B , ; N ) ..1.a.<.f.x.A.L._._.I.+X+XI.V.d.>.( ( } d.A.>XhXMXVXnXvX~.8.~.Z.~.N.M.N.l.3.5.[ J g - d d 1.a.n.L.U.A.C.<.d.&X XY.Y.Y.Y..X=Xa.C.1.I ~ U ( | c.,.| -.J ,.D.&XC.f.a.C.&X                                                                                                                                        ",
"                    f.s.uX.X                      K.n.              pXA.5.5.G.3X3XF.}.F.D. X XzXpXtXzX%X@X%X3X%XB.}.3X6X%X@X}.G.B.v.B.j L W L L R g # = = = # D < 3 2 t l l V ! F V F $ # 1 $ b D.v.#.#.#.j D %.r & = = ,.M.Z.Z.).).#X#X#X/./.^.).$X:X$X+X;X1X1X1XhXhX:X:X4X4X5X4X4X5X4X:X^.~.N.7.7. .5.5.( 5 2 t ! p.^ ~ / } I C C s s m f.5 & 3 a Z J C C C C Z n p 0 , X p b B / ( ( } ,.l.} | | T X. .;.8.;.z.N.7.7.9.Q.Q.Q.Q.^.!.!.!.N.3.9 ,.,.d.S.l.d.].,X].).#X`.Z.~.:X4X~.5X#X!.N.8.N.Z.;.Z.).~.Z.Z.3.g F.`.*X:X:XZ.!.$X^.~.M.M.5.-.-.-.K J J m f d n F M M D U U U M M * 1.M.5.;.-.E T J U M 3 3 a f r a a M f M J C a a p 2 5 5 p 5 5 a B 2 p 2 o , 5 p + o X + + X @ * Z <.f.-.1.k.l.3.5.2.a.a.>.F M V , l _ p.C.L.U.tXiXyXbXhXvXhX>XyXyXjXtX>X_.I.I.*XyXyXgXnXBXvXvXjXM.;.9.N.Z.Z.N.).#XN.F.:XS.-.-.n p <.L.C.n.A.P.U.n.a.U.&XC.P..XY.U.&Xa.k.V.m s a T ;.M.l.5.M.I a n.Y.>.I Z x.-XrX                                                                                                                                      ",
"                      R.Y.R.                    K.p.n.              U.2X+X@XG.G.@XD.B.D.-X X2X Xv.=XpX%X@X}.@XG.6.w.%X2X}.D.F.}.B.:.L f w.w.:.@.L g % d D d < P < & & > B F N c z t t = 1 % 1 r D d D R H d H R 1 $ $ a k.F.@X~.:X#X#X$X+X).).^.^.+X+X;X:X;X1XyXhXyXgXjXjX4X4XjX4X4X4X5X9.[ ;.8.7.0.7.N.l.,.v > t ! p.! ~ / ~ Z Z n s a Z h.0 & < a M m Z Z C a a 0 p 0 , X p B B I ~ Y } ,.l.| | | [ ;.;.3.8.8.N.N.7.7.8.N.N.N.!.^.Q.!.Z.N.;.* | ,.d.S.d.| ].:X).).#X).Z.~.:X4X!.:X$X~.N.8.9.Z.[ N.]./.Z.N.3.s F.`.*X,X#XN.Z./.!.Z.8.8.-.E E R J f J M a p n m n m P D F m D P 3 ,.l.5.;.-.[ E T E J s a f f g a m J J I n I a p a 2 5 5 5 6 t x M > 5 > $ , , 6 & O X X X X X 3 P p.f.) ) l.d.3.2.1.2.f._ M b 6 b h.R.qXtXiXtXgXyX;X1X>XyXhXhXgXgX1XyXjXjXjXkXhXjXyXjXnXvXyXjXjX).N.7.8./.4X:X:X4X:X+X@XF.(.F.>.P <.P.Y.L.D.P.Y.U.A.f.f.f.P..X.X.X.Xf.C.&XI m g T | 8.5.-.E E U / a.I I <.U.tXsX                          uXP.                                                                                                        ",
"                          R.                    D.1.h.            &X-X2XF.2X%X}.F.v.M.D.&XY.C.4.1.-X<X@X%X3X%XG.G.B.}.2X2X4.#.v.v.4.d j q.+.L @.k e g :.:.#.g a * o > , N ` F b ^ s.s.s.R = S d y = d H S d d r $ 1 & I V.F.(.+X;X`.+X*X#X+X#X#X#X).~.;X1X;XyXgXgXyXyXgXgX4X4XjX4X4X/.8.[ { 7.8.N.9.Z.l.3.2.~ 2 2 B _ ! / / U Z Z s n s U C.a & < 0 M M Z M v 0 0 5 5 p , X 5 B M U Y Y } ,.k.,.| | X.7.;.7.z.N.!.N.0.0.7.9.z.N.Q.!.N.Q.N.N.| * ( ,.5.S.3.K ).:X).^.#X#X~.).:X4X!.$X:X).^.Q.z.Z.{ N.^.^.~.N.;.s A.`.*X,X#XN.Z.^.~.Z.8.5.-.E E E U f I m n n I #.E ) #.U D n U ) g 5.M.5.3.3.-.E [ ( J M f f a f M J T T T U M C p a 5 a p 5 5 t p n > > & . o , , o . o & o X X & P a.f.>.) 2.,.,.5.2.2.d.~ n b 4 p.uXsXiXgXtX>XyX,X,X1X;X,X*X;X,X:X1XlXlXlXyX:X:X+X,XyXyXtX1XjXjXvX#Xl.N.:XjXjXvXjX:X;X;X+X;XV.Y ) p.n.L.K.Y..XP.A..Xn.1.s..X.XA.U.tXC.C.&XI M f K ;.M.3.-.-.-.l.f I I ) a.A.hXHXNXsXkX                &XL.Y..X                                                                                                        ",
"                              &X                4.f.f.            =X2XF.@X;X@X%XF.F.F.Y.C.f.^ ^ D.Y. X X%X%XB.|.B.}.B.@XzXM.g D R d d :.:.L :.@.j j L +.E :.f g & X > 1 , t 3 S XXD.D.D.$.^ S S d % = i @.m.m.R 1 & X I >.M.+X#X_.I._.+X+X+X+X#X#X~.Z.).:X,X1X1X>XgXhXyXyXvXvX1X4X5X8.[ 7.N.N.z.Q.N.^.8.5.l.d.s 2 B ) ! ! ! U Z P v m v / C.s & < 3 v M M a 0 0 p 5 5 5 , . 5 m m I ( ( } X.l.3.|  .;.l.7.8.N.Q.!.Q.0.0.7.9.z.N.N.Q.N.Z.N.z.| * [ ,.3.S.8.T ~.#X).~.].#X!.).#X4X!.$X5X).$X$XN.N.K 8.N.N.Z.N.;.q V.`.*X,X#XZ.~./.Z.N.8.5.-.E E U J m Y m J / 2.d.2.f.d.#.I D Y -.g 5.V.8.3.;.-.[ K [ J J J J f m J m E E E E f U n a p a a a 5 t 5 M 5 > $ O o o o X $ X o $ . & > ^ >./ / / >.2.>.d.d.2.1.F x N 5 K.FXNXMXgX;X*X,X;X:X4X:X4X#X#X4X#X).#X,X4XlX1X).Z.`.`.`.*X1XgX4XjX5X).$X5X4XjXjXjXjX4X;X).`.V.( 1.<.f.P.P.P.P.D.n..XY.C.n.C.A.n.&XiXL.C.-X) n f K E -.[ -.5.3.E 1.m s ( <.A.nXFXkXpXBXMX-X            &Xa.) C.                                                                                                        ",
"                                L.  Y.D.Y.&X    D.zXrX-X         X-X<X@X;X@X%X@X%X@X&Xn.n.=X^ %.tXY.D. X3XB.+.|.}.}.w.G.<XD.D R L H d R :.@.@.k j L @.L R R 3 = 3 o & > $ $ # d s.4.&.4.4.%.S #.{.m.u u {.D.D.n.^ $ o / ~ 5.(.F.(.I.(._.+X+X).#X).~.~.~.#X:X,X*XyXyXpXhXhXgX1X:X4X^.9.N.^.Q.N.Q./.N.Z.z.Z.S.x.n 2 P _ ! U ! ~ Z P m Z s ..V.a & < 5 x M x 5 5 0 c p 5 6 , . p P I Y ) ( | | l.,.[ ;.3.z.8.9.!.Q.!.Q.7.0.8.z.z.N.N.Q.N.N.z.z.| * T ,.3.S.l.[ ~.).Z.Z.).].S.~.#XjX!.].5X].$X5XN.N.{ 7.8.8.N.8.X.9 l.`.,X,X;X~.^.].!.Z.N.8.3.-.#.E Y P U P -.M.V.f.M.A.M.d.<.) ) -.g -.5.5.3.5.-.E T -.J J J f f J J f T E E J m C d a a a p n a n a M > X X O o O o . o . t _ %.%.%.%.B n U P / 2.-.5.d.<.#.m M M n R.bXiXhXyX,X4XjX,X#X#X#X:X;X:X#XF.F.#X:X:X#X#X`.Z.`.~.`.;X,X;X:X:X:X4XvXjX4XjXjX:XjX4X).+X*Xl.s s n P R ) s.D.4.P.P.C.C.P.f.<.h.U.U.n.h.=X<.D L W g f h [ 5.3.-.V.s f 1.d.V.NXBXBX=XpXyXk.V.>XV.l.*X  2Xk.,.d.                                                                                                        ",
"                                  5.v.v.v.v.    NXrX<Xf.        Y. X@X X+X;X%X;X=X&Xf.v..X.X_ 4.Y. XD.B.@X+.j r.B.w.b.q.{.w.L r f d j f k j +.@.j @.#.d r r # & 2 > > & & $ $ r s.b.m.D.XXm.S &.XX{.@.u b.{.m.m.n.& > p.k.V.F.+XI.I._.(.+X;X#X$X).#X#X^.).:X#X`.tXpXpXgXgXgX:X#X#XZ.!.^.!.!.!.N.Q.].$XN.Z.F.A.Z > U _ ! Z / _ Z Z Z m a 1.C.a > 3 a v M a p 5 2 5 p t p > X a ~ / / ( ( } >.x.,.T ;.X.z.8.9.!.N.Q.Q.0.;.8.N.9.9.N.Q.N.N.z.N. .* T ,.;.S.l.[ Z.!.N.N.^.).N.Z.#XlX!./.4X$X$X$XN.Z. .8.8.7.z.3.| 9 k.`.,X,X#X~.^.^.!.!.N.8.3.-.-.E E n D E 5.f.M.A.V.Y.A.A.A.f.1.-.g -.5.5.-.;.-.E [ -.T R J f f J f C T -.J E m f m d n f f P f a M M 2 o X O 5 B F 1 . $ b %.n.C.K.U b / >.m I <.,.,.5.<.) D B a M qXNXbXvXgX,X5X#XZ.N.).#X#X#X#X).Z.`.,X,X#X#X:X#X).].F.F.`.+X;X4X:X$X4XjXjXjXjXgX,X;X#X).:X,X;XY s a f n #.v.n.4.P.n.h.s.n.h.f.a.C.n.f.v.=Xa.P -.W g h g -.;.5.-.d.1.m n d.2._.nXhX*X>X1XS.T 3.,.Z } pXyXF.U.,.=X  U.                                                                                                  ",
"                                  <Xv.4.1.#.v.  2X4.R R D.    pXbX<XD. X%X<X@X@XF.1.f..XR.n.%.P..XD. XD.v.L j }.}.B.w.B.4.+.L :.D.5.-.g e k L +.:.#.v.f $ X & & x & 3 = & & 1 #.D.D.XXD.m.$.R D.D.XX{.j m.m.&.#.%.1 > h.V.V.k._.I._.+X_.~.).).).~.).).).#X*X+X1X1X;XyX4X:X:X#X~.~.Z././.!././.!./.$X$X~.Z.^.+X) > B _ ! ! I ~ U I Z v a <.M.a < 5 3 p a 0 3 0 p a a a s 3 X M / / ~ / / ( Y } d.T | X.7.8.z.Q.Q.Q.Q.7.0.0.9.N.Q.Q.!.z.N.8.z. .* [ -.3.Z.8. .~.!.N.z.~.#XN.z.^.4XQ.].5X/./.].N.!. .7.7.;.z.;. .9 k.`.].`.+XZ.^.^.Z.!.N.M.5.-.-.-.#.J d U 4.5.M.D.F.U.A.F.C.V.f.I g ) -.| ,.-.E E T [ E K J J f C J J J T I I f a s m M f M C a a M P 2 X X 1 1.n.m.m.y y #.&.%.^ b F 1.>.>.~ ..d.} -.1.<.^ F B 6 ) sXmXnXhX1X).Z.N.N.~.#X~.~.`.;X].`.].#X,X:XlX:X#X~.`.(.(.(.).#X:X;X,XjXjXvXvXvXyX;X>X,XgX>X>XtXY 3 P d U s.f.n.n.Y.P.=X=XC.n.n.f.a.f.f.v.2Xv.d :.5.J g k ;.G.5.4.D.D.^ n / x.<.>XyX_.Z.$X^.| C s g d.NXZX@XM.-.M.bXA.                                                                                                  ",
"                                  D.v.4.#.5.-X  m.^ ^ 4.4.A.-XbXCXzX XF.D.w.4.4.E f.&X.XC.F ^ s.C..XD. Xv.R H B.}.b.B.B.w.R H D.2X3X}.W g L e d -.:.D t & o o o 3 = $ & & $ I  X-X<XXXD.D.m.@.v.v.D.m.H $.G : 1 d # & >.C.V.d.(.*X_._.+XZ.Z.~.Z.^.~.).).).@X+X1X1X;X1X1X,X#X).~.!.$X$X!.!./.^.$X$X^./.^.~.Z.(.>.> n P B / ( / Z I m s s 2.V.a * < < 0 a 0 0 a s a a s M 0 X v I U ~ ) / I M C } X.| X.l.z.z.!.!.!.!.9.0.7.z.Q.!.Q.Q.z.N.8.z.;.w [ } 3.Z.8.[ Z.!.z.z.^.:Xz.8.!.4XN.^.$X/./.$Xz.Q. .;.0.;.8. . .9 l.`.`.`.#XZ.^.~.N.!.N.N.8.3.-.-.-.L f J 1.4.f.D.A.I.I.U.F.A.<.D - E -.E J K f f g f J f s J J E f g g f a s a 9 f J M f f f s J C U 2 X # ^ D.D.v.#.#.R f d R #.#.D <.) ) P >.1.| } 2.1.! ! F p h.PXMXnXhX*XZ.N.~.^.#X#X).#X;X#X].`.*X,X,X,XlX,X`.).).Z.~.).+X#X#X#X#X;XgXvXyXgXhXpXyXyXhXyX1X>X( U m a D 4.s.C.Y.f.Y.JXxXP.Y.n.f.f.<.a.Y.tXv.D 4.}.6.t.W 6.B.:.B.v.4.b 4.U a.( 2.+Xl.M.:X^.8.J g Y hXJXgXF.G.M.4.D.f.                                                                                                  ",
"                                C.f.f.f.v.      <XD.v.v.C.-X=XtXbXzXD.5.M.B.v.-.v.Y..Xn.F 1 U P.n.4.s.m.&.f d B.B.6.:.{.B.D.#.D 5.M.6.:.6.@.g g J E - X & $ & & $ 2 o = X 2 s.n.f.s.D.<X{.{.v.D. X XR u S y = % = X 0 a.V.V.5.F.*X*X_.+X(.#X:X#X^.Z.^.+X~.~.+X;X,X1X1X1X:X#X^.).].$X^.^.$X].].$X/.!.~.+X~.~.(.<.& p c B ) ) / Z U M M s <.M.s & > < 0 p 5 0 a s M n m U a X x U U U ! ~ U m m ( T | ;.z.8.7.Q.Q.Q.Q.9.0.0.9.N.z.z.Q.9.N.8.8. .w [ X.3.Z.8.{ Q.Q.z.N.^.5X8.7.N.5Xz.Q.].!.^.$X9.N. .;.0.;.8.{ [ q z.~.`.).#XZ.~.Z.N.!.N.N.M.M.3.5.3.L J L 1.5.f.A.I.I.F.V.C.D.2.D - I E f g C K T f s C | T C E ,.a f J E f 3 a g M U J J f s f J m M 3 . d P.&X4.S R 4.d S &.s.P.4.U n.1.) m _ >.>.2.f.) B B N c '.PXkXkXyX).Z.Z.~.#X,X#X`.#X:X1X;X(._.*X1XyXlX,X,X*X+X~.+X,X;X#X~.(.+X,X4XgX;XyXyXyX>X;XyXtXhXhX1./ d f / s.4.s.C.C.P.xXqXY.C.f.f.n.f.4.C.Y.s.D :.G.@XM.t.w.:.w.B.w.r r 4.v.a Y Y A.d.F.4X~.N.3.5.vXNXgXvXM.M.-.E L / C.                                                                                                ",
"                                C.C.C.Y.          P.s.D.    =X=XzXvXC.E -.5.v.-.4.C.f.d 2 %.v.n.P.D.^ D %.H r D.D.R j R L &.v.D g -.6.W r.e.+.:.r = & # 3 > & & & p 2 & o o $ = 1 . &.rXXXXXR P.<X XD t b u 1 # $ X p x.V.k.) d.*X>X_.(.#X:X$X:X#XZ.Z.~.S.Z.(.+X*X1X1X*X;X:X#X:X:X#X#X:X#X).:X#Xz.Z.+X).F.(.+X1.& c B ! ) / ~ I Z M P s >.k.n & 3 3 p a p p s n P M Z I s X a Z Z B B P P Z m ( ( X.| 7.z.8.N.9.Q.Q.9.0.0.9.z.9.Q.Q.z.N.8.8.| w K | 3.N.7.{ Q.N.8.N.!.$X7.0.9./.8.z.!.Q.!.].7.z. .0.7.;.7.{  .q N.`.`.#X).Z.~.N.N.!.N.N.Z.Z.8.8.3.W E -.d.M.M.d.M.A.I.A.D.f.>.a & U U g C J [ T C J f K J f 3.3.f T I Y m g a a s m J U f f C M M M & . )  Xv.D H q.&.u G s.4.n.) R s.>.) F ) 1.>.f.f./ B F c B rXMXNXMX>XF.N.M.Z.~.).~.+X#X:X1X;X;X*X*XlXyXlXhX1X`.(.(.*X:X;X).~.S.F.,X;XvXyX2XpXgX>X>XtX;XgXiXI n D n D v.D.n.C.C.A.-XP.C.C.C.n.C.A.s.1.4.s.g L B.B.6.+.:.:.B.B.H = R 4.f.D U ) ,.M.@X~.8.M.M.gXVXZXZX@X-.-.#.-.D f 1.v.                    L.C.h.                                                                    ",
"                                                    P.      uXbXBX@X4.5.v.-.E 4.C.n.U 3 ) -XrXP.n.h.s.^ F ^ d n.n.b d D 1 = a d - -.G.r.6.J k g - # a > & & $ & . & 5 $ 2 1 ; = 1 $ D rX.X&.= D s.F 1 d r 1 X $ X + 0 a.A.k.Y ,._.*X_._.*X;X(.:X$X~.N.N.N.F.~.`.`.,X,X+X*X,X;X4X,X#X:X:X).).#Xl.N.Z.$X~.+X~.(.U & n _ _ _ / Y U U M U n >.k.n < 5 3 a M M v v m Z n n Z p o x B B B B B M M M ( X.3.| | 3.;.7.8.^.Q.9.0.;.z.Q.Q.Q.Q.z.N.8.8.| * A [ ;.z.0.{ N.z.7.N.Q./.;.;.7.9.0.7.Q.N.N./.7.N.;.8.9.;.0. . .9 N.~.`.#X).N.Z.9.Z.!.Q.N.~.~.l.8.5.E -.M.S.M.M.E 1.A.I.M.,.U I s X J M s E U E J K | E C C f } 3.U Y M m C f C s s m J C f C f s M / 2 X n ^ U %.D.m.^ u r ^ 4.4.t F / U F M ) %.1.p.) B B F t _ mXmXMXMX*XF.Z.l.N.Z.(.`.#X#X,X,XyX;X>X,XjXjXvXvXgX(.(.`.#X,X1X#XS.l.M.S.A.,XyX>X>XgX1XtXgXtXgX>Xf.U U n 3 ) C.D.f.v.n.P.P.P.D.C.n.n.f.4.^ R v./ +.%XG.+.+.:.:.w.:.u S $.4.#.#.J J f E B.M.G.5.M.pX1X=X<X5.L W k J J D #.M.            R.a.U.  L._ f.                                                                    ",
"                                                            qXC.d.M.S.I.@X X4.U v.v.1 D n.P.=X X-X.XD.v.&.b t G D r r ^ a F F = - - d t.E g +.4.g - 3 & X $ & $ o & 2 > $ 6 6 $ 4 t $ F ! $ 1 # # $ 1 r 1 U $ & o + a } k.,.) -.I.'.>X>X;X1X2X:X#X).Z.N.~.).~.~.`.+X,X,X,X*X#X,X#X#X#X#X:X:X#XN.^.#X+X).:X1Xk.* o x _ ! ! / ~ U ~ M C n ,.k.s 3 p p x Z Z s p v n a a M 5 o x B b M B B M n B / ,.5.| [ { K  .9.Q.Q.9.0.;.z.Q.Q.9.Q.9.z.8.7.[ * A {  .N.7.o.Q.Q.0.Q.!./. .{ ;.7. .;.z.z.z./.7.!.8.9.9. .0. . .q l.~.~.`.~.N.N.8.Q.^.!.Z.!.Z.M.8.5.-.5.F.F.F.V.T J 1.C.f.#.n M g @ C a s T E } | -.| E J J f f } U J Z U J C Y f M I J s f m g n P m 2 X . r #.D.s.4.&.r . 1 r t $ M ) F c t _ ! ) / n c N F t f.FXkXnXhX].`.`.Z.l.F.).`.`.].,X1X1X(.+X1XgXkXVX1XyX+X,X,X,X4XjX1X`.M.M.l.S.M.+XgXhXvXyX>XyX>X>X_.tX#.p D d ) n.Y.C.P.Y.n.s.%.4.f.v.s.1.4.R t #.v.+.G.G.W L :.:.v.$.&.v.4.4.b.:.-.r f -.@X6.:.+.D.@XR 3 E 4.E -.W J J E R 5.            R.<.      C.                                                                      ",
"                                                              L.V.@X;XF.D.@XF.v.) D 1 v.-XY.=XP.=XY.%.^ s.R t 1 t 1 = 3 r R v.d % - D f - # g @X@X#.= . $ $ X $ $ & X 1 1 3 1 t c u 1 $ X # 2 & $ = 1 # F Y.t o & O 0 U / m ) ) _._.U.1X>X;X;X$X).).).).#X;X`.(.`.`.].+X_.`.].;X;X,X:X1X4X:X;X:X:XjX#X:X1X;X-.X & 5 ^ ! ! ) ~ Y ~ C Z s } M.s 3 0 p x M n 5 3 p p 5 a n 3 o n b c c c c b M B U X.X.| [ [ ;.0.9.Q./.Q.7.0.N.Q.Q.N.Q.N.z.8.7.| * A [ ;.!.7.0.Q.Q.9.Q.Q.!. .{  .0.{ { 8.8.z./.7.!.9.7.9.;.0.{  .q 7.F.F.`.~.N.9.;.N.^.!.!.!.Z.N.8.5.-.M.F.F.I.V.T r d Y P f 3 < & & n a f Y ( ( ( } | Y C J J M } U C C J P C U a n P M s f a g m ~ x > X & %. Xm.%.R D t 1 $ . # $ p ^ ! t 4 ! F B n t N F F b P.bXbXMXnX>X+X(.S.(.Z.S.(.+XlXlX>X_.(.,XgXyXgXnXgXyX1XjX1X1XyXgX1XF.,.| 5.F.M.*XgX1X*X;X1XjX*X_.;X&Xa.b R ^ 4.C.A.P.P.pX-XI & 3 r b b D ^ F t b 4.#.v.:.L L R 4.4.4.4.$.$.$.#.:.#.R D R w.L W B. XE - a >.v.M.5.J g g W E 1.              &X      pX                                                                      ",
"                                                              pX+XS.I.S.M.M.D. X4.= = R 4.P.=Xv.) %.#.4.s.G d r r u t d U D R D f a ) 5.3 # # D U.@X/ < d t % # $ $ & & r 1 1 u y u 4 4 $ $ $ , $ $ $ = h.C.2 5 5 + < m ~ M / >.&XC.1._.2XV.V.(.@X).#X#X#X,X#X+X).~.F.S.l.F.;X,X1X:X4X;X;X:X:X:X,X4XvX4X1X3.Y 3 & , ! ! _ / Z P Y U Y s ) V.n 3 3 0 a x p 3 3 a 5 0 x M 5 o V x c c c l b b M Z J T ;.;.;.9.N.N.Q./.Q.7.;.9.9.N.9.Q.9.9.7.;.[ @ C | ;.N.0.9.!.9.9.9.9.Q. .{  .0.{ { 0.7.9.].7.Q.7.;.0.0.0.{ { q 3.F.F.`.~.N.8.;.N.!.N.!.!.~.N.8.5.-.M.S.F.F.d.J n a D r & & & 3 X 3 a s J T Y J T -.J J J C C ( C J J U Y Z C n n n a M a - 3 a n P > X t n.s.F 1 1 D D 1 X 1 1 # , t F t t b B U c 6 b t c n Y.bXNXBXhX,X*X_.+X`.S.M.+X1XjX>X*X_.>XyXyXnXvXhXvXhXgX1X+X>X,X;XgX1XS.d.F.V.V.(.F.F.M._.vXhXV.d.L.L.1.m ) 4.s.n.C.D.D..XC.s.F n r 1 1 3 t r r = b #.L j r d :.4.#.$.&.s.&.+.#.4.-.#.#.D j +.:.4.R g E M.U.f.5.5.5.E J J ( <.=X                              pX'.&X                                                        ",
"                                                              eX*X(.(.F.F.F.D.f.D 1 4.C.U F d b f.<X XD.s.H d t 1 r r R #.R d a D #.p 1.#.< + X U F. XD g D D = # # X % 1 1 1 t t u 1 1 = # , $ $ , 1 t ) n n %.p $ 3 a m R R 1.U.p.f.=XC.3.F.+X(.#X4X;X#X,X;X#XF.F.`.(.5.S.,X,X#X1X>X,X:X,X,X,X4XgXgXgX5.g 1.I & & c ! ! U v m ~ P M s ( k.M < 3 p p p 0 3 3 p a s x Z 2 o x c c t c c M x n U T | 3.7.3.z.N.N.^.^.Q.9.;.7.N.9.9.9.9.9.7.;.[ @ A [ ;.N.7.0.Q.Q.0.0.9.9.{ { o.o.{ K ;.;. .z.0.9.0.{ 0.o.0. .{ g 3.F.Z.~.^.N.7.{ l.N.l.N.N.Z.N.8.5.-.M.5.5.M.-.m m ) #.D & & p n $ < p n s s s s f U T f f n s C J C m I I a P m s 5 a a 3 < 3 < x n > X 2 x $ = # 3 F ^ 1 $ %.U $ 6 , t 4 4 t b b 4 , b _ ^ M .XiXNXMXkXyX;X*X,X*XV.S.,X1XgX,X>XyX1XjXtXvXvXvXnX*XA.(.F.,XS.M.#XjX1X+X(.k.I.I.A.5.(.gXgX;XV.I.V.d.P U b F s.f.C.P.C.a.) ) / E U U U R 4.^ F 3 b f.r # r j #.#.#.4.4.4.#.R :.4.M.D.#.D g L -.d f #.F. XD.4.5.F.M.8.-.J E 1.f.R.                          uXh.1.f.                                                        ",
"                                                                _.+X;X+X@X%Xv.D r #.&X&XtXv.d R #.4.w.B.{.v.R r r = d 4.v.1.:.>.y D m 2 ^ p . X - = #.-.j R R R = . % d D d 1 u 1 1 3 1 1 $ & t t $ t b 2 = ) s.1 & > 3 n #.R P.U.) &XC.a.A.2X@XM.@X1X4X+X).`.~.V.l.~.,X+X+X,X,X*X,X,X+X,X:X,X;X1X1X4X;XT J V.f.& & c ! ! U x x M s n s Y M.M < 3 a x x a a a n v m m ! 5 o p c c 6 t c B M m ~ ,.8.;.8.8.N.8.N.N.Q.Q.N.0.9.Q.z.9.9.8.9.7.;.[ @ h T ;.z. .o.[.9.0.0.0.0.{ { { 0.{ A {  .{ ;.{  . .{ 0. .o.{ { w 3.Z.Z.F.~.Z.3.K 7.N.N.N.N.N.8.5.3.E 5.-.-.5.E f a P U f X & p p $ 5 v a a a n s C I C M M s s f s n s m J n I n a 3 3 a g g n 3 & $ & $ . . = 1 y 1 1 t 3 1 ^ M $ t 2 $ 1 $ 1 t 4 t h.R.uX<.b Y.iXMXhXhXyX*X,X>X;XI._.jXkXgX>XgXyXyXgXyXgXvXhXyX;X(.F.*X3.-.S.c.).1XgX>X*X;XA.S.S.>XhXgX`.F.+X&Xf.n p & t 1.n.s.C.v.>.,.,.>.) I ^ R %.v.s.%.^ b n.^ r d d #.R #.%.4.#.R ) 1.v.v.4.#.+.H d v.#.D.D.D.M.v.M.S.V.5.5.w.5.E ) a.Y.                eX        uXiXh.C.                                                        ",
"                                                                A.(.(.@X@XF.J g -.D.F.D.Y.R R <XD.4.#.L #.4.:.L d D S 4.D.D R Y.n.F t 2 m a & n d r g R b.d = = = % f #.R H = u u r ^ ) t 1 3 ^ t = 1 d b G ) r 1 & t F t b R .Xf.f.M.>.U.tX2X5.V.;X+X+XF.`.`.Z.Z.S.).1X:X).*X*X;X#X#X#X,X1X4X4X1X:X4XN.J 5.I.-Xv o c B ! U a n m n J M J V.n < p x v v n n x n M m m ! 5 o 6 c t t c b b x U ,.5.l.X.3.8.l.8.9.N.Q.Q.Q.0.0.9.9.9.7.7.8.8.;.[ @ h [ ;.z. .{ 9.0.{ o.{ o.{ {  .0.{ {  .0.{  .{ { { { { {  .K K w ;.S.Z.F.F.Z.;.s 8.Z.M.9.N.M.8.5.8.-.5.#.( -.U M r r a t $ $ 3 p O > p 3 a 9 M I U U n C Z s M f < a a n n n U a 3 3 a a a n p & p R %.R t # $ t 1 1 1 3 t 1 a 1 # t 6 & 1 6 t t 1 _ .XK.n.b F .XqXMXhXnXgX&XyXyX>X=XgXhXyX>X1XhXgX>X1XhXvXvXgXjX1X`.F.,XM.5.3.3.M.F.4XgXgX1X_.I.;XhXnXgXF.I._.U.v.3 3 a r a ) f.4.M.2.d.-.-.} / U ^ 1.1.4.%.%.F F 4.1 D d D #.#.&.R U #.#.4.4.1.:.D #.:.f R 4.f.1.C.D.v.M.A.V.d.E J ) ) Y <.Y.                uX      tXsX  Y.L.                                                        ",
"                                                                A.I.F.@X).F.E -.F.A.F.U.v.D v. XD.}.D.b.4.j d L L R #.D g r = n #.s.d 1 3 t r D.<X XL r L @.f # r g 4.+.R d % = u u D. X%.= d b 3 r r b 1 M F # r t b d a b v.f.I f.s. XpXiX<.1.*X;XF.F.F.`.Z.l.`.`.;X).~.~.+X,X,X+X#X,X:X1X4XjX:X:X#X;.;.F.A.yXf.& 6 B ! ^ p U / J Y C C k.f < a s x x x v a p a a p B 2 o > 5 c c c M B n ( 2.5.3.;.3.3.;.8.7.z.Q.!.Q.0.0.9.8.9.0.7.8.8.;.[ @ h K [ 8. .{ ;.{ { {  .{ { {  . .{ {  .0. .o.{ { { h h K { h K w } M.A.(.F.Z.[ s ;.Z.N.N.N.N.8.3.-.-.:.-.#.E D g 3 a n 5 = 3 3 p O > 3 < 0 a M m M M a M C s m n p s m M n M I a t a s a a p & p 4.f.s.C.F = 1 1 c c R b X M ^ , 2 p b t t P.T.^ t 3 %.%.b % d P.uXMXhXnXhX*XyXpXtXgXhX&XI.(.;X>XyX*X>XnXkXvXhXhXjX+X`.*X4X`.-.k.3.S.;XgXyXgXgX1XjXjXgX,XF.+X+X&XC.r 3 a = & M f.<.f.5.5.,.3.| J ^ #.#.&.s.s.R a $ ^ R % t d D R R d D #.R ) D U #.D b D H b %.1.#.5.M.M.Y.M.d.( C 3 9 ) Y ) .X    R.        qXiX      =X      qX                                                        ",
"                                                                _.S.(.(.Z.@XS.F.(.F.*X X X#. X X X XD.D.4.-.4.R D d 4.4.4.D b t 3 b M t d y d D.<X4.r d y d 4.#.= j D.#.$.L = = = r R D.m.b y 1 r = 4.D.r d r S u d D D b ) v.U s.#.C.tX&Xf.E F.Y.A.A.F.(.F.S.F.`.`.).~.(.`.#X1X:X;X:X4X5X:X5X4X#X4XZ. .N.#XF.eXU.> , N P B p ~ / J Z C M d.M < 0 0 p p p a 5 3 p p 2 p > o , 5 c p x B U M ( ,.} E [ 3.5.[ ;.;.;.8.N.Q.0.;.7.8.7.;.;.7.3.| [ @ s h T 8. .{  .{ { { o.0.{ h { o.{ { o. .{  . .{ { A h h A A K * | k.A.I.I.F.| s ;.N.l.l.N.N.5.3.E #.4.+.L f D J d a d t 1 > a I 3 & < a & < v M P Z M M n s M n p 5 n n x a m p s M p n a & $ a n.D. X%.$ $ t ! F F G t t ^ b 2 t x t 1 D XX9XrXn.t 1 b ^ t 2 n.qXkXkXbXyX&X>XgXhXnX>XV.A.(._.*X>X1XjXhXyXnXhXyXhX1X#X(.+X+XZ.M.8.5.-.(.jXgX1XZXVXjX4X+XS.(.@X_.>.3 r r < > a 1.d.d.l.5.;.| T U P D F D b D r & $ b v.r d S j D j d J D U m r g D ^ #.R n D R 1.%.) n.d.d.( -.5.E T f J ) 5.=X    L.        qXuX    U.mX                                                                ",
"                                                                _.M.F.F.Z.@X^.~.+X+X=X=X&Xv.5.F.F.%XM.M.B.v.:.L d d r b ) F 1.) b t t t F b t R m.S = % = = d 4.d j 4.$.4.L r H 4.H d H ^ d M = = r H d = d m.4.r S D b F ^ M f.f.v.&X%.4.) C. X,.C.;X_.I.A.A.].`.`.`.~.`.#X;X:X#X4X4X1X:X5X5X$X:X4XN.;.Z.;X`.=X-Xx o c x 5 p I I J C C C 5.f * < < 5 0 5 5 3 3 5 p 5 a 2 X 6 c c c M I P v Y ( Y T J 3.l.3. .;.[ 7.z.Q.;. .0.0.0. .;.3.3.| [ @ s h T 7. .{ o.{ { {  .o.O.h {  .{ {  . . .;. .{ { A h h K K [ 9 T M.V.S.F.F.| s 7.N.8.8.z.8.5.3.-.E E J D f D f r t r t r F Y.qXY.f.C.&XM < s n Z M n s a a a n 3 3 I >.) m n 3 a D U F 3 . # = ^ P.&.1 % t ^ ^ F b b 1 t t 1 N a t d = t ^ %.%.^ G ^ n.T.b > K.=XtXkXnXbXyXyXNXMXkXI.V.&X_.V.+X>XyXvXkXyXvXhXyXhXgX+XS.k.+X:XN.K 5.5.l.l.;XgXgXvX4X4X).F.(._.I.) 3 3 r t < a f.V.k.l.3.| [ [ J D a r = r b b b b ^ P.XXv.#.H u d R L D U a & = r p I I b R F F ^ n Y s s M J | E l.V.E J U Y.NX-X&X        dXwXsX&XiX                                                                  ",
"                                                                *XI.F.F.@X@X~.+X).(.I.;XU.-X5.4.1. XM.4.E R R +.#.4.&.%.b t b b D ) d 1 1 r u u u y e d d S r d d % y @.$.j r :.}. XL r d u = r R r r e D #.XX#.r G b D 4.D <.<.4.P.U s.f.>.<X4.r 1.Y.I.A.(.`.].#X#X#X).`.#X#X$X$X4X4X:X4X4X5X:X4X:Xz.7.~.:X`.&XeXP & 6 c 5 a ~ I J J C C d.f * 3 < 3 5 3 3 3 2 3 p a M t o c N B b M U U M U U ( E J -.8.z.| [ ;.;.9.N.;. .0.0.0.;.;.3.3.[ [ * s h K ;.{ K { { { {  .{ { A { { { { {  . . .{ O.{ A h K { K T 9 Y V.C.V.I.F.,.h 7.N.8.8.8.7.;.-.J J E E D g g = a y r t a M f.&XuXuX=Xf.3 & p v s a a a s n m P 3 3 / Y.U.s.m p U M m D F F a # = y = $ = y G c t t b 1 1 1 3 b t > t 1 % y %.n.s.D m..XY.m > C.-XR.U.=XkXbXiXbXMX-XL.U.&XA.M.I.>X>XhXhXhXhXhXvXhX:X*XF.F.:X#X`.l.l.3.;.T M.+XvX$X$X#X~.).;X2X@Xm r r a f p f <.l.k.5.| K C | T J L R R #.#.s.s.4.s.P.s.#.j d y D R D E P a 1 = = D / ^ ^ U b d R I Y n a f s n f ,.+XS.2.P Y C.M.=X          R.qXsX                                                                    ",
"                                                                &X@X(.@X~.@X+X$X).(.F._.A.Y.D.4.R L d D R R H R D.D.v.D.f.^ ! R R D d r d u y u u = = y u 1 % b j r e = e d e r D #.#.d d u r r v.L g d L B.b.H D D y G #.) <./ n.R v.D.G v.f.n R v.C.I.F.`.*X,XlX#X).,X:X:X#X4X:X4X:X:X4X5X:X5X5X^.8.7.#X$XF._.=XB , 4 x 6 2 I U C U n C k.f < a < < 5 5 5 2 > 5 p a P c X x B N b B U P m Y ( } C M E ,.5.-.T | [  .7.;.;.0.0.0.;.;.;.3.[ T * h C A [ K A { { { { { { { A { { { { { o.{ { { { A { { K A K T 9 U k.V.V._.A.5.T 8.8.;.3.3.;.;.-.W E -.E f g D D r b b 3 a 5 > B %.C._ 3 > > 3 a s a 9 a n s n M p = n A.-XY.~ x M a p 4..XC.4.d = 1 F F # 1 c t y d 1 r b d t b t $ $ 3 1 n..XY.&.r t %.C.F X M C.x.f.h.C.A.+XiXbXC.I.iXU.I.*X;X+X>XhXyXjXvXvXhXjX:X,X+X:X#X~.,X4X8.-.l.3.,.| +X4X2X~.M.S.+X(.l.3 3 3 = < 3 M 1.d.3.A A A C  .T E E -.f.&.#.s.H F F #.s.# = u D @.D L #.H D L d P 1.) M n F D D U >.#.M.-.s 9 g f F.+XM.V.f.I <.Y.NX          wXsX                                                                      ",
"                                                                *XF.F.(.;X@X@X+X@X).F.(.+XY.U.P.s.d U Y.<Xv.D :.%XD.v.4.v.4.f.#.n t t d p d r r d = = u = 1 = y j d u % e d d d = u L L j L @.j w.L g H H b.m.d D R D f L 4.4.#.U #.<XR &.D.d b f.2Xf.V.2X1X,X,X:X4X;X,X;X;X4X:X:X#X:X5X$X~.^.#X#X!.8.7.~.#XF.I.=Xm + 6 N x 5 n Z J U a C f.s 3 3 3 p p p p 5 2 a 5 a P m o x b b N B B M a m U Y E ( } } ) } ( | T K 7. .[  .7.8.;. .;.3.| T * s h A A h K [ K A K { { K h O.{ A { {  .{ A { h h { { { K h K w T k.M.M.F.S.8.;.8.8.;.-.5.[ -.3.E R E J d 5.<X X#.r d b x p a 5 1 3 3 & & X > > t p p a n a n F n x 3 p P M F I 5 & & a f..XY.^ % r n.s.1 1 1 a t r 3 1 U b = t % % = 1 4 s.%.b 1 # $ = t 2 , , n _ h.x.x.<.d.U.bX&X*XpXU.&X*X1X1X>XyX>XgXjXhXgX4X4X:X1X$XZ.N.^.;X$X`.l.3.T m -.N.;XV.M.F.F.(.M.3 3 < g 3 3 #.A.5.g g s s h T } 3.-.1.v.4.&.@.d y u d s.S H H @.G G #.&.S S ^ H G D b $ & 1 3 b D F 4.M.) E J g 3.1X1XV./ >.#.)  XzXD.      sXsX  iXqX-XqX      R.                                                      ",
"                                                                _.(.@X(.).F.~.@X@X).@X(.U.&XY.#.t 1 d R U D r D #.4.R 4.D.4.v.1.^ b t b & & a r r r D u = d S D y = e H q.B.@.d r e H #.+.q.w.j b.j d +.H D.4.d #.v.4.#.R %.-.R D D.&.b 4.R u R D.C.f.>.>X1X,X1X:XjX,X:X4X,X:X4X:X:X4X5X~.Z.#X#X$XZ.8.8.N.~.S._.eXZ & 2 c b x 5 P Y I a I f.a < 3 5 a a p p 5 2 a p a m P $ c M M x b B x 2 a U ( ( ( ( ( >.,.T ( T K 3. . . .;.0.;. .;.3.| K * s h C A C A T A h K { { K h { { A A K { { A { h h { { K K h K w J d.M.d.A.V.l.3.8.5.-.-.;.E E [ J J J g E  X X Xn.a b C.s.I ^ a a x a t 3 $ & 5 a t 5 n m a F C.-XR.C.t & > t 2 & & n 3 F n..Xs.1 % N t & 1 & r g d r t ) ^ = 1 $ $ 1 1 4 t 4 $ $ $ $ X $ $ , $ 3 <.V.C.I.L.I.A.pXCXNX1X>X;X;X,X;X,XjX1XgXjXgX;X1X1X:X:X).Z.Z.Z.#X4X1X-.( k.-.} U 3.M.S.(.F.I.M.M g g J U U n.,.1.g g s f J C } F.M.d.4.4.&.S S u u G %.D.d @.$.&.*.q.&.H R %.d b F M & X & = 1 H R 1.:.R 5.[ E (.vXyXF.) M a m 1.f.f.&X    -X      &X-X      pXD.                                                      ",
"                                                                  ;XI.F.+X@X~.F.).).).F.k.) a & 1 d d r r = d L #.:.y d d r R 4.4.d t b 1 D ^ D d d L +.y d y d = % r &.XX6XB.@.D @.:.w.q.q.B.$.:.D g +.@. Xv.L w.:.b.F.4.#.#.D f.n.D t d = d ^ ^ 4.C.f.*XyX,XjXlX:X:X:X1X4X4X:X:X5X:X5X].^.].$X/.^.N.9.8.~.Z.*X=Xm & 2 c c x 5 v U J 9 } f.a * < 5 a a a p 5 2 3 p p M U $ 5 M b x B M a 2 a ~ } ( } ,.} } } C n f C  .[  . .;.0. . . .8.;.K * s s h C h h K A h K [ K K A K K A A A { { A { h h { K K K h h w J l.M.d.S.S.k.3.8.3.;.;.[ T [ [ J E R r E <XF.&Xv.< ^ =XrX XP.4.b 3 > t x 1 3 n m I M J M M M n.=X&X<.> 3 3 t = 2 3 M p t t R F t $ & # $ $ X 1 r b 3 b m.s.b r = $ 1 1 4 $ , 1 o $ $ $ $ $ , $ a L.U._.>X=X>X(._.pXtX&XnXhX,X;XjX1XjXjXgX:X,X:XjX:X4X:X~.~.).~.~.:X1XM.5.d.J J J 3.3.l.F.l.F.F.M.-.P U P d >.5.5.-.R f * K C | V.M.F.D.4.#.S y u d b &.D.@.&.$.q.m.4.S d b %.F r D F a 1 3 3 r D D R R J 5.5.~.@XgX1XV.2.>.I U a P <.D.    A.    tX<XbX      D.Y.                                                      ",
"                                                                  &XU._.@X(.@X@X).F.5.J s M n U b 1 r 1 d R {.{.b.&.G G #.S d r t t b F G ^ D D r % e r = = D D e u u r $.}.B.L L L $.B.w.$.w.w.@.d L R #.{.#.L $.#.4.D.<Xv.U M L t d d 1 u b y t ^ n. XM.*XjXgX:X#X1X4X:X4X4X:X:X$X$X$X$X$X].$X]./.~.!.z.N.Z.*XY.M o , c c c p 9 C s 0 2.d.s & * 3 p p p a 5 3 0 a a m ! , 5 B x x B M a 3 0 Y } ( ( ( I C C n s s K  .{  . .0.;. . . .7.;.K * s s s h s h K A C K K K A h A K h A A { { A K h K { { { K h A q Y k.k.M.V.F.k.3.l.;.-.,.| | -.E T U s - D &X<XY.U & 4.=X-XC.%.^ a d a b U p d n D M.<.>.M n 3 p a n 3 = 3 U ) 3 t R ) I b 1 = $ 1 a 1 $ b F r . # = r g ) R 1 % = $ = 1 4 $ t 1 $ $ $ $ $ $ , 2 >.=X'.*XtX;X;X;X+XA.F.I.*X>XjXCXhX4XlX4X:X+X:X1X:X#X$X:X^.^.#X).~.#X:X4X(.3.E -.5.-.f T 5.-.5.5.d.5.Y D g g a D E v.v.4.D M m -.M.F.Y. XD.^ b b t y y d J.{.m.s.m.m.#.y d D s.U F D b F b t r d D D R 4.1.5.F.+X2X@X2XV.I P E D a U <.&XNXtXn.zX<X X X%X6X  <Xv.rX                                                      ",
"                                                                    tX1X+X(.+XF.-.T T -.d.Y.F.D.D.b 1 1 H XX<X{.#.y d u d d S b y F d d D u % d u = d r j 4.{.L d b.w.L H w.:.@.@.@.$.:.e.:.:.:.j r D D j R D g d D -.w.<X<X5.-.d r % # r t t 1 F F >.U.a.k.hX*X).:X4X$X:X:X$X:X$X$X5X$X!.$X/.].].^.^.$X~.8.S._.Y.x o , c 5 5 x p v < s d.a.v * & < 5 5 0 a 0 3 p 0 x U / > 0 b M x M Z m 0 9 Z } ,.} ( T C U T C A T  .[  .;.7. .;.;.;.;. .A * s s s h g s A h s h A h s s C A q s h K A h K K h { { K K h A 9 Y d.d.V.V.A.l.3.5.,.-.3.| E | T M f 3 1 = D s.U = r a f.4.R m F a b 1 3 d t d m n ,.) #.) I m = & < 3 r = P I 3 d #.1.b p r % 1 a F & D f.R 1 = & = % = 1 % 1 b % 1 1 = 1 = t 1 $ $ 1 $ o $ $ p U.kX=X>XgXgX>X2XgX;X*X+XV.5.F.).#X:XjX:X:X:X4X:X#X#X$X:X#X#X#X^.#X^.).:X#X#X(.S.3.f E J s J 5.M.l.-.( 1.D D Y #.R 4.v.#.#.L #.-.M.C.D.Y.n.n.s.F b ! b M n.P.D.4.#.b u S D G D.4.b F U d d d d r t D U -.4.5.F.+XF.;X;X-.J f m f d d ) @XZX<Xv.@Xv.M.D.@X@X6XG.b.zX                                                      ",
"                                                                    sX&X-X-X(.M.5.F.+X@XU.&X XY.XX^ e R b.v.q.m.u e y y u y d = y S R S d = = r S u r e D q.:.d @.XX}.:.@.$.@.j :.@.:.$.L :.B.$.g f g R D = g g D D E v.D.6X@XF.-Xv.D 1 r & D ^ R ^ ) a.) / V.I.#X5X:X].$X$X].$X$X5X$X/.]./.9.^.!.!.^.#X^.N.~._.'.p , 7 6 6 c p a a & m d.a.s & < < 3 3 3 p 5 3 0 3 p Z ! & 5 x B M M Z Y Z v Z ( } ( ( ( Y T T T T [ [ [  .7.8.;.;.;.;.3.;.A * s s s s 9 g h s q s h s q q h C q q s h h h A A h K K A A s h 9 Y d.d.V.A.V.l.3.,.,.3.,.E J U m a g M 4.1.1 t % U 5.f a a a b M m b 3 r & t a t t n n P <.E I r = 3 < < = 3 M a r 3 3 & 1 1 d D b D 3 L d = & # & g 1 = t 1 %.F $ t 1 = 1 $ 3 3 $ $ 4 1 $ $ $ ! iXsXeX>XtX1X;X1X2X1X>X;X(.[ l.~.).;X4X4X4X1X4X4X$X:X:X+X).#X).!.Z.~.).#X#XF.;.~.;.g -.T C * s | J E 1.1.P U f.s.4.:.4.#.w.:.R R L d D ^ 4.s.%.%.s.` s.s.C.h.F D R b = y D 4.n.b 3 1 t t a 3 t M F D R L 5.M.V.S.M. XM.E #.g r f r g 5.2XZX X4.M.v.%X}.%XvX}.6.{.                                qXuX                    ",
"                                                                      &X-X&X(.@X@X+X(.@X-XD.n.D. Xs.R D.XXb.XXv.u y e u = u u u % y &.S 1 u u d &.y y u H j L j :.{.B.:.:.+.+.+.t.L :.+.j +.w.6.= e D v.v.R f M.2X4.-.D.v.%X2X5.@X<X<XD.%.y t c b ^ U b m Z / k.).$X/./././.]./.$X5X]./.].9.7.!.Q.^.#XZ.Z.).).(.L.2 > 7 7 6 5 p x a < a >.f.s & < 3 3 2 2 5 5 2 5 2 0 m ~ > 5 n M Z m Z Y Y Z Z | T T T ( T T ( | | [ [ {  .7.;.;.;. .;.7.;.K * s 0 9 0 9 9 q g q s s 0 9 9 q s q q q h h s h h s K K A A q s 9 U a.k.V.V.V.c.,.3.} ) T T J J M M U a. XL.d 3 b D.<XD.n 3 t b b %.F p 1 d v.) 3 r / #.R ^ m M a D ) R p = r R n 3 r p p t 1 M b F %.D D d = = r D :.#.# r #.s.3 = b t 1 3 $ = = $ $ 4 1 o $ $ h.FXkXhXgXyX>X1XvXgXhXgX;X).| 5.gX4X$X4X4XjX:X4X4X$X;X:X).^.#X).~.^.~.~.).#X8.f F.;.J 3.T g g T s g E I.M./ 3 g D #.4.v.4.$.#.D j u y +.s.v.n.%.! K.s.4 6 F .X! _ b b t b F ^ G 1 t # $ = r r t D R r d U v.F.S.M.#.-.#.L f r d e g $.<XZX2XD.:.:.%X3X}.%X6Xw.w.G.                          -XsXGXrXuX                    ",
"                                                                        =X&XtX>X;X;X@X_.+XY..X X.X{.v.4.S y R $.u u = u u u = y u H t % t y = u G = e H j j $.g @.:.e.|.6.+.@.:.+.6.%XB.H L #.R g f 4.D.D.5.1.@XCX2XM.5.B.%X4XB.Y.ZX Xv.<X4.% = c b d 2 U / ) ~ 8.!.Q.Q.Q.9.9./.$X].].].9.o.Q.Q.^.$X$XN.l.#X(.(.f.> > , 6 2 , x n M p & U C.M & < 3 5 < < 5 5 5 3 2 0 M ~ > 5 M m I C I Y U Z Y Y T T T T ( } T T T T | [  .7.;.;.;.[ ;.3.;.T * a 0 9 9 0 9 3 0 0 9 s 0 9 < 9 0 9 9 9 s s s s s s A C h h 9 s 9 C 5.d.V.d.k.,.} ,.| Y m J J I U <.C.&XY.C.%.3 d s.4.s.R r r t t m m U d 1.n.n 5 F C.n./ P #.1.s.v.P.v.p r D b d t F 1.R 3 = t D v.4.4.4.d r D #.E v.R r = &.H % y b 3 = 1 $ 3 1 # , 4 1 o ; & h.mXsXkXhXjXgXvXgXyX1XgXgXgXN.[ F.4X:X:X4X4X:X5X:X#X+X:X:X$X:X#X).~.Z.~.:X#XN.[ S.8.M.S.| K E f J T s T g Y E r = 3 b #.4.4.D j r u R &.%.%.%.^ N N .Xh.c b .Xp.F S y b b b b t 1 % # = 1 1 r t D R a D 4.P 5.d.M.-.E f f J r g r R {.{.B.:.w.w.:.}.|.|.6X%X:.:.B.    -X                  pXuX                            ",
"                                                                          =X-X2X*X+X_.Y.;X-X&X=XcXs.D S S S # = = = S %.%.d u d d y % 1 y d d 1 d e = d j :.e.k @.w.r.|.B.w.:.+.w.6X6X6X-.D R #.v.F.F.M.F. X@X<XZXvX<XM.S.G.2X}.F.zXpX4.4.m.D = 1 1 t b I _ ) Y | N.N.z.8.7.7.N.Q./.N.0.0.0.9.Q.^.^.$X8.7.Z.F.U...& 7 , 6 6 4 B Z M a > x a.M & 2 5 p p 5 2 5 5 p a a m P & 2 a M m U I ~ / ~ Y Y T T T ( ( E | T T T [ ;.7.7.;. . .[  .;.| C * s 0 9 0 0 9 < 3 < 9 a 9 3 < 9 9 < < < s C a s s g h f q s 9 q 9 s } 2.d.2.d.} T ( Y J a m C J E U.&X<X-XY.) 3 r a U R %.F r t 1 & U s.b a 3 m P a ^ m 1 U n.Y.P..XP.F 1 F ) 4.a & %.f.D = r . D D.n.v.S = r #.#.#.4.S r r R d r D d t # r t t t $ $ 4 6 , $ $ n.mXiXkXbXjXgXgX1X,X+XhX1X+XM.5.N.+XZX4X:X:XjX4X:X#X;X4XjX4X$X^.).~.Z.^./.^.@XZ.F.~.2X~.M.5.M.E J -.( -.f E M.>.g 1 r f #.v.#.= e j #.&.R y : 1 4 1 Q .Xp.%.wXK.4 t t F S u S D u # % % y r D ^ U #.^ % P ) 4.A.M.R M g L L :.:.$.+.#.L L 4.b.j +.}.}.B.6Xw.:.:.}.   X X                xXxX                              ",
"                                                                            uX-X&X*X_.&X&X-XpXrXP.D ^ 4.v.4.d = # D m.4.#.D H S d u 1 y G D.m.e S j d r L }.w.:.:.6.}.%XOXOXB.B.2XZXZXvXF.v.U.tXpXvXA.D.vXvX<X%XZXvX2XS.M.B.6X%XF.zXbXC.4.D.4.r $ 4 t M P U ~ / X.l.N.N.!.^.Q.Q.^.N.0.;.9.N.Q.^.!.].^.N.!.Z.k.k.U , 2 , 6 6 c x x p p > 2 ! p > 3 2 2 2 5 5 5 a x a a I I & 3 n Z U Y I I I Y ( ( T ( ( T T T T | | T [ | X.;. .[ [ T | X.| C & 0 0 0 9 9 9 9 3 < 3 0 9 3 * < 3 < < < s n s s s 9 g s 9 q < 9 3 0 U ) >.} ,.T C T C f s J ( E J U } 1.) D r D 4.b m f.Y.D.^ 1 3 a b F 1 1 ! n.M $ & $ # > 3 F v.C.F 3 ^ D.=X-Xd 1 4.f.d = 1 % d D.n.H r r r -.4.#.#.r % t d = b d 1 1 1 r 1 1 1 $ $ 4 4 . 1 > s.mXkXiXyXgXnXjX(.`.jXvXgX3.| S.8.:X4X$X;X4X4X1X1X#X:X4X$X#X#X/.)./.Z.~.~.Z.Z.@XF.^.+X:XF.l.N.M.5.5.4.5.1.<.2.) f D a r D 4.#.u d @.@.#.e # : % # $ t %.F b F K.Q 4 b b b : t b &.D r = d R 4.4.4.R 4.1 a 1.D.%Xf.D g g d L w. X%X+.d d j :.:.j w.|.t.B.}.+.B.:.%XzXD.&XpX            zXpXpX-XqX                          ",
"                                                                              =X'.Y.I.&XtXxX=X<XC.d D R S D y u = d ^ &.D.v.f d 1 1 R D.rXxXD.r b R 4.B.B.%Xw.B.w.w.OX3X3X3XOX@XZXZXZXbXiXiXNXiXzXNXF. XZXnX2X2XvXvXvX@X5.M.2X%XF.zXbX XC. XY.b , 6 6 B ) ) >.2.,.5.z.N.!././.$X/.N.7.9.Q.Q.Q./.$X].z.Z.].N.A.A.M > 7 1 7 , p x M x p > & p 5 5 5 p p p p p p x a a 0 m m & 3 n m m C C Z U U U Y ( | | Y U C U ( T T 3.F.(.F.l.5.;.| X.X.| C * 0 a s a 0 a s 0 9 0 a 0 3 & * < < < * * 3 9 9 9 3 < 9 3 9 * 9 9 * C } <.( ( J C E C f f J -.5.3.) ) D a f R -XtX4.3 r n P F d 1 b x 2 p n a 5 = & & & 3 t > > a a & ! .X-X.X>.3 r 1.U 1 d r = t n.#.= r d r 4.B.#.R g r r = 3 D d d t t d r = 1 $ $ 1 6 $ , o s.mXiXhXgXgXgX1X(._.hXyXyX5.| @XV.+XgXjX2X4X:X1X4X:X:X+X~.+X#X^.~.~.~.#XF.Z.).:X1X#X+X+XF.M.~.S.M.5.E D f m M I / M.f r r R 4.u D $.R R S G y % % : u F b 1 ; ^ g.z ^ z 1 y b D 4.#.L $.v.q.v.%Xb.v.%.d < 1.&XF.J D g g g L +.w.}.6.r r d v.+.W L W +.}.:.+.w.:.%X%Xv.<X&X      tXtX  tX&XpX                              ",
"                                                                                '.Y.P.Y.&XrX=XpX4.u b H = u y = u H v.XXD.R :.R d D.NXNXNXxX4.d S #. XzX%XB.:.%XB.}.%X3X4X2X%X2XCXZXvXiXbXJXNX2XnXpXU.*XZXvXpX2XpXZXvX;X5.M.%X%XF.zXzX X4.4..XC.4 4 6 F ) ) >.2.-.-.M.Z.~.!.^.$X^.Q.Q.Q.Q.!./.$X5X^.8.~.~.Z._.U.n , , , , $ 5 M x a 2 > > 2 > > 2 5 5 3 0 0 5 a a a s M P a n P Y / ( ) ..,.,.,.>.,.2.d.k.V.F._._._._.1XnXVXVXvXhX1X`.(.S.c.} m M s v M M C Z C a v Z U Y ~ } ,.2.a.a.2.} U 9 9 3 * * & & * 3 9 * 9 n Y Y ( J g M m C J E E ( -.-.( J f d M C.Y.U 3 = 3 = & p d b a 3 a a p 3 a 3 & & 3 a 3 3 t 3 & ) &XY.%.3 & = U n a M 1 # 1 d r - 3 3 r J v.:.d r r = = d D f D b t t r u r & & 1 , $ $ $ g.mXiXkXNXyX*X;X>X>X>XgXhX*X3.c.l.l.ZX1X2XF.;XgX1X:X+X).~.^.~.Z.~.N.^.+XS.Z.:X~.2X:X1X2XM.M.~.S.;X5.E T d a g M U >.Y r = d R S H #.H S @.m.G G y = 1 y b $ z N n.g.Q : : #.y G q.:.L L L #.L B.4.4.4.) r d #.U = b r g j j L B. XB.H d r R W j j d w.%Xj :.+.w.zXv.v.F.D.    Y.D.2XbX-X=X                                ",
"                                                                                      =X&X-XiXD.S y d u r = = = = 4.<Xv.#.#.ZXD.C.bXNXzXNXNXC.M. XR }.%X}.4.B.}.}.6X%X2X6X2X2X2XJXbXbXbXbXMXNXnXvX=X=X=XvXvXhX1XpXZXpX;Xv.B.%X3X}.2XzX<Xv.n.=X.Xt , 3 F ) %.) / 5.3.k.M.Z.~.].:X$X/.^.!.Q.!./.^.$X!.N./.Z.`.I.C.p o , ; , > 2 2 & 3 3 a Z U Z U U ~ I ~ >.f.f.f.k.f.V.C.I.U.I.I.*XtXgXhXgXhXnXnXnXnXnXnXnXnXBXBXCXJXJXVXnXkXVXVXVXVXVXBXVXnXhXtX>X_.'.=X*X=X>X>X=XeXgXhXnXnXMXMXBXnXBXCXhXS.n a 3 C U J n s s 0 s a a s a m U U M J I E ,.} E Y Y J f m U D m a 1 g P R m I 1.1.m & m n.n.d.>.) n 3 - 3 a M U / / M 5 n 3 & a a - a a a r f f = r 3 s m J D d 5.-.R ) 5.5.1.#.#.f d D d r d d r & $ 3 6 1 1 , %.mXbXbXgX>X1XgXgXhXpXBXnXgXM.,.M.| S.ZXF.F.vX;XgX4X#X(.~.~.Z.Z.).$X+X+X(.+X1X+X;X1X2XI.E 5.V.5.M.@XR s U m 3 1 3 a #.L 3 d d G @.@.y u G G G b.&.y = d s.b $ 1 F .XG % y ^ u S 4.w.j j $.:.$.$.D d g -.R = d 3 r 1 t r j +.:.B.4.L e r d d R H g D %X$.k :.@.%X%X$.b.:.zXzXB.M.%XiX                                      ",
"                                                                                          Y.4.D S R G R #.@.H = S  X XH R %X6X<X<XBXNXNXbXpXY.zX2X5.@X%XD.:.}.2X%X4X X2X2XpXbX-XbXbXNXbXNXNXNXnX@X%XpX2XnXpX1XgXvXBX2X3XM.M.F.@XF.;XvX%XD.-X-Xs.1 $ a ^ >.<.<.>.<.2.l.l.M.~.).).$X^.!.^.^.#X$X$X:X!.N.^.Z.#XI.L.n o , o o , 2 a U _ ..>.a.a.a.d.x.V.C.A.U.*X*X+X>X*XtXyXvXnXyXgXnXBXJXJXBXBXBXBXCXJXJXJXCXBXnXnXnXBXVXBXBXBXBXvXnXnXVXVXBXBXBXJXJXBXJXJXBXBXBXBXBXCXBXBXVXBXBXNXBXNXnXVXVX;XU 9 g V.>X>X_._.(.A.V.d.2.2.5.A.;X1XA.I.;XyXpX1X;Xk.I I E Y ) ) f < a f m ^ P #.v.#.d 3 5.tXpX=XA.V.d.( f n } _.iXiXtXU.>.U P 1.'.C.M a Y d.<.( U m U U >.2.M.A.v.M.%X2XyX2X&X2X<XzXF.5.%.D b ^ H d r 3 > 5 , 1 $ p.FXMXbXyXtXhXnXvXBXBXBXnXpX1XA.f.d.5.(.l.yXnXvXgX1X#X@X~.~.).).).:X@X(.+XM.5.=X2X2X;XM.-.-.v.#.L D.4.r L D = 1 F d d R r r r H R S % % @.$.$.m.@.H y y R S 1 S ^ .XXXb m.d # H m.e.:.*.@.:.w.@.#.4.g d J D = r = d d r j +.+.B.}.L r u r D L L e b.}.g L :.6.}.+.W $.D. X:.B.%X%XpX                                      ",
"                                                                                            a R q.{.$.$.q.4.H d D.{.+.R 4.ZX6X6XbXbXbXMXNXiX2XZX%X%X2X X4.F.zX@X@XzX@X2XzXpXbX-XiXNXbXzXvXZXvX1X;XvXvX2XCXvX1XyXvXZX1X2XM.M.G.}.F.2XvX%X X.X1.2 $ 1 m %.%.>.f.h.a.d.2.X.3.S.+X#X$X$X#X$X$X$X$X:X4X!.z.^.~.)._.V.m $ $ O o 5 B 1.<.f.k.f.h.k.V.A.x.A.I.+X;X1XyXyXhXgXhXvXvXhXhXnXVXVXnXnXBXBXMXnXnXnXnXnXnXBXCXCXNXBXBXBXMXnXBXBXCXBXVXnXnXnXnXBXvXnXnXnXhXnXbXnXVXVXvXnXvXZXvXvXvXnXnXvXvX1XT * C >XgX1X*X>X>XtXhXhXbXNXnXnXNXnXBXNXVXvXgXgXvX_./ f M f f a 3 n v.U - g n a n D J f C.2X;X;X1X1XnX;XI.U.&XyXyX>X;X=XtXyXyXgXtX>X>X;X1XpXvXyXI.f.V.M.U.2X;X1XZXZXvXNXCXnXyXZXNXvXZXZX%X) f R f R  X Xs.m & & $ f.FXMXbXhXpXgXvXvXNXBXNXBXvXNXI.2.-.5.A.I.;XvX*XgX1X2X4X#X~.(.#X$X;X+X+X@XE M @X*X;XY.E 1.4.5.#.g R v.d d F D b d D d r e e e y y = e u G *.@.G H i G e R R u s.P.s.P.XXm.d R d $.B.:.e.@.L $.$.$.D D #.D R g = r b b +.w.6.:.w.+.d r r r D D - R  XW g g g t.L j +.w.b.:.}.}.G.3X                                        ",
"                                                          LXLXJXJXJXKX                      ^ C.D.b.4.$.#.D #. X6X#.D L :.2X2XZXZXMXMXNXCXMXNXZX%X2XvXv.v.2X2XF.@XZX=X2XbX=XtX&X=XZXzXJXnXZX@X@XyXZXvX2XvXhXvXvXvXvXpXvXv.w.F.@XV.2XbX&Xf.m $ = = 3 a ^ 1.2.M.k.f.d.} ,.5.S.).#X$X:X$X].#X$X:X4X5X!.Z.#X~._._.U 2 O , , 5 N P / } -.f.M.V.A.I.A.I.A.(.*X,X1X1X1XyXjXgXgX,X,XnXVXhXnXnXnXVXVXBXVXvXnXBXBXBXnXnXnXnXVXVXBXBXnXnXNXNXnXnXnXnXvXgXvXgXhXgXhXnXnXnXnXvXvXvXVXVXVXvXvXvXVXVXVXgX(.C * -.nXhXhXnXhXhXnXnXvXnXnXhXhXnXvXhXnXvXhXnXvXvXyXF.U M a M I 1.D.&X2.d.1.1.1.1.C.@XF.;X2X1X1XvXvXvXvXvXVXnXVXhXgXhXvXhXvXhXhXhXnXvXhXvXNXhXnXvXnXvXhXhXpXgXvXCXNXZXvXhXvXnXvXVXvXvXvXvX Xf.M.E 1.tXtXtXA.n o $ h.mXFXMXhXgXgXgXyXhXnXBXCXZXpXI.I.4.-.,.#.V.1X*X1XZXvXgX;X~.).#X#X+X;X+X+X) / *X X&XA.R #.5.D #.r r D r y F D b 3 R 4.D u u y % u e = % S @.H j y S j y #.4.&.&.^ 1 G .XR u d e B.}.@.*.oX$.@.@.R D g j D r R d d D {.%XB.:.w.+.j r 1 d H R r r  XB.r W e.k L k k +.w.w.B.B.r.G.F. X                                      ",
"                                                    JXJXJXJXJXJXJXMXJXJX                      ) #.#.#.+.E v.@X2X XL L D :.zXzXZXBXJXMXMXNXNXNXnX@X2X%Xd.pXNXNXvXzXbXtXiXbXiX2X<XU.zXJXvXyXU.@XvXpXpX1X2XpXvXvX2XzXvX2X2XM.4.@X XM.f.) n & o 4 $ $ c F U ) ) -.3.2.V.M.S.F.Z.+X).#X:X:X5X:X#X:X4X5XQ.!.).`.+XV.& o > 5 n m U U P T T ( 5.M.V.V.V.Z.F.(.+X1X1X1X;X:X:X:X:X4XjXjX4XjXvXVXvXjXVXVXVXVXVXVXVXvXvXVXnXBXBXBXVXBXBXNXnXvXvXvXvXvXvXvXnXgXvXnXnXnXnXvXvXvXnXVXnXhXvXZXZXVXZXVXvX).5.s 9 V.nXBXMXBXBXJXBXBXBXBXBXBXBXBXnXvXnXnXvXnXnXvXvXvXpX>X>XyXhXnXkXhXvXnXnXnXvXnXnXhXgXyXyXyXgXhXjXjXjXlXgXhXhXhXhXjXjXhXnXnXkXkXnXnXvXjXgXhXyXgXnXnXZXZXvXhXvXvXvXnXvXkXnXVXVXvXjXhXpXhXvXgX;X*X;X1X;X;XtXP X , K.PXGXkXyXjX4X2X:X;XyXnXVXVXvX=XA.F.F.5.L R 5.@X2X;X@X2X%X1X+XF.;XyX;X+XY.m I pXL.C.#.E f.1.g R D r d b b ^ F R D d 4.D.b = t u : % u 1 G G y y y d @.H d n.^ 4 4 , 1 p.n.y b s.XX#.j i e.B.+.j y D f r d r #.v.d b.zX6X}.+.+.L d r r R 1.g e B.}.k g r.b.@.d +.*.e.w.B.r.6.:.6.B.1.5.C.Y.                                ",
"                                                  JXJXJXJXJXJXCXCXCXJXJX                          <X@XD.F.%X<X2X%X1.R D 4.<XbXBXNXMXMXMXNXnXnXvX@XpXI.U.vXNXCXMXbXCX*X;XpX2X2XvX@XF.@XF.F.=XbX2X1XpXvXvXvXvXpX1XzXvXzX2XM.-.4.#.f a a & X 1 , , 4 t ^ n.M.2.,.5.v.M.(.F.Z.+X~.#X$X~.).5X:X5X4X5X5X!.!.Z._.>XI & < p m ) >.<.<.d.l.5.5.V.M.M.N.Z.N.Z.).^.#X#X:X:X#X$X:X:X:X:X:X5X4X4X4X4X4XjXjX4XjX4X4XjXvXVXVXvXVXvXhXgXvXVXVXNXVXZXnXnXvXvXnXnXnXvXvXhXvXvXnXnXnXvXhXgXjXvXvXvXvX:X@X5.5.8.9 s *XBXBXnXBXBXJXJXBXJXJXJXJXCXBXBXBXCXCXBXBXBXNXNXNXNXnXNXnXnXMXVXnXnXVXnXnXvXnXnXhXhXgXgXhXvXvXvXnXvXhXnXvXhXjXgXhXhXvXnXVXVXvXgXjXjXjXjXvXvXhXhXnXnXvXgXjXjXkXkXNXnXhXkXvXvXhXgXvXhXhXvXvXgXjXhXjX1XyXiX) $ , R.LXmXpXtXgX4X:X+X,XyXjXvXVXnX+Xf.) M.v.D.4.#.F.S.-.M.w.w.2X@X,.I.yX*X2XC.U / &XU.C.) U #.#.f L D 1 r d d t t ! ^ b F %.R u u t : = % u b y u = y S G S S D s.F $ $ N B Y.v.#.s.G e i e j {.XX+.L d d r d L $.6X{.3X6X%X@.+.k j d r d R S = R %Xe.e k e.@.e @.|.:.e.r.e.@.L +.%X  C.D.&XqX                                ",
"                                              JXJXJXJXJXJXJXJXJXJXJXJXbX=X                          pX-X2X2X;X;XvX2X<X-XiXbXbXbXNXBXMXBXNXNXMXvX*X2XF.pXNXvXMXBXCXbX@XU.=XvXvXpXvX@XI.2XvXvXvXZXvXvXvXvXvXvXvXZXvXvX2XF.E f f f U Y 2.U $ & $ 6 F _ %.Y.tXA.3.k.V.A.M.N.M.Z.~./.^.!.].:X:X5X4X:X$X!.!.F.+XI.< & x P <.C.M.A.Y.=X1X1X2X1X;X@X~.F.~.S.M.l.N.Z.~.~.~.).@X).).).#X#X:X$X#X#X:X:X:X:X:X:X5X4X4X4XjXnXhXvXnXVXBXBXVXnXVXVXNXNXVXVXVXVXnXkXhXhXkXhXhXjXjXjXgXgXhXvX4X2X~.3.;.-.l.| * } hXBXCXBXBXnXNXMXJXJXBXBXBXCXCXCXBXBXBXVXNXnXnXNXBXBXBXBXVXVXMXnXnXnXnXnXnXnXnXVXVXnXvXnXnXnXnXnXVXBXBXVXnXkXvXvXVXnXjXjXnXnXnXvXnXnXvXhXVXVXnXhXkXvXvXhXjXkXvXkXnXhXjXjXjXjXjXhXnXhXhXgXgXgXjXgX:X,X1XU.m $ , f.GXmXnXhXgXjX1X#X*X&X>XhXVXnXhX1X5.E J 4.M.#.-.M.M.%XG.:.B. Xf.D.I.=X<XD.I P Y.=XC.R L D b d t d t d r b t F b b b d r 1 1 : u u t u y u u % = S b y S &.: 1 ` %.1 1 b %..X.XR b j y e j q.%Xb.r #.D r = d j w.}.r.6X|.+.t.j k g r d d e D B.|.k e j j @.$.w.e.r.w.+.k W t.}.                                            ",
"                                            KXKXJXJXJXJXJXJXJXJXJXCXiXU.Y.                          <X<X2X;X1X2X>XpXiXzXbXbXvXNXbXMXMXBXNXNXZXyX=X@X*XnXMXvXbXMXCXNXMXNXNXvXM.-.S.2XvXvXZXBXvXBXvXvXvXgXyX1X;X@XA.M.3.J g g E M.d.5.A.h.x > 4 4 F p.n..X=XA.V.F.F.5.f J [ [ ~.).!.$X4X:X5X4X:X5X$X~.^.,X*X,.& 5 x m / / / d.M.V.(.+X2X2X1XvX2X(.F.Z.F.(.^.Z.Z.F.~.^.~.~.).@X+X#X#X#X#X#X#X#X$X:X:X4X5X1XjXjXjXvXnXnXVXnXnXnXNXBXBXBXBXBXBXVXnXhXvXhXhXnXnXhXjXjXvXvXgXgXgXvXnXvX;X3.T 5.N.s s S.jXkXCXCXJXCXMXJXJXJXCXBXBXCXJXJXBXCXBXBXBXBXBXBXBXBXMXBXBXBXMXnXnXnXVXVXVXVXVXVXVXnXnXBXBXNXnXnXnXNXnXnXnXbXNXNXNXnXnXVXnXvXhXvXhXjXjXkXnXnXhXjXhXvXnXkXkXnXnXnXhXbXnXnXhXgXgXhXhXhXgXgXgXjXgXgX>X`.S.f.~ = & s.FXMXhXtX1XjXjX@X&X_.*XgXhXgXvXNXzXF.1.M.A.J E M.M.v. XF.4.w.v.5.f.<X<XC.E R f.-X4.t ^ f r L R R u u d b F b t 1 = 1 1 1 1 % u d 1 t t y t % : u # y G R D % % d ) n 1 = d  X.X&.S y u e j B.b.g L d r e j +.@.+.:.r.|.r.e.@.g g r j e e 6.}.$.e r g +.{.w.q.e.e.k k @.t.+.%X                                            ",
"                                          JXJXJXJXJXJXJXJXJXCXnXiXtXU.C.R.                          pX>X1XyXgX1X2X1XpXiXvXbXhXiXNXMXBXJXCXBXnX=X2X@XiXNXMXNXnXBXJXCXJXCXCX@X-.M.5.5.M.S.M.l.5.l.,.3.5.5.M.V.M.5.-.-.T m s J 5.A.S.A.*X&X) $ , 4 N p.%.K.-XY.A.I.S.E J E 5.8.~.^.].5X4X:X4X4X#X$X#X).#X*X_.m > x a > p <.U.-XI.I.I.(.@X@X+X;X@XN.l.5.5.M.F.#X:X1X:X:X:X$X:X#X+X+X+X+X;X;X:X#X:X1XjXjXjXjXvXvXvXVXnXnXVXBXBXBXVXNXVXNXVXBXBXBXNXvXBXnXnXVXVXnXVXBXVXBXBXBXVXnXvXgXgXN.T 3.| g | *XkXgXnXnXBXJXCXJXJXJXJXJXJXCXBXBXBXJXBXBXBXBXBXBXnXNXnXnXnXkXnXnXnXnXnXnXnXnXnXkXhXkXnXVXVXnXnXnXBXMXMXMXMXMXMXMXMXBXBXBXBXnXnXnXVXVXCXJXJXCXVXVXVXBXBXnXnXMXBXBXBXBXBXBXBXnXnXnXnXBXBXBXBXBXVXVXnXjXk.f.L.p X >.mXMXbXbXvXhX1X(.k.k.A.+X>XyXyXyXbXvXZXvX2X4.2.2.-.:.v.w.#.E E B.4. XvX4.U #.d f.v.d D d &.D.4.&.d = y r t % = # % % r t 1 1 r u 1 u $ : : : u u u d y t 1 = = # = f d % = F P.rX#.y j d i 4.%X+.g j j g }.6X}.@.+.+.r.%X%X}.e.k g r g +.}.b.j - e :.}.B.q.:.+.g g t.e.t.r.6XvX%X%X                                      ",
"                                          JXJXJXJXJXKXJXNXtX&XY.U.U.U.P.                            pX=XyXtXtXgXyX>XyXtX1XvXnXNXnXnXBXBXVXBXnX>X2XyXvXCXnXNXMXBXJXJXCXJXnXd.5.S.F.S.S.M.-.-.E I E E ,.M.F.A.M.M.M.5.E | U E S.@XF.F.@X&XL.3 o 1 b ` t F f.U.A.I.l.[ 5.3.8.M.^.#X$X$X5X5X:X:X:X#X#X;X`.S.V.v > 5 ) <.M.U._.U._.1X1X2X1X1X1X1X1X;X+X+XF.l.3.5.8.M.F.).#X:X1X2X:X1X:X;X1X:X4X#X+X`.1XjXhXjXhXhXvXVXCXVXnXnXBXBXBXCXCXBXBXCXCXJXJXCXCXBXBXCXCXBXCXJXCXBXnXnXnXnXnXnXVX(.| 3.s a 3.;XVXkXnXkXnXBXNXBXBXBXBXBXBXBXMXMXBXBXBXnXBXBXBXBXBXBXCXCXCXCXBXVXCXBXBXVXVXBXCXCXVXVXCXJXJXJXJXJXJXJXJXJXJXJXJXJXJXJXJXJXJXJXJXJXJXJXBXhXyXjXhXhXNXBXBXBXBXCXJXJXJXJXBXJXJXJXBXBXJXJXJXCXCXBXBXVXVXnX2.P a.a & P qXbXbXNXNX>XA.d.3.2.l.A.&X1XgXgX=XbXzXbXCXbXNX<XM.:.:.:.j #.4.B.#.#.<XR D 1.D ) $.y y s.<Xm.S y d d d r 1 1 y d H b S R %.b # 1 F F u 1 1 u 1 1 u t 1 1 = r H L = % = = . 1 b D.cXD.#.D H j }.}.k L $.@.6XZX6XOX+.+.+.|.%X%X6Xk g @.r.}.w.L e - @.}.B.:.$.k e e @.r.t.t.}.3X3Xw.w.}.3X                                  ",
"                                          JXJXJXJXKXKXNX=XI.A.C.U.-XuX                                =XiX>X>XgX1XyXiXpXyXyXhXvXhXhXnXnXhXnXnX>X;XhXvXMXbXNXMXMXJXMXBXJX2X5.F.M.5.M.F.F.A.F.F.(.F.F.F.F.F.V.M.M.F.M.d.M.( E F.+XF.F.U.*XY.5 o 1 , 4 1 1 t C.&X@XS.5.M.l.8.M.$X$X5X$X5X4X#X#X:X+X+XF.,.d.k.a > > ) A.U.-X&XU.+X1X1X1XyXgX1X2X2X2X1X1X1X2X@XF.M.5.F.).+X+X+X@X(.+X;X,X1X:XjX1XgX1X>X_._.*X1XjXvXvXnXnXnXVXBXBXCXCXJXJXCXBXBXBXBXBXBXBXCXCXCXCXCXCXnXvXnXBXCXCXBXVXVX_.} | 9 U A.nXjXkXnXnXVXBXBXJXCXBXBXBXBXBXBXCXCXJXJXBXJXJXJXJXBXBXVXVXCXCXVXnXVXVXnXnXnXVXVXVXvXnXVXVXVXVXBXBXBXBXMXBXFXJXJXJXJXJXJXJXJXnXVXCXJXnXlX;X_.*X>X>XlXkXnXnXBXBXVXNXBXNXnXBXJXJXBXBXMXMXMXMXMXBXVXBXBXhXI.2.C.a o 3 a.sXJXiX'.k.k.A.A.A.F._.+X*X1XyX=XtXiXzXbXbXtXZX<X#.#.+.g D #.4.5.L 4.+.R / #.D G u d {.D.S u H S G S y ^ &.s.%.v.s.H y %.%.t : t t 1 1 = 1 1 1 1 1 1 = #. X3X6Xb.g 6.B.R d % ^ m.{.<X$.@.r @.{.@.L :.@.q.%X6X6XL k @.B.w.q.e.@.e.r.r.r.t.e # d  Xw.:.+.g # g t.r.6.+.@.r.6X3X6X|.r.B. X                                ",
"                                              KXKXJXMXiX=X-X-X-XqX                                    eX1X1X1X+X>XpXyXyXiXpXyXyXgXkXBXBXvXnXvX*X+XyXbXbXNXNXNXCXJXNXJXJXpX5.S.M.S.5.5.M.F.F.S.V.S.F.I.F.F.F.F.S.S.F.V.5.J ( I.@XV.S.F.-Xf.& & > $ 4 c 3 t Y.2XpX+X5.M.M.Z.@X$X$X:X4X:X#X#X^.^.Z.S.-.3 ,.a.2 > & F Y.*X&X+X>XhXyX1X1XyXyX1X1XyX1X1X1X2XgX2X+X+X:X+X;X;X2X1X>X;X1X,X*X+XV.V.5.l.d.,.( ( } ,.l.A.I.*X+X+X`._.;XgXBXnXnXvXvXnXnXnXNXBXBXBXBXBXCXBXBXBXBXBXVXVXnXnXnXVX,X,.s 9 ,.=X>X1XyX1XgXVXBXBXBXBXNXBXBXBXBXBXBXBXJXCXBXBXnXnXnXVXVXVXVXVXnXVXVXCXCXVXVXVXnXhXlXjXhXkXjXjXvXnXnXgXgXhXNXMXnXMXnXnXhXnXnX+Xl.N.,XjX,X,XhXkXkXnXnXhXhXjXjXhXvXkXhXpXhXnXnXnXnXnXNXNXbXbXbXnXnXnXnXnXhXtXA.Y.n o = x C.Y.C.L.Y.U._.A._.;X*X>XyXtX+X*X&Xf.<XU. XiXbX4.D #.R D d R #.R j L :.#.b R R #.d &.<XG y G G y S y d d S G G d y S d 1 = 1 $ $ $ $ $ = $ 1 t % % 1 R 6X6X}.|.%Xe.}.ZX6XXXL D $.G &.D.zXB.:.L +.@.@.g e G.zXw.j g j +.j u j @.e.|.e.t.k # r B.B.$.k e % e L e.e.r.+.k 6.|.7X7X|.+.:.M.                                ",
"                                                          uX-XuX                                      eXpXpXgX>XtX=X=X2XiXvXyX1XvXtXY.M.2XNXpX@X2XpXnXnXbXNXCXMXBXCXJXyXM.( E -.5.E 5.d.M.S.M.A.M.F.A.M.M.M.S.M.V.d.5.l.T Y V.I.f.M.F.I.d.2 & o t p.s.2 t C.U.2X1XF.M.~.+X$X@X$X$X4X^.~.~.N.F.V.( 9 9 >.P 3 & 2 P U.@X+XyXyXgXyXyXgX2X;XyXyXgXyX1X;X1X1X@X;X@X;X*X1X>X1X>X;XgXgXyXyX>X&X_.A.d.} E -.5.k.k.k.d.k.V.k.k.V.F.*XgXvXhXvXvXvXnXNXBXBXCXBXBXBXnXBXCXBXBXBXNXNXnXhXVXnXVX1XT s a l.>XjXjXvXgXhXVXvXnXBXBXJXBXVXCXJXCXJXCXBXMXBXBXVXVXnXVXCXJXCXVXVXVXVX1XV.5.V.*XjXnXVXCXCXCXVXVXVXVXvXnXVXBXJXBXBXJXBXnXkX>XF.8.~.:X#X,X4XlXgXjXhXjXjXhXhXhXvXkXhXhXvX+Xd.k.I.=XnXFXNXMXMXBXBXNXNXNXNXvXyXbXA.U./ X 2 3 M %.M.'.'.*X&XtX1X*X>XyXtX>X>X&X=Xf.4.>.C.=XtXv.E #.R R 4.w.4.L @.+.#.R D R L S r 4.m.u H $.j y d y u e u u y d = S d 1 1 = 1 $ 1 $ $ 1 3 t % # = y v.}.|.OX%XOXOX|.6X6X6Xw.H $.G y y $.b.{.%X{.B.+.H L g :.g k g j j H j j +.|.y.e.=.e g w.B.+.k e e @.=.k e.r.OXe.+.r.y.OX3X|.t.t.G.                                ",
"                                                                                          9Xh.p.        =X=XyXtXiX<X XU.Y.Y.U.V.A.<.I m J d.2X_.2XyX2XyXMXMXNXJXJXpXf.I m E #.,.M.A.M.,.-.5.f.A.M.M.S.5.V.f.d.5.d.d.,.M.( Y d.I.#.-.C.D.n.t $ 1 F n.n.b b %.&X-X2X;X}.@X3X@XM.N.#X^.Z.M.5.8.l.,.3 9 M >.a 2 3 a M C.Y.=XyXgXhXgX1X2X2XgXvXyXgX1X;X2XgX1X;X2X@X@X;X2X;X>X1X1XgXpXgXpXhXgXyXgX>XV.F.+X>X>X_.A.A.+XI.A.F._.;XgXnXhXhXnXnXnXvXnXVXBXNXNXBXCXBXCXJXBXCXBXnXnXnXnXVXnXJX*XT 0 s A.>X_._.jXvXnXVXVXBXBXVXnXVXCXVXgX1XvXnXCXCXCXJXCXVXBXVXgX,X:XjX4X`.l.;.-.3.3.3.l.F.`.,X,XjXvXnXVXCXJXJXJXCXCXCXCXBXjX,X+X~.).:X4X:X4X#X:X4X4X4X4XjXjX4XjXjXjXjXhXjXjXyX+Xk.-.} 2.L.kXNXbXiXtX&XU.A.F.*XhXvXM.A.s.& > & 2 / C.L.iX&X&X-X=X=X>XeX>X>X&X=X&Xf.D R C.-X-X<XC.:.L +.b. Xv.w.:.:.H S #.D L G u R d u S d d d &.y % = = u d #.H R &.#.D 3 $ , 1 $ 1 1 1 1 % u y u d j e.3X3X7X7X7X%X}.ZX}.j q.d u y H d H }.v.%X%XL g g j e e e j j d d e @.B.e.+.k e e.B.6.g e e +.%XOXr.y.OXOX|.e.t.e.OX|.OX|.3X                                  ",
"                                                                                    dXR.E.H.j.j.T.          >XU.C.h.<.<.E J Y P >.>.d.d.<.) J ) M.U.yXpXNXNXNXbXA.) P 1.5.f.M.F.F.@XA.A.M.5.<.d.V.5.V.F.V.M.5.-.5.M.2.d.J M >.C.E 1.v.D.A.M & 2 F h.n.c b 1.&X@X2X@X}.%X@XM.8.G.@XF.M.M.M.M.E a f f m I 3 & a I I C.@XpX1X2X1XyXyXyXyXyX2X1XgX2XyXgXgX;X;X;X;X*X*X>X>X1XyXpXiXyXgXbXnXgXyXgXhXkXhXjXjXhXpX;X_.U._.+X>XpXgXvXnXvXnXVXVXnXvXnXNXnXBXVXBXBXNXNXNXnXNXNXnXnXnXBXCXnXvXF.T * C _.>XI.c.F.*XyXhXhXnXBXCXJXCXjX(.l.c.k._.*X,X>XjXgX1X4X*X`.~.F.S.N.N.N.~.;X4X,X`.`.`.`.).F.F.~.`.#XlXvXjXjXjX1X#X+XlX4X:X:X:X4X1X4X4X4X4XjXjX4X4X4X4XjX4XjXjX4XjXjXjX4X1XvXvXvXjXV...) Y.MXiX) Y #.#.-.2XvX2XM.Y.<.> o 2 > ^ f.C.U.A.&X>XyXyXyX>X>XtX*X&XA.1.) C.rX-X.X XcX4.d L @.:.$.#.+.4.$.L #.d f f d d r y d e S @.@.S e = e u G R #.#.$.m.D = $ = 3 $ 3 r 3 1 1 u d j r @.%X3XOX7X7X7X7X}.3X|.j D G y j H = R b.d L w.6.g L :.d g g k j j g j @.+.t.k e +.|.e.L e e j @.y.3X3X7X3X3XOX|.OXy.y.r.OXOX|.                                  ",
"                                                                              GXGXR.p.g.E.9XE.K.T.            tXf.) P I J s f m Y >.,.M.C.f.>.m f m E / <.d.k.>.Y 1.5.5.M.M.5.5.D.F.5.-.4.M.f.>.-.M.d.2.f.M.1.5.5.4.2.a.J r ) <.m 4.F.n.<.n $ t b ! &.b D ^ 1.f.D.F.}.G.w.M.M.B.V.S.S.F.M.-.m J J m F a 5 2 P I U C.2X1X;XyXhX>X2X1XyXyX1XyXyX;X2X>X;X+X;X;X*X=X=X1XyX>X>XyXyXtXiXgXyXyXhXhXgXnXgXhXhXgXpX1X*X&X;X>XyXhXgXhXvXnXNXnXnXnXnXNXnXnXBXVXNXNXNXBXBXNXbXMXCXVXhXhXnXnX,X(.X.3 ( tXtX1XgXgX;X+X+X+X*X,X1XjXjX#XF.~.#X).).~.`.#X].;X,X).#X#X:X:X#X#X$X5X4X:X:X4X4X4X4X4X4X:X;X#X*X;X,X,X#X+X#X:X:X4XjX1X1XlXjXVX4X4X4X4X4X4X4X4X4X4X4XjX4X4X4X4X4X4X4X:X:XgX1X1XjXkXeXx.P 1.-X#.D #.#.1.%XzXF.C.Y.<.m > $ a f.P.Y.C.f.f.&XtXiXtX>X>XtXtX-XM.v..X.X.X4.t b v.4.+.R R L d u r y e u d = r D $.v.D.m.4.R H &.&.@.G i u j y S S y e u 1 % 1 1 = 3 d & = = y S u R H B.6X6X7XOXy.3X3X}.}.$.@.H G j d d = j +.g j :.t.j t.w.@.g k k k +.j L L @.+.e k B.w.L e e L k k +.|.7X7X7XOXr.3X7XOXr.e.OX|.w.5.                                ",
"                                                                            GXGXdXK.g.R.9X9XT.T.R.                Y.>.U n 5 2 x M 1.1.M.M.h.k.I M U Y I >.>.5.M.f.M.A.M.f.d.S.F.A.-.R -.<.,.#.5.-.#.1.<.-.#.f.5.4.4.C.v.D 3 ) C.f ^ D.v.s.U & r t t u y R R +.R R 5.D.B.B.M.w.B.}.%X%XD.E E -.2.>.I m p p p I >.P ,.=XpX1X@X1XgXhX=XI.A.V.V.F.;X2X2X2X=X1X;X;X*X;X>X>X*X;XyXhXhX1X>XyXpXtXhXnXyXhXnXvXyXyXpXhXvXvXyX1XyXhXhXnXBXnXvXnXNXBXnXnXBXNXNXnXnXNXNXNXnXNXnXnXnXnXVXvXjX,X`.5.s | yX1XyX1XgX4X,X1XhXjX:X:X+X#X#X#X$X:X#X).Z.~.#X#X4XjX4X4X:X:X5X5X5X5X:X4X:X:X4X4X4X4X4X:X4XjX4X:X:X:X$X4X:X1X1X#XF.c.| | c.S.#X4XlX:X4X5X:X:X4X4X4X5X4X4X4X5X4X4X4X5X5X4X$X,XnXhXjXkXeXU.I ) Y.R f R D  X<Xf.I.C.f./ x & c %.L.L.Y.M.d.U.yXhXeXeX>X&X=X=X X.XrXD.^ % % y u y #.4.q.@.L j #.d % u e R s.D.P.XXb.v.m.b.#.D j $.q.$.j j @.R H H d t S D b = & d b 1 u d D.4.e y j :.B.|.r.L e +.6X6Xe.k k L d e r S f d D g r.7X%Xe.e.3Xr.t.r.|.3Xe.L +.+.L g e $.w.:.r e j @.j k k t.3X7X7X7X6.OX7XOX+.+.6.6.:.w.                                ",
"                                                                        xXdXxXxXwXwXwXaXR.wX9XR.aX                      .XC.p.n.M.>.) f.a.d.f.I J J U I 1.2.d.d.d.M.M.-.d.M.M.F.5.J 4.D.f.1.<.<.f.-.U ,.-.R -.-.) / R D p r a m p U %.s.>.b 1 1 $ % b d d d H R E :.B.B.w.:.:.B.2X@Xw.D f >.M.M.L.>.a a a 3 p m P -.@XI.;X;X;X(.2.} U J Y U f f -.5.M.I.;X2X;X@X;X;X+X+X;X1X1X;X2X;X1X1X>X>XyXpXnXnXpXtXiXnXNXbXnXbXhXvXnXnXvXVXnXnXVXBXnXhXnXBXNXnXvXhXnXNXNXVXvXpXvXZXVXnX4X,X,X(.l.J ( >XyX1XgXgXgX1X1X1X:X#X1X#X:X:X:X$X#X^.).).).#X$X$X#X:X:X:X4X4X4X5X$X].$X:X4X4X4X5X5X5X4X4X4X:X$X:X4X4X:X:X#X~.l.,.} E | E J E 8.+X:X4X4X4X5X4X4X5X5X4X4X:X:X5X4X5X5X4X:X4XlX4X4XjXkXyXpXU.D R 4.d L +.}.v.-.M.a.<.M 5 5 5 s.sXuXNX>X&X>XiXhXeXeX>X_.>XtXrXpXD.4.^ u 1 r u R 4.H j d j L D i d S u $.D.4.4.4.&.@.G #.@.j #.b.b.q.H D H S H H S d S b a y t d r = u d D.R u H d - - - g g e e @.r.L L g e j S d r f f r W 6XOX3XOX|.ZXOXOXOXOXZX7XOX:.+.@.k j j L j g j k j k @.k t.6X7X7XZXt.6.3X|.=.t.t.+.L 6.                                ",
"                                                                      dXaXaXuXuXaXwXwXwX.XwXfXfX                            uXsXpXpX1.I <.d.d./ J J I / #.1.2.,.,.4.d.5.M.M.M.v.E J M. XD.F.-XU.v.D.4.f.4.4.D = & = r 1 3 t d d r n U 4.s.b 1 # t 1 u d S d d #.#.:.v.:.E +.4.w.w.#.R D 4.C.M.D.&X<.3 & & 3 1 r ) <.;X;X2XS.| J m Y >.) Y U M f s f f I -.M.(.@X;X;X;X;X;X;X+X(.;X+X@X;X2X+X@X2XyXpXiXiXbXvXvXvXhXnXNXNXNXnXkXnXnXVXVXnXvXhXvXnXnXnXhXvXVXBXNXVXvXvXVXvX;X(.(.+X+XF.5.J J S.2X1X;X+X;X1X1X:X#X:X#X#X:X$X#X#X:X#X).$X#X:X4X5X:X4X4X4X5X5X5X4X4X5X4X4X4X4X:X$X:X:X5X5X:X:X:X:X:X$X#X+XN.5.3.3.5.5.1.( -.3.T T 5.Z.:X4X4X4X4X4X4X4X5X5X5X4X4X4X4X4X4X4X4X4XlXhXhXnXA.h.C.d D D y D w.:.:.1.f.f.B 2 p B uXFXbXMXCXNXpXtXtX>X>XeX>XiXbXzXP.4.D.s.u = r #.#.S d u e d j % H R d y d v.R s.#.H H $.b.b.$.q.q.#.j e d q.@.H y y u u 1 D %.D d D r % u d d e d H d g r W D g j +.}.w.+.@.j y H y r H d g +.OX|.|.t.y.7X7XOXr.y.OX7X7X6Xr.|.w.+.L g j +.:.j j g k k r.7X7XZXZX6.t.r.r.r.|.|.t.t.D.                                ",
"                                                                        wXdXxXsXfXuXuXaXaXdXSX              uXwXwX.XT.T.R..XwXqXY.qXC.n P >.) I m m m / 1.) U U U E -.5.M.5.5.C.5.v.I.I. Xf.>.#.R L R #.R R E d r = D t 3 = b ^ r t ^ D b 3 $ b XXD.t b #.&.R $.4.4.4.#.#.#.+.#.D r D b -.F.F.C.v.E 3 3 g p g D #.f.2XF.2.I U 2.,.) -.>.>.2.-.E } E I -.| | -.( 5.l.d.V.S.M.F.F.(.F.F.F.M.S.+X2X;X;X2XpXvXbXvXbXbXNXvXpXhXnXnXnXnXnXvXhXvXnXnXvXvXnXnXNXVXhX;X*X2XF.k.5.3.3.3.d.k.c.( 9 3 Y V.@X>X+X+X+X+X;X;X$X:X:X:X#X#X:X:X#X]./.).$X5X4X4X4X4XjXjX4X4X4X4X5X5X#X#X#X#X).^.).`.).+X+X~.Z.~.~.F.F.l.3.5.5.1.} ) >.1.-.Y T E | 8.!.:X5X5X4XlX5X4X4XjXjX4X4XjX4XjX5X4XjXlXjXjXnXY.P 4.R d R d d R L #.5.C.a.P M ^ %.xXMXHXJXJXCXBXuXpXpXtXyXyXpXZXNXD.s.4.&.S y m.s.u = S u y j e y H S u y r H S S H y $.D.{.B.q.&.d u u y d :.q.D #.v.$.G r d b d = &.4.y u u u r r v.E r :.%X@X:.+.|.}.B.6.B.L u j D d r r g 6.7X3Xy.r.r.OX7XOXy.r.r.3X7X7Xr.6.:.@.#.d j j j j j e e k |.6XvXvXZXe.t.3X|.|.OX}.t.w.                                  ",
"                                                                            GXxXdXdXxX                    uXuXwXwXwX.XwXfXaXaXK.! <.f.t 2 I 1./ x a a n Y ) P J C s ) 5.4.C.M.D.F.F.v.L f g D R +.R W L L d d 5.) g M F p t M d 3 d D 3 $ & 1 t P.P.t d ^ %.v.R R #.#.f.Y.) a d b d R f R 1.F.F.F.6.E R f 3 ) M.-.5.M.Y / 1.1./ J ) 1.>.>.d.M.d.2.5.1.1.5.2.,.3.-.( ( E J T | ( ,.d.A.V.M.l.M.F.@XF.@XyX1XvXvXvXyXtXpXyXbXhXNXnXnXNXnXNXVXnXnXNXNXhXnXBX1Xd.} 2.d.3.5.M.V.k.d.k.k.<.U < f P C ) l.F.(.+X1X1X,XgX1X1X:X;X:X;X#X,X`.`.#X;X#X1XgX*X*X,X,X`.`.*X,X>X(.A._.+X_.*X*X_._.I.A.V.d.5.V.V.V.k.5.,.,.-.) 1.2.) J J J f E ,.| | 3.8.~.~.#X:X:X:X4X4X4X4X:X#X:X+X`.+X>X>X>XtXzXf.t H R #.S d L +.R v.D.1.^ ^ ! <.mXHXJXFXJXJXJXNXiX-XiXbXiXbXzX@XD.D.v.&.4.m.D.D y r D S e y y d u u u r r u = = d y #.{.b.$.S S r H $.4.D #.D.4. XzX<X%X#.d r = e r v.$.d g r g g B.-.r :.<X2Xv.6.%X%Xw.w.|.L d g d r r L g e.ZXOX|.7X7X7X7XOXr.y.r.OX7X7Xe.+.k k g = = e = = r g j d +.r.G.G.B.L W OX|.OX|.r.6.@X                                  ",
"                                                                                                          wXdXxXSXSXdXSXwXH.j._ ` %.f.1.M B ^ / M 3 3 5 n P M s f U / E #.f.D.F.f.J d L -.4.M.v.v.#.D f D E L E -.) n / 1.U M n n a p $ = t 1 $ t t 1 1 b R #.#.R 4.#.) I M D ^ F F 4.#.#.M.;X1X4X3X8.W f - 5.2Xk.Y I J I M m ~ / ) ) I Y 1.d.M.V.M.2.d.2.-.5.d.Y I I U I ) -.E J m I ,.d.l.5.2.M.V.@XI.I.2X1X;X=X2XiXiXbXtXpXvXnXhXBXNXvXvXhXnXnXvXhX*XV.M.A.U.F.F.A.I.&X-XI.x.h.C.f.a M ..I a s J ) ,.d.d.M.A.(.*X*X+X+X+X`.F.M.k.S.F.A.A.A.M.V.A.A.A.I._.;X=X_.U.=X>X*X*X'._.'.U.L.V.f.d.d.k.d.2.) -.) Y <.} P C M M P / <.5.,.} -.| 3.3.8.M.(.+X#X+X(.(.(.(.(.I.I._.&X&X&XU.&XY.^ d D R d g d j E w.v.v.^ f.n.%.f.-XxXP.uX    MXiXsXbXiXNXNXM.R v.v.4.4.m..X%.y d r 1 r = u r = u = = S D S #.&.R R H L R S D d b <XcX XD.D.{.F.<XzX<XNX4.r e - = r L L e e g f d +.-.D L D. X5.-.B.%X+.:.%XR d d 3 r 5.w.e +.3X|.7X7XOX|.OXe.e.y.r.y.7XOX@.w.+.D d r # # = = r = r d $.#.L J k k L |.7X3X|.@.+.5.                                  ",
"                                                                                                          wXaXdXdXwXR.T.g._ i.h.h.h.h.          >.P M n a n m m U Y ,.2.<.C.D.R J E 4.M.v.:.#.L L R #.L D R R D d R f.#.<.s.s.1.R D = & & t t b 1 1 4 b R %.n.n.D.4.F d P 1.n.s.F d G #. XCXpX1XZX4XG.E f 3 J d.I U ) I U M B P / P P E / I / >.M.2.>.5.-.( 2.-.C P I U I E I J U E / R m I 2.5.-.-.f.A.U.F.A.I.*X%X%X@X2X=X=X2XtXhXtXpXiXvXCXbXpX1XI.V.I.&X*X=X_.&X_.*X          L.C.) ~ ( ! P s s n m P U Y ( T } -.| -.3.3.,.5.5.l.V.V.V.V.M.V.S.A.A.I._._._._._.=X=X*X&X'.'.'.Y.L.V.A.V.2.d.<.I } ) ..>.P m M U >.>.f.Y.L.A.A.V.F.F.(.F.F.F._.;X;X_.I.(._._.&X;X=X-X=XtXtX-X&X=XrXs.f d g d R 4.:.v.Y.<X      f.B h.L.p.K.      sXbXbXNXJX2X#.4.m.4.%.v.m.{.n.^ G D b r y b y u 1 u S #.4.#.&.v.<X<XD.4.&.#.D d #.pX<X<XtXzX<XzX Xf.D. Xw.D g g d L R R D E #.R d -.v.n a #.f.4.-.-.M.L E D.D d 1 & D :.d - W }.3X7X7X6.g k r.y.y.r.r.OXG.6.6X3X:.r = = & $ 1 d b R         v.4.+.j 6.%Xr.e.B.G.                                    ",
"                                                                                                            aXR.T.K.H.K.K.H.h.K.T..X                      p.L.Y.C.Y.A.Y.-X-.a U <.F.&XC.5.( 1.4.v.:.E D D d r g f ) <X.X~ A.C.R ^ #.1 a d t r , 1 b D 4.n.s.R S ^ G ^ ) v.C.4.D.m.G R R D.    ;XgXgX2X,.M s C >.>.I I P P P B m m F P U P F m M I I I >.1.1.-.m f M M f n n J I E 1.>.>.Y n f J E ) ) U Y >.d.d.F.U.F.5.5.5.d.M.M.@X&X@X>X2X1XU.k.5.k.A.U.&X=X&X_.U.                  f.h.x.f.1./ m a a n P ) >.,.1.-.) ( | ,.5.d.M.M.V.S.V.V.V.V.A.A.A.I.&X*X&X_.&X'.'.&X'.'.'.U.Y.L.C.Y.C.1.1...<.) ..1.) 1.<.C.C.U.U.Y.&XL.Y.-X&X>XtXyXtXiXyXyXtX>X*X*X>X>X=X>XtXtXeXtXiXiXtX-X=XpXzXY.#.d v.vX<XF.D.          n.f.  K.                  JXA.D.C.4.D.C.s. XcX<Xm.D.s.D y S y d u G &.H $.v.4.R d v.<X<X<X<X          &XtX<X      f.r d D D.D.L +.:.$.#.#.-.C.M.#.-.                                F p 3 = g g B.%X}.w.g - W |.OXOXy.|.r.:.G.ZXZXD.) ) %.                        v.j +.}.W L 3X                                      ",
"                                                                                                                R.T.9XwXR.T.K.R.wXqX                                  uX<.~ f.L.C.    <Xf.>.f.v.Y.R #.Y./ D D R Y.xX-X XD.rXY.^ v.rXn.F U F b 1 1 1 ^ s.D F F R #.b.Y.#.pXrXs.s.&.&.%.#.#.                1.h.Y.n.F a n m B B P F F M n M P U P m M M M I / P a p a s M I / >.f.C.<.1.<./ / ) M n s a M U I U / <.5.2.( E E E E ) -.d.d.M.d.I ) C.U.U.Y.&X_.Y.U.                                  p._ P x x P / a.f.M.V.M.d.d.f.k.V.A.C.A.A.C.A.L.U.U.Y._.-X=X&X&X&X'.U.U.U.L.P.R.'.L.L.U.C.h.M.C.L.U.R.-X                                                                            pXf.#.v.    <XrX                                          -X&XY.-XrX      D.R D d d d d b H H s.m.+.#.G S D D D  X                            f.d 3 R }.v.:.+.:.#.) P.    Y.f.                                                A.>.d r J M.OXOX3XOX}.G.M.                                        f.f D.:.j 5.                                      ",
"                                                                                                                    aXfXfXfX9XR.wX                                    f.C.            .XC.A. X-Xs.n.    f.D )     P.) s.Y.rXzXs.<X  rXv.P.P.^ b s.F U %.#.s.P.n.H P. XU P.NX.X&.n. Xs.%.^                   a.1.I B B U I P U U U B M P / ) _ %./ I P n M m n m m ~ ) >.f.h.h.f.<.f.<.) _ f.h.<._ / m M m I I >.I I ( >.4.4.-.#.) U I Y ) P v <.U.U.U.U.U.                                              ) B B F ) 1.n.A.D.A.M.f.d.C.C.C.C.A.C.C.A.Y.U.Y.U.&X&XU.P.U.Y.Y.Y.Y.U.R.                                                                                                      C.<.Y.      D.P.rX                                                        ^ ) R v. X#.b b H &.#.R 4.&.D S L #.s.                                n.#.F.@XD.M.%X2X<X                                                                                                                                f.5.2XF.L                                       ",
"                                                                                                                                                                    C.              .X&XtXU.            f.)     -X1.<.P.P.P.n.C.rXrX              &.%.K.Y..XuXD.4.D.v.%.U -XuX.XcXXXs.1.%.                      ! U F P B b x x c B U ! ! ^ ! ! ` _ _ _ _ / ! ) p.f.f.f.f.f.s.p.1.<.f.f.                  %./ ) #.) >.) Y D D d f n n M m m >.                                                                ! P m U ) s.M.C.C.f.f.h.f.h.n.M.C.C.L.U.                                                                                                                                C.n.=X      C.L.C.                                        n.f.            h.        v.  n.R #.4.G R #.b R C.Y.                                                                                                                                                                                      >.bXCX1.a.                                    ",
"                                                                                                                                                                                                                C.C.=X-XrX  p.F s.K.                          rXs.D.                  p.                              ! P B B B U ^ _ _ ! ! ! ) _ _ _ ) _ ) _ _ f.s.f.h.C.                                                      I                                                                                                                                                                                                                                                       C.          P.C.                                      s.%.! _                           s.    P.m.s.%.Y.                                                                                                                                                                                            zX    f.                                    ",
"                                                                                                                                                                                                                R.xXuX-X      ! F /                                                                                                                                                                                                                                                                                                                                                                                                                                                                                                           R.R.P.                                                                                                                                                                                                                                                                                    ",
"                                                                                                                                                                                                                                                                                                                                                                                                                                                                                                                                                                                                                                                                                                                                                                                                                                                                                                                                                                                                                                        ",
"                                                                                                                                                                                                                                                                                                                                                                                                                                                                                                                                                                                                                                                                                                                                                                                                                                                                                                                                                                                                                                        ",
"                                                                                                                                                                                                                                                                                                                                                                                                                                                                                                                                                                                                                                                                                                                                                                                                                                                                                                                                                                                                                                        ",
"                                                                                                                                                                                                                                                                                                                                                                                                                                                                                                                                                                                                                                                                                                                                                                                                                                                                                                                                                                                                                                        ",
"                                                                                                                                                                                                                                                                                                                                                                                                                                                                                                                                                                                                                                                                                                                                                                                                                                                                                                                                                                                                                                        ",
"                                                                                                                                                                                                                                                                                                                                                                                                                                                                                                                                                                                                                                                                                                                                                                                                                                                                                                                                                                                                                                        ",
"                                                                                                                                                                                                                                                                                                                                                                                                                                                                                                                                                                                                                                                                                                                                                                                                                                                                                                                                                                                                                                        ",
"                                                                                                                                                                                                                                                                                                                                                                                                                                                                                                                                                                                                                                                                                                                                                                                                                                                                                                                                                                                                                                        ",
"                                                                                                                                                                                                                                                                                                                                                                                                                                                                                                                                                                                                                                                                                                                                                                                                                                                                                                                                                                                                                                        ",
"                                                                                                                                                                                                                                                                                                                                                                                                                                                                                                                                                                                                                                                                                                                                                                                                                                                                                                                                                                                                                                        ",
"                                                                                                                                                                                                                                                                                                                                                                                                                                                                                                                                                                                                                                                                                                                                                                                                                                                                                                                                                                                                                                        "
};
