/* XPM */
static char *_4f8d495138440ccd9b264a8d573235b8Wr95Z8RlL7FPAdS[] = {
/* columns rows colors chars-per-pixel */
"500 500 256 2 ",
"   c #0B0D0A",
".  c #110E09",
"X  c #0C150A",
"o  c #13130D",
"O  c #16190B",
"+  c #0E1512",
"@  c #131513",
"#  c #141B13",
"$  c #1B1B14",
"%  c #161918",
"&  c #1B1D1B",
"*  c #251A0C",
"=  c #231D15",
"-  c #17250C",
";  c #1B2414",
":  c #192717",
">  c #1A2E15",
",  c #1C231B",
"<  c #23231C",
"1  c #282719",
"2  c #232C1C",
"3  c #352A1B",
"4  c #2E3315",
"5  c #27351B",
"6  c #1B1E22",
"7  c #1D2623",
"8  c #1E3224",
"9  c #232523",
"0  c #242B23",
"q  c #2C2B24",
"w  c #292C2A",
"e  c #332D24",
"r  c #2B3424",
"t  c #293726",
"y  c #2C332B",
"u  c #363827",
"i  c #34332C",
"p  c #3A352C",
"a  c #3C3B2D",
"s  c #2A2E31",
"d  c #2D3633",
"f  c #363A36",
"g  c #3C3B33",
"h  c #43331C",
"j  c #443A2A",
"k  c #523E2C",
"l  c #423D33",
"z  c #453E36",
"x  c #34441C",
"c  c #37452A",
"v  c #3A4637",
"b  c #374C30",
"n  c #424B1B",
"m  c #46462B",
"M  c #4C512C",
"N  c #444235",
"B  c #484936",
"V  c #44443B",
"C  c #4B453B",
"Z  c #4C4A3D",
"A  c #574938",
"S  c #534C3C",
"D  c #48553A",
"F  c #575739",
"G  c #65533B",
"H  c #55643B",
"J  c #65653D",
"K  c #67733C",
"L  c #393E41",
"P  c #3C4643",
"I  c #3E5244",
"U  c #464A45",
"Y  c #4C4C43",
"T  c #534D43",
"R  c #574E45",
"E  c #4B5647",
"W  c #545245",
"Q  c #5B5444",
"!  c #575C47",
"~  c #54544B",
"^  c #5B554B",
"/  c #5C5A4C",
"(  c #4A4E51",
")  c #4C5754",
"_  c #565A55",
"`  c #5C5C53",
"'  c #675947",
"]  c #635C4C",
"[  c #725C48",
"{  c #635D53",
"}  c #685E54",
"|  c #586649",
" . c #566C4D",
".. c #5A6656",
"X. c #646443",
"o. c #6B6B44",
"O. c #67664A",
"+. c #6C6C4B",
"@. c #75664C",
"#. c #69744B",
"$. c #73734C",
"%. c #656254",
"&. c #6B6454",
"*. c #676C57",
"=. c #64645B",
"-. c #6B655B",
";. c #6C6A5C",
":. c #776957",
">. c #736B5C",
",. c #687659",
"<. c #787659",
"1. c #595E61",
"2. c #5B6664",
"3. c #596D6A",
"4. c #666A66",
"5. c #6C6C63",
"6. c #736D62",
"7. c #786E64",
"8. c #6B7666",
"9. c #757264",
"0. c #7B7464",
"q. c #7C7B64",
"w. c #74746B",
"e. c #7B756A",
"r. c #747C68",
"t. c #7D7B6C",
"y. c #686E71",
"u. c #6C7574",
"i. c #767A77",
"p. c #7C7C73",
"a. c #836D57",
"s. c #85755C",
"d. c #8F755A",
"f. c #847365",
"g. c #857864",
"h. c #837C6C",
"j. c #8B7D6B",
"k. c #937D66",
"l. c #837E72",
"z. c #887E74",
"x. c #6E8458",
"c. c #76855B",
"v. c #788668",
"b. c #778D6C",
"n. c #7B8677",
"m. c #84895D",
"M. c #838364",
"N. c #84836C",
"B. c #8B836D",
"V. c #868A69",
"C. c #8B8B6C",
"Z. c #96846C",
"A. c #86966A",
"S. c #939B6A",
"D. c #858373",
"F. c #8B8474",
"G. c #8C8B74",
"H. c #84847B",
"J. c #8B857A",
"K. c #848B78",
"L. c #8D8B7B",
"P. c #938573",
"I. c #938C76",
"U. c #9A8A75",
"Y. c #928D7B",
"T. c #9A8D7B",
"R. c #8D927B",
"E. c #889678",
"W. c #949678",
"Q. c #95927D",
"!. c #9A947E",
"~. c #A28C74",
"^. c #A4947C",
"/. c #91A373",
"(. c #97A57A",
"). c #A4AE77",
"_. c #787E82",
"`. c #817F82",
"'. c #7C8584",
"]. c #7E8E8B",
"[. c #868A86",
"{. c #8C8C83",
"}. c #938E82",
"|. c #978E84",
" X c #8B9587",
".X c #969482",
"XX c #999683",
"oX c #959A84",
"OX c #9A9985",
"+X c #94948B",
"@X c #9B968A",
"#X c #959B8B",
"$X c #9C9B8B",
"%X c #898E92",
"&X c #8C9494",
"*X c #969A96",
"=X c #9C9C93",
"-X c #A29583",
";X c #A49A85",
":X c #A99A85",
">X c #A39C8C",
",X c #AA9E8B",
"<X c #B29D86",
"1X c #A39E92",
"2X c #A79E95",
"3X c #93A78A",
"4X c #99A489",
"5X c #9CA497",
"6X c #A3A28D",
"7X c #ACA28D",
"8X c #A4A98A",
"9X c #AFA98C",
"0X c #A3A293",
"qX c #ABA494",
"wX c #A7AA97",
"eX c #A4A49B",
"rX c #ABA69A",
"tX c #ACAA9C",
"yX c #B4A996",
"uX c #B3AC9C",
"iX c #A9B399",
"pX c #B7B39D",
"aX c #949DA2",
"sX c #9BA4A5",
"dX c #9DABB2",
"fX c #A7AAA6",
"gX c #ACACA3",
"hX c #B3ADA3",
"jX c #B5AFA6",
"kX c #ACB3A9",
"lX c #B4B2A4",
"zX c #BBB4A4",
"xX c #B4B4AB",
"cX c #BBB6AA",
"vX c #B7BAA8",
"bX c #BDBAAC",
"nX c #A5AEB3",
"mX c #ABB4B6",
"MX c #B6B9B6",
"NX c #BCBCB3",
"BX c #C2B69E",
"VX c #C2B9A5",
"CX c #C2BCAD",
"ZX c #C2BEB2",
"AX c #B7C294",
"SX c #BAC2AB",
"DX c #BDC2B9",
"FX c #C2CC9B",
"GX c #C5C1AD",
"HX c #C5C2B4",
"JX c #C4C4BB",
"KX c #C9C6B9",
"LX c #B6BDC2",
"PX c #C0BFC5",
"IX c #BCC3C4",
"UX c #C7C8C4",
/* pixels */
"Y.Y.Y.L.Y.Y.Q.Q.Q.Q.Q.Q.Y.Y.Y.Y..X.X.X.X.X.X.X.XQ..X.X.X.X.X.X.XQ.Q.Y..X.X.X.XXXXXXXXXXXXXXXXXXXXXXXXXXXXXXXXXXX.X.X.X.X.X.XQ.Q.Q.Q.Q.Q.Q.Q.Q.XXXXXXXXXXXXXXXX.XQ.Q..XXXXXXX.XQ.XXXXXX!.!.Q.!.!.!.!.!.Q.Q.!.!.!.!.!.XXXXXXXXXXXX!.!.XXXXXXXXXXXXOXXX!.!.!.!.!.!.!.!.Q.Q.Q.Q.Q.Q.Q.Y.Y.Q.Q.Q.Q.Q.!.!.Q.Q.!.XX!.Q.Q.Q.!.Q.Q.I.I.I.I.W.W.W.W.!.!.XXXX!.!.!.!.!.!.!.Q.Q.Q.Q.Q.Q.Q.Q.Q.Q.Q.Q.Q.Q.Q.Q.Q.Q.Q.Q.Q.Q.Q.Q.Q.Q.!.!.!.XXXX.XQ.Q.Q.Q.Y.I.I.I.I.I.I.Y.Y.Q.Q.Q.Q.Q.Q.Q.Q.Q.Q.Q.I.I.I.I.I.I.I.I.I.I.I.I.I.I.I.G.B.C.C.B.C.C.B.M.M.N.C.C.C.C.C.C.G.G.I.I.I.I.I.G.G.G.G.I.I.G.G.I.G.I.I.I.I.I.I.I.Q.Q.Q.Q.Q.!.Q.Q.!.Q.Q.Q.!.!.!.XX!.!.Q.Q.Q.Q.Y.I.I.I.Q.Q.Q.Q.Q.Q.Q.G.G.G.G.G.G.B.B.B.B.G.G.I.I.I.Q.Q.Q.Q.!.!.!.!.Q.Q.Q.Q.Q.Q.Q.Q.Q.Q.Q.Q.Q.Q.Q.Q.Q.Q.Q.Q.!.!.!.!.Q.Q.Q.Q.Q.Q.Q.Q.Q.Q.Q.Q.Q.Q.Q.Q.Q.Q.Q.Q.Q.Q.Q.Q.Q.Q.Q.Q.Q.Q.Q.Q.Q.Q.Q.Q.Q.Q.!.XXXXOXXXXXXXXXXXXXXXXXXXXXXXXXXXXXXXXXXXXXXXXXOXXXOXXX!.Q.Q.Q.Q..XQ.Q..X.X.X.X.X.X.X.X.XXXXXXX.X.X.X.X.X.X.X.X.XXXOXOXOXOXXXOXOXOXOXOXOXOXOXOXOXoX.X.XOXOX.X.X.X.X.X.XQ.Q..X.X.X.X.XQ.L.L.",
"Y.Y.Y.Y.Y.Q.Q.Q.Q.Q.Q.Q.Q.Q.Q.Q..X.X.X.X.X.X.X.X.X.X.X.X.X.X.XQ.Q.Q.Q..X.X.X.XXXXXXXXXXXXXXXXXXXXXXXXXXXXXXXXXXX.X.X.X.X.X.X.XQ.Q.Q.Q.Q.Q.Q..XXXXXXXXXXXXXXXXX.XQ.Q.Q..XXXXX.XQ.XXXXXX.X!.Q.!.!.!.!.!.Q.Q.!.!.!.!.!.XXXXXXXXXXXXXXXXXXXXXXXXXXXXXXXX!.!.!.!.!.!.Q.Q.Q.!.!.!.Q.Q.Q.Q.Q.Q.Q.Q.Q.Q.!.!.Q.Q.!.!.!.Q.Q.Q.!.Q.Q.W.I.I.I.W.Q.W.W.W.!.!.!.!.!.!.!.!.!.!.Q.Q.Q.Q.!.!.!.!.Q.Q.Q.Q.Q.Q.Q.Q.Q.Q.Q.Q.Q.Q.Q.Q.Q.Q.!.!.XXXX.X.XQ.Q.Q.Q.Y.Y.I.I.I.Q.Q.I.Y.Q.Q.Q.Q.Q.Q.Q.Q.Q.Q.Q.I.I.Y.I.I.I.I.I.I.I.I.I.I.I.G.G.C.C.B.B.B.C.C.B.B.C.C.C.B.M.B.C.G.G.G.I.Y.Y.Y.I.G.G.G.I.I.G.I.I.I.I.I.I.I.I.Q.Q.Q.Q.Q.Q.Q.!.Q.Q.!.Q.Q.Q.Q.Q.!.XX!.Q.Q.Q.Q.Q.Y.I.I.I.I.I.Q.Q.Q.Q.I.G.B.N.B.F.F.B.G.G.G.G.I.I.Q.Q.Q.Q.Q.Q.!.!.!.!.Q.Q.Q.Q.Q.Q.Q.Q.!.Q.Q.Q.Q.Q.Q.Q.Q.Q.Q.Q.!.!.!.!.Q.Q.Q.Q.Q.Q.Q.Q.Q.Q.Q.Q.Q.Q.Q.Q.Q.Q.Q.Q.Q.Q.Q.Q.Q.Q.Q.Q.Q.Q.Q.Q.Q.Q.Q.Q.Q.Q.Q..XXXXXXXXXXXXXXXXXXXXXXXXXXXXXXXXXXXXXXXXXXXXXXXXXXXXX!.Q.Q.Q..X.X.X.X.X.X.X.X.X.X.X.X.XXXXX.X.X.X.X.X.X.X.X.X.XXXXXOXOXOXOXOXOXOXOXOXOXOXOXOXOXoX.X.X.XOX.X.X.X.X.X.X.X.X.X.X.X.X.XQ.R.L.",
"Q.Y.Y.Y.Q.Q..XXXQ.Q.Q.Q..XXXXXXX.XOXOXOX.X.X.X.X.X.X.X.X.X.X.X.XQ.Q.Q..X.X.X.XXXXXXXXXXXXXXXXXXXXXXXXXXXXXXXXXXXXXXXXX.X.X.X.XQ.Q.Q.Q.Q.Q.Q..X.X.XXXXXXXXXXXXXQ.Q.Q.Q.Q..XXX.X.XXXXXXXXX!.!.!.!.!.!.!.Q.Q.!.!.!.Q.!.XXXXXXXXXXOXXXXXXX!.!.XXXXOXXXXX!.!.!.!.!.Q.Q.Q.Q.!.!.!.Q.I.I.Q.Q.Q.Q.Q.Q.!.!.!.!.Q.!.!.!.Q.Q.Q.!.Q.Q.Q.W.W.W.W.Q.Q.Q.!.!.!.!.!.XX!.!.!.!.!.!.!.!.!.!.!.!.!.!.!.!.!.Q.Q.Q.Q.Q.Q.Q.Q.Q.Q.Q.Q.Q.Q.!.!.XXXX.X.XQ.Q.Q.Q.Q.Y.Y.I.Y.Q.Q.Q.Y.Q.Q.Q.Q.Q.Q.Q.Q.Q.Q.Q.Y.Y.W.W.I.I.I.I.I.I.I.I.I.I.G.C.C.C.C.C.C.G.C.B.M.B.B.M.M.N.C.I.I.I.I.Y.Y.Y.I.I.I.I.I.I.I.I.I.I.I.I.I.I.I.I.W.Q.Q.Q.Q.Q.Q.Q.!.Q.!.Q.Q.Q.Q.Q.Q.!.Q.Q.Q.Q.Q.Y.Y.I.Y.Y.Q.Q.I.I.I.I.Q.I.F.B.B.G.G.G.I.I.I.I.Q.Q.Q.Q.Q.Q.Q.Q.!.!.!.Q.Q.Q.Q.Q.Q.Q.Q.Q.!.!.Q.Q.Q.Q.Q.Q.Q.Q.!.!.!.!.!.Q.Q.Q.Q.Q.Q.Q.Q.Q.Q.Q.Q.Q.Q.Q.Q.Q.Q.Q.Q.Q.Q.Q.Q.Q.Q.Q.Q.Q.Q.Q.Q.Q.Q.Q.Q.Q.Q.Q.Q..XXXXXXXXXXXXXXXXXXXXXXXXXXXXXXXXXXXXXXXXXXXXXXXXXXX!.!.!.!..XXXXXXXXXXX.X.X.X.X.X.X.XXXXX.X.X.X.X.X.X.X.X.X.X.X.XXXOXOXOXOXOXOXOXOXOXOXoXOXOXOXoX.X.X.X.X.X.X.X.X.X.X.X.X.X.X.X.X.X.XQ.Q.",
"Q.Q.Q.Q.Q.XXXXXXXXXXXXXXXXXXXXXXXXXXXXXXXXXXXX.X.X.X.X.X.X.X.X.X.X.X.X.X.X.X.XXXXXXXXXXXXXXXXXXXXXXXXXXXXXXXXXXXXXXXXXXXXX.X.X.XQ.Q.Q.Q.Q.Q..X.X!..XXXXXXXXX.XQ.Q.Q.Q.Q.Q..XXXXXXXXXXXXX!.!.!.!.!.!.!.Q.Q.!.!.!.!.!.XXXXXXXXXXOXOXXXXXXXXXXXXXOXXXXX!.!.!.!.Q.Q.Q.Q.Q.Q.!.!.Q.Q.Q.Q.Q.Q.Q.Q.Q.!.!.!.!.!.!.!.!.Q.Q.Q.!.!.Q.Q.Q.Q.Q.Q.W.Q.Q.Q.!.!.XXXXXXXX!.!.!.!.!.!.!.!.!.!.!.!.!.!.!.Q.Q.Q.Q.Q.Q.Q.Q.Q.Q.Q.Q.Q.Q.Q.Q.!.!..X.X.XQ.Q.Q.Q.Q.Q.Q.Q.Q.Q.Q.Q.Q.Q.Q.Q.Q.Q.Q.Q.Q.Q.Q.Q.Y.Y.W.W.W.I.I.I.I.I.I.I.I.I.G.C.G.G.G.G.G.G.C.B.M.M.M.B.G.I.W.W.I.Y.Q.Y.Y.Y.Y.I.I.I.I.I.I.G.I.I.G.G.I.I.I.I.I.W.Q.Q.Q.Q.Q.Q.!.Q.!.Q.Q.Q.Q.Q.Q.Q.Q.Q.Q.Y.Y.Y.Y.Y.Q.Q.Q.Q.Q.Q.I.I.Q.Q.I.G.G.I.Y.Q.Q.Q.Q.Q.Q.Q.Q.!.Q.Q.Q.Q.!.!.Q.Q.!.!.!.!.!.!.!.!.!.!.!.Q.Q.Q.Q.!.!.!.!.!.!.!.Q.Q.Q.Q.Q.Q.Q.Q.Q.Q.Q.Q.Q.Q.Q.Q.Q.Q.Q.Q.Q.Q.Q.Q.Q.Q.Q.Q.Q.Q.Q.Q.Q.Q.Q.Q.Q.Q.Q.Q.Q..XXXXXXXXXXXXXXXXXXXXXXXXXXXXXXXXXXXXXXXXXXXXXXXXX!.!.!.XXXXXXXXXXXXXXXXXXXX.X.X.X.X.XXXXX.X.X.X.X.X.X.X.X.X.X.X.X.XXXOXOXOXXXOXOXOXOXOXOXOXOXOXOXOXOX.X.X.X.X.X.X.X.X.X.X.X.X.X.X.X.X.X.X",
"Q.Q.Q..XXXXXXXOXXXXXXXXXXXXXXXXXXXXXOXOXOXXXXXXXXXXX.X.X.X.X.X.X.X.X.X.X.X.X.X.XXXXXXXXXXXXXXXXXXXXXXXXXXXXXXXXXXXXXXXXXXX.X.X.XQ.Q.Q.Q.Q.Q.Q.Q.!..X.XXXXXXX!.Q.Q.Q.Q.Q.Q.XXXXXXXXXX.X!..X!.!.!.!.!.!.Q.Q.!.!.!.!.!.!.XXXXXXXXXXXXXXXXOXOXXXXXXXXXXX!.!.!.!.Q.Q.Q.Q.Q.Q.!.!.!.!.!.!.Q.Q.Q.Q.Q.Q.!.XX!.!.!.!.!.Q.Q.Q.!.!.Q.Q.Q.Q.Q.Q.Q.Q.Q.Q.!.!.OXXX!.!.!.!.!.!.Q.Q.Q.!.!.Q.Q.!.!.!.Q.Q.Q.Q.Q.Q.Q.Q.Q.Q.Q.Q.Q.Q.Q.Q.Q.!.!.!.!.Q.Q.Q.Q.Q.Q.Q.Q.Q.Q.Q.Q.Q.Q.Q.Q.Q.Q.Q.Q.Q.Q.Q.Q.Q.I.Q.Q.W.W.W.I.I.I.I.I.I.I.I.G.G.G.G.C.C.G.G.I.I.I.I.G.I.W.Q.Q.I.I.I.I.I.Y.Y.Y.Y.I.I.I.G.G.G.G.G.I.I.I.I.I.I.Q.Q.Q.Q.Q.Q.Q.Q.Q.Q.!.Q.Q.Q.Q.Q.Q.Q.Q.Q.Q.Y.Y.Q.Q.Q.Q.Q.Q.Q.Q.Q.Q.Q.Q.Q.I.I.I.I.Q.Q.Q.Q.Q.Q.Q.Q.Q.Q.Q.Q.Q.!.!.!.Q.Q.!.!.!.!.!.!.!.XX!.!.!.!.!.!.!.!.!.!.!.!.!.!.Q.Q.Q.Q.Q.Q.Q.Q.Q.Q.Q.Q.Q.Q.!.Q.Q.Q.Q.Q.Q.Q.Q.Q.Q.Q.Q.Q.Q.Q.Q.Q.Q.Q.Q.Q.Q.Q.Q.Q.XXXXXXXXXXXXXXXXXXXXXXXXXXXXXXXXXXXXXXXX.X.XXXXXXXXX!.!.!..XXXXXXXXX.X.XXXXX.X.X.X.X.X.X.XXX.X.X.X.X.X.X.X.X.X.XXX.X.X.XOXOXXXXXOXOXOXOXOXXXoXOXOXOXOXOX.X.X.X.X.X.X.X.X.X.X.X.X.X.X.X.X.X.X",
".X.X.XXXXXXXXXXXOXXXXXXXXXXXXXXXXXOXOXOXOXOXXXXXXXXXXXXXOX.X.X.X.X.X.X.X.XXXXX.XXXXXXXXXXXXXXXXXXXXXXXXXXXXXXXXXXXXXXXXXXX.X.X.X.XQ.Q.Q.XXXXQ.Q..X.X.XXXXXXXXX!.Q.Q.Q.Q..XXXXXXX.X.X.X!..X!.!.!.!.!.!.Q.Q.!.!.!.!.!.!.XXXX!.XXXXXXXXOXOXOXXXXXXXOXXX!.!.!.!.!.!.Q.Q.Q.Q.Q.Q.!.OX!.Q.Q.Q.Q.Q.Q.Q.!.XXXX!.!.!.Q.Q.Q.Q.!.!.!.Q.Q.Q.Q.Q.Q.Q.Q.Q.!.!.XXXX!.!.XX!.!.!.Q.Q.Q.!.Q.Q.Q.Q.!.Q.Q.Q.Q.Q.Q.Q.Q.Q.Q.Q.Q.Q.Q.Q.Q.Q.Q.Q.Q.Q.Q.Q.Q.Q.Q.Q.Q.Q.Q.Q.Q.Q.Q.Q.Q.Q.Q.Q.Q.Q.Q.Q.Q.Q.Q.Q.Q.Q.Q.W.W.W.W.I.I.I.I.I.I.I.I.G.I.G.G.G.I.I.I.Q.Q.Q.Q.Q.I.I.I.I.Y.Y.Q.Q.Q.Y.Y.I.I.I.I.G.C.G.G.G.G.I.I.I.I.I.I.I.I.Q.Q.Q.Q.Q.Q.Q.!.Q.Q.Q.Q.Q.Q.Q.Q.Q.Q.Q.Q.Q.Q.Q.Q.Q.Q.Q.Q.Q.Q.Q.Q.Q.Q.Q.Q.Q.Q.Q.Q.Q.Q.Q.Q.Q.Q.Q.Q.Q.Q.!.!.!.Q.Q.Q.Q.Q.Q.Q.Q.!.!.!.!.!.!.!.!.!.!.!.!.!.!.!.!.!.!.!..XQ.Q.Q.Q.Q.Q.Q.Q.Q.Q.Q.Q.Q.Q.Q.Q.Q.Q.Q.Q.Q.Q.Q.Q.Q.Q.Q.Q.Q.Q.Q.Q.Q.Q.Q..XXXXXXXOXXXXXXXXXXXXXXXXXXXXXXXXXXXXXXX.X.X.X.XXXXXXXXX!..X.XXXXXXX.X.X.X.X.X.X.X.X.X.X.X.X.X.X.X.X.X.X.X.X.XXXXXOXXXXX.XOXOXXXOXOXOXOXOXOXXXoXOXOXOXOXOX.X.X.X.X.X.X.X.X.X.X.X.X.X.X.X.XOXOX",
"XXXXXXXXXXXXXXXXOXOXXXXXXXXXXXXXXXOXOXOXOXOXXXXXXXXXXXXXXXOX.X.X.X.X.X.X.XXXXX.XXXXXXXXXXXXXXXXXXXXXXXXXXXXXXXXXXXXX.X.X.X.X.X.X.X.XQ..XXXXXQ.Q.Q.Q.!.XXXXXXXX!.Q.Q.Q.!.XXXXXXXX.X.XQ.!..X!.!.!.!.!.!.Q.Q.!.!.!.!.!.!.XXXX!.XXXXXXXXXXXXXXXXXXXXOXXX!.!.!.!.!.!.!.!.!.Q.Q.Q.Q.Q.Q.Q.Q.Q.Q.Q.!.!.!.XXXX!.!.!.Q.Q.Q.!.!.!.!.W.Q.W.Q.Q.Q.Q.Q.!.!.!.XX!.!.!.!.!.!.!.Q.Q.Q.!.Q.Q.Q.Q.!.Q.Q.Q.Q.Q.Q.Q.Q.Q.Q.Q.Q.Q.Q.Q.Q.Q.Q.Q.Q.Q.Q.Q.Q.Q.Q.Q.Q.Q.Q.Q.Q.Q.Q.I.Q.Q.Q.Q.Q.Q.Q.Q.Q.Q.Q.Q.Q.Q.Q.Q.W.I.I.I.I.I.I.I.I.I.I.I.I.I.I.Q.Q.I.I.Y.I.Y.Q.Y.I.I.I.Q.Q.Q.Q.Q.Q.I.I.I.I.I.G.B.B.G.G.I.G.G.G.G.G.G.G.I.I.Q.Q.Q.Q.Q.Q.Q.!.Q.Q.!.!.Q.Q.!.Q.Q.Q.Q.Q.Q.Q.Q.Q.Q.Q.Q.Q.Q.Q.Q.Q.Q.Q.Q.Q.Q.Q.Q.Q.Q.Q.Q.Q.Q.Q.Q.Q.Q.!.!.!.Q.Q.Q.Q.Q.Q.Q.Q.Q.Q.Q.!.!.!.!.!.!.!.!.!.!.!.!.!.!.!.!.!.XXQ.Q.Q.Q.Q.Q.Q.Q.Q.Q.Q.Q.Q.Q.Q.Q.Q.Q.Q.Q.Q.Q.Q.Q.Q.Q.Q.Q.Q.Q.Q.Q.Q.Q.Q..XXXXXXXXXXXXXXXXXXXXXXXXXXXXXXXXXXXXX.X.X.X.XXXXX.X.XXX.X.X.XXXXXXX.X.X.XXXXXXX.X.X.X.X.X.X.X.X.X.X.X.X.XXXXXXXOXXXXXXX.XOXOXXX.XOXOXOXOXOXOXoXoXOXOXOXOX.X.X.X.X.X.X.X.X.X.X.X.X.X.X.X.XOXOX",
"XXXXXXXXXXXXXX.XOXOXOXOXOXOXOXOXXXOXOXOXOXOXXXXXXXXXOXOXXXXX.X.X.X.X.X.X.XXXXX.XXXXXXXXXXXXXXXXXXXXXXXXXXXXXXXXXXXXX.X.X.X.X.X.X.X.XQ..XXXXXQ.Q.Q.Q.Q..XXXXXXXXXQ.Q.!.XXXXXXXXXX.XQ.Q.!..X!.XX!.!.!.!.Q.Q.!.!.!.!.!.!.XXXXXXXXXXXX!.!.!.!.XXXXXXOXXX!.!.!.!.!.!.!.!.Q.!.!.Q.Q.I.Y.Q.Q.Q.Q.Q.Q.!.!.XXXX!.!.!.Q.Q.!.!.!.!.!.W.W.W.Q.!.!.!.!.!.!.!.!.!.!.!.Q.Q.Q.Q.Q.Q.Q.!.!.Q.Q.Q.!.Q.Q.Q.Q.Q.Q.Q.Q.Q.Q.Q.Q.Q.Q.Q.Q.Q.Q.Q.Q.Q.Q.Q.Q.Q.Y.Q.Q.Q.Q.Q.Q.Q.Q.I.I.Q.Q.Q.Q.Q.Q.Q.Q.Q.Q.Q.Q.Q.Q.Q.Q.W.I.I.I.I.I.I.Q.Q.Q.I.I.I.I.I.I.I.Y.Q.Q.Q.Q.Q.Q.Q.Q.Q.Y.Y.I.Q.Q.I.I.I.I.I.G.B.B.G.G.I.I.I.I.I.I.I.I.I.I.Q.Q.Q.Q.Q.Q.Q.XX!.Q.!.!.!.!.!.!.Q.Q.Q.Q.Q.Q.Q.Q.Q.Q.Q.Q.Q.Q.Q.Q.Q.I.I.I.Q.Q.Q.Q.Q.Q.Q.Q.Q.!.!.Q.Q.!.!.!.Q.Q.Q.Q.Q.Q.Q.!.!.!.!.!.!.!.!.!.!.!.Q.Q.Q.Q.!.!.!.!..X!.XXQ.Q.Q.Q.Q.Q.Q.Q.Q.Q.Q.Q.Q.I.Q.Q.Q.Q.Q.Q.Q.Q.Q.Q.Q.Q.Q.Q.Q.Q.Q.Q.Q.Q.Q.Q..XXXXXXXXXXXXXXXXXXXXXXXXXXXXXXXXX.X.X.X.X.XXXXX.X.XXXXX.X.XXXXXXXXXXXXXXXXXXX.X.X.X.X.X.X.X.X.X.X.X.X.XXXXXXXOXXX.XXXXXXXOXOXXX.XOXOXOXOXoXoXOXOXOXOXOX.X.X.X.X.X.X.X.X.X.X.X.X.X.X.XOXOXOX",
"OXOXOXOXOXOXOXOXOXOXOXOXOXOXOXXXOXOXXXXXXXXXXXXXOXOXXXXXXX.X.X.X.X.X.XXXXXXXXXXX.X.X.X.XXXXXXXXXXXXXXXXXXX.X.X.X.X.X.X.X.X.X.X.X.XQ.Q..XXX.XQ.Q.Q.Q..XXXXXXXXXXXXXXXXXXXXXXXXXXXXXXXXX!.!.!.!.!.!.!.!.!.!.!.!.XXXXXXXXXXOXOXOXOXXXXX!.!.!.XXXXOXXXXX!.!.!.!.!.!.!.!.!.!.Q.Q.I.I.I.Y.Q.Q.Q.Q.Q.!.XXXXXXXXXX!.XXXXQ.Q.Q.!.!.!.Q.!.Q.Q.Q.Q.Q.Q.Q.Q.Q.!.!.Q.Q.Q.Y.Q.I.W.W.Q.Q.Q.Q.!.Q.!.Q.>X6X6X>X>XOXOXQ.Q.Q.Q.Q.Q.!.!.!.!.!.!.!.!.Q.Q.Y.Y.Q.Q.Q.Q.Q.Q.Q.I.Q.Q.Q.Q.Q.Y.Y.Q.Q.Q.Q.Q.Q.Q.Q.Q.I.I.I.I.W.I.Q.Q.I.I.I.Q.Q.Y.Y.Y.Y.Y.Y.Y.Y.Y.Y.Y.Y.Y.Y.Y.Q.Q.Q.Q.I.I.I.I.I.I.G.G.G.G.G.I.I.Y.I.I.I.I.W.Q.Q.Q.Q.!.!.!.Q.Q.!.!.!.!.!.!.!.Q.!.Q.Q.Q.Q.Q.Q.Q.!.Q.Q.Q.Q.Q.Q.Q.Q.Q.Q.Q.Q.Q.Q.Q.Q.Q.Q.Q.Q.Q.!.!.!.!.!.!.Q.Q.Q.Q.Q.Q.Q.Q.Q.Q.Q.Q.!.!.!.!.!.Q.Q.Q.Q.!.!.Q.Q.!.XX!.!.Q.Q.!.!.Q.Q.Q.Q.Q.Q.Q.Q.Q.Q.Q.!.!.Q.Q.Q.Q.Q.Q.Q.Q.Q.Q.Q.Q.Q.Q.Q.Q.Q.Q.Q.XXXXXXXXXXXXXXXXXXXXXX.XXXXXXXXXXXXXXX.XQ.Q..X.X.X.XXX.XXXXXXXXXXXXX.X.X.X.X.X.XXX.X.X.XXX.XXX.X.X.X.X.X.X.X.X.X.X.XOXXXXXXXOXOXXXOXoXoXOXOXOXOXOXOX.XOXOX.X.X.X.XOXOX.X.X.X.X.X.X.X.XOXOX.XOX",
"XXXXXXOXoXoXOXXXOXOXOXOXOXOXOXXXOXOXOXOXXXXXXXXXXXXXXX.X.X.X.X.X.X.X.X.XXXXXXX.X.X.X.X.XXXXXXXXXXXXXXXXX.X.X.X.X.XXXXXXX.X.X.X.XQ.Q.Q..XXX.XQ.Q.Q.Q..XXXXXXXXXXXXXXXXXXXXXXXXXXXXXXX!.!.!.!.!.!.!.!.!.!.!.!.!.XXXXXXXXXXXXXXXXXXXXXXXXXXXXXXXXOXOXXXXX!.!.!.!.!.Q.!.!.!.Q.Q.Q.Q.Q.Q.Q.Q.Q.Q.!.!.XXXXXXXX!.!.!.!.Q.Q.Q.!.!.!.!.!.Q.Q.Q.Q.!.!.!.!.!.!.XX!.Q.Q.Q.Q.Q.Q.W.W.!.!.Q.Q.Q.Q..X6X>X6X;X;XOXOXQ.!.Q.Q.Q.Q.!.!.!.!.!.!.!.!.Q.Q.Q.Q.Q.Q.Q.Q.Q.Q.Q.Q.Q.Q.Q.Q.Q.Y.Y.Q.Q.Q.Q.Q.Y.I.I.Q.Q.Q.I.G.Q.I.Q.W.I.I.Q.Q.Q.Y.Y.Y.Y.Y.Y.Y.Y.Q.Y.Y.Y.Y.Y.Y.Y.Q.Q.Q.I.I.I.I.I.I.I.I.G.G.I.Y.I.Y.I.I.I.I.W.Q.Q.Q.Q.Q.!.!.!.!.!.!.!.!.!.!.Q.Q.Q.Q.Q.Q.Q.Q.Q.Q.Q.Q.Q.Q.Q.Q.Q.Q.Q.Q.Q.Q.Q.Q.Q.Q.Q.Q.Q.Q.Q.Q.!.!.Q.Q.Q.Q.Q.Q.Q.Q.Q.Q.Q.Q.Q.Q.Q.Q.Q.Q.Q.Q.!.!.!.!.Q.!.!.!.!.!.Q.Q.Q.Q.Q.Q.Q.Q.Q.Q.Q.Q.Q.Q.Q.Q.Q.Q.Q.Q.Q.Q.Q.Q.Q.Q.Q.Q.Q.Q.Q.Q.Q.Q.Q.Y.Y.Q.Q..XXXXXXXXXXXXXXXXXXXXX.XXXXXXXXXXX.X.XQ.Q.Q.Q..X.X.X.X.XXXXXXXXXXXXX.X.X.X.X.X.XXX.X.X.X.XXXXX.X.X.X.X.X.X.X.X.X.XOXOXXXXXXXXXXXXXOXoXoXoXOXOXOXOX.X.XOXoX.X.X.X.XOXOX.X.X.X.X.X.X.X.XOXOX.X.X",
"XXXXOXOXOXXXXXXXXXXXXXXXOXOXXXXXOXOXOXOXOXXXXXXX.X.X.X.X.X.X.X.X.X.X.X.XXXXXXX.X.X.X.X.X.XXX.XXXXXXXXX.X.X.X.X.XXXXXXXXXXX.X.X.XQ.Q.Q.Q..XQ.Q..XQ..X!.!.!.XXXXXXXXXXXXXX.X.X.X.X.X!.!.!.Q.Q.Q.Q.!.!.!.!.!.!.!.!.XXXXXXXXXXXXXX!.XXXXXXOXXXOXOXOXOXOXXX!.!.!.!.Q.Q.Q.!.!.Q.Q.Q.Q.Q.Q.Q.Q.Q.Q.!.!.!.XXXXXX!.!.!.!.Q.Q.Q.!.!.!.Q.Q.Q.Q.!.!.!.!.XXXXXXXXXX!.!.Q.Q.Q.Q.Q.Q.Q.!.!.XXXX6X6X6X!.Y.Q.Q.OXXXXXY.Q.Q.Q.Q.Q.Q.Q.!.!.!.Q.Q.Q.Q.Q.Q.Q.Q.Q.Q.W.W.Q.Q.Q.Q.Q.Q.Q.Q.Q.Q.Q.Q.Q.Q.Q.Q.Q.Q.Q.I.Y.Q.Q.Q.I.W.W.I.Q.Q.Y.Y.I.I.Y.I.Y.Y.Y.Y.Y.Y.Y.Y.Y.Y.Y.I.I.I.I.I.I.I.I.Q.I.I.I.I.I.I.I.Y.Q.Y.Y.I.I.Q.Q.Q.Q.Q.Q.Q.!.!.!.!.!.!.!.!.Q.Q.Q.Q.Q.Q.Q.Q.Q.Q.Q.Q.Q.Q.Q.Q.Q.Q.Q.Q.Q.Q.Q.Q.Q.Q.Q.Q.Q.Q.Q.Q.Q.!.!.Q.Q.Q.Q.Q.Q.Q.Q.Q.Q.Q.Q.Q.Q.Q.Q.XX!.!.!.!.!.!.Q.Q.Q.!.!.!.Q.Q.Q.Q.Q.Q.Q.Q.Q.Q.Q.Q.Q.Q.Q.Q.Q.Q.Q.Q.Q.Q.Q.Q.Q.!.Q.Q.Q.Q.Q.Q..X.X.XQ.Y.Q.Q.Q..X.XXXXXXXXXXXXXXXXXXXXXXXXXXXXXXX.XQ.Q.Q.Q.Q..X.X.X.X.XXXXXXXXXXXXX.X.X.X.X.X.X.X.X.X.X.X.X.X.X.X.X.X.X.X.X.X.X.XOXOXXXXXXXXXXXXXOXOXXXXXOXOXOXOXOXOXOXOX.X.X.X.XOXOX.X.X.X.X.X.X.XoXOXOXOXOX",
"OXOXoXoXoXoXOXOXoXoXoXoXoXoXoXOXOXOXOXOXOXXXXXOX.X.X.X.X.X.X.X.X.X.X.X.XXXXXXX.X.X.X.X.X.X.X.XXXXXXX.X.X.X.X.X.X.X.X.X.X.X.X.X.XQ.Q.Q..XXX.X.XXX.X.X.X!.!.!.!.XXXXXXXXXX.X.X.X!..X!.!.Q.Q.Q.Q.Q.Q.!.!.XX!.!.!.!.XXXXXXXXXXXXXX!.XXXXXXXXXXXXOXOXOXOXXX!.!.!.!.Q.Q.Q.Q.Q.Q.Q.Q.Q.Q.Q.Q.Q.Q.!.!.!.!.!.XXXX!.!.!.!.Q.Q.Q.!.!.!.Q.Q.Q.!.XXXXXXXXXXXXXXXXXX!.!.Q.Q.Q.Q.!.!.!.!.!.OX6X0XOX>XQ.Y.B.Q.Y.OXXXY.Y.Q.Q.Q.Q.!.!.!.Q.Q.Q.Q.Q.Q.Q.Q.Q.W.W.W.W.W.W.Q.Q.Q.Q.Q.Q.Q.Q.Q.Q.Q.Q.Q.Q.I.Y.!.!.Q.Q.OX6XY.I.W.W.I.Q.Q.I.Y.I.I.I.I.Y.Y.Y.Y.Y.Y.Q.Q.Y.Q.W.I.I.I.I.I.I.I.I.I.I.I.I.I.I.I.I.Y.Y.Y.Y.I.I.W.Q.Q.Q.Q.Q.Q.!.!.!.!.!.!.!.Q.Q.Q.Q.Q.Q.Q.Q.Q.Q.Q.Q.!.!.Q.Q.Q.Q.Q.Q.Q.Q.Q.Q.Q.Q.Q.Q.Q.Q.Q.Q.Q.Q.Q.Q.Q.Q.Q.Q.Q.Q.Q.Q.Q.Q.Q.Q.Q.Q.Q.Q.!.Q.Q.Q.Q.Q.Q.Q.Q.Q.Q.Q.Q.!.!.XXXX.XQ.Q.Q.Q.Q.Q.Q.Q.Q.Q.Q.Q.Q.Q.!.!.Q.Q.Q.Q.!.Q.!.Q.Q.Q..X.X.X.X.X.X.X.X.X.XXXXXXXXXXXXXXXXXXXXXXXXXXXXXXXXX.XQ.Q.Q.Q.Q..X.XXXXX.XXXXXXXXXXXXX.X.X.X.X.X.X.X.X.X.X.X.X.X.X.X.X.XXX.X.X.X.XOXOXOXXXXXXXXXXXXXOXOXOXOXOXOXOXOXOXOXOXOX.X.X.X.XOXOX.X.X.X.X.X.X.XoXOXOXOXOX",
"OXoXoXoXOXOXOXOXOXOXOXOXoXoXoXoXOXOXOXOXXXXX.X.X.X.X.XOX.X.X.X.X.X.X.X.X.XXXXX.X.X.X.X.X.X.X.XXXXX.X.X.X.X.X.X.X.X.X.X.X.XXX.X.XQ.Q.Q.XXXXXXXXXXXXXX.X.XQ..X.XXXXXXX.X.XXXXX!.!..X.X.XQ.Q.Q.Q.Q.Q.!.!.!.!.!.!.!.!.XXXXXXXXXXXXXXXXXXXXXXXXXXOXOXXXOXOX!.!.!.!.Q.Q.Q.Q.Q.Q.Q.Q.Q.Q.Q.Q.Q.!.!.XX!.!.!.!.!.XX!.!.Q.!.Q.Q.Q.Q.!.Q.Q.Q.!.XXXXXXXXXXXXXXXXXXXXXX!.!.!.!.!.OXOXXXXX;XqXqXq.>XQ.I.Q.G.Q.OXOXXXQ.Q.Q.Q.Q.Q.Q.Q.Q.Q.Q.Q.Q.Q.Q.Q.W.W.W.W.W.W.W.Q.Q.Q.Q.Q.Q.Q.Q.Q.Q.Q.Q.Q.Q.!.Q.OXOX6XOXOXQ.Y.I.Q.Q.I.Q.Q.I.I.I.Q.Q.I.I.Y.Y.Y.Y.Y.Q.Q.Q.Q.Q.I.I.I.I.I.I.I.I.I.I.I.Y.Y.Y.I.I.Y.Y.Y.I.I.I.Q.Q.Q.Q.Q.Q.Q.!.!.!.!.!.!.Q.Q.Q.Q.Q.Q.Q.Q.Q.Q.Q.Q.Q.Q.Q.Q.Q.Q.Q.Q.Q.Q.Q.Q.Q.Q.Q.Q.Q.Q.Q.Q.Q.Q.Q.Q.Q.Q.Q.Q.Q.Q.Q.Q.Q.Q.Q.Q.Q.Q.Q.Q.Q.Q.Q.!.Q.Q.Q.Q.!.Q.Q.Q.Q.Q.!.!.Q.XX.XQ.Q.!.!.!.!.Q.Q.Q.Q.Q.Q.Q.Q.!.!.Q.Q.Q.!.!.Q.!..X.X.X.X.X.X.X.X.X.X.X.XXXXXXXXXXXXXXXXXXXXXXXXXXXXXXXXXXXXX!.Q.Q.Q.Q..X.XXXXX.XXXXXXXXXXXXX.XXXXX.X.X.X.XXXXX.X.X.X.XOX.X.X.XXXXXXXXXXXXXXXOXXXXX.X.X.X.XoXOX.X.XOXOXOXOXOXOXOXOX.X.X.X.XOXOXOX.X.X.X.X.XoXOXOXOXOXOX",
"oXoXoXoXoXoXoXoXOXOXOXOXoXoXoXoXOXOXXXXX.X.X.X.X.X.X.XOX.X.X.X.X.X.XQ.Y..X.XXX.X.X.X.X.X.X.X.XXXXX.X.X.X.X.X.XXX.X.XQ..X.XXX.X.XQ.Q.Q.XXXXXXXXXXXXXXXX.X.X.X.XXXXXXX.X.XXXXX!.!..X.XQ.Q.Q.Q.Q.Q.Q.Q.!.!.!.Q.!.!.!.XXXXXXXXXXXXXXXX!.XX!.XXXXOXXXXXOXXX!.!.!.!.!.Q.Q.Q.Q.Q.Q.Q.Q.Q.Q.Q.Q.!.!.XX!.!.!.XXXXXXXX!.Q.Q.!.!.Q.Q.Q.Q.Q.Q.!.XXXXXXXXXXXXXXXXOXXXXXXXXX!.!.!.!.!.XXXXOX6XG.XXY.Q.Q.G.Q.Q.!.OX6XQ.Q.Q.Q.Q.Q.Q.Q.Q.Q.Q.Q.Q.Q.Q.W.W.W.W.W.Q.W.W.Q.Q.Q.Q.Q.Q.Q.Q.Q.Q.Q.Q.!.XX.XY.XX$XqX6X6XOXQ.Q.Q.Q.Q.I.I.I.I.I.Q.Q.I.I.I.I.I.I.Y.Y.Y.Q.Q.I.I.I.I.I.I.I.I.I.I.I.I.Y.Y.Y.Y.I.Y.Y.Y.I.I.I.Q.Q.Q.Q.Q.Q.Q.!.!.!.!.!.Q.Q.Q.Q.Q.Q.Q.Q.Q.Q.Q.Q.Q.Q.Q.Q.Q.Q.Q.Q.Q.Q.Q.Q.Q.Q.Q.Q.Q.Q.Q.Q.Q.Q.Q.Q.Q.Q.Q.Q.Q.Q.Q.Q.!.!.Q.Q.Q.Q.Q.Q.Q.Q.Q.!.!.!.Q.Q.Q.Q.Q.Q.Q.Q.!.Q.Q.Q..XXXXXXXXX!.!.!.!.Q.Q.Q.Q.Q.Q.Q.Q.Q.Q.Q.Q.!.!.XXXXXX.X.X.X.X.X.XXXXXXXXXXXXXXXXXXXXXXXXXXXXXXXXXXXXXXXXXXXXX!.Q.Q.Q.Q.Q.Q..XXXXX.XXXXXXXXXXXXX.X.X.X.X.X.X.XXXXX.X.X.X.X.XOXOX.XXXXXXXXXXXXXOXOXOXOX.X.X.X.X.X.X.X.X.X.X.XOXOXOXOXOX.X.X.X.XOXOXOXOX.X.X.XoXOXOXOXOXOXOX",
"oXoXoXoXoXoXoXoXOXOXOXOXOXOXoXOXOXXX.X.X.X.X.X.X.X.X.X.X.X.X.X.XQ..XY.Y.Q..XXX.X.X.X.X.X.X.X.XXX.X.X.X.X.X.X.X.X.X.XQ..X.X.X.X.XQ.Q.Q.XXXXXXXXXXXXXXXXXXXXXX.X.XXXXXXX.XXX!.!.Q.Q.Q.Q.Q.Q.Q.Q.Q.Q.Q.Q.Q.Q.Q.Q.!.!.XX!.XXXX!.!.!.!.!.!.!.!.XXXXXXXXXXXX!.!.!.!.!.Q.!.Q.Q.Q.Q.Q.Q.Q.Q.!.!.!.!.!.!.!.!.!.XXXXXX!.Q.Q.!.!.Q.Q.Q.Q.Q.Q.!.XXXXXXXXXXXXXXXXXXXXXXXX!.!.!.!.!.!.XXXXXX>X>.>XY.Y.Q.Q.Q.Q.Y.XX6XQ.Q.Q.Q.Q.Q.Q.Q.Q.Q.Q.Q.Q.Q.Q.Q.W.W.W.W.Q.W.W.W.Q.Q.I.Q.Q.Q.Q.Q.Q.Q.!.OXOX6X$X>X6X$XOX$X0XOXW.Q.Q.Q.I.I.I.I.I.Q.Q.I.I.I.I.I.I.I.I.I.I.I.I.I.I.I.I.I.I.I.I.Q.Q.I.Y.Y.Y.Y.Y.Y.Y.Y.I.I.I.W.Q.Q.Q.Q.Q.!.!.!.!.!.Q.Q.Q.Q.Q.Q.Q.Q.Q.Q.Q.Q.Q.Q.Q.Q.Q.Q.Q.Q.Q.Q.!.!.Q.Q.Q.Q.Q.Q.Q.Q.Q.Q.Q.Q.Q.Q.Q.Q.Q.Q.Q.Q.Q.Q.!.Q.Q.Q.Q.Q.Q.Q.Q.Q.Q.Q.Q.Q.Q.Q.Q.Q.Q.Q.Q.Q.Q.!.OX>X>X6X>XXXQ.Q.!.!.!.Q.Q.Q.Q.Q.Q.Q.Q.Q.Q.Q.!.!.!.!..X.X.X.X.X.X.XXXXXXXXXXX.XXXXXXXXXXXXXXXXXXXXXXXXXXXXXXXXXQ.Q.Y.Y.Y.Q.Q..X.XXX.X.XXXXXXXXXXX.X.X.X.X.X.X.XXX.X.X.X.X.X.XXXXXXXXXXXXXXXOXOXOXOXOXOX.X.X.X.X.X.X.X.X.X.X.XOXOXOXOXOX.X.X.X.XOXOXoXOXOXOXOXOXOXOXOXOXOXOX",
"OXOXOXoXoXoXoXoXOXOXOXOXOXOXOXOXXXXX.X.X.X.X.X.XQ..X.X.X.X.X.XQ.Q.Q.Y.Y.Y..XXX.X.X.XQ.Q..X.X.XXXXX.XXX.X.X.X.X.X.XQ.Q.Q..X.X.XQ.Q.Q.Q.!.XX!.XXXXXXXXXXXX.X.X.X.XXXXXXXXXXX!.!.Q.Q.Q.Q.Q.Q.Q.Q.Q.Q.Q.Q.Q.Q.Q.Q.!.!.XX!.!.!.!.!.!.!.!.XXXXXXXX!.!.XXXX!.!.!.OX!.!.!.!.!.Q.Q.Q.Q.I.Q.!.!.XXXX!.!.!.!.!.!.XXXXXX!.Q.Q.!.!.Q.Q.Q.Q.!.!.!.XXXXXXXXXXXXXXXXXXXX!.!.!.!.!.!.!.!..X.X.XOXF..XQ.Q.G.Q.Q.I.Q.XX>XQ.Q.Q.Q.Q.Q.Q.Q.!.!.!.!.!.Q.Q.Q.Q.W.W.W.Q.Q.W.Q.Q.I.I.I.I.Q.Q.Q.Q.Q.XXOXOXqXqX6X0XQ..XOXwX6X!.W.Q.Q.W.I.I.I.I.Q.Q.I.I.I.I.I.I.I.I.G.I.I.I.I.I.I.I.Q.Q.Q.Q.Q.Q.I.I.Y.Y.Y.Y.Y.Q.Y.Y.Y.Y.Q.Q.Q.Q.Q.!.!.!.Q.Q.Q.Q.Q.Q.Q.Q.Q.Q.Q.Q.Q.Q.Q.Q.Q.Q.Q.Q.Q.Q.Q.XXOX6X>XOX!.Q.Q.Q.Q.Q.Q.Q.Q.Q.Q.Q.Q.Q.Q.Q.Q.Q.Q.Q.Q.Q.Q.Q.Q.Q.Q.Q.Q.Q.Q.Q.Q.XXOX>X$XOXQ.Q.Q.Q.Q.Q.OX6XtXuXuXwX$X.XQ.XX!.!.!.Q.Q.Q.Q.Q.Q.Q.Q.Q.!.XXXX!.!..X.X.X.X.X.X.X.X.XXX.X.X.XXXXXXXXXXXXXXXXXXXXXXXXXXXXXXX!.Q.Q.Y.Y.Y.Y.Q.Q.Q..X.X.X.X.XXXXX.X.X.X.X.X.X.X.X.X.X.X.X.X.X.XXXXXXXXXXXXXXXOXOXOX.XOXOX.X.X.X.X.X.X.X.X.X.X.XOXOXOXOXOX.X.X.X.XOXOXoXoXOXOXOXOXOXOXOXOXOXOX",
"OXOXOXoXOXOXOXOXOXOXOXOXOXOXOXOXOXOX.X.XQ.Q..X.X.X.X.X.X.X.X.X.X.X.X.X.X.XXXXXXX.XQ..XXXXX.X!.XXXXXXQ.Q.Q.Q.Q.Q.Q.Q.Q.Q.Q.Q.Q.Q.Q.Q.Q.XXXXXX.X!.!.XXXXXXXXXX!.Q.Q..X.X.X.XQ.Q.Q.!.!.!.!.!.Q.Q.Q.Q.Q.Q.Q.Q.!.!.!.XXXXXXXXXX!.XX!.XXXX!.!.XXXXXXXXXXXXXX!.!.!.!.!.!.!.Q.Q.Q.Q.Q.Q.!.!.!.!.!.!.!.!.!.!.!.!.!.Q.Q.Q.Q.Q.!.!.Q.Q.Q.Q.Q.!.!.!.XXXXOXXXXXXXXXXXXXXX!.!.XXXXXX.X.X.XXXOXD.OXQ.Q.G.Q.Q.!.Q.>X>XQ.Q.Q.Q.!.!.!.Q.Q.Q.Q.Q.!.Q.Q.Q.Q.Q.Q.W.Q.Q.Q.Q.Q.Q.Q.Q.Q.Q.Q.Q.Q.Y..X0XL.J.Q.L.6XY..XQ.6XOX!.I.I.Q.Q.Y.I.I.Q.Q.Y.Y.Y.Y.I.I.I.I.I.I.P.C.I.I.I.I.I.I.Y.Y.Y.Q.Y.Q.I.Q.Y.Q.Y.Y.Q.Y.Y..XQ..X.XY.XXY.Q.!.Q.OXQ.!.Q.!.!.!.!.!.Q.Q.Q.Q.Q.Q.Y.Y.Q.Q.!.Q.Q.OX6X6X6X6XOXQ.Q.Q.Q.!.!.Q.Q.Q.Q.Q.Q.Q.Q.Q.Q.Q.Q.!.Q.Q.Q.Q.Q.Q.Q.Q.!.!.W.!.Q.Q.OX6XwXtXqXOX.XOX.XQ.XX6XuXlXlXlXtX>X.XQ.XXQ.!.XX!.Q.Q.Q.Q.Q.Q.Q.Q.!.!.!..XQ.Q.Q..X.X.X.X!.!.!..X.X.X.X.XXXXXXXXXXXXXXXXX.XXXXXXXXXXXXXQ.Y.G.Y.Q.Q.Q.Q.Q.!.!.!..X.X.X.X.X.X.X.X.X.X.X.X.X.X.X.X.X.XXXXXXXXXOXOX.X.X.X.X.X.XOX.X.XOXOXOX.X.X.X.X.XOXOXOXOXOXOXOXOXOXOXOXOXOXOXXXXXOXOXOXXXXXXXXXOXOX",
"XXXXOXOXOXOXOXOXOXOXOXOXOXOXOXOX.X.X.X.X.X.X.X.X.X.X.X.X.X.X.X.X.X.X.X.XXXXXXXXX.XQ..XXXXX!.!.!.XX!.!.Q.Q.Q.Q.Q.Q.Q.Q.Q.Q.Q.Q.Q.Q.Q.Q.Q..XXX.X.X!.XXXXXXXXXX!.!..X.X.XXXXX!.!.Q.!.!.!.!.!.Q.Q.Q.Q.Q.!.!.!.!.!.!.XXXXXXXXXX!.XXXXXXXX!.!.XXXXOXOXXXXXXX!.!.!.!.!.!.!.Q.Q.Q.Q.Q.Q.!.!.!.!.!.!.!.!.!.!.!.!.!.Q.Q.Q.Q.Q.!.!.Q.Q.Q.!.!.!.!.!.XXXXXXXXXXXXXXXXXXXX!.!.XX!.!..XOX0X0X0XD.$X$X$XQ.Q.Q.I.Q.OXOXQ.Q.Q.Q.!.!.!.Q.Q.Q.Q.Q.Q.Q.Q.Q.Q.Q.Q.I.Q.Q.Q.I.I.Q.Q.Q.Q.Q.Q.Y.Q.Q..XOXL.$X6XOXOXQ.Q.Y.Q.!.Q.Y.Y.Q.Y.Y.Q.Q.I.Q.G.G.Y.I.Y.I.I.I.I.I.I.C.P.I.I.I.I.I.Y.Y.Q.I.Q.Q.Q.Y.Y.Q.Q.Q.G.Q.6X0XqXXX.X.XXX>X0X$X.XQ.!.Q.Q.Q.Q.Q.Q.Q.Q.Q.Q.Q.Q.Q.Q.Q.Q.Q.Q.Q.Q.OX$X$X>XOXXXQ.!.!.!.!.!.Q.Q.Q.Q.Q.Q.Q.Q.Q.Q.Q.!.Q.!.!.Q.Q.Q.Q.Q.Q.Q.Q.W.Q.Q.!.$X0XtXuXuXeX$X.X.XXXOXwXuXlXlXlXtX>X.XQ.Q.!.!.!.!.Q.Q.Q.Q.Q.Q.Q.Q..X.X.XQ.Q.Q.Q.Q..X.X.X.X!.!..X.X.X.X.XXX.X.XXXXXXXXXXX.X.XXXXXXXXXQ.Q.Y.I.Y.Y.Y.Q.Q.Q.!.Q.!.!..X.X.X.X.X.X.X.X.X.X.X.X.X.X.X.X.X.X.X.X.X.X.X.X.X.X.X.X.X.X.X.X.X.X.X.X.X.X.X.X.XOXOXOXOXOXOXOXOXOXOX.X.XOXOXoXOXOXOXXXOXXXXXoXoX",
"XXXXXXXXOXOXXXOXOXOXOXOXOXOXOXOX.X.X.X.X.X.X.X.X.X.X.X.X.X.X.X.X.XXXXXXXXXXXXXXX.XQ..XXXXX!.!.!.XX!.!.Q.Q.Q.Q.Q.Q.Q.Q.Q.Q.Q.Q.Q.Q.Q.Q.Q..X.X.X.X.X.XXXXXXXXXXX!.XXXXXXXXXXXX!.!.!.!.!.!.Q.Q.Q.!.!.!.XXXXXXXXXXXXXXXXXXXX!.!.!.!.XXXX!.!.XXXXXXXXXXXXOX!.!.!.!.!.!.!.!.Q.Q.Q.Q.Q.Q.!.!.!.!.!.!.!.!.!.!.!.!.!.Q.Q.Q.Q.!.!.!.!.!.!.XXXXXXXXXXXXXXXX!.!.!.!.XXXXXXXX!.!.!.OX0XwX$XL.t.$X6X6X!.Q.I.I.Q.XXQ.Y.Q.Q.Q.Q.!.Q.Q.Q.Q.Q.Q.Q.Q.Q.Q.Q.Q.Q.Q.Q.Q.Q.I.I.Y.Q.Q.Q.W.Q.Q.Q.Y.Y.OX$XOX6X$XY.Q.I.Q.Y.Y.Y.Y.Q.Q.Y.I.Y.I.Q.I.Q.Q.I.Y.F.I.I.I.G.I.I.I.I.I.I.I.I.I.Y.Q.Q.Y.Q.I.G.G.OXOXOXQ.!.Q.6XwX0XrX0XXX>X$X6X6X6XOXQ.Q.!.!.!.!.!.Q.!.Q.Q.Q.Q.Q.XXXXXX.XOX.X.XOX>X$XOX.XQ.Q.Q.Q.Q.Q.Q.Q.Q.Q.Q.Q.Q.Q.Q.Q.XX!.Q.I.Q.Q.!.!.Q.Q.!.!.!.Q.Q.Q.Q.OX0XtXtXtXuXuX0X.XQ.Y.Q.OX>XtXlXlXrX6XOX.X.X.XXX!.!.Q.Q.Q.Q.Q.Q.Q.Q..X.XQ.Q.Q.Q.Q.Q..XQ..X.X!..X.X.X.X.X.XXX.X.X.XXXXXXXXX.X.X.X.X.XQ.Q.Y.I.Y.Y.G.G.Q.Q.!.Q.Q.!.!.!.!..X.X.X.X.X.X.X.X.X.X.X.X.X.X.X.X.X.X.X.X.X.XOXOXOXOXOX.X.X.X.X.X.X.X.X.X.X.X.X.X.XOXOXOXOXOXOXOXOX.X.XOXOXoXOXoXoXoXOXXXOXOXoX",
"XXXXXXXXXXOXOXOXOXOXOXOXOXOXOXOXOXOX.X.X.X.X.X.X.X.X.X.X.X.X.X.X.XXXXXXXXXXXXXXX!.Q..XXXXX!.!.!.XX!.!.!.Q.Q.Q.Q.Q.Q.Q.Q.Q.Q.Q.!.Q.Q.Q.Q..XXX.X.X.X.XXXXXXXXXXXXXXXXXXXXXXXXXXXXX!.!.!.Q.Q.!.!.!.!.!.XXXXXXXXXXXXXXXXXX!.!.!.XXXXXXXXXX!.!.XXXXXX!.XXXX!.!.!.!.!.!.!.!.Q.Q.Q.Q.Q.Q.Q.Q.!.!.!.!.!.XX!.!.!.!.!.!.Q.Q.!.!.!.!.!.!.XXXX!.!.XX!.XXXX!.!.!.!.!.XXXXXXXXXXXXXXXX$X0X$XY.D.OX$X$XQ.Y.I.I.Y.Q.Q.Y.Q.Q.Q.Q.Q.Q.Q.Q.Q.Q.Q.Q.Q.Q.Q.Q.Q.Q.Q.Q.Q.Q.I.Y.I.Q.Q.W.I.W.I.Q.Q.Y.Q.Q.Q.$XXXY.Q.Y.I.Q.Y.Y.Q.Y.Q.I.I.I.I.I.OXOX6X6XXXQ.G.I.G.I.G.C.I.C.I.I.I.I.I.Q.Q.Q.I.I.I.Q.Q.!.OX6XOX!.6X6XtXwX0XqXOXwX$X$XoXOX4XQ.OX$X6X>XXXQ.Q.Q.Q.Q.Q.Q.!.OX6X0X6X0X$XOXOXOXoXQ..X!.XXQ.!.!.!.!.Q.Q.Q.Q.Q.I.I.Q.!.Q.Y..X!.OX!.!.!.!.Q.Q.Q.Q.Q.Q.Q.XX0XtXuXuXuXlXuX$XOXL.G.!.G..XOX$X0X0X>XOXXX.X.X.X!.Q.Q.Q.Q.Q.Q.Q.Q..X.XQ.Q.Q.Q.Q.Q.Q..X.X.X.X.X.X.X.X.X.X.XXX.X.X.X.XXXXXXX.X.X.X.XQ.Q.Q.Y.I.Y.I.G.G.Q.Q.Q.Q.Q.!.!.!.Q.Q..X.X.X.X.X.X.X.X.X.X.X.X.X.X.X.X.X.XOXOXXXXXOXOXOX.X.X.X.X.X.X.X.X.X.X.X.X.X.X.XOXOXOXOXOXOXOXOX.X.XOXoXoXOXoXoXoXOXOXOXOXoX",
"OXOXOXOXOXOXOXOXOXOXOXOXOXOXOXOXXXXX.X.X.X.X.X.X.X.X.X.X.X.X.X.X.XXXXXXXXXXXXXXX!.Q..XXXXX!.!.!.!.!.!.!.Q.Q.Q.Q.Q.Q.!.!.!.Q.!.XXXXXX.X.XXXXX.X.X.X!.XXXX.XXXXXXXXXXXXXXXXXXXXXXX!.!.!.!.!.!.!.!.!.!.!.!.XXXXXXXXXXXXXXXXXXXXXXXXXXXXXXXXXXXXXXXXXXXXXX!.!.!.!.!.!.!.!.!.Q.Q.Q.Q.Q.Q.Q.!.!.!.!.!.XX!.!.!.!.!.!.!.Q.!.!.!.!.!.XXXXXXXXXXXX!.!.!.!.!.!.XXXXXXXXXXXX!.XXXX.XXXOX>X0XXX$XOXXXQ.Y.I.I.Y.Q.Q.Q.Q.Q.Q.Q.Q.Q.Q.Q.Q.Q.Q.!.Q.Q.Q.Q.Q.Y.Y.Q.Q.Q.I.Y.I.Y.Y.I.I.W.I.I.Q.Y.Y.Y.Q.$XQ.Y.Y.!.I.I.Q.Q.Y.Y.Y.Y.I.I.Y.XXOX6XwX6XqX>XOXOXOX;XOXQ.Q.G.I.I.I.I.Q.Q.Q.Q.Q.I.I.G.OX6X6XOXOX!.G.oXuXiXwXeXOXeXOX4X4X4XwX$X0X6XwX0X!.Q..X!.!.Q.Q.!..X6XtXuXtXtX0X0X$X.XoX6XtX0X6XQ.Q.Q.Q.!.Q.Q.Q.Q.Q.Q.Q.Q..XQ.Q..XL.Q..X!..X.X.X.X!.Q.XXXXOX0XtXwX6X6X0XqX6X.XOXQ.I.!.G..X.XOX$X0X0X$XXX.XXX.X.X.X.X.X.X.X!.!..X.X.XQ.Q.Q..X.X.X.XQ.Q..X.X.X.X.X.X.X.X.XXX.X.XXX.XXXXXXX.X.X.X.XQ.Q.Q.Y.I.G.I.I.Y.Q.Q.Q.Q.Q.Q.!.Q.Q.Q.Q..X.X.X.X.X.X.X.X.X.X.X.X.XXXXX.X.X.X.XOXOXOX.X.X.X.X.X.X.X.X.X.X.X.X.X.X.X.X.XOXOXOXOXOXOXOXOXOXOXXXOXoXOXoXoXOXOXXXXXOXOX",
"OXOXOXOXOXOXOXOXOXOXOXOXOXOXOXOXXXXX.X.X.X.X.X.XXXXXXXXX.X.X.X.XXXXXXXXXXXXXXXXX!.Q..XXXXX!.!.!.!.!.!.Q.Q.Q.Q.Q.Q.!.XXXX!.!.!.XXXXXX.X.XXXXXXX.X!.!.XXXX.XXXXXXXXXXXXXXXXXXXXXXX!.!.!.!.!.!.!.!.!.!.!.!.XXXXXXXX!.XXXXXXXXXXXXXXXXXXXXXXXXXXXXXXXXXX!.!.!.!.!.!.!.!.!.!.!.!.!.!.Q.Q.!.!.!.!.XXXXXX!.!.!.!.!.!.!.!.!.!.!.!.!.XXXX!.!.!.XX!.!.XXXXXXXXXXXXXX!.!.!.!.!.XXXXXX.XOXOX0XOX.X.XQ.Q.I.Y.Y.Y.Q.Q.Q.Q.Q.Q.Q.Q.Q.Q.Q.Q.Q.!.Q.Q.Q.Q.Q.Y.I.Q.Q.Q.I.Y.I.Y.Y.I.I.!.W.I.I.Y.Q.XXQ.$XXXY.Y.Q.Q.I.Q.Y.Y.Y.Y.Y.Y.I.I.Q.$X6X6XqX6XqXwX6X6XqXqX6X;XQ.I.I.I.I.Q.Q.Q.Q.I.I.Q.Y.OX6X!.q.OXQ.| R.wX4XwX6XOXOX$XoX4XiXtX5XwX4X0X6XQ.!.$X4XOXQ.Q.!..X6XtXuXtXeX.X$XwXwXtXwXwX6X0XOXOXXX!.Q.Q.Q.Q.Q.Q.Q.Q.Q.Y.OX$XOX6X4XOXoXoXoX.X!.Q..XXXXX0X0X>XXXQ.Q.!.Q.XX!.Q.Q.I.G.Q.Q..XOX$XwXtX6XXXXXXX.X.X.X!.XX.X.X!.!..X.X.X.XQ.Q..X.X.X.XQ.Q..X.X.X.X.X.X.X.X.XXXXX.XXXXXXXXXXX.X.X.X.XQ.Q.Q.Y.I.G.I.Y.Y.Q.Q.Q.Q.Q.Q.Q.Q.Q.Q.Q..X.X.X.X.X.X.X.X.X.X.X.X.XXXXXXXXX.X.X.X.X.X.X.X.X.X.X.X.X.X.X.X.X.X.X.X.X.X.XOXOXOXOXOXOXOXOXOXOXXXXXOXOXoXoXOXOXOXOXOXOX",
"OXOXOXOXOXOXOXOXOXOXOXOXOXOXOXOX.X.X.XXXXXXXXXXXXXXXXXXXXX.X.X.XXXXXXXXXXXXXXX.X.XQ..XXXXXXX!.!.XX!.Q.Q.Q.Q..XQ.!.XXXXXX!.Q.!.XX!..XQ.Q.!.XXXX.XXXXXXXXX.XXXXXXX.X.XXXXXXXXXXXXXXXXX!.!.!.!.!.!.!.!.!.!.!.!.XXXX!.XXXXOXOXOXXXXXOXOXXXXXXXXXXXXXXXXX!.!.!.!.!.!.!.!.!.!.!.!.!.!.!.!.!.!.!.XXXXXXXXXX!.!.!.!.!.!.!.!.!.!.XXXXXXXXXX!.!.!.!.!.XXXXXXXXXXXX!.!.!.!.OX!.Q.!.XXOXXXXX6XOX.X!.!.!.Q.Q.Y.Y.I.I.I.Q.Q.Q.Q.Q.Q.Q.Q.Q.Q.Q.Q.Q.Q.Q.Q.Q.Q.Q.Q.Q.I.I.I.Q.Q.W.Q.I.I.Q.Q.Q.Y.L..XOXOXQ.Q.Y.Q.Q.Y.Y.Y.Y.Y.Y.Q.I.G.Q.!.6X6X6XqXpX8X8X6X6X8X8X7XW.I.I.I.I.Q.Q.Q.Q.!.I.I.Q.OXOX6XwX4XC.,.4XiX4X4X0XOX$X0X XoX5X5X4XwXwX0XOXQ.OX$X4X;X!.Q.!..X6XrXeXXX0X$XOX$X0XtXtXlXqXwXQ.Q.Q.Q.Q.Q.Q.Q.Q.Q.Q.Q.Q..XL.v.t.OX0X0X5X4X4X4X$X$X6X0X6X>XOX.XY.Q.XXXXQ.Y.Q.G.Q.Q.Q.OX.XQ..XOX>X6XOX.X!.XX.X.X.XXXXXXX.X!.!..X.X.X.X.X.XQ.Q.Q.Q.Q.Q..X.X!.!..X.X.X.X.XXXXXXXXXXXXXXX.X.X.X.X.X.XQ.Q.Y.I.G.I.Y.Y.Y.Q.Q.Q.Q.Q.Q.Q.Q.Q.Q..X.X.X.X.X.X.X.X.X.X.X.X.XXX.X.X.X.X.X.XQ.Q.Q.Q.Q..X.X.X.X.X.X.XOXOXOXoXoX.X.XOXOXOXOXOXOXOX.XOXOXXXXXOXoXOXOXOXOXOXoXOXOX",
"OXOXOXOXOXOXOXOXOXOXOXOXOXOXOXOX.X.XXXXXXXXXXXXXXXXXXXXXXXXX.X.XXXXXXXXXXXXXXX.X.XQ..XXXXXXX!.XXXX.XQ.Q.Q..X.X.XXXXXXXXX.XQ.Q..XQ.Q.Q.Q.Q.!.XXXXXXXXXXXXXXXXXXXX.X.X.XXXXXXXXXXXXXXX!.!.!.!.!.!.!.!.!.!.!.!.XXXX!.XXXXOXOXOXXXXXXXXXXXXXXXXXOXOXXXXX!.!.!.!.OXOX!.!.!.!.!.!.!.!.!.!.!.!.!.XXXXXXXXXX!.!.!.!.!.XXXXXX!.XXXXXXXXXXXXXXXX!.!.!.XXXXXXXXXXXX!.!.!.!.!.XXXXXX.X.XXXXX>XOXXX!.!.!.!.Q.Y.I.I.I.I.Q.Q.Q.Q.Q.Q.Q.Q.Q.Q.Q.Q.Q.Q.Q.Q.Q.Q.Q.Q.Q.Y.I.I.Q.Q.Q.Q.I.W.!.Y.Q.Q.OXY.L.G.Q.Q.Q.Q.Q.Q.Q.!.Q.Y.Y.Y.I.Q.I.Y.Q.Q.XXOX7XOX6X;XOX!.;X7XOXI.I.I.Q.Q.Q.Q.Q.Q.Q.Y.Y.!.6X4XoXr.| O.C.4XK.oXoXeX4X0X4X5X4X4X#X4XwX$XQ..X$X$X>X>X!.Q.Q..X0XeX$XeXtX0X0X6X$X6X6XOXOXqX$X6X6XOXQ.Q.Q.Q.Q.Q.Q.Q.!.oX9.D. XoX#XiX3XoXoX XR..XOXOXXX.XQ.Q.!.Q.Q.Q.Q.Q.Y.Q.Q.Q.XXQ.Q..X.X.X.X.X!..XXXXX.X.XXXXXXXXX.X!.!..X.X.X.X.X.XQ.Q.Q.Q.Q.Q..X.X!.!..X.X.X.X.XXXXXXXXXXXXXXX.X.X.X.X.X.XQ.Q.Y.I.G.I.Y.Y.Y.Q.Q.Q.Q.Q.Q.Q.Q.Q.Q..X.X.X.X.X.X.X.X.X.X.X.X.X.X.X.X.X.X.XQ.Q.Q.Q.Q.Q..X.X.X.X.X.XOXOXOXOXOXoXOXOXOXOX.X.XOXOXOX.XOXOXOXOXOXoXOXOXOXOXOXOXOXOX",
"OXOXOXOXOXOXOXOXOXOXOXOXXXOXOXOX.XXXXXXXXXXXXXXXOXXXXXXXXXXXOXXXXXXXXXXXXXXXXXXXXX!.Q.!.Q.Q.Q.XXXXQ.Q.Q.Q.Q..XXXXXXX!.!.!.Q.Q.Q..X.X.XQ.Q.Q.XXXX.XXX!.XXXXXXXXXXXXXXXXXXXXXXXXXXXXXXXXXXXXXXXXXXXX!.!.!.!.!.XX!.XXXXXXXXXXXXXXXXOXXX!.!.XXOXOXOXXXXX!.!.!.!.!.!.!.!.!.!.!.!.!.!.!.!.!.!.!.!.XXXX!.!.XXXXXXXX!.!.XXXX!.!.!.!.XXXXXX!.!.!.XXXXXXXXXX!.!.!.XXXXXXXXXXXX!.XXXXXXXX.X>XXXQ.!.Q.!.!.!.Q.I.G.I.I.I.Q.!.Q.Q.Q.Q.Q.Q.Q.Q.Q.!.!.Q.Q.!.OX;XQ.Q.I.Q.Q.Q.Q.Q.I.Q.!.Y.Q.Q..XN.t.D.9.OXOX$XOXOX6XQ.Q.!.I.Q.I.Q.Q.Q.I.Q.I.!.;XY.C.G.!.6XOXOX>XQ.Y.I.Q.I.Q.Q.Q.Q.Y.!.XXOX6XOXG.R.4XE.E.V.,.R.5XoX$X$X0X#X4X5XwXwXwXeXeXOX.X6XOX6XXX!.Q.Y..X.X$X0XrX0X0X$XOXOX.XXX$XOXOX6X>X>X6X.X.XQ.Q.Q.!.Q.!.OX4X*.n.4X3XwX5XR.v.,.9.t.v.$XOX!.!.Q.Q.Q.Q.Q.Q.Q.!.Q.Q.XX6XrXOXXX.X.X.X.X!..X.XXX.XXXXXXX.XXXXX.X!..X.XQ.Q.Q.Q..X.X.X.X.X.X.X.X.X!..X.XQ.Q.Q..X.XXXXXXXXXXXXX.X.X.X.X.XQ.Q.Q.Q.Y.Y.Y.Y.Y.Q.Q.Q.Q.Q.Q.Q.Q.Q.Q.Q.Q.Q.Q..X.X.X.X.X.X.X.X.X.X.X.X.X.X.XQ.Q.Q.Q.Q.Q.Q..X.X.X.X.X.X.X.XoXoXoXOXOXOXOXOX.X.X.X.X.X.X.X.X.X.X.XoXOXOXOXoX.X.XOXOX",
"OXOXOXOXOXOXOXOXOXOXOXOXOXOXOXOX.XXXXXXXXXXXXXXXOXXXXXXXXXXXOXXXXXXXXXXXXXXXXXXXXX!.!.!.Q.Q.Q.XX.XQ.Q.Q.Q..X.XXXXXXXXX.X!.Q.Q.Q..X.X.XQ.Q.Q.XXXX.XXXXXXXXXXXXXXXXXXXXXXXXXXXXXXXXXXXXXXXXX!.!.!.XXXXXXXXXXXXXXXX!.!.XX!.XXXX!.!.XX!.XXXXXXXXXXXXXXXX!.!.!.!.!.!.!.!.!.!.!.!.!.!.!.!.!.!.!.!.XXXX!.!.!.XXXX!.!.!.XXXX!.!.!.!.XXXXXXXX!.!.XXXXXXXXXX!.!.!.XXXXXX!.!.XX!.XXXXXXXXXX>XXX!.!.Q.!.!.!.Q.I.G.G.I.I.Q.Q.Q.Q.Y.Q.Q.Q.Q.Q.Q.Q.Q.Q.!.OXOX!.Q.Y.I.Q.Q.Q.Q.Q.Q.Q.Q.Q.Q.Y.OX>.v.;.t.v.oXK..XG.$XXX!.Q.I.Q.I.I.I.Q.I.I.I.I.!.I.C.C.B.I.OXOX!.I.Y.I.Q.Y.Y.Q.Y.!.Q.OX.X0X6XoX.X4X8X<.r.R.v.,.v.D.Q.6XoX$X4XoXoX5X4XwX6X6XeXqXOXQ.Q.Q.Q.Q.XXQ.XXOX6XqX.XL.OX>XQ..XXX.XqX>X.X.XXX$X.XQ..XQ..X6X0X6X4Xr.K.E.5XoXn.,.| r.r.K..X4XoXQ.Q.I.I.I.I.I.I.Q.!.G.6X0X$X$XqXXX.X.X.X.X!..X.X.XXX>X0X>XXXXX.X.X.X.X.X.XQ.Q.Q..X.X.X.X.XQ.Q..X.X!..X.XQ.Q..X.X.XXXXXXXXXXXXXXX.X.X.X.XQ.Q.Q.Q.Y.Y.Y.Y.Y.Q.Q.Q.Q.Q.Q.Q.Q.Q.Q.Q.Q.Q.Q..X.X.X.X.X.X.X.X.X.X.X.X.X.X.XQ.Y.L.L.Y.Q.Q..X.X.X.X.X.X.X.XoXoXOXOXOXOXOXOX.X.X.X.X.X.X.X.X.X.X.X.X.X.X.X.XOXOXOXoX",
".X.X.X.XOXOXOXOXOXOXOXOXOXOXOXOXOXXXXXXXXXXXXXXXOXXXXXXXOXOXOXXXXXXXXXXX.XXXXXXXXX!.!..X.XQ.Q.XX.XQ.Q.Q.Q.!.XXXXXXXXXX.X.X.XQ.Q..X.XQ.Q.Q.Q..XXX.X.XXXXXXXXXXXXXXXXXXXXXXXXXXX!.XX!.XX!.!.!.!.!.XXXXXXXXXXXXOXOXXXXXXXXX!.!.!.!.!.!.XXXXOXXX!.!.!.!.!.!.!.!.!.!.!.!.!.!.!.!.Q.Q.Q.Q.Q.!.!.!.XXXX!.!.XXXXXXXX!.!.XXXXXX!.XXXXXXXXXXXXXXXXXXXXXXXXXX!.XX!.XXXX!.!.XXXXXXXXXXXXXXXX>XOXXX!.Q.!.!.!.Q.I.G.G.I.I.Q.Q.!.Q.Q.Q.Q.Q.Q.Q.Q.Q.Q.!.OXOX!.Y.Y.I.I.Q.Q.Q.I.Q.Y.I.Y.Q.Q.Q.OX-.-.>.L.Q.D.v.v.oX0XOXQ.Y.Y.Q.I.Q.!.!.OXG.C.6XG.I.B.G.B.G.Y.I.G.G.G.Y.Q.Q.Q.!.Q.Y..X6XwX6XL.K.R.wXV.C.V.8X0X,.*.D.$XOX$X4XK.R.oXE.oX4X6XOXOX$X0XOX.XQ.Q.Q.Q.Q.OX6XeX0XOX.X.X0XOXXXQ.XX.X6XL..X.X0X4XQ..XOX6XwXwXwX4X8.r.n.3X,...| ,.K.K.r.v.v.oXoX!.Q.Q.Q.Q.I.Q.Q.Q.OXOX.XuXlXrXOX.XXX.X.X.X.X.X.XOX0XtX0XOX.X.XXX.X.X.X.XQ.Q..X.X!..XQ.Q.Q.Q.Q.Q..X.XQ..X.X.X.XXX.XXXXXXXXXXX.X.X.X.X.X.X.XQ.Q.Q.Y.Y.Q.Q.Q.!.Q.Q.Q.Q.Q.Q.Q.Q.Q..XQ..X.X.X.X.X.X.X.X.X.X.X.X.X.X.X.XQ.Q.L.L.L.Y.Q.Q.Q..X.X.X.X.X.X.X.XoXoXOXOXOXOX.X.X.X.X.X.X.X.X.X.X.X.X.X.X.X.XOXOXoXoX",
".X.X.X.XOXOXOX.X.X.X.XOXXXXXXXOXXXXXXXXXXXXXXXOXOXXXXXXXOXOXOXXXXXXXXXXX.XXXXXXXXXXXXX.X.X.X.X.X.X.X!.!.XXXXXXXXXXXXXX.X.XQ.Q.Q.Q.Q.Q.Q.Q.Q..XXX.X.XXXXXXXXXXXXXXXXXXXXXXXXXXXXXXX!.!.!.!.!.!.!.XXXXXXXXXXXXXXXXXXXXXXXXXXXX!.!.Q.!.!.!.XXXXXX!.XXXX!.!.!.!.!.!.!.!.!.Q.Q.Q.Q.Q.Q.Q.Q.!.!.!.XXXXXX!.XXXXXXXX!.!.XXXXXXXXXXXXXXXXXXXXXXXXXXXXXXXXXX!.XXXXXXXX!.!.XXXX!.XXXXXXXXXX>XOXXX!.!.!.!.!.Q.Y.G.I.I.Q.Q.Q.!.!.!.Q.Q.Q.Q.Q.Q.Q.Q.OXOX!.Q.Q.I.I.I.Q.Q.Q.I.Y.Q.Y.Q.Q.Y.Q.XX>.v.L.$XOXD.$Xv..X$XOXQ.Q.Q.Q.I.OX!.I.Q.!.W.OXC.C.C.C.C.G.G.G.Y.Y.Q.OX6XwX6X!.Q..X6XQ.4X0X$XoXoX4XW.iX4X4XK.D.K.t.4XoX$X4XE.E.E.E.oXR.0X6X$XeXeXOXQ..X.X.XOX6X6X.XoXQ.6X6X!.6XOX.X.X0X>X0XOX.XoX0X4X4X6XwXiXvXiXwX4XE.3X3X XoX5X5XR.n. XR.v.v.%.!.W.W.I.I.I.Q.Q.Q..X6XY.L.@XtXqXXXXXXXXX.X.X.X.X.X$XwXuX0XXX.XXXXX.XXXXX.XQ.Q..X.X.X.XQ.Q.Q.Q.Q.Q.Q.Q.Q..X.X.X.XXX.XXXXXXXXXXXXX.X.X.X.X.XXXQ.Q.Q.Q.Q.Q.Q.!.!.!.Q.Q.Q.Q.Q.Q.Q.Q..X.X.X.X.X.X.X.X.X.X.X.X.X.X.X.X.X.X.XQ.L.L.L.Q.Q.Q.Q.Q.Q.Q.Q..X.X.X.X.X.XOXOXOXOX.X.X.X.X.X.X.X.X.X.X.X.X.X.X.X.XOXOXOXoX",
"OXOXOXOXOXOXOXOX.X.XXXXXXXXXXXXXXXXXXXXXXXXXOXOXOXXXXXXXXXXXXXXXXXXX.XXX.XXXXXXXXXXXXX.X!..X.X.X.X.XXXXX.XXXXXXXXX.X.X.X.X.X.X.XQ.Q.Q.Q.Q.Q.!.XXXXXXXXXXXXXXXXXXXXXXXXXXXXXXXX!.XX!.!.!.!.!.XXXXXXXXXXXXXX!.!.!.XXXXXXXXXX!.!.!.!.!.Q.Q.!.XXXXOXOXOXXX!.!.!.!.!.!.Q.Q.Q.Q.Q.Q.Q.!.Q.!.!.!.!.!.!.!.XXXXXXXXXXXX!.!.!.XXXXXX!.!.!.!.!.!.XXXXXXXXXXXXXXXXXX!.!.!.!.!.!.!.XXXXXXXXXXOXOXXX!.!.!.!.!.Q.Y.I.I.I.Q.Q.Q.Q.XXOXQ.Q.Q.!.Q.Q.Q..XXXXX!.Q.Y.I.I.I.Q.Q.Q.I.I.Q.Y.Q.Y.Y.Q.Q.D.Y.OXQ..XOX9.OXL.G.OX.XQ.Y.Q.Q.OXN.C.W.8XC.OXQ.!.OXQ.G.G.G.Q.Q.Y.XX>X0X0X0X6X4XoXOXG.G.oXQ.oX0Xv.wX8XN.!.8X4XR.t.oX6X4X4XK.v.V.3X4XR.4X4X$X0XwX5XOXOXOX4XoXR.oX0XwXOXQ.R.6X0X$XQ..X$XOXOX0X0XoXoXoX4X3X4XiXiX4X3XiX3X4X4X4XvXJXHXHXiXE.4X4XW.,.q.W.I.I.Q.Q.Q.Q..XOX0XOXOXL.0X0X.X.XXXXX.X.X.X.X.X0XtXwX6XXX.X.X!..XXX.X.XQ.Q.Q..X.XQ.Q.Q.Q.Q.Q.Q.Q.Q..X.X.X.X.XXX.X.XXXXXXXXX.X.X.X.X.X.XXXQ.Q.Q.Q.Q.Q.Q.!.!.Q.Q.Q.Q.Q.Q.Q.Q.Q.Q..X.X.X.X.X.X.X.X.X.X.X.X.X.X.X.X.X.XQ.Q.L.L.Q.Q.Q.Q.Q.Q.Q.Q.!..X.X.X.X.X.X.X.X.X.X.X.X.X.X.X.X.X.X.X.X.X.X.X.X.XOXOXOXOX",
"XXXXXXXXXXXXXXXXXXXXXXXXXXXXXXXXXXXXXXXXOXOXOXOXOXXXXXXXXXXXXXXXXXXX.XXX.XXXXXXXXXXXXX.XXXXXXX.X.X.XXXXXXX.XXXXXXXXX.X.X.X.X.X.XQ.Q.Q.Q.Q.Q.!.XXXXXXXXXXXX.X.X.XXXXXXXXXXXXXXXXXXXXX!.XXXXXXXXXXXXXXXXXXXXXX!.!.XXXXXXXXXX!.!.!.!.!.Q.Q.Q.!.XXOXOXOXOXOX!.!.!.!.!.!.Q.Q.Q.Q.!.!.!.!.!.!.!.!.XX!.!.!.XXXXXXXX!.!.!.!.!.!.!.XX!.!.!.!.XXXXXXXXXXXXXXXXXXXX!.XX!.!.XX!.!.!.XXXXXXXXOXOXOX!.!.!.!.!.!.Q.I.I.I.I.Q.Q.Q.OXOXXXQ.Q.!.Q.Q.XXXXQ.XXOXXXY.I.I.I.Q.Q.Q.I.Y.I.I.Q.Y.Y.Q.Q.XXOXQ.Y.L.OXOXq.$XQ.OXQ.Q.Y.Q.Q.!.G.R.W.C.+.E.W.8X8X9XOXG.I.Y.G..X>X6XrX4X0X0X#XR.v.wX4XR.R.iX8XR.!.W.OX8XwX8XiX8XR.oXR.C.W.3XA.E.v.E.W.R..X4X5X+X$XL.K.tXSXpXoXR.R.8X4XoXwXOX6XQ..X0XOX$X.X4XoXoX3X3XE.oXiX3X3X3XE.4XiX3X3XiXDXJXvXvXoXr.,.V.R.6XOXW.Q.OXOX!.Q..X0XtX6X$X0X0XXX.X.X.XXX.X.X.X.X.X6X6X>XOX.XXXXX.X!.!..XQ.Q.Q.Q.Q.Q.Q.Q.Q.Q.Q.Q.Q.Q.Q..X.X.X.X.XXX.X.XXXXXXXXX.X.X.X.X.X.XXXQ.!.Q.Q.Q.Q.Q.!.!.Q.Q.Q.Q.Q.Q.Q.Q.Q..X.X.X.X.X.X.X.X.X.X.X.X.X.X.X.XQ.Q.Q.Q.Y.L.L.Y.Y.Q.Q.Q.Q.Q.Q.!..X.X.X.X.X.X.X.X.X.X.X.X.X.X.X.X.X.X.X.X.X.XoXOXOXOXOXOXOX",
"XXXXXXXXXXXXXXXXXXXXXXXXXXXXXXXXOXOXOXOXOXOXOXXXOXXXXXXXXXXXXXXXXXXXXXXXXXXXXXXXXXXXXX!.XXXXXX.X.X.XXXXX.X.XXXXXXXXX.X.X.X.X.X.XQ..X.XQ.Q.Q..XXXXXXXXXXXXX.X.XQ..X.XXXXXXXXXXX!.!.XX!.XXXXXXXXXXXXXXXXXXXXXXXXXXXXXXXXXXXX!.!.!.XX!.!.Q.Q.Q.!.XXOXOXOXXX!.!.!.!.!.!.!.!.!.!.!.!.!.!.!.!.!.!.!.!.!.!.XXXXXXXXXXXX!.!.!.!.XXXXXXXX!.!.!.!.XXXXXXXXXXXXXXXXXXXXXXXXXXXX!.!.XXXXXXXXOXOXXXQ.!.!.!.!.Q.Q.I.I.I.I.Q.Q.!.OX>XOX!.Q.Q.Q.XXOXOXXXOXOXXXY.Y.Y.I.Q.Q.Q.Q.Y.Q.!.Q.Y.Y.Y.Y.Q.Y.Q.Q.Q.L.!.OXt.OXOXY.Q.Q.Q.W.!.v.<.<.#.#.v.8XiX4X9X8X!.G.Q.!.6XrXrXlXvXlX X.XoX,.8X4XG.8XiXC.8X4XV.8XiXiX9XpXpX6XN.C.b.A.4Xb.A.E.4XE.K.oXwXtX5Xt.#XtXlXvXvX8XR.V.R.W.W.OXQ.wX.XOX.XOX4X#XwXiX4X XK.E.b.E. X3X3X3XiXwXW.4X4XwX4X4XoX4XOX| *.8XwX8X9XiXwXwX0X6X>XrXqX0XOXOXQ.Q.!.Q..XXXXX.X.XOXXXOXOX.X.X.XXXXXXX.X!.!.Q.Q.Q.Q.Q.Q.Q.Q.Q.Q.Q..X.XQ.Q..X.X.X.X.XXX.X.X.XXXXXXXXX.X.X.XXXXX.XQ.!.!.Q.Q.Q.!.!.!.Q.!.Q.Q.Q.Q.Q.Q.Q..X.X.X.X.X.X.X.X.X.XQ..X.X.X.X.XQ.Q.Q.Q.L.L.L.Y.Y.Q.Q.Q.Q.Q.Q.!..X.X.X.X.X.X.X.X.X.X.X.X.X.X.X.X.X.X.X.X.XoXoXoXOXOXOXOXOX",
"XXXXXXXXXXXXXXXXXXXXXXXXXXXXXXXXOXOXOXOXOXOXXXXXOXXXXXXXXXXXXXXXXXXXXXXXXXXXXXXXXXXXXX!.XXXXXX.X.X.XXXXX.X.X.XXXXXXXXX.X.XXX.X.X.X.X.X.X.X!..XXXXXXXXX!.XX!.!.Q..X.X.XXXXXXXXXXXXXXXXXXXXXXXXXXX!.!.XXXXXXXXXXXXXXXXXXXXXXXXXXXXXXXX.X!.Q.Q.Q.!.XXXXXXXX!.!.!.!.!.!.XXXXXX!.!.!.!.!.!.!.!.!.XX!.!.!.!.XXXXXXXXXXXXXXXXXXXXXXOXOXXXXXXXXXXXXXXXXXXXXX!.!.XXXXXXXXXXXXXXXXXXXXXXXXXXOXXXQ..X.X!.XXQ.Q.Y.Y.Y.Y.Q.Q.Q.XXOXOXXXQ.Q.!.OXXXOX$XOX!.Y.Y.Y.Y.I.Y.Q.Q.Q.Y.I.W.I.W.I.I.Q.I.Y.Q.Q.Y.Q.$X$XK.L.OX.XQ.L.R.Q.Q.v.,.#.,.#.4XW.(.8X8X8XOXW.OX$X$X0XwX#X4XwXR.tX4XC.9X8XV.oXK.,.W.4XM.(.(.W.(.8X9XC.,.O.v.E.E.,.E.A.E.W.oXoX#XoX4Xn.wXiXwXwXiX0X4XoXR.4XW.4XoX4X.X$XK.4X0XK.0XR.b.n.8.E.b.E.E.E.3X3XiXE.E.3XE.E.v.,.W.oXoX4X,.R.4XE.8XpXiX4X6X0XeXOX$XeXOXQ.Q.Q.XX.XXX.XXXXXXXXXXXOX.X.X.XXXXX.X.X.X.X!.Q.Q.Q.Q.Q.Q.Q.Q.Q..X.X.X.X.X.X.X.X.X.X.X.X.X.X.X.X.X.X.X.X.X.X.X.X.X.XXXXXQ.Q.Q.!.XX.X!.!.Q.Q.Q.Q.Q.Q.Q..X.X.X.X.X.X.X.X.X.X.X.X.X.X.XQ.Q.Q.Q.Q.L.L.L.Q.Y.Q.Q.Q.Q.Q.Q.!..X.X.X.X.X.X.X.X.X.X.X.X.X.X.X.X.X.X.X.XoXoXOXOXOXOXXXOXOX",
"OXOXOXOXOXOXOXOXXXXXXXXXXXOXOXOXOXOXOXOXOXOXXXXXXXXXXXXXXXXXXXXXXXXXXXXXXXXX.X.X!.!..X.XXXXXXXXXXXXXXXXXQ.Q.XXXXXXXXXX.XQ.Q.Q..XXX.X.XXXXXXX!..X.XXXXX!.Q.Q.Q.Q.XXXXQ.Q.Q.XXXXXXXXXXXXXXXXXXXXXXXXXXXXXXXXXXXXXXXXXXXXXXXXXXXXXXXX.X.XXX!.!.Q.Q.XXXXQ.OXQ.Q.OXQ.!.!.XXXXXXQ.OXXXXX!.!.!.!.XX.X.X.X.X!.!..XXXXXXX!.XXXXQ.XXOX>X6X>XXXXX.XOX.X.XXXXX.X!.!.!.!.!.XX!.XXXXXXXX!.!.XXXXOXOXOX.X.XOXG..XXXL.Q.L.L.!.Q.Y.!.Q.!.XXQ.Q.Q.OXOX$XOX.X.XQ.Y.Y.Y.Y.Q.Q.Y.Y.Q.W.I.I.W.I.I.W.I.Q.I.Q.$X.Xn...t.K.D.OX.X{.R.4X,.oX5XwXK.*.oXW.W.(.W.8X8XoXv.v.K.4X XR.6XpXOXiX8XR.iXW.R.wXoXoX8XV.W.S.S.A.S.W.C.V.V.,.#.,.v.c.E.A.v.v.W.R.oXR.4XK.5XiXwX$XiX0X4XW.v.R.W.W.W.R.4X8Xv.4X4X,.K.,.,. .b D | ,.E.iX3XE.3X3XE.E.E.4X,.,.4XoXW.R.c.v.A.c.W.8X4X8X4X4XOXG.R.0X.X.X.X.XOXOX.XOX4XeX4XeX@X+XOXoX.X.X.XQ.XX.X.X.X.XQ.Q.Q.Q.!.Q..XQ.Y..X.X.X.X.X.X.X.X.X.X.X.X.X.X.X.X.X.X.X.X.X.X.X.XXXXXXXQ.Q.Q.!.XXXX!.!.Q.!.!.Q.Q.Q.Q.Q.Q.!..X.XQ.Q.Q.Q.Q.Q..X.X.X.X.X!.!.Q.L.L.L.L.Y.Y.Q.Q.Q.Q.Q.Q.Q.Q..X.X.X.X.X.X.X.X.X.X.X.X.X.X.X.X.X.X.XOXOXXXXXXXXXXXOXOX",
"OXOXOXOXOXOXOXOXXXXXXXXXXXOXOXOXOXOXOXOXOXOXXXXXXXXXXXXXXXXXXXXXXXXXXXXXXXXX.X.X.X.X.XXXXXXXXXXXXXXXXXXX.X.XXXXXXXXXXX!.Q.Q.Q..X.X.X.X.XXXXX!.Q..X.X!.Q.Q.Q.Q.Q.!.Q.Q.Q.!.XXXXXXXXXX!.!.!.!.XXXXXXXXXXXXXXXXXXXXXXXXXXXXXXXXXXXXXX.X.XXX.X!.Q.!.Q.XXXXQ.XXOX!.6XOXOXQ..XOXXX.XOXXX!.!.!.!.XX.X!..X.X!.!.XXXXXX!.!.OX!.Q.OXOXOX6X6XOX.X.XOX0X$XOXXXXXXXXXXXXX!.XXXX.X.XXXOXOXXXXXXX>XXX!.Q.OXD.t.t.XXQ.L.L.L.Y.XX;XOXQ.!.OX!.Q.Q.6X$X$XOXQ.Q.Q.Q.Q.Y.I.Y.Q.Q.Q.Y.W.I.I.I.I.W.W.I.Q.Y..Xt.%.*.| 8.=XH.r.#X#X#XK.n.kXSXkXK.8.v.4X4XW.A.8XiXR.v.K.wX3X#XoXOXoXoXpXwX4XW.oXR.0X{.$XpXA.c.A.(.).V.A.V.A.(.A.$.<.A.v.V.E.C.G.W.oX4XwX5Xv.K.oXv.R.4XlXtXOXW.(.W.(.v.v.8X4Xv.V.E.| r.,.D D D t | ,.b.3X3X3XE.E.b.3XiXE.,.K.4XR.oXr.v.b.W.A.(.S.S.4X4X4XoXoXOXwXOX.X.X.X#X#X5X5X4XtX$X$X0X#XOXoXOXOXOXOXOXOX.X.X.XQ.Q.Q.Q.!.Q.Q..X.X.XOX.XOX.X.X.XXX.X.X.X.X.X.X.X.X.X.X.X.X.X.X.X.X.X.X.X!.!.Q..XXXXX.XQ.Q.Q.Q.Q.Q.Q.Q.Q.Q.Q.Q.Q.Q.Q.Q.Q.Q..X.X.X.X.XQ.Q.Q.Q.L.L.Y.Y.Y.L.Q.Q.Q.Q.Q.Q..X.X.X.X.X.X.X.X.X.X.X.X.X.X.X.X.X.X.X.X.XOXOXXXXXXXXXXXOXOX",
"OXOXOXOXOXOXOXOXXXXXXXXXXXOXOXOXOXOXOXOXOXOXOXOXOXOXXXXXXXXXXXXXXXXXXXXXXXXXXXXX.X.XXXXXXXXXXX.X.XXXXXXXXXXXXXXXXXXX.XQ.Q.Q.Q.Q.Q.Q.Q..X.X.XQ.Q.Q.Q.Q.Q.Q.Q.Q.Q.!.Q.Q.!.XXXXXX!.XXXX!.XX!.XXXXXXXXXXXXXXXXXXXXXXXXXXXX!.!.!.XXXXXXXXXXXXOX!.!.XXOXQ.XXQ.!.OX4X!.G.OX4X!.Q.XXXXXXXX!.!.!.!.!.!.!.!.!.!.!.XXXX!.!.XXY.OXOXQ.OX6XOX>X.XOX0X$X$XoX$XOX.X.XXXXXXX!.!.OX.XXXXX!.XXXX!.OXXXOX.X.XOX%.>.>.Q.Y.G.Y.Y.G.XXOX>X>XXXL..X>X.XOX$X$X.XQ.Q.L.Q.Q.Q.Q.Q.Q.Q.Q.Q.Q.Y.Q.Q.Q.Q.Y.Y.L.Q.oX>.......E.5X=X{.r. XK.t.{.SXkX3X8.,.oXiXiX8XW.R.W.Q.K.r.v.K.oXoXoXoX4XwXQ.oXwX6XoXD.r.wX4X8XM.S.9X8Xc.m.V.V.E.c.,.v.b.V.oXwXK.oXwXiXwXoX| | r.n.*.oX X0XvX8XC.(.8XA.<.v.R.oX4X4X4XE.3XiX4XA.D D | v.3XE.E.5XE.E.E.iX8Xv.v.oX0X$XoXR.v.v.W.S.(.A.M.4XR.G.OX6X6X8XOX!.Q..XOX$X0X#X0X4XR.0X$X0XrXwX4X.X$X0X.X.X.X.X.XQ.Q.Q.Q.Q..XQ.Q..X.X.X.XOX.X.X.XXX.X.X.X.X.X.X.X.X.X.X.X.X.X.X.X.X.X.X.X!.!.Q..XXX.X.XQ.Q.Q.Q.Q.Q.Q.Q.Q.Q.Q.Q.Q.Q.Q.Q.Q..X.X.X.X.X.X.X.XQ.Y.L.Y.Q.Q.Y.Y.Q.Q.Q.Q.Q.Q..X.X.X.X.X.X.X.XXXXX.X.X.X.X.X.XOXOX.X.XOXOXXXXXXXXXXXXXOXOX",
"OXOX.X.X.X.XOXOXXXXXXXXXXXOXOXOXOXOXOXOXOXOXOXOXOXOXOXXXXXXXXXXXXXXXXXXXXXXXXXXXXXXXXXXXXXQ.Q.Q.Q.Q.!.XXXXXXXXXXXX!.!.Q.Q.Q.Q.Q.Q.Q.Q.Q..XQ.Q.Q.Q.Q.Q.Q.Q.Q.Q.Q.!.!.!.!.!.!.!.Q.!.XXXXXXOXXXXXXXXXXXXXXXXXXXXXXXXXXXXX!.!.XXXX!.!.!.!.XXOX!.!.!.!.XXXXOX!.4Xq.<.C.C.4XOX.XOXXX.X!.!.!.!.!.!.!.!.!.!.!.!.!.!.!.!.XX!.!.XX.X.XOX6X$XOXOXOX.X$XOXOX$XOXXX.X.XXXXXXXXX.XXXXX!.!.OXXXOXQ.OXOX.XOX! N.Q.OXY.G.F.G.G.Q..XOXOXOXOXOXOXOX.XOXOX.XL..X.X.X!.XXXX!.Q.Q.Q.!..X.X.XY.Q.L.L..X.X.XoX*.*.*.8.wXeXeX5Xw.8.H.=.*XkXfX#X..v.wXoXwXG.<.q.N.0XoXv.oXR.!.R.W.R.Q.oXoXtX0XwX4XK.q.lX4X8XV.A.AX/.m.c.c.c.V.<.<.V.b.E.5XvX Xn.iX5XK.*...8.*.| *.E.K.R.iXiX4X8XS.c.c.E.E.4X8XpXiX4X4X4XwXwXoXv.b oXiXE.oXE.A.4X4XW.E.wXwX$X0X.XQ.OXv.W.E.W.(.W.V.4XwXoX6X6X6XOX!.!.Q.OXOXwX0XwXwXwX4X5XwXrXeX6XwXOXQ.4XOX.X.X.X.XQ.Q.Q.Q.Q.XX.XQ..XQ.Q..XOXOXXX.XXX.XOX.X.X.X.X.X.X.X.X.X.X.X.X.X.X.X.X.X!.!..X.X.X.XQ.Q.Q.Q.Q.Q.Q.Q.Q.Q.Q.Q.Q.Q.Q.Q.Q..X.X.X.X.X.X.X.X.XQ.Q.Y.Q.Q.Q.Y.Q.Q.Q.Q.Q.Q.Q.Q..X.X.X.X.X.X.XXXXX.X.XOXOXOXOXOXOX.X.XXXXXXXXXXXXXXXXXOXOX",
"OX.X.X.XOXOXOXOXXXXXXXXXXXOXOXOXOXOXOXOXOXOXOXOXOXOXOXOXXXXXXXXXXXXXXXXXXXXXXXXX.X.XXXXXQ.Q.Q.Q.Q.Q.Q.XXXXXXXXXXXXXX!.!.Q.Q.Q.Q.Q.Q.Q..X.X.XQ.Q.Q.Q.Q..X.X!.Q.Q.!.!.!.Q.!.!.!.!.!.XXXXOXOXOXXX!.XXXXXXXXXXXXXXXXXXXX!.!.!.!.XX!.!.!.!.!.!.!.!..XOXOXOXOXoX,.r.q.<.<.4XoX!.!.Q.OX!.!.!.!.!.!.!.!.!.!.!.!.!.!.!.!.Q.OXOX.XOXoX.XOX.X.X0X6XOXL.OXwX0X$XOX.XXXOXOX>XXXXXXXXXXXXX!.Q.XXOXXXOX.XOX9.OX.XI.G.Q.G.Y.Q.Q.Q.XX0X>XOXOX+Xw.=.=.H.$X$XOXXXXXXXXX!.Q.Q.Q.!.XX$X=X$X#X$X$X=XeXeX=X=X=.E E 8.5X=XfX+XkXn._ =. XfX5X5X..8.,.D | O.q.OXD.<.,.v.C.v.<.*.,.<.oXvXHXiX#X#X4Xr.<.iXW.G.V.<.(.(.S.#.J $.V.v.v.E.E.4XiXSX Xw.*X XE ..r...| D *.,.r.8.iXvX8XS.c.A.A.A.4XwXwXpX8X4X4XE.b.iXSXiXv.3XiXE. X XE.4X4XE.4XwXwX0X1X$XQ.$XOXN.W.W.V.V.8XoXoXoX4XOXoX!.!..XXX>X$X5X#X5XtX4X4X0X#X0X$X4XpXpXwXwX.X.XQ.Q.Q.Q.Q..X.X.XXXQ.OX$XOXOXXX.XOX0X0X0XXX.XY..X.X.X.X.X.X.X.X.X.X.X.X.XQ.Q.Q.Q..X.X!.XX.XQ.Q.Q.Q.Q.Q.Q.Q.Q.Q.Q.Q.Y.Y.Q.Q..X.X.X.X.X.X.X.X.X.XQ.Q.Q.Q.Y.Y.L.Y.Q.Q.Q.Q.Q.Q.Q..X.X.X.X.X.X.XXXOXXXXXXXOXOXXXXXXX.XXXXXXXXXXXXXXXXXXXOXOX",
"OX.XOXOXOXOXOXOXXXXXXXXXXXXXXXOXXXOXOXOXOXOXOXOXOXOXOXOXXXXXXXXXXXXXXXXXXX!.!.!.Q.Q.!.XXQ.Q.Y.Q.Q.Q.Q.Q.!.!.XX!.XX!.!.!.!.XXXXXXXX.XXXXXXX.XQ.Q.Q.Q.Q..XXXXXQ.Q.!.Q.Q.Q.!.!.!.!.!.!.!.!.!.!.!.OXXXXXXXXXXXXXXXXX!.!.!.!.!.XXXX!.!.!.!.OXOXXX.X.X$X<.v.G.oX| r.r.*.q.8XoXOXOX.X!.!.!.!.!.!.!.!.!.!.!.!.!.!.!.!..XOX!.XX$XOX.X.X.X.XOX0X$X$X$X$X$X0X$XOX.XXXOXOX>X>XOXXX!.XXOXXXXXXXXXOXOX$XL.OXOXY.Q.Q.Q.G.L.G.Y..XOX$X$X$X+Xp.t.;.J.OX#XOXOX.XY.XXQ.Y.Q.Q.!.!.XX0XtXtXtXgXgXkXkXfXfXfX[.*.E 8.gXgXkX{.fXfXw...8. Xn.n.E E  .D | ,.R.vXoXO.,.v.G.W.v.! F q.SXKXlXK.=XwX0X*.<.8XoXOX4XC.#.A.V.$.J c.<.c.C.4X0XiXkXxX5Xi.*X_ v ..*.*.,. .#.*.,.v.SX8XE.A.A.(.A.E.8X4X4X8X4X<.E.3X(.v.E.iXE.b.v.| v.v.| *.*.K.iX0X0XrXOX}.XX.XOX8X!.C.6X!.!.OXK.OXOX.XQ.Q..X.XOX$XOX5X5XwX4X4XwXR.0X$XOXoX4X6XwXwX.XQ.Q.!.Q.Q.Q..X.X.XXXQ.$XwX6X6XOX0X0X0XeX1X$XXXOX.X.X.X.X.X.X.X.X.X.X.X.X.XQ.Q.Q.Q..XXX.XQ.Q.Q.Q.Q.Q.Q..XQ.Q.Q.Q.Q.Q.L.Y.Q.Q.Q..X.X.X.X.X.X.X.X.X.XQ.Q.Q.Y.Y.L.Y.Q.Q.Q.Q.Q.Q..X.X.X.X.X.X.X.X.XXXXXOXOXOXOXOXOXXXOXOXXXXXXXXXXXXXXXXXOXOX",
"OXOXOXOXOXOXOXOXXXXXXXXXXXXXXXOXOXOXOXOXOXOXOXOXOXOXOXXXXXXXXXXXXXXXXXXXXX!.!.Q.Q.Q.!.XXQ.Y.Y.Q.Q.Q.Q.Q.Q.!.!.!.!.!.!.!.XXXXXXXXXX.X.XXX.X.X.XQ.Q.Q.Q.Q..X.X.XQ.!.!.!.!.!.!.!.!.!.!.!.!.!.!.!.OXXXXXXXXXXXXXXXXXXXXX!.!.XXXXXXXX!.!.!.XXXXXXXXoX$XN.| v.K.*.,.,.v.v.C.G..XOXOXXXXX!.!.!.!.XX.X!.!.!.!.Q.Q.Q.!.!..X$XK.q.K.$X$XOXOX6X6XOXOXOXOX0X6X$XOX.XXXXXOXOX>X>XOXXX>X;XXXOXXX.XOXOXJ.D.$X.X.XOXQ.Y.G.Q..X6XOXXXOXOX$X5X+XH.w.$X$X$X0XL.h.XXXXQ.Y.Y.Q.!.XXOX=XeXeXfXkXmXmXnXkXkXfXkX5Xn. XDXfX*XfXfX5XeXi.E [.#X=.t E  .m | O.,.OX<.| oXC.4XwXOX,.*.K.iXwXv.8.K.tXoX,.C.wXiXvXiX4X,.v.<.<.#.c.<.V.W.8XiXlXeXeX*X8.K.E ..E E D ! ,.,. . . XvXoXW.(.(./.A.8X4XoXQ.4XoX| F x.E.,.b.b.,.E D b B E E v.,.v.4XtX4X0XOX@X.XOX!.oXQ.OXW.OX.X#XJ.=X{.oXOX.X.X.XOXOX#X0X5X5X0X4X4XoX#X#XOXoX4X6XOXOXQ.Q.!..X.X.XQ..X.X.X.X!.6XwX6XwX6X0X0X0XrXeX0XOX.X.X.X.X.XQ..X.X.X.X.X.X.X.X.XQ.Q.Q..XXX.XQ.Q.Q.Q.Q.Q.Q..X!.!.Q.Q.Q.Q.Y.Y.Q.Q.Q.Q..X.X.X.X.X.XQ.Q..XQ.Q.Q.Y.L.L.Y.Q.Q.Q.Q.Q.Q.Q..X.X.X.X.X.X.X.XXXXXOXOXOXOXOXOXXXXXXXXXXXXXXXOXOXXXXXXXXX",
"OXOXOXOXOXOXOXOXXXOXOXXXXXXXXXOXOXOXXXOXOXOXOXOXOXOXXXXXXXXXXXXX!.!.XXXX!.!.Q.Q.Q.Q.!.XXQ.Y.Y.Q.Q.Q.Y.Q.Q.!.XX!.Q.Q.Q.!.!.XXXXXX!.Q.Q.Q.Q.Q.Q.Q.Q.Q.Q.Q.Q..X.X!.!.!.!.!.!.!.!.Q.Q.Q.Q.!.!.!.!.XXXXXXXXXXXXXXXXXXXXXX!.XXXXXXOXXXOX!.XXXXXXXXOXoX$X0X0XwXv.*.r.r.r.v.,.,.%.t.4XOXOXXXXXXXXXXX.XQ.!.!.!.Q.Q.Q.Q..X$Xt.>.t.D.L.oXOXOX6X$XoXOX$XOX$X>XOXXXXXXXXXXXXXXX6X6X>XOXG.q.t.OX$X.XOX! Q.#XOX$XXXQ.Q.L..X.XOXOX$X4X$XOX.XK.L.9.#X0XOX.XL.OXXXXX.XQ.Q.Q..XXX0X5XeX5X*XfXmXmXmXMXmXsXmXMXkXMXfXfXkX5X&X+X5X X..4.3X..B *.D D | ,.O.| | r.6XwXwX8X8XwXiXR.*.,.*.5.#XwXR.,.C.iXiXSXlXK..XpX4X#.<.c.c.W.iXiXgXgXtXfX#X8. XZ D D E E | *.| | |  X4Xv.8XiX4XA.H E.4XQ..X$XoXv.b c v.x.x...D b v v v ..3Xn.*.r.r.oXwX5X#X@X.X.X.XQ.4XOXOX.X.X=X Xp.#X$XoXoX.X.X$X$X=X5X#X5XwX6XtX$X#X.XOX.XQ.!.!..X.X.X.XoXoX.X.X.X.X.X.X.X4X4X$XwXwXrX1X+XOX@X1XXXXXOX.X.X.XQ..X.X.X.X.X.X.X.X.X.X.X.X.XXX.X.XQ.Q.Q.Q.Q.Q..X!.!.Q.Q.Q.Q.Y.Q.Q..X.XQ..XQ..X.X.X.XQ.Q.Q.Q.Q.Q.Y.L.L.L.Y.Y.Y.Q.Q.Q.Q.Q..X.X.X.X.X.X.XXXXXXXOXOXOXOXXXXXXXXXXXXXXXXXOXXXXXXXOXOX",
".X.X.XOXOXOXOX.XOXOXOXXXXXXXXXOXOXOXXXXXXXOXOXOXXXOXOXXXXX.XQ.Q.!.Q.Q.Y.I.I.Q.Q.G.Q.OXG.<.q.Q.Q.Q.Q.Q.Q.Q.Q.!.XX!.!.XX!.!.XX!.!.!..XQ.Q.Q.Q.Q..XQ.Q.Q.Q.Q.Q..XXXXXXX!.!.!.!.!.!.!.Q.Q.Q.!.OXXXXXXXXXXXXXXXXXXXXX!.XXXXXXXXXXXX.XXXOXXXXX@X$X$X5X0X5X5XwX..K.iXE.v.K.8.K.5X5XL.rXwX6X>X>XOXOXXX.XQ.OXXXXXQ.Q.Q.OX6X%./ Z 9.oXR.$X0X6X$X.XOXOXXX>XXXXXXXOXXXXXOXXXXX.XOX0X>X>X$Xq.S N.oX$XW L.#X$XXXOX$X.XL.$XOX5XoX6XOXoX$X.X>.*.*.#X0XK.9.OXOXOXOXOX.X+X$X$X$X=X*X Xu.u.'.%XsXmXmXmXnXmXnXMXkXkXkX5X5X&X X X8.i.) u.! t c D | F H #.#.,.#.4XSXoX4XvXwXK.*...n.n.*.oXR.*.| b.iXSXJX#X.XwXvXiXO.<.q.W.pXtXlXlXfX X5XH.r.=.2 u v | | | *.| E E R.5Xr.4X4XV.V.| #.oXoXOX4X,.r. .x D b.b.x.| D v v n.kX5Xr.E.v.3X0XwX0X#X$XoX.X6X6X6XQ.OX$XOX#XoXt...K.N.oX$XOX4X#XoX5X8.K.oXoX4X.X=XoXOXQ.OXQ.Q.OX.X.X$X4X6X6X$XOX.XQ..X.X0X4XiXpX6XOX@X$X$X1X$X$XOXOXOX.X.X.X.X.X.X.X.X.X.X.XXX!.Q.!.XXXX.XQ.Q.Q.Q.Q.Q.Q.!.!.Q.Q.Q.Q.Q.Q.Q.Q..XQ.Q.Q.Q..X.X.X.XQ.Q.Q.Q.Q.Q.Q.L.L.Y.Y.Y.Y.Q.Q.Q.Q..X.X.X.X.X.X.X.X.XXXXXOXOXOXOXXXOXXXXXOXOXXXXXXXXXOXOXOXOX",
".X.XOXOXOXOXOXOXOXOXXXXXXXXXXXOXOXOXXXXXXXXXXXXXXXOX.XXXXX.XXXXX!.OX!.!.OXOXXXOX;XQ.<.>.0.<.0.G.Q.Q.Q.Q.Q.Y.Q.!.!.!.XX!.!.XX!.!.Q.Q.Q.Q.Q.Q..XXXQ.Q.Q.Q.Q.Q.Q..XQ.Q.!..XXXXXXX.X.XXXXX.XXXXXXXXXXX.X.X.X.X.X.X.X!..X.X.X.X.XXXOX.XOX$X1X0XeXrX0XR.v.r.E.! 5XSXDXSXiXvXJXDX=XD.lXlXlXuXuXtXqX0XOXOXQ.Q.XX.X.XL.oX6X0XoXD.OX$X6X0X6XOXOXOXOX$X>X$X$XOX.XOX$XOXOXXXXXXXOX$XOX$X0X0X$X9...W u / 5X{.D.$XOX$X$X$X{.OXoXt.L.oX4Xv.*.9..X5XD.9..X.XOXL.@X@X#X*X+X=X{.w.4.u.'.sXmXsX&X%X&XmXsXfXfXkXMX5X&X5X&X].n.r.....8.E E u c | | F #.c.c.c.| ,.K. XwXv.8.E D | | ! ..R.E.r.v.E.HXDXiXR.tXtXiXiX*.*.$XvXvXvXbXkXkXfX5X..5.{.*.t - c ! ,.8.D v 5.8.5X4XK.| D 4XE.D K.4XoXK.*.*. .x c  .b.n.b.v.8...3X5X Xn.5X,.b.3XK.4X5X#XoX0XOXW.8X4XR.R.$X4X5XR.*.R.R.R.W.4XOXoX$X#XR. XK.R.$X$X#X$X#XQ.oX.XR..XoX$X$XoXR.4X0X6X.XoXQ..XwX6XiX$XOXXX.XOXOXOXOX$XOXOX.X.X.X.X.X.X.X.X.X.X.X.X.X!.Q..XXX.X.XQ.Q..X.XQ.Q.Q.Q.Q.Q.Q.Q.Q.Q.Q.Q.Q..X.XQ..XQ..X.X.XQ.Q.Q.Q.Q.Q.Q.Q.L.L.Y.Q.Q.Q.Q.Q.Q.Q..X.X.X.X.X.X.X.X.XXXXXXXOXOXOXXXXXXXXXOXOXXXXXXXXXOXOXOXOX",
".X.XOXOXOXOXOXOXXXXXXXXXXXXXXXXXOXOXXXXXXXXXXXXXXXXX.XXXXX.XXX!.!.Q.G.Q.!.G.q.N.;.O.<.q.0.0.N.B.I.Q.Q.Q.Q.I.Q.Q.Q.Q.!.!.!.!.!.Q.Q.Q.Q.Q.Q.Q..XQ.Q.Q.Q.Q.Q.Q.Q.Q.XXXXXX.X!.Q.XXOXQ..XXXXXXXXXXX.XXXXXOXOXOXOXOXOXOXOXOXOXOXOXOX$XeXeXgXxXxXxXxXwXr.r.v.E... XiXvXSXDXSXDXiXn.5XNXHXZXcXlXzXcXuXeXXX!.OX!.Q.OXOX$XoXD.OX6X6X$XOX6XQ.$XXXOXOX$XeX0XqXqX6XOX$X$X0X0X$X0XOX$XeXOXOX0XuXeXlX#Xr...{.#Xt.L.L.5XOX#X{.4X0X*.K.4XK.K.K.,.0XoX/ 9.4X$X$X#XOX$X=X Xn.u.n.&XsXsXnXmXnXmXLXnX&XsXMXMXDXgXn.n.v.8.n.8.n.3.E ! 8.f E ! c | | v.S.S.A.E.x.r.| r.r.v ..| E E E E ! E.E.*. .oXDXSXR.K.5XK.r.K.>.K.vXNXNXDXMXfX*X+X[.i.p.+XNXt.t 5 t c c E oX4XE K.wX0X*.D E.4X! ,.oX#X..E | r.D D b.v.b.b.,.v.,.r.n... X3X,.,.v.R.v.#X#X4X4X4X6X8XW.R.R.4XR.0X4X*.E.E.<.V.W.6XOX4X4XoX4XoX4XwXwXoX#X5X$XoX$X4X0X5X4XtX4Xt.$XwXwX4XQ.Q.Q.OXOX6X!.6XXXOX.XOXXX$X$XOXOX.X.X.X.X.X.X.X.X.X.X.X.X.X.X.X.X.X.X.XQ..XXXXX.XQ.Q.Q.Q.Q.Q.Q.Q.Q.Q.Q.Q..X.X.XQ.Q.Q.Q..XQ.Q.Q.Q.Q.Q.Q.Q.Y.Y.Q.Q.Q.Q.Q.Q.Q.Q..XQ..X.X.X.X.XXXXXXXXXXXXXXXXXXXXXXXXXOXOXXXXXXXXXOXOXOXOX",
".X.XOXOXOXOXOXOXXXXXXXXXXXXXXXXXXXOXXXXXXXXXXXXXXXXX.X.X.X.XQ.G.F.h.<.<.<.O.] O.*.q.N.N.N.N.N.M.G.I.I.Q.Q.Y.Q.I.Y.Q.Q.Q.Q.!.Q.Q.!.Q.Q.Q.Q.Q.Q.Q.Q.Q.Q.Q.Q..XXXXXQ.Q..X.X.X.X.X.XXXXXOXOX$X0XtXuXuXuXlXlXvXvXvXvXvXzXzXvXzXlXlXlXxXlXbXZXNXNXxXoX,.v.,.b.! ! 5XJXSXDXDXDXxXfXxXlXbXcXcXbXlXrXeXtX$X.XQ.OX.X.XoX/ %.>.>.v.6XXX.X6XD.0XOXOX$XeXtXgXtXlXrX0XrXlXlXwX0XeX0XwXtXtXOXL.0XtXtXtXvX#X8.tXK.t.L.tXJ.L.#XK.0Xr.,.oX,.R.r.,.oX9.D.t.wXtX#X#X+X+Xn...u.*XMXMXmXsXmXmXdXdXmXmXmXnXMXMXMX3Xn.n.u.3.].v.E E E ....f E *.u D | A.A.A.A.b. . .| | 8.D D b v v v D | b.,.| | r.0X4Xv.4X4Xt.*.K.oXSXNXNXDXNXNX5X&X[.` xXgXp.xXvX*.5 v - c R.kXn.v i.t.5XoXD D v.V V ..n.| v t | ,.,.v.b.E.v...8.b.K.n.8.3X Xb.8. .E.n. X X5XK.oX4XE.E.(.E.V.,.E.4XO.#.V.V.E.E.R.wX4X#XR.oXE.oX4X5XK. X=X5XoX4XwXwX#X{.5X4Xr.D.R.0X0XOXQ.oXoX.X.X$X.XOXOX.XXX.XOXXXOX.X.XOXOX.X.X.X.X.X.X.X.X.XXX.X.XXXXX.X.XQ..XXXXX.XQ.Q.Q.Q.Q.Q.Q.Q.Q.Q.Q.Q..X.X.XQ.Q..X.X.XQ.Q.Q.Q.Q.Q.Q.Q.Q.Q.Q.Q.Q.Q.Q.Q.Q.Q.Q..X.X.X.X.XXXXXXXXXXXOXOXOXXXXXXXXXOXOXOXXXXXXXXXOXOXOXOX",
".X.X.XOXOXOX.X.XXXXXXXOXXXXXXXXXOXOXXXXXXXXXXXXX.XXX.X.X.X.XQ.N.q.<.>.O.O.>.<.>.B.Q.N.q.B.B.q.N.I.Q.Y.Q.Q.I.I.G.I.I.Q.Q.Q.Q.Q.Q.!.Q.Q.Q.Q.Q.Q.Q.Q.Q.Q..XXXXXXX.XOX.XQ..XXXOXOXOX>XqXuXlXcXGXGXGXbXCXHXHXHXKXKXKXHXHXHXKXKXHXbXbXxXxXMXMXNXJXxXv.,.,.| ,.D  .3XgXDXDXDXDXDXMXgXxXbXxXvXbXlX$XOXeX0XXXOXQ.$X$Xr./ ....q..X$XOX$XXX.X#X=X=XwXgXgXlXlXxXxXxXkXtXwXkXkX5XtX$XoX0XvXtXL.#X4XoXL.gXt.K.L.D.n.0XK.*.wX{.v.8.! oX9.n.*.9. X*.oX8.tX0XtXeXK.` )  XMXIXmXnXsXsXmXmXaXnXmXnXmXnXmXkXfX Xn.8.|  XfX5X) E v E v t v ! | ,.A.E.A.S.c.D b D c E  .b ..,.,...v b D D D | D ..,.K.K.R.t..X0X5XoXlXxXfXMXxXfX*X[.=.w.NXxXr.H.p.=...8.*...*.K.#XE i.E ,.5X| 2 t y 0 t v v E | D 8.b.b.b.b. .,.b.E.b.8. X5X3X,.! b ,.K. X5XwXr.K.E.v.x.A.E.,.*.,.oXv.,.v.v.v.v.r.iXK.B ,.3XK.E. X Xn.3X5XiX5XiXwX5X#Xt.oX#XK.R.K.K.4X4X$XOXoXoXQ.OXQ..XOXOXXX.XXX.X.X.X.XXX.X.X.X.X.XXX.X.XXXXXXXXX.XXXXX.XQ.Q.Q.Q..XQ.Q.Q.Q.Q.Q.Q.Q.Q.Q.Q.Q.Q..X.X.X.X.X.X.X.X.XQ.Q.Q.Q.Q.Q.Q.Q.Q.Q.Q.Q.Q.Q.Q.Q.Q.Q..X.X.X.X.XXXXXOXXXXXOX.X.XOXXXOXOXOXOXOXXXXXXXXXOXOXOXOX",
".X.X.XOXOXOX.X.XXXXXXXXXXXXXXXXXXXoXXXOXXXOXOXOX.X.X.X.XQ.XXQ.N.q.>.<.<.q.B.I.N.h.N.N.N.M.N.C.B.Y.Q.I.I.Q.I.Q.I.I.I.I.Q.Q.Q.Q.!.Q.Q.Q.Q.Q.Q.Q.Q.Q.Q..X.X.XQ.Q.Q.Q..XOX>XqXtXlXcXzXbXbXcXcXCXHXKXHXHXKXHXHXKXKXHXHXHXHXKXKXHXbXxXkXMXxXxXMXUXbXv.*. .| ,. .8...E n.DXDXkXMXkXkXgXlXxXlXlXtXeX0XeX0XtX.XOX0Xv...! *.oX4XOX$XQ..XOX0Xp.0XtXgXxXgXxXNXNXMXkXkXxXeX#X{.n. X5X0X5XtXwX5X XK.K.4XvXn...oXR...R.oXW 5X#Xr.K...*.E | *.,.r.8.K.=.5X0X#Xp.E 8.&X*XkXmXkXsXsXsXdXmXsXnXmXmXmXmXMXDXkXn.v.....5XfXn.E v b ......n.n...,.3XE./.c.#. .| D b b 5 D b.E.R.v.c 5 c c c D B D | *...,.9.R.oXoXv.K.#XK.5X#X{. X=.v +X5XL.;.*...! E | | | B D r.E ..,.t  . .t B v : 2 t t E ..| b. Xv.E D v ..b.n.8.8. X Xv. .E c | ,.8.iXkXK.K.4X,. .v.x.v. .#.,.,.#.v.E.v.v.4XoXD v  .3XE.E.3X#Xn. X5XkXkXvXSXSXkXkXiXwXwXoXv.n.R.4XwX6X4X4XOXL.OXOXOXXXXX.XOXOXOX.X.XXX.X.X.X.X.XXX.X.XXXXXXXXXXXXXXX.XQ.Q.Q.Q.Q.Q.Q.Q.Q.Q.Q.Q.Q.Q.Q.Q.Q.Q..X.X.X.X.X.X.X.X.XQ..XQ.Q.Q.Q.Q.Q.Q.Q.Q.Q.Q.Q..X.X.X.X.X.X.X.X.X.X.X.XOXXXOX.X.XOXXXOXOXOXOXOXXXXXXXXXOXOXOXOX",
".XOXOXOXOXOX.X.XXXXXXXXXXXXXXXXXXXOXOX.X.X.XOXOX.X.X.XXXQ..XXXG.q.>.<.h.M.h.h.M.G.Q.I.B.B.B.N.h.G.I.I.I.I.I.Q.Q.I.I.Y.Q.Q.Q.Q.Q.Q.Q.Q.Q.Q.Q.Q.Q.Q.Q..XQ.Q..XXXOX>XrXlXzXzXlXlXlXlXcXbXzXlXbXHXHXHXHXHXHXHXHXHXGXHXHXHXHXNXbXlXkXkXMXxXMXNXNXSX3XE ,.3X3X,.v v v f 5XMXfXkXkXkXgXtXbXHXlXtXvXvXlXrXtXrX0XK.D.oXK.4XoX$X.X.XOXXXOX$X5.{.xXxXMXMXDXJXDXDXMXMXMXfXeX*Xn.4.H.t.K.#XkX5X#XoXK.oX5XgXv.R.0XE ,.iX8.| R. XK.,.! u E K.! E r.5X8.#X5X..v =. X5X XmXDXnXsX*XsXsXsXdXmXmXmXmXMXsXkX*X2.8...8.n. XE t ..r.8...n.n.b...x.(.E.v.,.b.E.E.,.D H x c | v.,.D c c u t 5 B B D B B D D | ,.8.q.v.v.K.K. Xn.n.v.D ! n.,.v.K...! ! c u B D D c v v t D c c D 5 t v v t t 2 D E 8.n.v.v b b 8  . Xv...8. X XE | E b | | B n.5XK.r.4Xb.<.,. .r.| ,.,.,.b.v.b.,.*.kXE.v | b ,.E.3X5X Xn. X3XfXkXiXvXSXDXxXkXxXSXiXR.oX4XiX0XOXwXwXrX5X.XOX.X.X.X.X.X.X.X.X.X.X.X.X.X.X.X.X.X.X.X.XXXXXXX!.!.XXQ.Q.Q.Q.Q.Q.Q.Q.Q.Q.Q.Q.Q.Q.Q.Q.Q.Q..X.X.X.X.X.X.X.X.XQ.Q.Q.Q.Q.Q.Q.Q.Q.Q.Q.Q.Q.Q..X.X.X.X.X.X.X.X.X.X.XXXOXOXOXOX.X.XXXXXOXOXOXXXXXXXXXXXOXOXOXOX",
"OXOXoXoXOXOXOXOXXXXXXXXXXXXXXXXX.X.X.X.X.X.X.X.XXX.XXXOX!.Q.XXQ.<.<.<.N.h.M.M.I.G.G.B.B.B.N.q.h.G.Y.Y.Q.I.I.Q.Q.I.I.I.Q.Q.Q.Q.Q.!.Q.Q.Q.Q.Q.Q.Q.Q.Q.Q..X.XOXqXuXlXlXhXlXlXzXzXlXlXbXbXzXlXcXHXKXbXHXHXbXbXGXHXGXCXHXHXbXxXhXgXgXxXMXMXNXNXkXSXSXE.b.E.E.D v | t ..v.v D n.eXwXtXkXtXiXlXlXtX#XD.D..XK.9.,.5XvXoXK.5X$X$X$X.X$XOX=Xp.w.MXxXDXMXxXMXDXfXn.i.5X5X#Xi.n.kXkXK...n.8.r.#XkX XK.r.4Xn.,.K...*.v.R.B n.3X*.D D v B 8.B a ..r.*.5.~ Z .. X*X#XkXmXmX%X*XsXsXsXsXmXnXmXmXnXnX&Xy.4.i.*X5X5X3X*.D ) b.n.4.) n.n.n.v.b.3Xv.c.A.E.b.E.E.| b H D b c 5 t B c 5 c v D D B | ! c c B D | ,.v.r.r.r.n.K.,.t B D ! ! %.,.u c u 5 c B c B B v v f c c v 5 2 2 t 0 t t t t .. X3X..b b b c | 8.E  . XfX3X| E | E b | D ..8.| E 3XiXE.,.r.r. .| ,.v.v.| v.oXr.| | E E b 8.3X5Xn.n.#XK.r.v.n.8.n.5XDXDXDXDXSX4XE.iXiXE.wXN.N.wX0X0X0XOX.X.X.XXX.XXX.X.X.X.X.X.X.X.X.X.X.X.X.X.X.X.X.XQ.Q.!.!.!.Q.Q.Q.Q.Q.Q.Q.Q.Q.Q.Q.Q.Q.Q..X.X.X.X.X.X.X.X.X.X.XQ.Q.Q.Q.Q..X.XQ.Q.Q.Q.Q.Q..X.X.X.X.X.X.X.X.XXXXXOXOXOXOXXXXX.XXXXXXXXXOXXXXXXXOX.XXX.X.XOXOX",
"XXXXXXXXXXXXOXOXOXXXXXXXXXXXXXXX.X.X.X.X.X.X.X.XOXOXXX!.XXY.I.I.q.<.<.q.M.N.F.G.G.B.N.B.B.N.q.0.h.B.I.I.G.I.Q.Q.I.Q.Q.I.I.I.Y.Q.Q.Q.Q.Q.Q.Q.Q.Y.Q.Y..XY.0XlXtXlXlXuXuXlXlXzXzXzXzXcXzXbXbXcXHXHXNXJXHXNXHXHXbXbXZXHXbXlXtXxXxXkXMXNXDXMXDXxXSXiX.. .| ! b b v E E.| D E |  XkXwXwXgXxXkXkXwX,.E | *...*. XiXr.! | ;.L.=X5X#X=X=X{.n.) +XUXDXDXMXkXu.4.8.8.#X X8.E i.*XxXvX Xr.| b ..E.v. Xn.r.8.| *.,. .*.,. .D R.,.| | B c D B t v n.t.~ f E u.&X*X*XfXn.3.n.].sX&XsXdXsXsXsXnXnXMX[.u.sXDXMX+X5X5X8.E 8. Xn.v 8 ..r.8.n.x.b.,.b.c.v.v.v.b.,.b M b x 5 c D D ..! v v c c D *.8.*.! D c v B | 8.8.*.8.D u t c D D M F | c u t t c u c ..n.,.t t t t v v 0 t t 0 0 : 0 2 8.r.3X..E E b b v c c 8.n.n.&Xv.8.b.b c | | 8...r.8...5X5Xv.n.n.8.| ,.r.,.r.R.K...E E E b b D ,.n.8.3X3XwXn.,.8. .v.v.iXDXDXvX5Xn.4XpXpXW.(.8Xv.oXiXiXwXOXOXOX.X.XOXOX.XOX.X.X.X.XOXOXOX.X.X!.!..X.X.X.X.X!.!.!.!.!.Q.Q.!.Q.Q.Q.Q.Y.Q.Q.Q..X.X.X.X.X.X.XQ..X.X.X.X.XQ.Q.Q..X.X.X.X.X.XQ..X.X.X.X.X.X.X.X.X.X.X.X.X.X.X.XXXXXXXXXOXOXOXOXoXoXXXXXXXXXOXXXOXOXOXOX",
"XXXXXXXXXXXXOXOXXXXXXXXXXXXXXX.X.X.X.X.X.X.X.XXXXXOX!.!.!.Q.I.G.h.<.0.<.N.M.G.G.F.N.N.N.N.N.M.h.h.N.B.G.I.I.I.I.Q.Q.Y.I.I.Q.Q.Q.Q.Q.Q.Q.Q.Q.Q.Q.Q.Y..X$XlXbXlXlXlXzXzXVXVXzXzXzXuXzXzXcXbXbXHXHXKXDXNXJXHXNXbXNXbXcXxXeXgXgXxXMXNXmXfXfXfXMXwX8.....! ! ,.| E  Xx.b b E E K.iX5XSXwXn.n.3XkX#X| v ! | v.5X*.B ! =.! r.#X*X8.` ~ v n.n.E n.kXDXUXn.) ..n.8...*.E U E E 8.K.8. .D .. .t D b.K.r.| B D | ! ,.9.| c | | D D 5 u u 5 5 u | ..2 y 4. X*X[.[. XE U 2.i.n.'.'.&X5XsX&XsXnXmX'.i.5X[._ w v n.......v.E c t : E 8.8.E  .x.E.x.,.E.E.E.E.| D D D c 5 5 E  X5Xn.D c c E  .v.K.v.! !  .B E D ! v u : c | *.,.F ! | *.c - 2 5 5 5 B ,.K.8.t 2 f , : y t t i t , 2 0 E ..E 5X..t b b t t d E '. Xn.n.5X .b b D ..E b E 3X5X4.K.5X Xn.....v.8...*.K. X..D E D E E  .E B E  XwX5XwX5X,.) n.b.b.sXSXkX#Xn.3XiXiXiXiXE.W.(.W.4XlXwXOXXXXXOXOXOXXXOX.X.XOXOXOXOXOX.X.X.X!..X.X.X.X.X.X!.!.!.!.!.Q.Q.Q.Q.Q.Q.Q.Y.Q.Q..X.X.X.X.X.X.X.XQ.Q..X.X.X.X.XQ.Q..X.X.X.X.X.X.X.X.X.X.X.X.X.X.X.X.X.X.X.XQ.Q.Q..XOXXXOXOXoXXXoXoXoXoXXXXXXXXXXXOXOXOXOX",
"XXXXXXXXXXXXXXXXOXOXOXOXXXXXOXOX.X.X.X.X.X.X.X.XXXOXQ.Y.Y.Q.Y.I.G.N.N.0.G.B.I.G.F.B.N.N.N.N.N.N.<.q.h.B.I.Q.Y.I.I.I.I.I.Y.Q.Q.Q.Q.Q.Q.Q.Q.Q.Q.Q.Q..XOXeXtXlXtXlXzXzXbXbXzXzXzXlXzXbXcXbXNXxXgXgXgX0X#X*XeXbXNXtX+XeXlXgXgXgXfXNXMX*X[.n.n.#X X8...8.....iX5X,.n.E b b E | n.kXkXwXv.....n.kXvX4X,.| 8.#Xn.! *.5.` *.#X5Xn.......4.kXkXi.E ) ..n.8...V _ ..8.E f ~ 8.4...E E D E ,.E b | *.,.%.Z c u D | D r.D u u B B B t u c u 2 t u t y v n. X#X[.i.i.v v 8.8...i.n.'.sX'.P y.sX*X&Xn.( y v f f v D v > > t v D t t b | c b x.,.v.(.E.A.3X4Xx.| #. .D D b ,.kXiXiXv.c b B |  . .| D D  .D B t : 2 v v B E ! B B | *.*.u O 2 u u D D | v...t f v t 2 f v i a t ; 0 i ! v b n.*.c ! ,.| v t ) n.*X5X5X5Xr.E ,.| E E | .. XkX X X X Xn.,. .r.8.E r.K.....E E E v v v ....D  X5X X5XiXn.E  .v.].5XiX3Xn.r.E.4X(.(.(.V.<.W.R.4XkXtXOX.X.XXX.X.X.X.XQ..X.X.X.X.X.X.X.X.X.X.X.X.X.X.X.X.XQ.Q.Q.Q.Q.Q.Q.Q.Q.Q.Q.Y.Q.Q..X.X.X.X.X.X.X.XQ.Q..X.X.X.X.XQ..X.X.X.X.X.X.X.X.X.X.X.X.X.X.X.X.X.X.X.XQ.Q.Q..XXXXXXXXXOXoXOXOXOXOXOXOXOXXXXXXXOXOXOXOX",
"XXXXXXXXXXXXXXXXOXOXOXOXXXXXOX.X.X.X.X.X.X.X.X.XOXOX!.Q.Q.Y.F.N.M.B.N.h.F.G.F.B.B.B.B.B.B.N.N.N.<.q.q.q.N.I.Q.Y.Q.Q.Q.I.I.I.Y.Y.Y.Q.Q.Q.Q.Q.Q.Q.Q..XOXrXtXtXlXvXzXlXlXlXlXlXlXlXbXbXxXtX+Xp.p.{.+X=X=X#X+X=X*X{.$XgXxXxXfXxXxXMXfX5X X[.i.r...E E | | E  XSXn.E  .E x. Xn.K.vXkXt.| 8.5.n.3X X#X Xr.r.n.| ....! .. XkX X..) E ) &XIXkXfXkX'.u.u.8.8...8.n...v f 4.K. X..E v b v 5 D *.E t 5 5 a c u u B u W D u a 5 a c u t B B u 2 5 E V f 8.8.n...~ _ E v ..8.n.n.[.*X%XU d ..i.n.'.i.f o $ $ 0 : , t 5 t b.iXwX XD > c b D #.#.A.E.4XE.v.v.#.,.,. .| | D | oX4Xv.D D b D D | D c m c B v c 2 2 t v f t y V v E | *.*./ E g v Z D E ! | E v v E v f i t 2 t 0 2 : t t 2 B E ..v ..8.*.U 0 f E ..n.5XsX&X8.,.v b | *...8.5X#X5X5Xn.....) | ..E 5.=.E E r.4...E ..v 8...d ..r.r.n. X Xv..... XsX Xv.n.b.v.E.3X3X4X4X,.E. X4XkXkX0XOXOXOX.X.X.X.XQ..X.XQ.Q.Q..X.X.X.X.X.X.X.X.X.X.X.XQ.Q.Q.Q..XQ.Q.Q.Q.Q.Q.Y.Q.Q..X.X.X.X.X.X.X.X.X.X.X.X.X.X.XQ.Q..X.X.X.X.X.X.X.X.X.X.X.X.X.X.X.X.X.X.X.X.X.XXXXXXXXXXXOXOXOXOXOXOXoXOXOXOXXXXXOXOXOXOX",
"XXXXXXXXXXXXXXXXXXXXXXXXXXXX.X.X.X.X.X.X.X.X.X.XQ.Q.!.XXOXY.g.>.*.q.h.N.B.G.B.B.N.B.B.B.B.N.N.N.h.N.h.q.<.N.G.I.Q.Q.Q.I.I.I.I.Q.Y.Q.Q.Q.Q.Q.Q.Q..X.X0XtXlXtXlXuXlXlXlXlXlXlXlXlXxXgX+XH.p.n.[.[.&X*X*X XH.p.{.=XgXfXkXfXgXxXNXMXfX5X X[.n.4.....E E ..,.b.kX5XE ,. .,.n.n.n. Xn.V V ..E E E E E ! E ........E v 4.5X5X..U v E u.fXUX*Xu.fX*X X[.4...) 4...v i _ {.n.8.*.8.E D B B E D c 2 O < 2 : 2 u 2 u u c u u a 1 1 a u 2 u c u : t i i ..H.u.) f v E D ..n.n.n.n.i.v % f 0 f U f d y 9 q 2 i t E D 5 D 3XE.b.3X,.D A.b.D  .E.E.*.#.b c 2 5 | x. .D  .#.H D D b D D D b c 5 D m c c B D *.! 2 0 y 0 0 0 i a u v Y ! ` ^ ^ 5.8.~ ~ ~ v v E E E V V V v f g U Z a t u t E E Z B ..r.*.v 0 f v : v E ) ) ..n.v u D E ! ..n.n.{.wXn.....E v ) E 4..._ ..4.u.) v E ) ].n.d ....) ...... X]. XvX#Xn.E.iX3Xr.E.oXE.4X4XK.oX X3XkXMXgX0X#XOX.X.XOXOX.X.X.X!.Q.Q.!..X.X.X.X.X.X.X.X.X.X.X.X.XQ.Q.Q.Q.Q.Q.Q.Q.Q.Q.Q..X.X.X.X.X.X.X.X.X.X.X.X.X.X.X.XQ.Q.Q.Q.Q.Q.Q.Q.Q..X.X.X.X.X.X.X.X.X.X.X.X.X.XXXOXXXXXXXXXOXOXOXOXOXOXOXOXOXOXOXOXOXOXOXOX",
"OXOXXXXXXXXXXXXXXXXXXXXXXXXXOX.X.X.X.X.X.X.X.X.XQ.XXXXY.F.q.<.<.>.q.N.B.G.G.C.B.B.B.B.N.N.N.N.N.B.B.N.h.<.<.<.h.h.B.I.Q.Q.Q.Q.Q.I.Q.Q.Q.Q.Q.Q.Q.Q..XtXtXlXtXlXtXlXgXgXhXlXlXxXlXgX{.p.n.n.i.[.*X=X*X&X{.[.H.[.*XfX=X+X*X=XfXNXMX+X&X&X Xr.D E .... .8.8.| 8.n.D c b t c E E =.r.=.8.K.K.{. X X X XK.#X5X3X X Xn...n. Xn.n...8.*Xi.n...v ) U U U f f v f f f y ..w._ v E ..! v v ..E c u 2 e Z Z v u v 2 u v 1 1 < t 1 1 t v a u u 2 : < a t E p.8._ .._ ) ..E 4.;.w.i...y y Y E v ~ ` ` Y V B a E #XiX3X,.D x.b.b.#.c.(.4X(.b.H D F b O c oX| - x D b D | H D H D b c b c x c c c D D D ..,.v.8.: 0 9 i U E V V f v i f V Y ~ =.;.=...=.4.=.;.w.w.4.;.8.p.H.n.{.#XH...*.8.v.L.8.5.*.=.8.;.;.w.w...=..._ ) ! n.E v v E ..! E 4.=.........) ) ) ..4.8.U v 4.U _ ..E E 2.8.v i.8.E t ..U )  X5X Xu.#X5XiXoXE.4XE.K.oXoXwXwXwXfXfXkXxXkXeX=X#XOX+X+XQ.Q.Q.Q.Q.Q.!..X.X.X.X.X.X.X.X.X.X.X.XQ..X.X.XQ.Q.Q.Q.Q.Y.Q.Q..X.X.X.X.X.X.X.X.X.X.X.X.X.X.X.XQ.Q.Y.Q.Q.L.L.L.Q..X.X.X.X.X.X.X.X.X.X.X.X.X.X.XXXXXXXXXOXOXOXOXOXOXOXOXOXOXOXOXOXOXOXOXOX",
"OXXXXXXXXXOXOXOXXXXXXXXXXXXXOX.X.X.X.X.X.X.X.XXXOXXXY.h.<.>.<.h.h.N.G.G.G.F.F.B.G.F.B.B.B.B.B.N.N.h.N.N.q.<.>.<.<.h.B.G.I.Q.Q.Q.Y.I.Q.Q.Q.W.Q.Q.Q..XuXtXtXtXzXlXtXtXrXrXtXgXlXgX*X{.H.[.[.*X5X*XfX+X[.p.[.[.&X5XfX5XH.[.{.eXMXMX&X].n.8.v t v E E E E | E .. Xn. X#X5XkXxXNXDXxXxXfXkXkXMXJXSXJXJXJXJXUXNXDXDXxXkX4.v E 8.....8.i. X[.&X&X[.=XeX&X5X Xn.n.4.~ _ ` Y ~ E =.,.! V B E ! / ;.H.}.{.{.+XeX#X{.w...W Y ~ ~ W / 5.9.w.H.D.H.n.H.n.n.{.K.n.K.{.i.8.` ;.H.H.*X*X*XtXoXK.,.<.=.;.` ~ / W | 5X4Xb.v.x.,.v./.#.c./.A.v.E.c.c 2 5 > #.iX,.> b b c c D b D H D D D | D b c c c M  .,.K.K.r.*.0 f f U E ) ( _ ` 4.....4.8.4.5.w.8.w.w.p.8.w.p.H. X X X=X=X{.H.{.#X+X#X#XoX#X#X0XK.H.5XeX5XfXfX5XgXkXxX5XgXeXwXwX5X XK.n.8.w.4._ ..2...8.8.8.u.u.i.4.4.u.4.u.i.i.2.E v v E ) _ f ..2.E u.i...) _ n.wX4XK.#X XK.v.K.3X#X5X5XsXsXkXgXeX5XeX=X+X+X#XOX.X.X.X.X.X.X.X.X.X.X.X.XQ.Q.Q.Q.Q.Q.Q..XQ.Q.Q.Q.Q.Q.Y.Y.Y.Q..X.X.X.X.X.X.X.X.X.X.X.X.X.XQ.Q.Q.Y.Y.Y.L.L.L.Y.Q..X.X.X.X.X.X.X.X.X.X.X.X.X.X.XXXXXOXOXOXOXOXOXOXOXOXOXOXOXOXOXOXOXOXOX",
"OXOXXXXXXXXXOXOXXXXXOXOXXXXXOX.X.X.X.X.X.X.X.XXXQ.G.q.<.0.N.G.G.F.B.B.G.G.G.G.G.F.F.B.B.G.G.G.G.B.B.B.B.N.h.h.h.h.h.h.h.B.G.Q.Q.Q.I.I.Q.W.W.Q.Q.!.Q.tXuXtXuXuXtXrXrXrXeXeXtXgXgXeX{.[.&X&X&X*XsX&X..f f U U _ w.*XeX[.i.i.p.eXfX4.E _ i.r.E t 0 t 0 b r.#XfXMXMXUXIXDXUXDXJXUXNXxXgXkXNXDXKXHXDXDXJXMXeX*X Xp.=.4.w...~ w. X X+X X+X=X5X=X=XkXfXfXfXgXkXfXfX5XkXkXkXNXkXkXxXgXiX#Xr.p.$X=XeXMXMXMXNXDXNXJXxX XH.H.p.w.p.t.w.=.5.5.;.9.p.$XeX*X=X*XgXxXxXxXgXeX$X=X=XfXkXgXr.| F F M W 9.;.%.O.D 3X4X3X3X/././.A.#. .A./.E.b.A.3XD b D 2 D 3XD - 5 5 5 c D b  .,.| |  .| D b D | H x D ,.v.,.c 2 t y f E ( 2.4.2.4.4.4.4.4.5.4.8.p.w.5.=...` 5.5.{.kXxXtX$XJ.n.p.H.H.+X X X$X+XoX#Xp.D.5XtXeXeX*XeXeXgXtXfXfXkXvXxXDXNXDXDXNXMXMXMXmXMXxXxXMXDXMXMXMXUXUXIXMXMXIXkX[.u.u.n.n.%XsX&X X5X&X*X5X&Xi.n.~  XxX Xr. X3XK. Xn.n.i.y.%X%X'.[.[.&X*XeXeXgXeX1X$XOX.X.X.X.X.X.X.X.X.X.X.X!.Q.Q.Q.Q.Q.Q.Q.Q.Q.Q.Q.Q.Y.L.Y.Q..X.X.X.X.X.X.X.X.X.X.X.X.X.XQ.Q.Q.Q.Y.Y.L.L.L.Y.Q.Q..X.X.X.X.X.X.X.X.X.X.X.X.X.XXXXXXXOXOXOXOXOXoXoXOXOXOXOXOXOXOXOXOXOX",
"XXXXXXXXOXOXOXXXOXOXOXOXXXXXXXXX.XOXOX.X.XXXXX.XM.>.>.h.F.I.Y.G.G.G.F.G.G.G.G.G.G.G.B.G.I.Q.!.!.!.Q.Q.I.G.G.B.B.G.B.B.B.B.G.I.I.Q.Q.I.I.W.Q.!.!.Q.XXuX6XqXuX0XtX6X0X0X0X0XwX$XeXeX*X[.[.%X*X*X%XU 7 ( i.y.U f w f U 4.i.w.=.` y.8.&XfXMXfX5X4.E U _ [.kXDXMXfXfXkXMXMXxXMXZXZXxXfXxXNXNXJXHXxXNXJXNXxXxXxXfX=X+X=XxXMXxXkXfX+X*X=X XkX+X*Xp.[.fXkX X=XkXMXxXMXxXeX5X*X5XeX#X{.#X=X=XlXxXxXNXxXMXZXkXgXxXeX{.H.{.p.w.p.{.#X*X*X=X+X{.p.p.p.{.{.+X=XrXjXfX1XeXxXbX@X-.5.p.~ D (.S.(.(.<.O.%.F m v.iXb.4XiX3X/./.(.A.H A./.b.E.E.b.| E.wXE.| 5 - > b v.W.W.4XD u D |  .D c 5 c ,.,.,.| c c 5 5 t v U E Y _ 2.4.8.4.4.4.=.5.w.w.i.w.w.4._ _ ` =.=.=.H.eXgX=X XH.H.J.{.+X{.{.{.{.J.H.9.;.J.eXeX@X*XeXfXgX=X=X+X*XgXkXgXgXxXMXxXMXNXMXDXDXMXDXDXMXDXIXIXUXUXUXUXxXfX*Xy.( y.*X*X%X*X5X5X%X&X*X*XfX*X%X*Xn...MXMXxXDXUXDXMXMXfX*Xn.) ( 2.y.i.*X&X%XfXUXJXNXcXxXgX=X#X#X.XXXXXQ..X.X.X!.!.!.Q.Q.Q.Q.Q.Q.Q.Q.Q.Q.Q.Q.Q..X.X.X.X.X.X.X.X.X.X.X.X.XQ.Q.Q.Q.Q.Q.Q.Q.Y.L.L.L.L.Y..X.X.X.X.X.X.X.X.X.X.X.X.X.XXXXXXXOXOXOXOXOXoXOXOXOXOXOXOXOXOXOXOXOX",
"XXXXXXXXOXOXOXXXOXOXOXXXXXXXXXXXOXXX.X.XXXOXQ.G.q.q.N.G.G.I.Y.Q.Q.I.G.G.G.G.G.F.F.G.G.I.Q.Q.Q.Q.!.Q.Q.Q.!.Q.Q.Q.Q.Q.I.I.I.G.I.I.Q.I.I.I.I.Q.Q.!.!.Q.uXuXuX$XL.Q.$X$X6X$X0XeX$X=X=X+X[.[.[.[.[.u.0 4.nXUXMXxXxXfX[.i.5.5.p.+XfXMXDXMXMXfX&X[. X*X&X5XxX*X[.p.i.w.i.+XeXfXjXjXjXgXeXfXxXMXcXxXjXjXxXNXNXNXxXxXMXNXxXNXNXxXNXNXNXDXJXNX+XU p.i.4.i.=XkXMXfXeX*X+X+X+X+X*XeXeX5XeXxXxXxXxXxXMXMXjXjXgXfXeX@X{.+X{.H.H.l.{.+XeXjXgXrXeX2X@X}.H.H.H.H.{.|.{.J.J.}.jXNXeXJ.5.p.D.B A.(.S.S.C.O.O.m F E.(.b.c.A.(.8XA././.D D b.b.E.E.D x E.E.3X3XH > c E.4XW.4X8X4Xb - t 5 c D D D D ,.b.v.D 5 u c v D ..=.4.8.w.u.i.i.y.4.4.8.p.H.[.i.w.4.4.4.4.=.=.4.p.{.+X{.{.H.H.D.p.H.H.H.J.H.p.w.%.W / w.l.l.{.fXgXfXMXMXjXMXxXxXkXkXxXxXfXkXxXxXfXfX5XfXfXMXIXMXUXMXfX=X&X[.%X%X[.y.4.4.'.%X%X&X%X&XsXsXfXfXmX*X&Xu._ fXmXMXMXMXMXmXMXmXmXMXsXu.U P i.%X%XfXUXUXUXUXUXJXJXNXfX+XOX.X.XXXOXQ.Q.!.!.!.!.Q.Q.Q.Q.Q.Q.Q.Q.Q.Q.Q..X.X.X.X.X.X.X.X.X.X.X.X.XQ.Y.Y.Y.Y.Q.Q.Y.Q.Y.L.L.L.L.Y.Q.Q.Q..X.X.X.X.X.X.X.X.X.X.X.XXXXXOXOXOXOXOXOXOXOXOXOXOXOXOXOXOXOXOX",
"OXOXXXXXXXXXXXXXOXOXXXXXXXXXXXXXXXXX.X.XOX.XL.D.0.G.Q.Y.Y.Y.I.!.Q.Q.I.G.G.G.G.G.G.G.Q.Q.Q.Q.Q.!.Q.Q.Q.Q.!.!.Q.!.Q.Q.Q.Q.I.G.G.G.I.I.I.I.I.Q.Q.Q.Q.Q.uXlXlXOXQ.G.Q.OX0X4XeX0X=X0XeX*X{.H.[.&XfX4.d y.fXNXNXNXNXNXMXNXUXZXZXZXMXxXMXkXxXkXfX&X&Xn.&X4.U ( w.p.[.{.+X@X{.l.1XZXcXgXgXjXjXfXrXjXcXcXjXgXrXgXrX1XgXcXxXhXgX1XrXeXrXrXrXeX-.q p ` =X+X` w.+X+X[.[.+X1XxXxXgXeXeXgXgXgXeXgXxXxXgXfX2XfXjXgXeX+X{.+X=X+XH.{.+X}.H.p.w.6.6.e.z.{.}.+X+X=X1XrX2XrX2X2XhXtX2XZXeX*XwXN.J S.S.m.M.<.| m F #.D H 5 b /./.A.A./.,. . .| D  .x > v.8XE.iXE.H x.4XiX8X4XW.4XV.u u t | ,.b.E.D 5 | r. .t v ..,.*.5.8.w.n.&X%X[.[.'.[.[.[.{.[.{.{.[.[.p.w.w.w.p.p.p.H.p.H.H.H.J.{.H.H.p.n.{.{.{.H.H.H.w.` Y T 4.[.+X*X{.fXMXkXfXfXeX*X+X+X[.{.{.[.w.w.8.8.4.i.*XfX*X%X[.[.[.`.[.[.'.%X%X'.y.y.'.%X&X&X*X*X*X&X*X*X) _ '.MXMXMXMXmXmXkXkXmXIXmXnXmX%XP ( _.*XUXUXUXUXUXUXUXUXUXNXxX1X#X.X.XXXOX.X.X!.!.Q.Q.!.Q.Q.Q.Q.Q.Q.Q.Q..X.X.X.X.X.X.X.X.X.X.XQ..XQ.Y.L.L.L.Y.Y.Y.Y.Y.Y.Q.Q.Q.Y.Y.Y.L.L.Q..X.X.X.X.X.X.X.X.X.XOXXXXXOXOXOXOXOXOXOXOXOXOXOXOXOXOXOXOXOX",
"OXOXXXXXXXXXXXXXXXXXXXXXXXXXXXXX.X.X.X.X.XQ.G.F.h.Y.Q.I.Q.!.Y.Q.Q.Q.Q.Q.I.I.I.I.I.Q.Q.Q.Q.Q.!.!.!.!.!.!.!.Q.Q.Q.Q.Q.Q.Q.I.G.F.B.G.G.I.I.W.Q.Q.Q.Q.XXlXuXqXY.OXOXF.G.6X0XOX#X0XeX#Xn.p.[.[.'.*X8.U U 4.i.[.[.%XfXfXkXxXMXMXMXMXMXxXfXfXfX*X[.i.w.4.g w w.+X@X@X@X{.{.@X=X}.e.2XhXeXfXjXxXxXxXlXcXcXxXxXxXxXjXjXrXrXrXrXrXrX2X2X0X2XeX=Xp.p.=X*X*XH.p.+X=X*XeXfX=X*XgXxXgXeXkXMXxXMXNXNXNXMXxXMXMXxX=X+X+X+X+X+X{.5.` ~ W =.p.}.=X1X1X1X2X2XeX2X2X2X1X1X2X2XrX2X2X2XrXhX=XK.R.W.<.M.<.<.+.m B F c D | b c E./.E././.#.b.3Xv.D > c b D 3X3XE.E.E./.E.W.8XwXSXiXiXc : B ,.v.E.A.| 5 D D E c B ! 8.K.8.8.8.i.[.[.%Xn.p.[.[.{.+X+X+X%X{.@X*X+X+X+X+X[.H.p.p.H.[.{.+X+X{.{.{.[.{.{.+X*X{.+XeX=Xp.` ~ T Y _ H.fXeX+X{.[.[.[.{.[.[.[.[.H.H.w.8.4.` ..i.[.[._._.[.[.[.[.[._.%X*X*X%X'.y.i.%X%X*X*X*XfXi.y.[.aXIXLXMXmXmXmXkXMXMXnXnXfXmXmXIX'.( i.*XUXUXLXLXPXUXUXUXNXMXNXNXgX1X#X.X.X.X.X.X!.Q.Q.!.Q.Q.Q.Q.Q.Q.Q..X.X.X.X.X.X.X.X.X.X.X.XQ..XQ.Y.L.Y.Y.Y.Q.Q.Q.Q.Q.Q.Q.Q.Q.Y.L.L.L.L.Q.Q..X.XXX.X.X.X.X.XOXOXOXXXOXOXOXoXOXOXOXOXOXOXOXOXOXOXOXOX",
"XXXXXXXXXXXXXXXXXXXXXXXXXXXXOX.X.X.XXX.XQ.Y.G.F.B.G.Y.Y.Q.!.Q.I.Q.Q.Q.Q.Q.Q.Q.Q.Q.Q.Q.Q.Q.Q.!.!.!.Q.Q.Q.!.Q.Q.Q.!.Q.Q.Q.Q.I.G.B.B.C.C.G.I.Q.Q.Y.Q.XXuXlXqXG.6XuX4XN.OXtX$X5X5X{.p.w.4.4.u.[.[._ 9 ~ i.H.[.p.w.p.5.4.5.w.H.H.J.{.{.l.w.=.=.=.4.w.p.Y V e.z.+X1X}.{.@X1X@X{.6.} J.gXcXjXrXhXxXcXZXNXcXjXhXjXcXcXhXhXuXhXhX2X2X1X1X>X$X@XrXeXjX=X+XjXjXgXrXfXjXgXeXgXjXxXxXxXNXMXxXMXMXMXNXxXxXMXgX+X{.+X2X=Xe.` T Y ` l.@XrXgXeX2X1X1X2X2XgXgXrXrXrX1X2XrXtXhXrX2X2X@X1X$XL.9.4Xv.<.<.q.<.m 4 B D D D M M ,.E.b.(.E.|  .b.b.E.D 5 > | 3X(.b.c.A.A.8X4X4X4X4XoXr.5 t t ..n.R.,.b  .<.| D B D D ..r.! v E 4.w.[.&X[.[.[.{.{.[.{.{.{.{.+X+X[.[.+X+X[.H.p.w.p.H.H.H.H.{.{.[.[.{.[.{.+X[.[.+X*X*XeXgX=X{.T ~ {.2X+X%X*X{.{.&X{.[.{.{.{.[.{.[.w.y.y.'.[.[.[.[.[.%X&X&X*XsX%X[.*X*XsXsX[.i.i._.'.[.1.w y.fX%X&XaXnXMXMXMXMXmXMXMXmXnXmXfXsX%X) _.&XMXLXMXLXMXMXIXUXMXMXDXJXDXNXgX$XOXOXOX.X!.Q.Q.Q..XQ.Q.Y.Y.Q.Q..X.X.X.X.X.X.X.X.X.X.X.X.X.X.XQ.Q.Q.Q.Q.Q.Q.Q.Q.Q.Q.Q.Q.Q.Y.L.L.L.L.Y.Q..X.X.X.X.X.X.X.X.X.XXXXXOXOXOXoXOXOXOXOXOXOXOXOXXXXXXXOX",
"XXXXXXXXXXXXXXXXXXXXXXXXXXXXOX.XXX.XQ.Q.Q.Y.F.N.N.F.Q.!.Q.Q.Q.Q.Q.Q.Q.I.I.Q.Q.!.!.Q.Q.Q.Q.!.!.!.Q.Q.Q.Q.Q.Q.Q.Q.Q.Q.Q.Q.Q.I.I.G.G.C.C.C.G.I.Q.Q.Y.XXqXlXqX>XtXuXwXoX0XtX0X#Xn.i.{.[.n.n.4.y.%X_ U =XMXMXxXfX2XfX+XH.5.{ ` ^ ` { -.5.e.w.{.{.J.H.{.~ C C { l.l.z.J.z.}.z.J.|.{ i ` H.@X0XlXhX=X}.1XrXtXhXtXrXuXtXuXrX1X>X|.@X|.@XXXXX.X1X=X@X@XrX=XeX2X=X1XeXgXcXgXjXxXxXgX1XeXgXgX=X+X+X+X*X=X+X{.z.p.5.-.{ 5.w.{.+X@X+X=X2XeXgXeXeXeXeXgXrXrXrXuXrXqXrXuXqX2X>X>X-XqXlX=Xt.<.%.t.q.q.9.u D | D | | E D b ,.W.3X .c 5 v.3Xv.D c c  .3X/.A.c.c./.(.iX8XE.c 2 ; 5 t t f E D t B #.,.,.#.m B ! ,.v.! 2 Z _ ..w.p.[.&X*XeXeX1X=X1X1X*X+X{.[.[.{.p.5.4.5.w.p.H.[.{.[.+X+X+X+X*X=X*X{.{.p.w.n.+X=X+X[.{.~ q ~ 4.4.5.y.w.w.w.i.[.[.[.[.{.{.[.i.i.i.n.'.[.[.[.[.[.[.i.i.[.i.i.i._._.i.i.i.'._._ s % + s U _ 4.y.i.[.[.*XfXfXnXnXMXnXfXnXMXi.f y.%XnXMXUXIXUXIXPXIXIXUXUXUXUXUXJXgX=XOX+X.X.XQ.Q..XQ.Q.Q.Y.Y.Q.Q.Q..X.X.X.X.X.X.X.X.X.X.X.X.X.XQ.Q.Q.Q.Q.Q.Q.Q.Q.Q.Q.Q.Q.Y.Y.Y.Y.Y.L.Y.Q..X.X.X.X.X.X.X.X.XOXOXXXOXOXOXoXOXOXOXOXOXOXOXOXXXXXOXOX",
"XXXXXXXXXXXXXXXX.XXXXXOXXXOXOX.XXX.XQ.Q.Q.Y.F.N.N.F.Q.!.I.I.Q.Q.Q.Q.Q.I.Q.Q.!.!.!.!.Q.Q.!.!.!.!.!.Q.Q.Q.!.!.!.!.Q.Q.Q.!.Q.Q.Q.Q.Q.I.G.B.C.G.Y.Q.L.OXqXzXuXuXqX6XwX0X4X X XK.8. X[.i.i.&Xi.2.%XU 4.fXfX*X*X+X[.{.+X@X*X=XeXeX1X=X1X1XtXgX=Xp.H.J.}.5.T p { e.-.6.6.F.J.7.e.6.6.i ^ =.%.=.6.;.5.w.J.$X0X@XY..X1XqX1X1X1X>X>XqXqXuXqX>X$X2X1X$X$XeX=X=X=XeXgXxXcXZXcXxXjXjXjXrXeXgX1X1X+X{.p.w.5.4.` 4.w.p.{.{.+X{.+X@X=X@X=XrXeXgXjXgXrXeXrXrXrXuXrXqXqXrXrXqX>X|.T.T.F.J.L.D.{.J.+XJ.Y.J.N / ..D *.! B D c c D E D D 5 5 D D  .#.#.,.b.A.A.x.A.(.(.8X4XiX..t t : 0 y t v t c ,.#.v.,.O.c c | v.v./ : 2 w f U U g ~ ~ =.w.H.+X=X=XfXeX=X*X*X+XH.i.p.H.[.[.[.+X*X*X+X*X=X5X=X=X=X*X*X&Xw.5.H.+X&X[.i.4.H.fX=X+X[.[.[.[.%X*XfXeX+XH.H.[.[.[.[.'.i.[.'.p.p.i._.i.4.4._.i.i.[.[.i.[.[.[.i.[._._.i.i.4.y.4.4.y.~ g f U _ ) 4.u.i.i.[.%Xn.U d u.[.fXfXmXMXUXUXUXIXUXUXUXUXUXUXUXNXxXeXOXOXOX.X.X.X.XQ.Q.Q.Q.Q.Q.Q..X.X.X.X.X.X.X.X.X.X.X.X.X.X.XQ.Q.Q.Q.Y.Y.Q.Q.Q.Q.Q.Y.Y.Y.Q.Q.Q.Y.Y.Q.Q..X.X.X.X.X.X.X.X.X.XXXoXOXOXOXOXOXoXOXOXOXOXOXXXXXXXXX",
"XXXXXXXXXXXXXXXX.XXXXXOXOXXX.X.X.X!.!.!.Q.G.F.N.N.G.I.I.I.Q.Q.I.I.I.I.Q.Q.!.!.!.!.!.!.Q.Q.Q.!.!.!.Q.Q.Q.!.!.Q.Q.!.!.!.Q.Q.I.Q.Q.!.Q.I.F.B.F.G.G.Y.$XtXHXlXtXqXuXwXv.| D *.t.8.[. Xn.%X&X[.4.u.U [.eXfX*XfXfX=X=X1X1X+XH.p.p.H.}.@XqX0X@X9.w.+X@X1X6.S z C R { >.h.z.e.-.7.@X}.5.jXNXgX$X@XeXjXjXcXtX1X1X0XqXrX1X1XqXuX2X2X>X-X@XXX.X.X>X}.@X@X1XxXlXxXcXcXcXhXjXxXhX1X+X@X=X=X1X1X1X+X{.H.p.p.{.{.{.+X+X@X{.{.@X@X@X=X2XrXrX1X2X|.|.@X0XlXlXzXcXbXuXtX>X>X-XF.g.j.XX>X1X}.J.|.{.e.6.-.S a Z W W V | 8.r.*.B 5 E  .! t 5 b ,. .|  .#./.8Xb.#./.A.(.4X4XiXr.c ! _ E v y D B v *.,.C.,.*.u O 5 B N q 0 U _ _ ( 4.4._ _ _ ` ~ ` =.-.5.i.H.H.H.p.p.i.4.5.4.=.4.i.[.H.[.[.n.H.[.[.+X=X=XfX=X+X[.w.i.p.p.H.[.*XfXkXxXfXkXxXxXxXMXkXeX*XkXfXfXsX*X*X&X&XaX*X&X&X*X&X[.%X*X*XsXfXsXsXnXfX*XaXmXfXmXPXPXmXMXMXNXMXkX=X&X4.~ g f f d d w 9 , # f '.%XmXfXfXfXMXNXIXUXUXUXUXUXUXUXDXMXJXNXgX#XOX.X.X.X.XQ.Q.Q.Q.Q.Q.Q.Q..X.X.X.X.X.X.X.X.X.X.X.X.XQ.Q.Q.Q.Q.Q.Q.Q.Q.Q.Q.Q.Q.Q.Q.Q.Q.Q.L.L.Y.Q..X.XQ..X.X.X.X.X.X.XOXOXOXOXOXOXOXOXOXOXOXOXOXXXXXXXXX",
".X.XXXXXXXOXOXOXOXOXXXXX.X.XQ.Q.Q.Q.Q.Q.Q.Q.G.F.B.B.F.G.I.Y.Q.!.Q.Q.Q.Q.Q.!.!.!.!.Q.Q.!.!.!.!.!.!.!.Q.Q.!.!.!.!.!.!.!.!.Q.Q.Q.Q.Q.W.Q.I.F.h.N.F.Y.@XlXxXeXeXtXwXC.| <.v.v.8.i.[. Xn.n. X&Xi._ f ` {.+XH.5.=.=.=.{ } e.z.z.H.}.$X0X1X$X@XF.J.J.1X2Xe.^ T C C ^ 6.e.0.l.l.J..Xt.@XcXNXcXbXjXZXcXhXqXqX2X1X1X2X1X>X2XrXqX>X|.|.@X>XrXrXrXuXjXcXhXqX@X@X|.J.}.@X=X|.@X|.L.@X=XrXgXgXgXfX=X1X+XH.p.p.p.{.z.p.{.{.=X1XrXrXhX1X|.@X}.@XgXjXcXbXNXZXcXtXqX$X}.Y.Y.T.|.@XrX>X>XuXF.R } 0.0.h.h.h.W e N v E {.[.{.n.8.E v ,.*.t t r.v. . .#.H A.b.#.x.c.#.3X4X4XiX8.c ..[.8.f y f v v B *.9.v.v.u O 2 2 , < d f ( 4.p.n.p.p.w.p.t.t.p.e.p.n.p.r.n.H.H.H.w.5.5.5.5.w.p.[.{.[.{.+X+X+X=XfXfXMXZXZXxX*X[.[.[.i.i.H.=XxXxXfXkXMXxXxXxXMXxXfXfXfXfX*X*X*X*X*X*X=X=X*X*X&X[.[.[.%X*XsXsXsXfXfXmXmXmX*Xp.&XeXxXmXNXUXUXDXMXfXfXfXfX*X[.i.i._.i.( w # ( i.'.nXnXkXmXMXMXMXMXNXDXMXDXUXDXUXUXMXDXNXgX#X.XoX!.!.Q.Q..X.X.X.X.X.X.X.X.X.X.X.X.X.X.X.X.X.X.X.X.X.XQ.Q.Q.Q.Q.Q.Q.Q.Q.Q.Q.Q.Q.Q.Q.Q.Q.Q.Q..X.X.X.X.X.X.X.X.X.XXXXXOXOXOXOXOXOXOXOX@X@XXXOXXXXXXX",
"Q..X.X.X.XXXXXXXXX.X.XQ.Q.Q.Y.Y.Q.Q.Q.I.I.I.G.G.B.N.N.B.G.Y.Q.Q.Q.Q.Q.Q.Q.!.!.!.Q.Q.Q.!.!.!.!.!.!.!.!.!.!.!.!.!.!.!.!.!.!.Q.Q.Q.Q.Q.Q.Y.G.N.M.N.G..XrXxXjXgXtXwXv.,.V.E.R.v.*X5X{.n.K.K.[.n.( f *XJXkX=X*X{.J.+X@X|.|.@X1X$X$X2XrXuXrXqX@X}.z.e.|.e.-.^ C C ^ 6.-.J.z.J.|.-.^ rXZXzXhXrXjXhXhXuXqX>X>XqXuXuXrXrXtXrX2X2XqXrXtXhXqX>X|.J.J.J.J.J.J.}.XX@X@X2XrX2X@X@XrXhXgXjXjXgXxXfXgXfX=X=XeX1X+Xz.l.p.+XrXfXgXrX2X2X2XrXhXjXcXjXjXjXhXrX0X$X}.}..X.X}.XX>X>X>X>X>X>XF.h.@X>XT..XY.F.J.0.^ / ;.n.n.n.[.2.4...v v B t t E  .E D 5 #.b.x.#.x.b.b ,.3X4X4Xn.E ..u._ v d f t 2 2 u ..*.8.v v E _ ~ ( _ _ 4.u.i.H.{.+X+X#X+X$X*X=X=X0X0X=X*X*XeXeX+X=.4.5.w.p.H.[.[.{.[.[.+XeXfXkXkXkXMXMXxX1X+X%X[.[.[.*XkXkXfXfXkXfXgXkXkXfXfXfXkXfXfXfXfXmXxXMXMXMXmXfXfXmXmXmXmXmXmXMXMXMXMXMXMXNXfXi._ y.4.i.UXJXMXkXMXNXMXkXfXeXfXfX=XfXxXmXfX'.f f y.'.fXsXfXmXMXNXMXMXNXDXDXDXDXUXUXUXDXNXNXxXeXOX.XQ.!.OX!.Q..X.X.X.X.X.X.X.X.X.X.X.X.X.X.X.X.X.X.X.X.XQ.Q.Q.Q.Q.Q.Q.Q.Q.Q.Q.Q.Q.Q.Q.Q.Q.Q.Q..X.X.X.X.X.X.X.X.X.XOXOXOXOXOXOXOXOXOX@XXXXXXXXXXXXXXX",
"Q.Q.Q.Q.Q.Q.Q.Q.Q.Y.Y.Y.Y.Y.Y.L.Y.Q.Q.I.I.G.G.G.G.N.N.B.I.Q.!.!.Q.Q.Q.Q.Q.!.!.Q.Q.Q.!.!.!.!.!.!.!.!.!.!.!.!.!.!.!.!.!.!.!.!.Q.Q.!.!.!.Q.I.B.N.h.M.G.OXxXbXcXlXlXR.,.E.W.oXn. X+X Xn.K. X&X[._ f  XMXxXgXeXeXrX1X+X+XJ.}..X}.@X@XrX1X@X1XuX1X|.h.@X|.l.{ R { { R 9.l.-.^ ^ e.rXZXhXuXuX1XhXuXtXtX2XqXuXuXuXhXuX>XjX2X>X>XXXL.z.e.h.h.z.J.J.|.@X@X}.@X1XrXrX1X1X2XhXjXcXjXjXcXxXjXfX2X[.p.p.w.p.[.[.{.{.+XeXeXeX@X=XrXhXcXjXeXrX2X+X=X1X1X1X0X0X0XrXrXrXrXrX2X>X>X@XXX@X7.-.XX}.h.h.0.h.h.z.t.t.J.p.w.i.E 0 E r...c t u v v v b x 5 ,./.,.#.E. .5 t ! ..E ! ! E E ) _ ) ) U y 0 2 2 2 a V =.=.4.4.4...4.u.p.H.[.+X*X=X1XeXeXeXtXgXgXgXgXeXeXeXeX+XH.{.+X+X*XeX2X*X*X=XeXfXkXxXMXMXxXxXjXfX+X{.[.{.[.&XfXxXxXkXfXfXfXfXfXfXfXfXkXxXMXMXMXmXsX&X%X%X*X&X&X%X[._.[.&XfXfXfXmXmXmXkXkXMX*XU s f f f mXNXMXkXxXxXkXkXxXMXMXMXMXxX5X*XfXsX) P i.'.dXsXfXmXMXMXxXMXMXMXMXMXMXDXUXUXUXDXNXNXkX=XOX.X.XOX.XoXoXoX.XXX.X.X.X.X.X.X.X.X.X.X.X.X.X.X.X.XQ.Q.Q.Q.Q.Q.Q.Q.Q.Q.Q.Q.Q.Q.Q.Q.Q.Q.Y.Q.Q..XQ..X.X.X.XQ..X.XOXOXOXOXOXOXOXOX@XXXXXXXXXXXXXOX.X",
".X.X!.Q.Q.Q.Y.Y.Y.Y.Y.Y.Y.Y.Y.Y.I.Q.Q.Q.Q.I.F.B.B.N.N.G.Q.!.!.Q.Q.!.Q.Q.Q.Q.Q.Q.Q.!.!.!.!.!.!.Q.!.!.!.!.!.!.!.XX!.!.!.!.!.!.!.Q.!.!.!.Q.Y.I.C.N.M.B..XlXxXxXgXgX5Xv.,.<.K.*.{. X XK.{. X[.'.4.w U [.H.p.J.{.{.J.}.+X@X@X|.|.|.J.z.e.0.z.}.}.@XXXJ.L.J.5.{ ^ T z &.-.6.e.L.1X$X}.F.}.}.L.J.J.J.L.F.z.F.P.L.Y.Y.|.|.z.z.Y.|.@X>X@X>X>X@X}.J.J.J.J.eXhXxXcXcXcXxXcXxXhXjXgXxXgX=X*X{.[.z.[.p.` 4.w.[.%X*X+XeXeX=XfXeXgXeXeX1X1XrXhXfXjXNXNXNXcXlXhX1X$X@X@X>X@X|.|.}.}.@XXX}.XX@X}.>.^ e.0.9.l.D.L.L. XH.f y y | ..B u B ,...v D t c ,.E.#.v.v.b D ..r.*..._ 4.4._ _ y.4.4...) U v 0 , i 4.K.[.H.[.i.i.p.p.i.[.[.{.+X*X*X1X1X1XrXgXeXrXrXgXgXfXfXeX+X@X@X+X+X+X+X{.[.+X=X*X*X2XfXjXxXkXxXjX@X[.[.[.[.*XfXeXkXfXfXeX*X&X[.[.[.&X*X*X*X%X[.i.'.%X*XfXfXfXsXsX*X*X*XsXfXfXfXmXmXfXfXfXfXfX~ & & & ( *XkXkXfXfXfXfXfXkXkXeX=XkX*X[.n.'.i.P U i.u.*XsXsXfXkXMXMXMXNXMXxXxXMXMXDXUXUXUXMXkXgXeX#XOX.X.X.X.X.X.X.X.X.X.X.X.X.X.X.X.XQ.Q.Q..X.X.X.X.XQ.Q.Q.Q.Q.Q.Q.Q.Q.Q.Q.Q.Q.Q.Q.Q.Q.Q.Y.Q.Q.Q.Q.Q.Q.Q.Q.Q.Q..X.XOXOXOXOXOXOX@X@XXXXXXXXXXXXXXXXX",
"!.!.!.!.Q.Q.Y.Y.Y.Y.Y.Y.Y.Y.Y.Y.Q.Q.Q.Q.Q.I.B.M.h.N.B.I.Q.Q.Q.Q.Q.Q.Q.Q.Q.Q.!.Q.Q.!.!.!.!.!.!.Q.!.!.!.!.!.!.!.!.!.!.Q.Q.!.!.!.Q.Q.!.!.Y.Q.Q.I.C.M.N.Q.lXxXcXxXgXNXlXoXW.4X,.K.{.+XK.K. Xn.i.4.w w H.=X*X+X+X@X|.H.l.l.e.;.6.6.{ 6.-.&.&.-.6.6.6.l.z.J.L.J.J.J.}.L.z.J.l.e.J.J.z.J.F.F.L.h.h.h.z.z.F.|.>X,X>X-X@X@X|.-X>X@X|.}.F.e.F.@X>XqXuXhXuXjXZXZXxXhXhXgX1X2X1X1X+X[.H.w._ i.i.y.u.%X+X[.p.[.%X*X=XfXfX=X1X@X@X@X@X2XjXNXZXNXNXNXcXcXxXrX1XrXtXqX>X1XqX2X1X@X@XXX2X1X|.|.z.R a ;.t.h.z.J.}.OX=XK.V Z V 8.v.9.*.| r.n.u : v v E r.*.v.E E 8.n. XH.n.[.[.i.i.y.i.i.u.u.u.4...U U Y 4.w.n.[.[.&X*X=X=X*XfXgXfXgXjXjXxXjXjXcXcXMXcXcXMXxXjXjXjXjXfXeXgXjXhXjXxXxXfXeX*X+X+X+X+X*X=XkXkX=X%X[.[.[.*XfXfX2X=X*X[.p.[.{.[.%X%X[.[.i.i.%XsXnXnXfX*XsXfXfXnXmXfXfXfXfXnXfXfXfXfXmXmXMXkX[.f 9 ( *XNXMXNXMXMXMXxXkXfXfX5X*X*X+X*X&X[.[.( P 2.2.&XsX5XfXxXMXxXxXxXxXMXMXMXMXMXDXDXNXfX*XeXgX$X#X.X.X@XOXOXOXOXOX.X.X.X.X.X.XQ.Q.Q.Q.Q.Q..X.X.X.X.XQ.Q.Q.Q.Q.Q.Q.Q.Q.Q.Q.Q.Q.Q.Q.Q.Q.L.Y.Q.Q.Q.Q.Y.Q.Q.Q.Q..X.XOXOXOXOX@X@XOXOXOXXXXXXXXXXXXXXX",
"Q.Q.Q.Q.Q.Q.Q.Y.Y.I.I.G.Y.Q.Q.Q.Q.Q.I.Q.Q.I.B.q.h.B.I.Q.Q.Q.Q.Q.Q.Q.Q.Q.Q.Q.!.!.!.!.!.!.!.!.Q.Q.!.!.!.!.!.!.!.!.!.!.!.Q.Q.!.!.Q.Q.!.Q.Y.Y.Y.I.C.I.F..XhXjXxXbXgXlXtXwXwXiXv.t. X XK.n.n.n.n.y.f   N 4.p.w.w.p.z.z.6.e.e.e.z.J.}.1X.X}.}.J.J.l.J.J.z.z.z.F.J.J.J.J.|.2XtXhXhXzXcXZXcXzXzXuXyXqX>X>X>X;XT.Y.F.f.7.0.f.z.J.J.Y.@X|.1XuXcXcXzXcXzXhX2XrX2X=X+X}.|.{.[.H.[.p.u.i.i.4.g _ p.i.u.y.i.&X[.*XfX=X*X*X2X+XeXeXfXhXcXcX2X|.+X+X{.{.@XeX1X@X}.}.Y.z.z.J.J.L.|.|.J.J.}.}.}.e.{ Q e.}.XX}.}.|..X+Xt.g < Y L.D.v.OXn...r.E : c v t c 5 u ..r.w.w.[.*X[.{.[.i.%X%X[.%X[.%X%Xi.y.2.4._ _ 4.i.i.[.+X+X+X+X+X=X*X+X+X@X=X1X1X2XfXgXgXjXgXjXgXgXgXgXfX1X=X1XeXgXgXjXxXxXfX=X+X@X+X+X{.{.+X+X{.{.[.[.+X5X=X*X%X[.[.[.[.[.[.[.[.%X%X[.%X%X%X&X%X%X&X*X*XsXnXnXsX*X%X&X*X*X*X*X&X&X*XsX=X*XfX=X[.=XfXfXmXkXkXMXxXfXfXfXxXxXfXfXxXMXfX&XfX..d ( P u.[.[.*XfXgXkXkXxXMXMXxXfXMXMXDXMX+XH.[.xXJXgX0X$XOX.X.X.XOXOXOXOX.X.X.X.X.XQ.Q.Q.Q.Q.Q..X.X.X.X.XQ.Q.Q.Q.Q.Q.Q.Q.Q.Q.Q.Q.Q.Q.Q.Q.Q.L.L.L.Q.Q.Q.Q.Q.Q.Q.Q..X.XOXXXXXXXOXOXOXOXOXXXXXXXXXXXXXXX",
"Q.Q.Q.Q.Q.Q.Q.Q.I.I.G.I.I.Y.Q.Q.Q.Q.I.I.Q.Q.B.q.N.G.Q.Q.Q.Q.!.!.Q.Q.!.!.Q.!.!.!.!.!.!.!.!.!.!.Q.!.!.!.!.!.!.!.!.!.!.!.Q.Q.Q.!.Q.!.!.!.Q.Y.Q.Q.Q.Q.Y.XXlXxXxXNXNXxXvXpXpXiXr.,.K.r.r.,.*...8.4.s 9 H.kXeX+X+X{.{.H.e.e.e.0.-.-.6.l.l.z.J.z.l.l.L.@X|.@X@X@X>X2XrXhXhXhXrXrXrXuX2X>X>X-XT.T.L.P.f.f.>.>.f.j.z.U.-X>X,XqXqXqXqXqX2X-XqXuXrX1X>X@X|.J.J.J.|.|.}.}.H.p.p.[.[.[.'.[.[.i.s g p.[.i.p.[.*X*X*Xi.i.*XfXxXgXjXkXeX+Xl.l.z.+X+X{.J.}.}.z.e.z.z.F.L.Y.J.Y.|.>X|.L.z.z.J.z.e.z.h.F.Y.XXXX@X@XXX@X1X|.e.L.OXt.9.0.l.=.W %.! v t y 2 u v ! _ w.[.+X&X&X+X[.'.i.i.u.i.u.u.i.y.4.2.y.i.i.%X&X&X*XfXfXeXkXMXMXxXxXxXjXjXgXgXgXgXgXfXgXfXgXfXeXeX=X=X=X=X=XfXxXMXxXMXMXxXfX2X=X+X[.[.[.[.[.[.[.p.[.&X*X&X[.[.[.i.[.[.`.p.p._._.i.i.u.y.y.y.y.y.y.y.i._.%XaXaX*X%X%X%X%X&X&X&X&X*XaXfXfX*XfXkXfXUXUXmXxXkXxXxXfXfX=X{.{.p.w.w.i.p.p.[.( d U d ) u.'.[.[.*XeXgXkXkXfXxXkXfX&X[.w.4.w.{.JXUXHXxXtXrX0X#XOXOX.X.XOXOXXX.X.X.XQ.Q.Q.Q.Q.Q..X.X.X.XQ.Q.Q.Q.Q.Q.Q.Q.Q.Y.Q.Q.Q.Q.Q.Q.Q.Q.L.G.G.L.Q.!.!.Q.Q.Q.Q.Q..X.XXXOXOXXXOXOX.X.XOXXXXXXXXXXXXX",
"Q.Q.Q.Q.Q.Q.Q.Q.Q.I.I.I.I.I.I.I.I.I.I.Q.!.Q.B.q.N.G.Q.Q.Q.Q.!.Q.Q.!.!.!.!.!.!.!.!.!.!.!.!.!.Q.!.!.!.!.!.!.!.Q.Q.!.!.!.Q.Q.Q.!.Q.Q.Q.Q..XXX@XOX>X0XeXlXJXJXxXbXNXJXvXSX4XE.#.D #.E.v.x.b.*...4.v @ Y w.H.l.l.6.{ =.{ ^ { -.{ } -.-.6.;.e.l.J.F.e.e.l.z.h.e.J.}.J.J.l.J.J.J.z.z.0.f.j.h.f.f.f.j.U.U.T.-X-X>X,XyXyX2X,X-XT.Y.Y.F.z.F.Y.>X-X|.}.}.J.|.|.|.|.J.l.-.z _ [.[.[.[.i.i.[.[.U 9 y.*X[.[.=X*X&Xi.4.%X1X*XfXeX*X{.+X=X|.+X{.{.+X{.H.J.J.z.z.}.|.@X-X|.L.z.z.P.z.z.z.z.J.J.L.Y.Y.Y..X|.|.@X}.XX>XqX1X1X1X}.XXh.7.t.=.2 Z %.c t 2 v ..r.t.r.[.*XeXfXfXeXfXsX*X*X[.[.8._ P d w w U u.[.+X%X%X%X*XeXfXkXxXxXMXMXMXMXNXMXMXNXNXZXMXNXMXNXZXNXMXMXMXjXfXfXjXxXxXjX+X%X+XfXkXfX=X=X&X{.[.[.[.i.i.[.&X%X+X[.u.i.u.i.[.[.&X*X&X&X%X%X%X*X*X&X%X*X*X%X[.i.y.u._.'.[.%X&X%X%X&X*X*X*X*X*X5XfX=XfXeX[.[.[.[.[.p.p.z.{.[.+X{.H.=.U f U U P w f ) d P y.[. X[.{.+X+X*X*X&Xi.p.w.=.5.w.p. X=XJXNXHXZXcXZXbXxXlXrX$X@X.X.XOXOX.X.X.XQ.Q.Q.Q.Q.Q.Q.Q.Q.Q.Q.Q.Q.Q.Q.Q.Q.Q.Y.Q.Q.Q.Q.Q.Q.Q.L.L.G.F.F.L.!.!.Q.Q.Q.Q.Q..X.XOXOXOXXXOX.X.X.X.XXXXXXXXXXXXX",
"Q.Q.Q.Q.Q.Q.Q.Q.I.I.I.I.I.I.I.I.Q.I.I.Q.Q.I.G.N.F.G.G.I.Q.!.Q.Q.Q.!.!.!.Q.Q.!.!.!.!.!.!.!.!.!.!.Q.!.!.!.!.!.Q.!.!.Q.Q.Q.Q.Q.Q.Q.W.I..X@XgXxXMXNXDXNXJXUXUXJXJXKXKXoXc.#.H H H A.(.,.x.A.,.D ..E #   i H.p.p.5.^ =.J.e.-.e.e.l.l.;.;.-.{ -.-.;.7.9.e.e.6.7.e.l.e.e.e.e.l.z.}.Y.h.L.>X-X>XU.U.:X-X-XU.T.>X,X-XU.T.T.P.Y.-X|.|.2X2X-X-X.X}.>X$XXXL.}.}.{.e.6.T q e U i.[.&X%X&X%X[.'.f U [.&X*X&X*X%X[.} U Y T w.p.+X@X+X{.+X@XH.l.l.{.J.l.J.J.J.|.|.>X2X>X-X>XqXqXqX>X>X-X-X|.z.Y.Y.Y.Y.Y.F.Y.>X@XOX>X@X@X$X1X.Xh.S h.@Xw.q g W ~ ~ v D D ! B E 4.w.w.H.{.{.[.&X*X&X+X*X*X=XsX%Xy.f 6 s 4.i.i.p.n.[.[.&X&X+X+X+X{.%X&X+X%X+X*X=X*X=X=X*XfXfXkXkXfXMXMXxXxXxXUXZXMXxX=X[.u.y.[.+X&X*X*X&X%X[.i.i.[.[.[.i.p.i.i.p.[.=XkXMXMXMXLXMXmXfXfXnXsXaXaXaXsXaXaX%X%X[.u.2.&XsXfXMXfXfX*X&XH.u.w.i.i.i.[.%X*XfXxXMXxXMXMXMXxXMXMXMXMXfX=X=X*XsX_ w ( d s ..i.[.[. X X+X+X X[.w.4.w.i.w.K. X{.HXHXJXJXJXHXJXKXJXJXHXNXcXgX0X@X.X.X.X.XQ..X.XY.Q.Q.Q.Q.Q.Y.Q.Q.Q.Q.Q.Q.Q.Y.Y.Q.Q.Q.Q.Q.Q.Q.Q.Q.Q.G.F.G.Q.Q.Q.Q.Q.Q.Q.Q..X.X.X.X.X.X.X.XXX.XXXXXXXXXXXXX",
"Q.Q.Q.Q.!.Q.Q.Q.Q.Q.I.I.I.I.I.I.I.I.Q.Q.Q.Q.I.G.I.I.G.G.Q.Q.Q.Q.Q.!.!.!.Q.!.!.!.!.!.!.!.!.!.Q.Q.Q.Q.Q.Q.Q.Q.Q.Q.Q.Q.Q.!.!.!.Q.Q.I.Q.$XgXNXPXUXUXUXUXUXUXUXJXJXJX5X| F ,.c.| #.E.c.#.#.c.v.! E E 2 # < w.+XH.w.-.` e.z.l.z.e.e.l.D.l.6.-.{ ^ W ^ >.-.;.e.l.z.z.J.D.l.J.@X|.L.}.>X@XT.|.-X-XU.U.P.j.U.-X-XP.U.>XqX,X,XyX>X-X2X>X>XXXY.F.F.z.6.{ T l C T z p 1 e w.5.` u.y.i.i.i.8.( y 4.[.H.p.[.w._ 4.w.Y Y ` 5.l.H.+X|.H.H.H.z.e.e.p.L.}.L..XY.F.Y.@X|.Y.T.-XT.h.j.T.T.|.-X|.T.T.;X>X-XXX;X>X>X>X>X0X1X1X=X$XL.%.S 0X0XH.g Z r.R.oXE.*.D | ! | ~ 4.=.5.p.n.n.n.p.i.w.[.[.[.[.[.*X&Xy.( g f f ( _ ..4.i.[.%X&X&X&X*X&X&X%X[.[.%X*X&X X[.&X+X&X&X[.+X*X*X*X*XxXMXNXMXUXUXxX=Xu.4.4.%X[.[.[.[.[.%X=XfXfX=X*X=XfXMXMXMXNXNXMXmXMXmXnXsX*X*X*XsXsX*X&X%XsXaX%X%X%X%Xu.i.[.[.i.4.y.[.{.&X2XMXMXNXPXPXPXUXUXNXNXJXJXNXMXZXNXMXJXJXJXUXUXUX4.w ) P d ) ..i. X#X=X&X X*X&X[.8.4.p. X+X XgXNXNXHXHXHXHXJXKXKXJXJXHXHXZXbXlXrX$X.X.X.XQ.Q..XQ.Y.Q.Q.Q.Q.Q.Q.Q.Q.Q.Y.Y.Q.Y.Y.Q.Q.Q.Q.Q.Q.Q.Q.Q.G.G.G.Q.Q.Q.Q.Q.Q.Q.Q..X.X.X.X.X.X.X.XXX.XXXXXXXXXXXXX",
"!.!.!.!.Q.Q.Q.Q.I.I.I.I.I.I.Q.Q.I.Q.Q.Q.Q.Q.!.Q.Q.Q.Q.I.Y.Q.Y.Q.Q.Q.!.!.!.!.!.!.!.!.!.!.!.!.Q.Q.Q.Q.Q.Q.Q.Q.Q.!.Q.Q.Q.!.!.Q.Q.Q.Q.!.eXMXUXUXUXUXUXUXIXUXIXUXUXDX,.H ,.,.v.,.| c.x.c.x.#. .D | E 2 y $ i 5.p.w.5.-.{ { W C z j T 9.e.t.e.6.>.-.-.{ ] ^ } 6.e.h.e.J.}.|.J.J.h.h.|.T.z.f.h.h.f.h.g.g.B.P.I.j.P.P.j.P.I.P.z.z.h.f.f.t.;.-.e.e.-.-.=.5.6.5.-.5.` Y V [.[.y.4.=.` E w X f w.5.w.~ V g g T 5.w.z.l.e.6.-.{ T T } 6.l.p.e.t.e.9.9.z.J.e.e.j.h.h.j.F.P.j.P.T.P.f.:.0.F.F.h.I.I.I.Y.T.T.Y.eX.X;.Y V _ t...c t.5X{.t ! oXwXE.3Xv.D #.K.K.=.` =.w.H.{.+X{.H.H.p.H.p.i.p.i.[.+X=XfX=X&X[.H.i.n.[.[.n.p.n.[.[.%X*X*X*X*X*X*X*X5X5X*X*X*X&X%X[.[.[.i.i.i.*XfXxXMXMXMXMXNXPX=Xy.( _ y.i.[.[.*XfXfXeXfXkXPXMXMXNXNXMXMXMXMXMXmXfX*X%X%X&X*XaX*X*X&X%X%XaX*X'.%X&Xu.d 9 4.*XMXUXUXUXUXUXNXMXxXxXMXMXNXNXNXMXgXkXMXMXMXxXxXMXMXxXkXfX_ 7 f d s P ) 4.[.+X&X&X&X5X+X[.n.H.p.i.+XlXNXbXbXZXHXHXJXKXKXJXKXKXJXJXKXKXJXZXlXeX$X.X.X.XQ.Q.Q.Q.Q.Q.Q.Q.Q.Q.Y.Q.Q.Q.Q.Q.Q.Q.Q.Q.Q.Q.Q.Q.Q.L.G.F.G.L.L.L.Q.Q.Q.Q.Q.Q..X.X.X.X.X.X.XXXXX.XXXXXXXXXXX",
"!.!.!.!.Q.Q.Q.Q.I.I.I.I.I.I.I.Q.I.Q.Q.Q.Q.Q.!.Q.Q.!.Q.I.I.I.I.Q.Q.Q.!.!.!.!.!.!.!.!.!.!.!.!.Q.Q.Q.Q.Q.Q.Q.Q.Q.!.Q.Q.Q.Q.Q.Q.Q.Q.Q.$XlXNXUXUXUXUXUXUXLXIXUXUXUXkX| | #.#.| | H v.x.#.x.x.b c | D ; # O X $ q q $ = .   . . . o l -.0.t.0.;.6.e.e.-.-.^ R } 6.{ l p l p 1 ] F.F.J.F.z.<.0.j.Y.Y.I.B.T.!.B.I.XXP.>.&.j.f.0.h.h.h.7.7.9.e.J.L.{.|.}.J.{.}.}.{.l.l.Y _ +X8.w.p.{.=.< . < g V T ^ 5.^ -.7.6.7.e.-.;.] { { ^ ^ 6.z.H.p.t.l.l.t.%.^ %.S >.e.F.P.F.B.F.I.XXP.T.P.P.>X-XP.P.B.P.T.Y.Y.Y.L.{.E f U U v ! ..c B r. Xv *.oXE.E.b.| c | *.| ` W ` 9.H.#X+X+X[. X{.H.i.p.{.[.[.i.p.[.+XfXxXMXMXMXMXMXMXxXfXfXsX*X'.i._.%X&X%X%X*X*X5XsXsXsX5X*X&X[.i.i.y.i.[.%X%X[.[.%X*X*X*X%Xu.4.4.4.4.y._.&X*XfXkXfXxXMXNXNXMXMXMXNXUXUXMXmXsX*X[._.i.i.i._.[._.u.4.y.[.[.%X%X( U [.fXfXfX*XfXkXMXNXNXPXMXfX+X[.{.=XxXMXMXMXMXMXxXfXeX=X*X%X4.w 6 % # % 7 ( 4.i.[.[.[.%Xi.8.4...w. XgXNXHXbXbXZXHXHXHXKXKXJXJXKXKXJXKXUXUXKXJXJXHXlX1XXXXXQ..X.X.XQ.Q.Q.Q.Q.Q.Q.Q.Q.Q.Q.Q.Q.Q.Q.Q.Q.Q.Q.Q.Q.L.G.F.G.G.L.L.Q.Q.Q.Q.Q..X.X.X.X.X.XXXXX.XXX.X.XXXXXXXXX",
"!.!.Q.!.!.Q.Q.Q.Q.Q.Q.Q.I.I.I.I.I.I.Q.Q.Y.Q.Q.I.I.!.!.Q.I.G.I.I.I.Q.!.!.!.!.!.!.Q.!.!.!.Q.Q.Q.Q.Q.Q.Q.Q.Q.Q.Q.Q.I.G.G.F.F.F.G.F.G.0XNXUXUXUXUXUXUXUXIXUXUXUXDX5XD | |  . . .| b.v.#.,.H c ! | E t i y ;   . . . $ ~ z.J.e.{ Q >.6.6.6.-.%.-.6.e.e.e.e.6.0.e.} C e = $ $ S h.z.f.h.h.h.0.h.q.0.I.C.G.I.N.Q.Y.h.0.e.e.e.>.&.>.-.7.%.;.9.;.6.l.l.6.5.=.e.w.5.w.}.6.Y p.p.w.6.^ e e C { 6.l.z.e.7.;.7.-.;.;.-.-.7.6.7.h.h.7.-.e.6.J.@X0XlXOXZ ~ ;./ %.*.h.g.0.0.0.h.j.h.F.h.j.I.P.F.P.P.F.F.F.F.Y.L.` v v U v v ! | | ,. Xr.v r.r.,.v.x.H H  .| ! *.=.=.w.{.=X@X+X*X[.+X+X+X+X+X*X=X*X%Xp.p.p.[.[.[.[.%X*X*X*X*XaXsXaX*X[.y.2.u.[.*X&X&X*X&X&X*X*X*X*X*XaX*X%X[.%X[.'.[.[.i.y.4.4.y.4.2.y.i.u.4.4.4.U 4.4.4.5.[.fXkXMXNXJXJXNXDXUXUXUXMXkXeX%Xi.4._ _ _ ( g ( _ _ 4._ _ ` i.[.[.[.[.[.i.y.i.5.u.i.[.&X&X+X=XeXfXeXfX*X2XfXkXgXkXkXfX'.7 w w 7 , , w v U ) .._ E U 2.n.*XxXxXNXNXNXHXNXHXKXHXHXHXHXHXJXKXUXKXKXUXUXUXJXJXUXJXcX0X@X.X.X.XXX.XQ.Q..XXXQ.Q.Q.Q.Q.Q.Q.Q.Q.Q.Q.Q.Q.Q.Q.Y.Y.G.G.G.Q.Q.Q.Q.Q.Q.Q.Q..X.X.X.X.X.XXX.X.XXX.X.XXXXXXXXX",
"Q.Q.Q.!.!.Q.Q.Q.!.Q.!.Q.Q.Q.I.I.Q.I.Q.Q.Q.Q.Q.I.I.!.OX!.!.Q.G.G.G.I.Q.Q.Q.Q.Q.Q.!.!.!.!.Q.Q.Q.!.!.Q.Q.Q.Q.Q.Q.Q.G.G.G.G.G.G.G.F.G.eXMXUXPXUXIXUXUXUXUXUXUXUXUXMXn.E D D ,.3Xv.D  .H c c ! 8.*.E D ` E g $ @ & $ =.rXZXhX@XJ.l.z.D.t.e.e.e.e.e.h.0.7.e.z.J.z.z.z.e.{ =.-.{ &.} ] ] &.*.O.O.m O.G.I.C.<.] >.*.O.&.*.>.0.>.&.&.-.>.9.t.}.D.w.5.-.{ { w.p.C = i ` 6.-.g ^ =.a p ^ 6.Y.l.0.7.0.f.>.:.&.Q ] ] Q Q ] } -.-.-.;.{ ^ T e.rXlXlXL.~ #X$XR.$Xr.-.>.0.<.&.>.F.g.&.:.0.g.h.F.P.XXY.I.Y.N.0.9.%.E ) v t v 8.n.v.4X#X,.c | ,.,.,.v.b.c.,.b.r.! W ~ %.5.5.-.4.4.=.4.=.=.` { 5.w.p.[.+X*X*X%X[.[.[.[.[.[.[.[.%X*X*X&X&X%Xi.y.4.4.i.'.%X&X*X*X&X%X&X*XsXaX*XaX*X%X%X%X*X&X%X[.'.'._._.i.u.4.2.i.'.[.4.U y.fXMXMXxXMXNXDXJXJXJXJXJXJXUXJXUXUXNXMXkX&Xp.i.*XxXmXkXMXUXUXUXUXUXUXUXUXUXUXMXfX+X=XMXUXUXUXUXJXJXJXNXMXNXMXMXZXMXxXxXfXu.9 f d 7 7 0 7 U ..4.n.[.[.&XmXMXMXMXMXxXxXDXNXNXHXHXHXHXHXJXJXJXJXJXJXJXJXJXJXUXUXUXUXJXbXrX@X.XQ..XXXXXQ.Q.Q.Q.Q.Q.Q.Q.Q.Q.Q.Q.Q.Q.Q.Q.Q.Q.Y.L.G.G.G.G.Q.Q.Q.Q.Q.Q..X.X.X.X.X.XXXXXXX.X.X.X.XXXXXXXXX",
"Q.!.!.Q.Q.Q.Q.Q.Q.Q.Q.Q.Q.Q.Q.I.Q.I.Q.Q.Q.Q.Q.Q.Q.Q.Y.I.!.!.I.B.F.I.Q.Q.Q.Q.!.!.!.Q.Q.Q.Q.!.!.!.Q.Q.Q.Q.Q.Q.Q.Q.!.!.Q.Q.!.!.!.!.OXxXNXUXPXUXIXUXIXUXIXIXIXUXUXIXMX#Xv.v.iXDXkX8.b x 5 ,.oXK.5.E E E t # # o $ i =X2X+X{.}.Y.Y.}.z.l.t.e.z.z.z.J.e.e.l.J.}.L.J.H.l.e.p.H.h.0.>.&.e.h.<.<.>.;.I.!.G.OXC.<.M.OXXX0.q.0.;.9.t.0.Y.0X$X5.t.D.D.D.p.w.5.6.Y @ . i p l ^ l p C T -.6.7.7.>.f.f.f.f.:.:.} R j j A ' &.} &.-.>.6.} R e e -.5XtX;.E #X Xn.wX| u %.Q.G.q.h.&.S ' F.P.F.T.XXF.B.g.N.N.%.W / .._ ) E E ..4.*.D | | D u *.,.v.c.,.v.x.#.b.*.t Y %.w.p.p.p.H.[.{.[.H.l.p.p.p.5.w.5.4.4.5.w.p.z.[.{.%X&X&X%X[.'.%X%X&X*XaX*X[.i.4.2.y.4.u.i.'.[.[.%X%X%X%X&X&X%X*X&X*X*X&X*X*X%X%X[.'.'.i.i.i._.'.*X%X4.4.[.kXMXxXxXxXNXNXJXNXMXMXMXMXMXMXMXMXxXMXJXMXMXMXNXDXMXNXMXNXMXmXMXMXkXgXkXfX2X=X%X*XfXgXkXfXeXfXfXfXeXfXfXfXfXfX=X{.[.( & w 6 7 d d f u.y._ ..u.*XsX5XfXmXMXMXNXJXNXNXNXNXZXHXHXHXJXKXJXJXJXJXJXUXUXUXUXUXUXUXUXUXNXrXXXQ.Q..XXXQ.Q.Q.Q.Q.Q.Q.Q.Q.Q.Q..X.X.X.XQ.Q.Q.Q.L.L.G.G.L.Y.Q.Q.Q.Q.!..X.X.X.X.X.X.XXXXX.X.X.X.XXXXX.XXX",
"!.!.!.!.Q.Q.Q.Q.Q.Q.Q.Q.Q.Q.Y.I.Y.G.I.Q.Q.Y.Q.Q.Q.G.q.q.F.Q.Q.G.F.G.Q.Q.Q.Q.!.XX!.Q.G.G.Q.Q.Q.Q.Q.I.I.I.Q.!.!.!.!.!.!.!.!.!.!.XXOXxXNXUXUXUXIXIXIXUXUXUXUXIXMXmXDXvXvXwXiXkXkX5X8.c *.K.R. Xn.` ..f O   # $ o 9 5.w.l.e.h.e.e.7.0.h.t.7.7.0.6.>.6.z.J.e.6.6.6.-.-.e.;.-.-.-.] &.>.>.>.Q F OX6XoX8X9XC.G.OXiXOX! O.;.;.-.D.0XlXGXwXO.*.%.%.;.w.5.w.} $ o < z C ^ ^ { { { 6.;.} >.0.z.f.f.f.:.} ' A A A ' ] ' ' &.} ] ] Q N p e p e v V v v ..r.4X5X| u r.tXwXtXvX9.1 Z F.F.Y.>X>X!.>XOXq.S u N Z Z E V v V ~ ` Z B u : 5 u B B ,.,.,.x.v.b.,.*.Z ..;.H.@X@X+X=X2XeX1XfXfXeXfXgXgXfXfXfXfXfX*X+X{.p.w.y.u._.[.%X%X[.[.%X%X&X&X&X*X&X[._.y.2.2.2.y.u.u.i._._._._.[.[.%X&X%X%X&X*X*X&X%X[.[._.i._.%X%X%X*X*X+X{.{.+X=X=X*X*XeXgXxXxXNXNXgXeXeXgXNXMXxXkXMXxXZXMXkXMXfXfXkXfXfXfXfX=X=Xz._ U } 1.4.4.y.5.=._ ^ _ ~ Y _ 4._ ~ } y.i.[.U + w 7 % 0 0 y.%Xi.2._ 2.sXnXfXkXMXmXMXMXMXMXNXNXNXNXHXJXHXHXJXJXJXJXJXUXUXUXUXUXUXUXUXUXUXJXNX1XXX.X.XXXQ.Q.XXQ.Q.Q.Q..X.X.X.X.X.X.X.X.XQ.Q.Q.Q.Q.Y.Q.Q.Q.!.!.Q.Q..XXX.X.X.X.X.X.X.XXX.XXX.X.XXXXX.X.X",
"!.!.Q.Q.Q.Q.Q.Q.Q.!.!.Q.Q.Y.Y.Y.Y.Y.Y.Y.Q.Q.Q.Q.Q.Q.Q.Q.Y.G.G.F.F.G.Y.Q.Q.!.!.Y.Y.G.G.G.G.Q.Q.I.Y.Q.Q.!.!.!.!.!.!.!.Q.!.!.!.!..X=XMXIXIXIXIXIXIXUXUXUXUXIXsX%XsX5Xv. . .b.n. XvXiXb v.iXK.n.8.E U d + + X   . .   $ < e p p p e 3 e u 3 3 u 3 3 e e e e p e 3 p z z z C A C A R S R Q Q S ,.R.0XG.+.G.iX9X6X| c D B M F OXvXpX8X4XE.iXwXv.*.t.;.l.w.l e ^ -.{ { ] &.} -.&.&.-.>.&.:.&.A A A A ' ' ' A A ' ' Q ' A C N l p Z q u i E v u B c t D E t E oXvXvXkX XN u ;.!.OXI.v.O.<.C.<.O.,.O.*./ ! B V Z ! W / %.E Y 2 u 5 2 *.v.v.A. .D b.R.K.Z / ;.9.t.z.l.z.z.J.H.|.|.+X1X=X=X1XeXgXgXeX2XfXkXxXxXfX&Xi.4.i.+X&X&X[._.%X&X%X%X[.[.[.'.'._.i.u.u.u.y.2.4.y.i.'.%X%X%X%X%X%X&XaX*X*X*X&X&X'._.i.*X*X*X=XfXfX+X#X=XtXtXrXrX0X=X0XgXgXxXgXeX+XeXxXNXcXcXNXxXxXxXxXxXxXkXkXxXfX2X=XfX5.d 5.eX+XH.+X[.[.p.p.[.[.z.w.w.i.i.%X+X=XkXxXP + w 7 w _ w '.n.2.2.2.y.fXnXmXnXnXmXmXMXMXMXMXMXMXJXJXJXJXNXNXDXJXUXJXUXUXDXUXUXUXUXUXUXUXUXUXNX$X.XOX.XXX.X.X.X.X.X.X.X.X.X.X.X.X.X.X.XQ.Q.Y.Q.Q..X.XXXXXXX.X!..X.XQ.Q.XXXXXX.X.XXXXX.X.X.XXXXXXXXX.X",
"!.!.Q.Q.Q.Q.Q.Q.Q.Q.Q.Q.Q.Y.Y.Y.Q.Q.Q.Q.Q.!.XXXXXXXXXXQ.Y.G.G.G.G.G.I.Y.Y.Y.I.G.F.I.Y.G.F.G.Y.Q.Q.!.!.XXXXXX!.!.!.Q.Q.Q.Q.!.!..X=XMXUXIXIXUXIXIXUXPXUXIXsX*X5X XE | b. X Xb.x.n.iX! ..#X5X Xn.v , , # X X   o q N ` { ] &.] Q Q ] Q ' &.>.0.>.>.e.>.f.h.7.>.0.h.} &.&.} 7.7.&.&.] } ] ' N 3 5 5 4 4 q.4XwXN.t u u u ! <.V.W.4X9XW.4X4X9X4Xq.! %./ e.e.;.6.{ ] &.7.0.} Q ] Q ] ' A A A A A ' ' } A A A A A z A ' Q z C z N l Z t.5XK.B E R.K.v 5 > t | K.#Xn.! t ! $XpXpXSX8X| m $.A.c.v.4XW.R.4Xn.E a V ....~ W v i t u t *.K.K.b.E.E - u W *.Z Z %.9.h.h.e.e.f.z.l.z.J.z.z.l.J.=X=X=X=X@X1X1X@X+X2XfXxXkX*X{.y.[.*X*X%X&X&X&X%X*X%X%X&X&X%X&X*X%X%X%X]._.i.4.1.1.1.1.1.1.1.y.u.u.i.[.'.[.%X&Xi.i.*XfX*X*XeXjXgXgXtX0X>X1XrXtXtX1X1XrXeX=X@X=X*X@X1XgXxXxXxXcXNXxXjXxXjXgXgXeX{.{.~ & ~ i._ ~ =X*X{.%X{.[.p.{.=X=X*X*XfXfXfXMXfX0 # 7 7 ) n.E '.'.u.y.3.y.nXmXmXmXmXmXMXMXMXLXMXMXMXDXNXMXNXDXNXJXUXNXfXkXNXMXMXUXUXUXUXUXUXUXUXDXgX+X+X.X.X.X.X.X.X.X.X.X.X.X.X.X.X.X.X.X.XQ.Y.Y.Q.Q..X.XXXXXXXQ..X.XQ.Q.XXXXXXXXXXXXXXXX.XXXXX.XXXXX.X",
"!.!.Q.Q.Q.Q.Q.Q.Q.Q.Q.Q.Q.Q.Q.Y.I.I.I.Y.Q.Q.!.!.Q.Q.Q.Y.Y.Y.Q.!.I.G.F.F.F.G.G.I.Y.G.F.F.I.!.!.Q.!.!.XXXXXXXX!.!.!.Q.Q.Q.!.!.!..XeXMXIXUXIXUXIXIXIXUXUXMX5XsXsX_ E x.3Xb.b.b.E.8...,.E K. X XH., # # # o X   i p.l.6.] } h.h.0.f.h.0.0.h.g.e.0.h.e.0.h.z.0.0.F.h.] ' h.Y.F.h.g.h.z.z.0.e.9.%.D e 1 4 u m c 1 < c m m | V.W.(.W.(.S.(.V.C.8XI.B *.] &.>.>.g.&.' ] ] ] S Q &.>.' &.Q ' } :.} Q R Q A z z S A z z z z z C j e / t.t.E v v *.n.K.K.D b v.K.E.8.v c r.vXvX8XiX(.#.F <./.9XA.#.V.C.E.oX4Xv.v E ..! Z v q < t v t | R.4X X| 2 u Z u p T ^ -.e.h.h.h.h.h.7.e.l.e.e.e.6.6.7.w.l.H.{.+X=X{.+X+X%X*XeXfXfX+X1.y.i.%X%X[.i.p.i.i._.i.i.i.i.u.i._._.[.%X&X*X*XaX&X%X_.y.1.( U ( 4.u.u.i.y.1.) ) [.kXkXfX*X@Xp.J.J.+X$X@X@X$X@XeX1X=X+X}.+X+XJ.H.{.}.{.}.@X=X=X1XeXfXjXxXgX1X+X[.4.$ w f 9 V &X&X*XfX*X{.&X+X+X*XfXfXeXfXfXmX&X9 % w w u.'.u.[.'.'.n.y.2.sXmXmXmXnXmXmXMXMXMXMXMXMXMXMXMXDXJXJXDXDXMX*XfXxXMXDXUXUXMXUXUXUXUXUXJXNX0X+XXXXXXX.X.X.X.X.X.X.X.XXXXX.X.XQ..X.XQ.Q.Q.Q.Q.Q.Q..X.X.XQ.Q.!.!..XXXXX.XXXXXXXXXXX.XXXXX.X.X.X.X",
"!.!.!.Q.Q.Q.Q.Q.Q.Q.Q.Q.Q.Q.Q.Q.Y.Y.Y.Q.Q.Q.!.XX!.XXOXOXXX!.Q.Q.Y.F.B.B.N.N.F.F.G.G.G.F.G.Q.!.XX!.!.!.!.!.XXXXXXXXXXXXXXXXXXXX.XgXMXIXUXIXIXIXIXIXUXUXDXsXnX5Xv  .b.x. .b.v.v.x.b E E #Xn.[.&Xf + # 0 w @ o ^ H.-.&.-.&.&.&.] Q S S S Q Q Q ] &.e.0.-.h.h.h..XY.t.^ ] 0.e.g.g.g.P.Y.g.&.*.>.%.m a B c 4 4 c t t B m m ! <.W.8X8XS.S.A.(.pX8XF ] >.] &.&.&.' ' ' %.>.&.&.>.] &.&.] ' ] R S R Q j z j p z C A S z z S l j 3 S *.*.D E ,. Xn.r.3X .| 5XE.A.E.D u ,.4XiX4XW.<.J #.A.(.8XS.X.#.<.V.A.R.*.v E v u v u t y 2 t 5 r Z 5.W c u W / W ^ ^ { &.>.>.0.F.L.L.J.z.l.e.6.6.6.e.e.e.l.l.l.+X=X+X{.H.{.%X*X+X%X=X*X[.[.{.+X%X+X*X=X*X*X*X=X*X*X*X[._.i.i.y.y.i.u._.i._.[.%X&X%X%X[.&XsXnXmXmX%X1.( _ 4._ } =.` ` 5.6.e.t.D.}.$X=X=X@X+X}.+X@X@X{.J.{.}.{.}.+X+X}.+X@X@X=XrXfXeXeXfX2X_ % o f [.fXfXkXfXfX=XeXeX=X[.%X[.[.*XMXMX*X7 w P d u.i.'.[.'.n.'.3.2.dXmXnXdXdXnXmXmXmXmXMXMXMXMXMXMXDXDXUXDXMXMXfXmXMXDXIXMXkXsXMXIXUXUXIXUXUXgX$XOXXXXX.X.X.X.X.X.X.XXXXX.X.X.X.XQ.Q.Q.Q..XQ.Q.Q.Q..X.X.XQ.Q.!.!..XXXXXXX.XXXXX.X.X.X.XXXXXXX.X.X",
"!.!.!.!.Q.Q.Q.Q.Q.Q.Q.Q.Q.!.Q.Q.Q.Q.Q.Q.!.!.XXXX;XOXQ.G.G.I.Q.!.Y.G.G.G.G.G.G.G.G.Q.!.Q.I.I.Q.XX!.!.Q.Q.!.XXXXXXXXXXXXXXXXXXXXOXtXMXIXIXIXUXIXIXIXLXUXIX*XsXsX..E  .8.E  .,.| b v v v i. X[.*X_ @ # @ < < o g 9.&.%.*.:.] :.:.' &.&.&.] S Q &.<.%.*.&.>.%.O.<.*.>.O.S S ] ] S Q } &.&.' O.0.t.;.c 4 F | D c M *.R.R.G.| c O.C.!.M.M.W.8X!.+.O.0.0.>.0.0.&.] } >.0.>.*.] Z S Z ] %.Q S N a l Z p e p e p j p j e = 3 e = < u K.4XoXn.| r.E.E.3XD r.E.v.v.V.#.D m v.8X8XA.#.c.m./.(.8X(.A.J J x.A.*.v i f | K.3XE...E n.n.D u 2 : 2 V ` ` ~ { ;.-.-.6.e.7.7.h.f.0.z.J.J.J.z.l.l.e.z.e.p.l.p.H.{.p.[.4._ w.{.%X%X=XfXfXfXfXeX=X1XfXfX2X=XfXfXfXfXxXMXMXMXNXMXxXmXfXfXsXaX*X&X&X&X%X%X'._.i._.%XaXaXu.( 1.1.( _ } 4.w.w.w.e.l.J.{.@X@X.X}.@X1X1X1X$X1X1X1X=X=X=X1XeX1X1XeX1X=X1X+Xl.p.[.{.` _ p.{.n.[.8._ 5.w.5.4.p.[.w.p.[.u.i.y.U + f U 7 2.'.[.[.'.'.'.y.2.dXnXsXdXdXnXmXmXmXmXmXmXMXMXMXMXMXMXMXDXMXMXMXMXUXUXIXfX*X*XsXMXUXUXUXUXUXNX0X.XXXXX.X.X.X.X.X.X.X.X.X.X.X.X.XQ.Q.Q.Q.XXXXQ.Q..XXXXXXX!.!..X!..X.X.XXX.XXX.X.X.X.XXX.XXXXX.X.X",
"!.!.!.!.!.Q.Q.Q.Q.Q.Q.Q.Q.!.!.!.Q.Q.Q.Q.Q.!.!.!.XX!.Q.Q.!.XXXXXXQ.Y.G.Y.Y.Q.Q.!.OXXXQ.Q.Q.!.XXXXXXXXXXXXXXXXXXXXXXXXXXXXXXXXXXOXgXMXIXIXIXIXIXIXIXLXIXMXsX5XsX*X..b b b b E E x b v E v  XkX4.f , 0 # @ & $ . e %.&.%.] F ] <.B.0.>.&.9.9.h.N.0.<.*.<.<.q.G.I.G.F.N.&.Q Q ' Q Q Q S ' Q F / Q m m <.iXiX(.v.D F W.8XpX8Xv.| D <.+.F ! ] F j ] >.O.S S ' } &.&.-.] S C N 9.L.OXq.;.J.9./ W N e u N g a a N l p p p = e u u 5 R.vXiX X .8.b.n.r.t D v.W.,.v.4XiX4XiX8X/.c.$.m./.).).(././.$.#.H c 5 2 a 8.5XvXiXiX3Xv.5X4XR.K.` < t p l C / ^ { ;.-.-.;.7.h.h.-.Q S } -.6.e.J.}.z.e.e.l.J.J.{.l.5._ ~ i i ^ p.[.{.p.z.z.[.[.{.H.H.[.+X+X[.{.*X2X*X+X=XfXxXxXxXMXNXMXMXMXMXMXMXMXmXnXfXaXaXaX'.i._.%X%X_.4._ _ _ =.=.5.w.e.H.H.J.+X+X}.}.@X1X1X=X1X1X2XeXeX1X@X@X$XeXeX1X=X=XeXeX=X{.p.w.w.u.H.p.[.[.y.~ _ 4..._ _ ` ~ 4.4.( U d   % d w 7 ) [.'.'.'.'.].u.2.aXdXdXdXdXmXmXmXmXmXmXMXmXMXMXMXMXMXMXMXMXMXMXnXIXIXIX&X&XsXfXLXIXUXUXUXUXJXgX@XOX.XXX.X.X.X.X.X.X!.!..X.X.X.XQ.Q.Q.Q.!.Q.Q.Q.!.!.XXXXXX.X.XXX.XQ.Q..X.XXXXX.X.X.XXXXXXXXX.X.X",
"!.!.!.!.!.Q.Q.Q.Q.Q.Q.Q.Q.Q.Q.!.!.!.!.!.!.!.!.!.XX!.Q.Q.Q.Q.Q.Q.XXQ.Y.G.G.Y.Q.Q.XXXXQ.Y.Y.Q.XXOXXXXXXXXXXXXXXXXXXXXXXXXXXXXXXX.XeXxXMXIXIXIXIXIXIXIXMXIXDXnXdXmX5Xn.| I b b b b b c t t E i.f @ 9 & d 4.=.{ C a S %.&.%.%.:.:.:.*.>.L.lXzXzXzXpX9XC.X.O.Q.uX9XuXpXqX!.F.h.F.h.g.F.B.I.F.0.;.O.m M.9X8XiX9XSX8Xc.<.W.4X4X8XOX! D B m B B S B S Q &.] ] -.7.>.7.7.%./ -.K.wXlXrXlXD.~ ~ %.N t / t.D.9.;.W N N a p p 1 = < e 1 v.iX3Xb. ...,...v c b | | | 4XSXpXiXiXiXA.#.c./.).(.).).)./.A.c.c.F - : E  XE.E.E.3X3Xb.K.K.oXwX Xt q l p q z R T z C ^ ;.e.7.e.h.e.6.>.{ ^ R R { -.z.z.H.J.H.p.=.T f i = $ N w.p.` f { l.+X+XJ.H.{.+X{.l.w.p.H.l.w.i.p.z.[.{.+X2XkXMXMXMXMXMXMXMXMXmXmXnXnXfXsXfX*X%X%X%X*X&X4.~ Y 4.5.=.` -.p.J.J.H.H.J.@X+X@X+X@X1X1X1X1X=X@X1XeX2XrXeXeXrXrXeXkXfXfXeXfXfXfX=X*XeX[.i.5.4.[.*X=XfXkXMXMXMXxX[.d 7 0 0 d _ [.'.'.i.'.].u._ %XdXnXnXmXmXmXmXmXmXmXmXmXMXMXMXMXMXMXMXDXIXMXfXnXIXMX&XsXMXMXIXIXUXUXIXUXUXMX0XOX.XXX.X.X.X.X.X.X.X.X.X.X.XQ.Q.Q.Q.Q.Q.Q.Q.!.XXXXXX!.XXXXXXXX.XQ.Y.Y..XXXXX.X.XXXXXXX.X.X.X.X",
"!.!.!.!.!.Q.Q.Q.Q.Q.Q.Q.Q.Q.Q.Q.Q.Q.!.!.!.!.!.!.!.!.!.Q.Q.Q.Q.!.Q.Q.Q.Q.Q.Q.!.Q.XX!.!.Q.!.XXXXQ.XXXXXXXXXXXXXXXXXXXXXXXXXXXXXX.X0XxXMXIXMXIXIXLXIXIXIXUXUXDXmXmXmXsX5X].v c b c v t t I f v y @ % 9 f n.+XeX$XY.>XOXY.F.F.g.0.&.] W -.0XvXvXzXpXpXFX<.F C.8X8X9X9X6XG.h.I.;XB.h.T.F.F.Y.h.>.-.D 8X4X8XiX9X9X(.8X(.c.W.8XW.iXq.a N Z Z ] ;.*.>.9.0.;.%.&.0.;.;.%.W *.9.R.0XvXwXwXL.W 8.n.| 5 ,.wXR. XoX%.2 $ = 1 = < q < : $ r.4X,.D  .! b c 5 c v t D n.iXkXiX4X4X(.x.v./.(.(./.).8X8X(.A.c.S.E.D 2 E 8.v.x.E.E.E.b.E.wX8X4XD.2 C ^ { { -.&.{ ^ ] { { { ] { 6.6.6.6.>.6.e.e.-.C C T ` 5.e.e.=.Y q , 9 9 i Y N i ` z.+X+X@X@X}.J.H.J.H.l.l.{.{.{.{.{.{.{.@X@X+X+X*X=XfXkXxXmXMXMXMXLXMXmXmXnXnXnXnXaX%X[.%X*X*Xi.~ Y _ 5.4.=.5.p.{.|.}.}.J.J.}.@X@X@X1XrXhXhXhXgXgXgXgXrXeXeXeX=X=X*XeXfXfXkX5X&Xp.4.[.*X[.[.{.fXMXMXMXMXxXMXfXU + d f w ) [. X[.'.].'.u.) ].dXdXdXnXmXnXnXmXmXmXmXmXMXMXMXMXMXMXMXmXLXMXmXmXIXMXsXLXIXUXMXIXIXIXIXUXUXDXgXOX.XXX.X.X.X.X.X.X.X.X.XQ.Q.Q..X.X.XQ.XX.X.X.XXXXXXX!.XXXXXXXXXXY.L.G.Q..X.X.X.XXXXXXX.XXXXX.X",
"!.!.!.!.Q.Q.Q.Q.Q.Q.Q.Q.Q.Q.Q.Q.!.!.!.!.XXXX!.!.!.XX!.!.Q.Q.Q.Q.Q.Q.Q.Q.Q.!.XXXX!.Q.Q.!.OXOXXXXXXXXXXXXXXXXXXXXXXXXXXXXXXXXXXXOX$XgXDXDXmXmXsXdXmXIXIXIXnX'...) ..8.]. Xc t t b v t c I v v f #   @ , ~ 5.5.p.l.h.h.e.z.z.z.h.F.J.t.-./ <.6X9X9X8X(.A.(.(.A.W.C.N.<.>.g.B.e.>.F.h.0.%.%.W ! B a V.pX8XE.V./.S./.8Xc.<.iX8X8X%.u v 5 5 e Z ..%...9.>.-.%.%.^ / >.! =.` E r.lXoXoX5XE.r.R.n.! | K. Xv. XR.! 2 < = q 1 e q $ O u v t D | b b 0 : : , : v ,.K.iXwXoX4X#.,.V.(.8X/.(.4XE.V.(.(.(.W.W.v.5 t 5 b x.b.E.(.E.3XiXwX,.5 < C C ^ { } &.{ } -.e.7.7.;.T l ^ -.e.9.z.z.t.J.l.w.-.W g e g l Y ` i o $ < & q =.J.w.6.6.6.e.e.t.H.J.J.J.J.{.}.+X}.@X=X}.J.l.l.z.{.{.{.+XfXMXMXxXxXMXMXMXMXxXkXfXfXnXfXaX%X[.[.&X=X{.4.Y ^ 5.w.-.-.z.H.H.J.|.J.l.H.z.z.e.7.7.6.7.e.l.}.@X1XgXgXxXfXfXxXNXkX*Xn.y.4.` i.&X&XH.i.p.n.n.&X{.4.8.sX( % d P w U '.[.'.n.n.'.y.2.aXsXdXdXdXnXnXdXnXmXmXmXmXLXIXLXMXmXmXmXMXLXIXIXIXIXIXIXIXIXIXIXIXIXIXIXIXIXMXxX#XOXOX.X.X.X.X.X.X.X.X.X.X.X.XQ.Q..X.XQ.XXXX.X.XXXXXXXXXXXXXXXXXQ.Y.L.Y.Q.XXXXXX.X.X.XXXXXXX.X",
"!.!.!.!.Q.Q.Q.Q.Q.Q.Q.Q.Q.Q.Q.Q.!.!.!.XXXXXXXX!.XXXXXX!.Q.Q.Q.Q.!.Q.Q.Q.Q.!.!.!.!.Q.Q.Q.!.XXXXXXXXXXXXXXXXXXXXXXXXXXXXXXXXXXXXXX@XgXxX'.y.&XsXdXmXmXIXnX2.d d E d y ) 2.t : b t c v b v v 0 2 9 o < o 9 ` p.l.e.D.J.F.e.9..XXXt.;.*.%.c D G.iX8X(.)./.8X8XS.<.<.>.S S Q &.Q Q 7.%.S C N u t 5 2 D ,.D c.E.(./.S././.J V.(.W.c t ! V < $ < t c u W W c a >.#X{.K.K.r.=.V v v v.5XSXkXv.n.n.b. Xv.b.R.,.n.8.2 O 1 q = q q < # X : > v ..b c I v : X X X : u  XSX5X,.D | M ,.4X8X4Xv.x 4 c.8X8XW.E.r.: 5 b v./.b.b.3XA.3X4XiXwXK.W p j N Z C p j S ^ ^ { 6.e.6.5.7.^ T ^ ` 5.l.J.|.l.}.l.=.g $ @ q N V i < q V ~ =.` z g W 5.e.6.-.-.-.-.5.5.6.e.l.J.e.-.{ -.5.e.l.l.[.+X*XfXfXfXeXfXxXMXUXUXMXMXMXmXmXnXfXaX*X[.[.[.[.{.[.w.Y Y ~ e.p.6.-.} =.} =.6.-.{ W W ^ W ~ R T ^ -.w.l.{.+XeXeX=X[.w.=.` ` u...( 4.4.` 4.4.4.` 4.4.y.[.*Xf % 7 w f ..n.i.n.n.'.n.y.y.sXsXsXdXdXdXnXmXmXmXLXmXLXLXLXmXmXmXmXmXMXLXIXIXIXIXIXLXIXIXIXLXIXLXLXIXIXIXDXNX$XOX.X.X.X.X.X.X.X.X.X.X.X.X.X.X.X.X.XQ.XXXX.XXXXXXXXXXXXXXXXXXXXX.X.X.X.XXXXXXX.X.X.X.X.X.X.X",
"!.!.!.!.!.Q.Q.Q.Y.Y.Q.Q.Q.Q.Q.!.!.!.!.!.XXXXXXXXXXXXXX!.!.!.Q.Q.!.Q.Q.Q.Q.Q.Q.Q.!.XX!.Q.Q.!.XXXXXXXXXXXXXXXXXXXXXXXXXXXXXXXXXXXX@X=X5X4.2.&XsXnXLXIXMXy.P P I E v v 3...t : v 8 8 v v ) v X , o # , $ @ q ~ -./ 5.;.^ W N g e t 1 O   5 K.SXpX8X).A.S.(./.S.H n ! N 1 e W Z W C a < < 1 1 1 2 2 t 2 B 4X4XA.A.S.S./.#.c.W.(.<.| =.Y < < 2 2 : X 2 v a ! 5XxX#XK.3XK.n.E D v 5XwXwX8.K.5XK.E.3X3Xr.B b | D c a a : $ w w & , , 2 : , c , v E I v # : # + : v ..V t 5 | | u v.4X,.5 5 5 c r.4XwX4Xv O b ,.b.b.b.E.3Xb.4X4X4XwXvX9.Z ] ^ Q / S Q } S T ] 6.H.H.l.p.p.w.w.^ g l Y -.l.}.{.+Xp.Y < $ $ f g i f ~ ` Y q q g Y / { { =.;.-.^ T ` p.H.e.W ^ { 6.p.z.J.{.{.+X+X*X*X+X{.[.[.fXMXDXDXUXDXMXMXMXMXmXnXfX*X*X[.[.[.[.[.z.=.g p ^ w.{.H.H.{.+X}.{.{.{.{.{.H.H.H.l.p.w.w.w.p.p.p.5.` ~ _ 4.i.i.p.4.v 4.w.4.y.n.n.[.&X&XfXMXi.% % , 8 f ..u.8.i.n.'.'.4.i.sXsXsXsXdXnXmXmXmXnXmXLXLXmXmXLXmXmXmXMXLXLXIXIXIXIXIXIXIXIXIXLXIXIXIXIXLXMXMXNX=XOXOX.X.X.X.X.X.X.X.X.X.X.X.X.X.X.X.X.XXXXXXXXXXXXXXXXXXXXXXXXXXXXXXXXXXXXXXX.X.X.XXXXXXX.X.X",
"Q.!.!.!.!.!.Q.Q.Y.Q.Q.Q.Q.Q.!.!.!.!.XXXXXXXX!.!.XXXXXXXX!.!.!.!.Q.Q.Q.Q.Q.!.!.!.XXOXXXQ.Y.Q.XXXXXXXXXXXXXXXXXXXXXXXXXXXXXXXXXXXX.X$X5Xu.'.'.dXdXmXmX%Xf ( ) v , d ) '..._ u.n.8.I b t c , f 4.f @ , 9 , o . $ o . $ O o . O O     1 2 c oX8X4XA.(.M c./.m.S.$.4 ! N O = < O = 2 < q 1 u c B | r.v : t E.4Xc.c.A./.).(.(.A.E.(.! 0 0 0 7 # # # 2 i 0 f K.5X5X#XK.5Xn.8.E U v 5XkXn...5X5Xv.n.oXE.b.c ,.K.,.! r.! V q o & $ # < 0 v 0 X O t v E ) v X + + #   X   2 - 2 c - 2 t 2 ; t v 2 2 ..R.,.; : ..R.b.v.E.3Xv.D v.oX4X0X4Xt.^ 9.9.9.9.6.0.0.6.6.^ e a U 5.[.{.H.l.{.{.w.T e = i T 4.w.=.w   9 y i i i i i < q U ` ~ Z Y W { ~ =.w.H.H.w.` C =.5.w.6.5.6.e.p.{.H.l.l.p.p.p.p.[.+X=XxXDXIXDXMXMXNXMXMXMXMXfX=X*X&X%X%X[.{.{.z._ e @ q i g V V Y Y V g g U Y ~ ` 4.5.w.p.l.{.{.{.[.H.H.H.p.[.[.p.i.U 4.n.n.&X&X*XfXsXsX*Xi.d w s , 7 , E i.i.n.n.'.n.u.%XsXdXdXsXsXsXdXdXmXmXmXmXmXLXmXmXmXmXmXmXmXLXLXIXIXLXMXLXLXLXIXIXIXIXIXLXIXIXMXMX0XOX.X.X.X.X.X.X.X.X.X.X.X.X.X.X.X.X.XXXXXXXXXXXXXXXXXXXXXXXXXXXXXXXXX.X.XXX.X.X.X.XXXXXXX.X.X",
"Q.!.!.!.!.!.!.!.Q.Q.Q.Q.Q.Q.Q.Q.!.!.XXXXXXXX!.!.XX!.!.!.XXXX!.!.!.!.XX!.!.XXXXXXXXOXOXQ.Q.!.XXXXXXXXXXXXXXXXXXXXXXXXXXXXXXXXXXXXOX$X=Xn.'.%X&XdXLXIXsX) v v ) U v d v v 8. X X X].n.E t E 4.Y 9 , & # , , @ , & $ O     : # : u D v.D 5 b.(.W.A.#.4 K ).8X8Xc.4 u t   o $ $ $ o < $ o v r.R.v...t : : c ,.E.W.4X(.$.| 4XA.E.W.u , 7 0 % % % , 7 7 f ) 5X5X5Xn.n.5XK.) v 2 t 8.u.E 3X3X3Xn.E E.K.*.5 *.E.K...8.*.8..., o & X X # X 0 - : : 0 0 d c   X # X # , # # X O X , : # 2 f a v v a t t ; O # v ..,.v.v. .t X 5 | R.0XtXJ.W &.e.t.e.e.e.l.J.l.T . . . & i ^ p.l.{.+X+X1X{.w.g @ @ @ o   # & $ & , < & < # & V ` ~ Y ~ ;.t.H.p.p.p.w.5.e.{.}.=XeX=X@X@X+X+Xl.p.p.p.p.p.p.n.w.n.+XkXMXMXMXxXkXxXmXxXMXMXMXMXkXkXfX=X%X=XfXfXxX*X_ 9 @ $ o & & & & @ & = & @ $ < q i g U ~ ~ =._ _ 4.4.4.4.y.8.` U y.i.8.i.p.i.i.8.2.f , # w 0 # 0 0 U i.i.i.n.n.n.n.[.sXdXnXdXsXsXdXnXdXdXnXmXmXnXmXmXmXmXmXmXmXmXmXLXLXnXaXnXmXLXLXLXIXLXLXmXmXmXMXNXeXOXOX.X.X.X.X.X.X.X.X.X.X.X.X.X.X.XXXXXXXXXXXXXXXXXXXXXXXXXXXXXXX.XXX.X.X.X.X.X.X.X.X.X.X.X.X",
"Q.!.!.!.!.XX!.!.!.!.!.Q.Q.Q.Q.Q.!.XXXXXXXXXXXX!.XX!.!.XXXXXXXXXXXXXXXXXX!.XXXXXXXXOXXXQ.Q.!.XXXXXXXXXXXXXXXXXXXXXXXXXXXXXXXXXXXXXXXX+X X%X&X&XdXLXIXIXIX5X4._ ) ..) v : t v ..n.].n...I P v < & 9 # X @ # # 9 0 y   : 2 : 2 | v.W.*.5 5 D V.v.n 4 - 4 x.iX8XF O : $ X < w # o X o $ $ : 2 c E u : E E - t B | <.F > O ,.E.W.v.: # , 7 7 7 % 7 7 # 0 U u.fXxXi...8.) c E t , t t v 3X X Xv.2 | r.v 2 E K.K.n.8. XK.4.w & 9 # $ $ : 0 # : , : X 0 O 0 v v d 0 2 0 : : : # + 0 v v V V v V V a y t : : # ; t t 2 X O 2 t 2 2 ! K.=Xv N W W T W ^ ` ~ Y e @ = & @ .   9 Y 5.p.p.[.=X=XY o & = @ o @ X o o o X o $ o o $ $ < 2 t i i w w 9 9 q g Y ~ ` =.w.p.H.{.{.{.+X+X{.{.{.{.[.{.*X=X5X=X*X[.4.U 0 U 8.*XxXMXMXmXmXxXMXMXxXxXxXfX*X%Xp.~ < $ < & & 9 9 9 9 9 9 & = & $ $ $ @ $ & & < 9 y w w w d f f P ( ` _ ...._ ( _ 2.) # , U 7 # 7 0 y 8.r.w.n.n.n.i.4.y.u.'.].%X&X&XsXdXnXdXdXnXmXmXmXnXnXmXmXmXmXmXmXmXnXsXmXLXmXmXnXLXLXmXnXsXsXMXNXeX+XOX.X.X.XOX.X.X.X.X.X.X.X.XOX.X.XXXXX.X.XXXXXXXXXXXXXXXXXXXXXXXXX.XXXXXXXXX.X.X.X.X.X.X.X.X",
"!.!.!.!.!.!.!.!.!.!.Q.Q.Q.Q.Q.Q.!.XXXXXXXXXXXXXXXXXXXXXXXXXXXXXX!.XXXXXX!.!.!.!.XXXX!.Q.Q.!.XXXXXXXXXXXXXXXXXXXXXXXXXXXXXXXXXXXXQ..X#XeXn.&X].sXmXLXmXIXDXDXMXkX5X X..v t , : v ..E v 8 y d d ( 4.v # X & # X y v f v 5 5 ,.E.r.D c 5 c 5 D x > c H M F D c - 2 # , d y y f # $ # # $ O < ..R.n.D E E.| 5 O X - O 2 : : v E t : : # + , 7 % 7 w + 0 y , E ..| 4.8.E c t 0 t t 2 , ..{.8.v : : > 2 t - v D E b D v 2 # w < o E ~ , : E  X X8.E - b E.5X5X4X*.2 , , ; , 0 0 0 f U U E Y Y Y U V f i v y , 2 ; ; 2 2 i f v 2 O y v $ o $ o . $ @ o = $ = & < < 9 9 w & o & g ` w.i.z & @ U _ U d w w 9 < # o $ $ $ $ o X o o   o X X o # $ $ $ $ $ $ $ $ $ $ < q q w e i i g V Y ~ _ ~ ( U f 9 @ X X X # w U ` i.[.%X&X%X[.[.i.5.~ g U g 9   @ #   . @ @ @ @ . @ @   . o o X .   . . .       . . @ + @ d ( 4.` ..8.4.8.i.n...# 0 v 7 % 7 7 y 4.8.8.8.i.n.i.u.u.y.u.3.y.y.u.'.sXnXdXsXdXdXnXdXdXdXdXnXmXmXnXnXnXmXLXmXLXmXdXdXmXmXmXLXmXnXDXNX5X+XOXOXOXOXXXXXXXOXOX.X.X.XOXOX.X.XXXXX.X.XXXXXXXXXXXOXXXXXXXXXXXXXXXXXXXXXXX.X.X.X.XXX.X.X.X",
"XX.X.X.X!.!.Q.Q.Q.Q.Q.Q.Q.Q.Q.!..XXXXXXXXXXXXXXXXXXXXXXXOXOXXXXXXXXXXXXX!.!.XXXXXXXXQ.Q.Q.!.XXXXXXXXXXXXXXXXXXXXXXXXXXXXXXXXXXXXXXOX XeXn.*X&X].&XnXIXIXDXmX5Xn.2.3.8. X Xn.v E 5X#X Xv y v , U ..v E E t : v &XkXwXwXK.D | D D x M  .| | | x H #.#.A.W.D - - : O y U U v U , # $ , , : y K.3X Xb.D 8.r.v O O O ; : : X X , X 2 , #   # % , , 0 0 : : 0 X v 3XiX X XE.b : 0 0 , y , 0 d X # : : 2 : 2 O - X X   X # # 0 : # w..., _ 5XfX5X5X3Xc ..iX X X3X5Xv 0 : , w y f f d U U Y ~ _ ..~ Y v v U v f v a g v f i Y ~ Z t < < q q q q q i q q w i f i y w w w i f s = @ @ 9 w & & % = f _ _ _ ~ Y V d w i w w 0 , # $ # o $ , $ $ $ $ , < 9 < < < < & $ $ @ @ @ $ @ @ @ @ $ @ @ @ @ @ . . @ @ # @ @ X     + % 6 9 9 & # @ @ .   .   + % , % 7 9 9 % % % % & & & & , $ & 0 9 9 w 9 < , 9 & @ @     + w ( ` _ 4.4.8.4...d   , 7 : # 0 , 0 v 4.i.w.n.n.i.n.'.n.[.'.'.i.u.u.u.'.aXsXdXmXmXdXdXnXmXdXdXdXdXdXnXmXLXLXLXmXmXmXmXmXmXLXmXmXMXkX=X#XOXOXXXOXOXXXXXOXOXOX.X.XXXXXXX.XXXXXXX.XXXOXOXOXOXOXOXXXXXXXXXXXXXXXXX.X.X.X.X.X.X.X.X.X.X",
"XX.X.X.X!.!.!.!.Q.Q.Q.Q.Y.Y.Q..XXXXXXXXXXXXXXXXXXXXXXXXXXXXXOXXXXXXXXXXXXXXXXXXXOXXX!.Q.Q.!.XXXXXXXXXXXXXXXXXXXXXXXXXXXXXXXXXXXXXXOX$XeX2.&XsXaX&X%XaXsX&Xn.8.u. X#XfXkX&Xu.v .. X Xn.t y # , t E 3XvXkX| : r.gX3X3XiX5Xb.c c r.A.b.,.| D x x #.#.H x.c.E.u O # ; 0 f i f v , X O < , ; < 4.n. XwX8.n.n...: : # # : : , ; : : , ; X   # # @ + # , 9 8. XE b  XE.b.3X X| > t , , , , # : : , 0 0 , #   : X O t 0 : O O # 0 0 f 0 d 5XwX3X X3Xn.| c b.E.3X3X8.t > : 0 y y y i f V _ ..=.` _ Y V g V v g V V v v V g i E =.` / / E ~ W E N Y V Y N f f f w 9 & & & & = w q 9 & % & & @ @ @ # 9 w f U ( ~ Y V f f f i 9 < 0 9 , 0 0 w q w 9 < w 0 w w d w w 9 w 9 9 9 & 9 9 9 q 9 w < 9 9 , , & 9 & & % % & % @ + +   +   X . @ @ & & 9 , 9 w 9 d ( ( ( U v U U U U f U U V U Y Y U v U V v f d i f w @ X   # w v ( _ _ U f #   % 7 , , 0 d d t _ n.i.i.p.i.n.i.[.[.[.[.[.[.'.'.u.u.i.&XsXsXnXnXdXdXdXsXsXdXdXnXmXmXLXmXmXmXmXmXLXmXnXdXnXsXfX#X#XOXXXOXOXOXOXOXXX.X.X.X.X.XQ.Q..XQ.XXOXOXXX.XXXOXXXXXXXXXXXXXXXXXXXXXXXXXXX.X.X.XXX.X.X.X.X",
"XX.X.X.X.X.X!.!.Q.Q.Q.Q.Q.Q..XXXXXXXXXXXXXXXXXXXXXXXXXXXXXXXOXOXXXXXXXXXXXXXXXXXXXXX!.Q.Q.XXXXXXXXXXXXXXXXXXXXXXXXXXXXXXXXXXXXXXOXOX5XeX[.i.aX].&XsXaX&Xu.u.u. X5X5X5X X) t t ) n.v.E v , : d ,  XiX5X5X3Xx ,.3XK.n.E.3X3Xb v.iX3X4Xb.c x c n H c.c./.A.V.B : t y t t y 2 # O ; : : $ $   ..&XK.n.| v.5Xn.: : X + # # : , + X # # # o   #   + @ , 8.5XiX4XE b.iXE.b.n. .X 0 d 0 , & # , 0 , # # X   X   X X O 0 t t 2 : # , , # v n...v b x.b.D X 5 b | | v t t t 0 y v V V Y ~ ` _ ~ ~ ~ ~ T Y V V N V V Y U V g a ~ w.w.9.;.%.5.;.=.` ` ~ ~ Y v g V V N g i q 9 9 q 9 & & & 9 i i d i f g f f v V U V V v v g f i w i y w d d i f f i w i i i f f i i i d w w w w w w q q 9 w w w w 0 w 9 9 9 w 7 @ @ % @ +   7 7 @ & 9 w w w w w 0 0 , # d _ ( ( U v U U U P v v v v v g V U U U U E U U f U v 0 # X X   + 7 , & 0 X + # # , 0 # 0 d t f v ) 8.n.H. X{.[.[.+X&X&X*X*X&X&X%X'.'.u.y.u.'.%XaXdXdXdXdXdXdXdXdXdXmXnXdXnXmXmXmXmXmXaX&X[.+X=XoXOXOXOXOXOXOXOXOX.X.X.XXXXX.X.XXXOXXXXXXXXXXX.X.XXXXXXXXXXX.X.XXXXX.XXXXXXX.X.X.X.X.X.X.X.X",
"XXXXXXXX.X.X.X.X.X.XQ.Q.Q..XXXXXXXXXXXXXXXXXXXXXXXXXXXXXXXXXXXXXXXXXXXXXXXXXXXXXXXXXXX!.XXXXXXXXXXXXXXXXXXXXXXXXXXXXXXXXXXXXXXXXOX$XtXDXDX%X[.sXsXsX].'.E I ) ) ) ..| c 8 v n.3Xv.) v ..v : v v fX5X Xb.b.D D  .K.v.b.E.3XD v.iXE.c.n H #.#.S.#.#.#.A.v.D 2 2 y : , ; # t Y V 2 : O v ..E Z g U 2 O _ #X8.O X 2 f f ; ; : v ....f O # X X   @ 7 i.kX5X3Xn. . .b.b.E.3Xr., 0 y 0 w y # % # #     : E r.K.v.*.u X : : 2 0 t y ; X O : X - ..b.b. .b x t c D | D D f f f v E ~ E / Y Y T ~ / ` ~ W V Y Y V N V V N g g / w.t.9.;.-.;.-.%./ W Z V N Y V Y Y V z N p g p i e 9 = = q Y T ~ ~ ~ Y Y U Y Y U V Y Y Z V g i q q w i i w w i w w q q q q i f f i q w w 9 d w 9 w w d 9 9 w 9 9 9 w 9 9 & & & % @ @ @ @ @ d w 7 & 9 0 9 9 9 7 & & 0 f U U P v v f f v P f f f d d w 9 w f f E ~ E f f v Y U U 9 X % & @ # , , 0 y y f d 8 : v u.4.7 8 t t U =. X[.[. X X X+X5X5X*X*X5XsXsXsX*X'.i._.i.u.i._.'.%X&XaXdXdXnXdXdXnXmXdXdXdXnXaX&X*X[.5X#XOX.XOXXX.X.X.X.XXXXXY.G.F.Y.Y.Y.Y.Y.G.G.Y..XXX.X.X.XXXXX.X.X.X.X.XXX.XXXXXXXXXXX.X.X.X.X.X.X",
"XXXXXXXX.X.X.X.X.XXX.XQ.Q.XXXXXXXXXXXXXXXXXXXXXXXXXXXXXXXXOXOXXXOXXXXXXXXXXXXXXXXXXXXXXXXXXXXXXXXXXXXXXXXXXXXXXXXXXXXXXXXXXXXXXXOXeXbXJXkXkX[.i.&X%Xu.i...v t t t b b c E 8.b.b. X .b n.r.t - t n.3X3Xb.x.,.x.,. .D v.b.,.x | E.E.M n c.c.#.A.A.#.4 4 u - u u , ; i : ! #XvXtX..O D iXlXiXv.; O : : , y : f r.#X5X4Xv O E iXlXiXK.v X X X , % , i.+XK.*.b.3XE. .| x.v.E : , 8 7 f d 7 _ n.8.0   *.wX5XwX4X#X4XD O 2 5 2 2 q w , ; > : E E.b.b.x.| | D b | 8.,.,.v v V Z Y W W Y Y W ^ ` ` ^ W Y Z Y Y V V Y T Z W W ` -.;.-.%.;.-.-.%.{ ~ W Y Y Y V V g g i g g g i e e q < < q V ~ ` =.` ~ ^ ~ %.` ~ ~ W W W W Y N i q i i i e i g i i e p i i < e g p p i i w q w w w w i 9 w w w 9 < w w 0 9 7 7 % @ % % @ @ , 0 7 , 9 9 9 9 @ 7 d v U U U f f d d d d f U U v v v f y w w y i v U v w d U _ ....y   7 y y y v : d v v ) ) d , 4.[.n.t U n.n._ v E i.n.w.n. X*X&X*XsXfXfXsXfXfXfXsX&X%XaXsX&X'.].'._.i._.].&X&XdXsXsXdXmXdXdXsX*X&X&X=X+XOXXX.XXXQ..X.X.XXXXXD.t.0.h.D.D.h.q.t.h.J.Q.XXXX.X.XXXXXXX.X.X.X.X.X.XXXXXXXXXXXXX.X.X.X.X.X",
"XXXXXXXX!.!..X.X.XXX.XQ.Q..XXXXXXXXXXXXXXXXXXXXXXXXXXXXXXXXXXXXXXXXXXXXXXXXXXXXXXXXXXXXXXXXXXXXXXXXXXXXXXXXXXXXXXXXXXXXXXXXXXXXXOXlXHXbXkXMXkX[.2.2.2.'.[...) ) v v v E b.b.8.8.n.8.t  X Xv O t  X3XiX3XE.x.b.E. .c x.x.b 5 5 ,.H M A.A.c.c.A./.E.4 - 2 : a i < : q u oXtX0XlX0Xu O.iXiX5X#Xu O , , , , V 5XkXkX5X3X| X | wX4X5XkXn.; + + # , X # t : ,. X3X3Xb.v.,. .b 2 t t : : 7 8.fXkX5XK.c u R.3XK. XR.iX| ; - ; 2 : # < f f : t n. Xb. .b  .,.,.| b !  .| u Y W ^ =.%.` =.-.;.-.=.=.%.%.=.;.;.=.%.=.;.5.;.;.;.;.-.;.%.T Z / %./ { ^ / ~ W %.` ~ W ^ W T T ^ T T T T Y Y W Y T T W W Y Y Y T T Y Y C N C T W W V g p i g C Y W C Z C T T Y N l Y T ~ V z g i i i i f i w q w w w , 9 0 w 9 w w 7 @ @ # @ X % w w 0 9 % & , y v U U f d w w w 9 9 9 w f U ( U U U U v v f i i f f y y v ~ _ ..( y   9 v E E 0 : c I t v ) d t n.n.n.U U n. X{.K...V v n.[.[.[.+X5X5XfXsXsXsXnX*X%X&X[.4.y.%X*XsX*X[.i.u.i.'.%X&XaXnXsXsXsXsX*X'.[.=X#XOX.X.X.XXX.XXXXX.XY.Y.D.N.D.h.h.N.N.h.t.h.F.G.Y..X.XQ.XXXXXXXX.X.X.X.X.X.X.XXXXXXXXXXX.X.X.X.X",
"XXXXXXXX!.!..X.X.XXX.XQ.Q.Q.XXXXXXXXXXXXXXXXXXXXXXXXXXXXXXXXXXXXXXXXXXXXXXXXXXXXXXXXXXXXXXXXXXXXXXXXXXXXXXXXXXXXXXXXXXXXXXXXXXXX$XbXbXlXNXgXkXfX&X'.'.[. X8.4.8. .E c v E.E.E.n.n.E 5 K.wX! ; v 5X3X3X3X(.x. .x.x.x.b b 5 - D | x x b.A.A.A.E.E.b.c 2 5 2 , 2 2 u 2 D oX0X0XwXvXv.r.OXiXvXiXv 2 y y f f U *.K.5X5X4XE.,.K.4X4X5X X8.t 2 : # 7 # , X E 3X3Xb.E.3XE.3X3Xn.b - X : : > 8.iX3X XwXE.> b b.E.E.,.! > X O : : < 9 , , : u b r.b. .5 > ,.x.v.b.,. .E c v W *.5.5.9.w.9.6.6.5.5.5.=.{ ` %.%.` / ~ W ^ / W ~ W T ~ ^ W W { %.{ { / { / ~ ~ ` ` ` =.{ ^ ` { ` { { { { / ` ^ ~ T T Y Z Y Y N C Z Z N g N Z C Z N g p i l Y Y W Y T T / / ^ W T ^ { ` ^ ~ ~ Y V i f Y ~ U g i f f 9 9 w d y d f d 9 & & & @ @ 0 w , & & y P ) U d , , 0 9 9 w 9 w y d v U ( _ E E ~ E Y U v V V v f V _ =.` =._ ( , , E E d t c v ) E  .8.v 8 ) u.].E v 8.].n.K.n...i 4.*X*X*X=X*X[.&X5XsX%Xi.4._ ..2.u.u.4.4.4.y.y.y.y.4.2.1.y.y.4.u.'.%X%X*X5X5X#XOX.XXXXXQ..XQ.Q.Y.F.J.h.h.D.F.h.h.h.N.h.h.h.h.h.N.G.Y.Q.Q.Q.XX.X.X.X.X.XXX.X.X.XXXXXXX.X.X.X.X.X",
"XXXX.XXX!.!.!..XQ.XXXXQ.Y.Q.XXXXXXXXXXXXXXXXXXXXXXXXXXXXXXXXXXXXXXXXXXXXXXXXXXXXXXXXXXXXXXXXXXXXXXXXXXXXXXXXXXXXXXXXXXXXOXXXXXXX6XzXcXlXxXxXMX5XkXkX5X%X&Xi.E ....I b E  X3X3XE.3XE : | r.: : 5 b.3XE.3XE.x.x.#.x.E.| > x x ..| c - b v.E.E.E.4Xr.5 t , : : o 2 1 c B <.wXvXpXiXwXiXiXwXwX#Xv 0 f f P y 2 X ; D 3XwX3XiXiX8X8XiXn.t : 0 0 y y 7 % # _ #X8.E E.E.v.b.3XE.v.5 > c c t b D D #.b.v.,.2 > c 5 2 - > 5 O O # < 0 0 , ; 2 c t - X - 5 ,.b.b.v.b.v. .t a W / ~ ~ / ~ W Z N a t q q q q < = $ = < $ $ $ o $ $ $ < < < q 2 2 2 2 1 1 < $ < q i e i e e i i e p g g p i i i i p p a a p g l N N N g a g N N V N g g g N C Z Y Y Y W / ^ ^ W ` { { ^ ` ` ^ Y v i i V E Y U Y Y U y w i U U U v f d w y 0 X % w w , w f U _ U w & , 9 0 0 y w 9 w d f f f U _ ~ ) _ ( E Y V U v f Y _ ....4.4.` 4.0 7 2.I 8 v I ) E E ) E v 8 : b v t ..n.[. Xn.n. Xu.f 4.&X X X+X Xi.y.2._ _ 4.i.'.sXIXIXmXfX5XfXkXxXMXMXfX'.4.2.i.%X[.'.i.w.eX+XoXY.Q.Y.Y.Y.Y.G.G.F.N.N.h.B.B.F.B.h.B.F.B.h.h.q.0.q.h.F.F.G.Y.Q.Q.Q..X.X.X.X.X.X.XXX.X.X.X.X.XQ.Q.",
"XXXXXXXX!.!.!.!.Q.XXXXQ.Y.Q.XXOXXXXXXXXXXXXXXXXXXXXXXXXXXXXXXXXXXXXXXXXXOXOXXXXXXXXXXXXXXXXXXXXXXXXXXXXXXXXXXXXXXXXXXXXXOXXXXXXX0XzXlXbXbXeXgXgXfXfX5X%X X X) ..E E ) E 8.3X5X5XE.v 2 : : X X : v.iX3Xb.b.x.c.x.b.b.b.x > D | E t - - D A.E.3X4XE O : : : : ; $ 2 5 - m 8XiX4XiX0XwXiXvX Xv y i f f 7 # + : | 5XiX4X4X8X4XiXiXiX5Xc O : t y y , % # 0 d - - x.iXE.b.3XE.3XD b D c b x 5 | c.b.c.A.| 5 5 5 x | #.v.D X X   # , , 0 ; ; 0 -   : 2 c  .b.8.8.b.b.5 : < 1 1 < < < $ $ $ o o o o o o o o $ $ $ o o $ $ $ $ o $ $ $ < < < < < < < $ $ $ $ $ o o o @ o o o o o o o . . o o o o o O o $ o o o @ $ $ $ $ $ < < $ $ $ < < < 2 q < q i i i i p g z i g p i w w < 9 9 w y w w i i 9 , 9 w d y y d w 0 w w @ # 0 w w U _ _ U w , w d w w w w d w w d d f d U ~ _ ` ` ~ ~ ~ Y U U E ..=.4.4.w.5._ _ 0 0 ..0 c t v I E I E E I 8 : t + d  X[. X#X X#XK. X.., v _ 4.4...E 8.%X*XmXxXkXkXkXkXMXMXMXMXNXDXMXxXNXMXMXMXMXMXMXmXmXfXeX#X.XL.L.F.G.F.G.G.G.G.F.N.B.B.F.N.N.F.B.B.F.F.F.N.h.h.q.e.0.q.F.G.Y.Y.Q..XXX.X.X.X.X.XXX.X.X.X.X.XQ.Q.",
"XXXX.XXXXX.X!.Q.Q..XQ.Q.Y.Q.XXXXXXXXXXXXXXXXXXXXXXXXXXXXXXXXXXXXXXXXXXXXXXXXXXXXXXXXXXXXXXXXXXXXXXXXXXXXXXXXXXXXXXXXXXXXXXXXXXXX0XZXZXcXlXgXtXgXfX5X*X%Xn.[.i.U E ) E v b b. X XD : v 2 t - X O ..3X3X3Xb.H v.b.b.v.b.D > b c D v b t t c v.3Xv.u t D D t : X u D u 4 *.iX8XiXvXoX5X5XlXkXE 0 f y % + # : | wXiXiX8X8X4X4X4X4XiXkX..X ; , ; # # 0 y # O : X 5 D ,.b.E.n.| D v.,.b 5 5 ,.b.c.b.c.,.#.#.H ,.b.b.x.,.*.5 O : # X # + ; X O 0 2 X O - ; E b.v.n.,.- O $ $ $ < $ < < < $ $ $ o o . o . o @ @ o o o o @ $ @ @ o & @ @ $ $ $ $ $ $ @ @ $ $ $ @ $ @ o @ @ o @ @ $ $ @ @ $ $ $ $ @ @ @ @ @ @ @ $ @ @ $ @ o $ $ @ $ $ $ $ & $ $ $ $ $ $ $ @ $ $ @ o @ $ @ @ @ @ @ @ @ X @ @ # @ @ @ @ .   . X @ X @   + @ # 9 9 d _ ) 2.4.U 0 w y y y 9 7 f d f U U v U v v E ` ..` ` ` ` ..4.4.4.4.4.5.4.` ( f U E y d ) t t I E v E I t : 7 7 7 d 2.n.n. X X X X[.i.t E =.w.i.y 4.5XfX5X5XfXkXfXfXxXkXxXxXNXNXNXNXNXNXNXMXNXNXNXDXJXMXfX+XOX.XY.G.I.Y.G.Y.Y.Y.G.F.F.F.B.F.F.N.N.N.F.F.F.F.F.N.N.h.q.q.h.h.N.L..XY.Q..X.X.X.X.X.X.X.X.X.X.X.X.X.X",
"XXXX.XXXXX!.!.Q..X!.Q.Y.Q.!.XXXXXXXXXXXXXXXXXXXXXXXXXXXXXXXXXXXXXXXXXXXXXXXX.XQ.!.XXXXXXXXXXXXXXXXXXXXXXXXXXXXXXXXXXXXXXXXXXXXXX1XbXbXcXxXlXtXtXfX=X*X&X[.%X'.v d I ) E E v c E E v 2 v .., : X ! 5X3X8.c > D ,.v.x...D b | | E v t c t > 5 v.| : c ..v.*.c 4 | C.C.u D 8X8XiXoXD R.wX5XkX..# , + + X ; : 8.iXoX3XwXA.D 4X4X4XiXwX..O # 0 y , X , 0 ; X O t ....t > t : X v n.,. .| | E.A.x.c.x.H K x.#.x.x.x.x.,.v.u X X X X X   X     # , t # O : : v ..n.E ; : @ $ o   X o . o . . o     X .     . .       . .   . .     . X . . .   . .   . . . .   . . . o . X @ @ @ o @ @ o o @ @ o . . . . @ @ @ . . o o @ o . @ @ . . o @ o X o o @ o @ X @ @ @ o @ @ o @ @ @ @ @ % & & & % & & % @ % % % & & # @ @ @ @ # w 0 U ..U U 4.i._ y y f f w w y f P U P U _ ) ~ ` ..=.=.4.w.p.H.n.[.n.p.w.n.w.5._ _ i..., t v 8 t v I I I t # t P ) 2.) I ) E ) n.n. X Xn.E n.5X+X..~ p. X&X X+X5X5X=X5XtXxXxXxXbXbXbXcXxXxXxXxXxXNXNXNXNXMXgX=X@X.XY.Y.Y.Y.F.Y.Y.Y.G.N.N.B.F.B.B.N.h.N.B.F.F.F.F.F.F.N.h.h.h.h.h.J.Y..X.X.X.X.X.X.X.X.X.X.X.X.X.X.X.X",
"XXXXXXXXXX.X.X.XXXQ.Q.Y.Q.XXXXXXXXXXXXXXXXXXXXXXXXXXXXXXXXXXXXXXXXXXXXOXXXXXQ.Q.Q..XXXXXXXXXXXXXXXXXXXXXXXXXXXXXXXXXXXXXXXXXXXXX0XNXbXbXbXxXtXeXfXeX*X%Xn.'. X8.8.u.n.u.8.v t 3. X8.d v 4.t X X ..wX,.5 - > - >  .n.E. X#X3XK.E E v ) E D 5 2 > 5 v.v.,.c.#.n #.A.oXF 4 V.wXK.B : E  XkXgX..: #   # : t 0 f  XkX5XE.b O ,.4X4X4X5XE O : 0 t ; X # 0 0 O   t n.n.2   X X   t n.E.E.,.| v.b.b.b.x.#.c.#.H x.x.#.#.#.x.c - : : : # , < , 0 w , y v O X O # t V t ; i d y w 9 , X o @     @ X   @ @ X o @ @ @ @ @ @ # @ @ @ X X @ X @ @ @ X @ @ o o @ @ @ @ X X @ @ . @ @ @ @ @ @ @ o @ o X X . . . o @ @ @ o o @ @ # o X @ @ @ @ @ @ o o o X X .   X X o o . . . . . . X + X @ @ + % @ % % @ + % % # % # # X @ @ @ 9 w d 4.i.4.U _ i.[.y.4.w.n.n.i.n.n.n.n.[. X+X%X+X{.{. X+X=X5XfXkXfX5X&X+X[.[.H.w.4.w.%Xi.v E v : 8 b b 8 7 v ) 8.'.[.5X&X8.8.8.i.n.i. X X X8. X5Xn.) [.*X[.&X{. X*X+X+X#X=XgXxXxXxXxXxXxXxXxXlXlXlXlXcXNXxXxXxXtX1X.XY.L.L.Y.Y.Y.Y.L.D.F.G.F.h.B.B.N.N.N.F.F.F.F.F.F.F.F.F.N.N.h.t.D.Y..X.X.X.X.X.XXXXXXXXX.X.X.X.X.X.X",
"XXXXXXXXXXXX.X!.XXQ.Y.Y.Q.XXXX!.XXXXXXXXXXXXXXXXXXXXXXXXXXXXXXXXXXXXXXOXOXXXQ.Y.Q.Q.XXXXXXXXXXXXXXXXXXXXXXXXXXXXXXXXXXXXXXXXXXXX0XZXNXbXbXxXtXeXeXfX*X&X'.'.[.u.i.8.3.u.8.U v 2.......) v : X : ..n.t 5 t : t 8.5XkXkXiXkXiXb.E  .8.8.8.,.D 5 > D E.,.#.v.$.M m.E.W.v.- c *.c u B u ` K.8.y : # # 0 t t f t v n.n.u X > 2 *.5X5X4Xt   : , , - X # 0 i y :   2 0 # # # + # X t v v : 5 ,.E.E.,.M x.x.K #.c.c.x.x.c.b.D > t : 2 0 < w 0 0 y y 9 v f O O # : ; - # < 0 , i V Y f $ < < & & & , & @ & & & < 9 9 9 9 w w 9 9 0 0 9 % @ $ & $ & & & & & & < < , , < & & 7 7 & , 9 9 9 9 0 w w w w w w y y w w y i i i w 9 0 9 , < 9 , , < 9 0 0 9 9 0 9 , 9 9 , & , , , , & # % % % # @ % @ + + + + + + .   +   X X X 0 d ` '.&Xi._ _ ( 4.2.2._ _ y.w.&X*X*X*X5X5X5XfXfXfXfXfXkXkXkXfXkXkX{.[.{.[.p.[.[.p.[.&X&Xn.n.8.8 : 7 : # d 3.'.n.&X*X5X Xu.i.n. Xn.n.[.n.n.! i. X..4.#X XH.+X{.*X+X+X+X=XgXlXbXlXlXlXlXzXcXcXcXlXlXhXlXcXlXxXNXHXcXhXqXOX}.L.F.J.L.L.J.F.F.F.B.B.B.B.B.B.F.F.F.F.N.N.B.F.F.F.F.N.h.N.Y.XX.X.X.X.X.X.XXXXXXX.X.X.X.X.X.X",
"XXXXXXXXXXXX.X!.Q.Q.Y.Y.Q.OXXX!.XXXXXXXXXXXXXXXXXXXXXXXXXXXXXXXXXXXXXXOXOXXXQ.Y.Q.Q.XXXXOXXXXXXXXXXXXXXX.XXXXXXXXXXXXXXXXXXXXXOX0XZXHXbXcXlXrXtX5X5X&X[.i.[.&Xi.2.....8.4...P E 8.&X5XsXn.t X - t E ! f : : 0 8.5XfXSXkXfXkXv.E ,.b. XE.n.8.*.5 5 D | A.A.c.c.m.8X4XE.c 5 c v E | E t : 2 ; : O O : 2 0 v v 2 : ; X : t : : *.4X8.t : : - X O : : ; t i 0 X   # , 7 d w 0 , X X X X X - 5 5 - | b.K x.c.H x.x.,.x.b.*.> ; ; , 2 , 9 0 < < i 9 , ` a # , ; ; # X ; 0 2 q 9 i V U 9 w q 9 0 0 < 9 < < 9 w y i y w q i y y f i w < , 9 w w 9 9 q w q q w y w y y w 9 w y w w y d d w d f g g g f f f f i f f g i i i i i i w < 9 9 w y i i i i f f d d i f f d f f f v d w d d y d d d s s w w 0 w w 9 9 9 w w 9 & y _ n.[.[.2.U _ .._ ( U ( ` y.4.n.&X=X&X*XfXfXkXfXfXkXxXkXkXkXkXxXxX&X*X*X+X[.*X*X&X*X*X5Xn.8.8.d 7 + 7 v 3.u.u.'.'.'.'. X'.i.i.w.n.n.n.K. X..n.[... X#X{.{. X X*X#X#X#XeXxXvXlXlXlXlXzXcXcXzXzXlXlXlXlXcXbXNXZXNXNXZXZXcXuXrX0X.XJ.D.J.F.N.B.F.B.B.B.F.F.F.F.F.F.F.B.F.F.F.F.F.F.h.h.G..X.X.X.X.X.X.XXXXX.X.X.X.X.X.X.X",
"XXXXXXXXXX.X.X!.Q.Q.Q.Q.Q.!.!.!.XXXXXXXXXXXXXXXXXXXXXXXXXXXXXXXXXXXXXXOXXX.XQ.Y.Q.XXXXOXOXOXXXXXXXXXXXXXXXXXXX!.XXXXXXXXXXXX.X.X0XZXZXbXlXlXeXwXeX5X*X[.n.n.'.n.3.2...8.4...I U .. Xn.'.4.v ..t O E ..v 8 7 0 0 E r.5XkXfXkXE.,.,.b.3X5X Xn.8...- - H (.A.c.A.A.A.8Xr.c c u : E D t ; X : - O X X ; X : : t f t t t : f : - 0 t , : : X X X X X ; O # O X # # , , 0 w w 9 9 % #     : O X X O  .v.x.c.x.4 M b.c.x.v.,.2 - : : , : , 9 < $ & 9 # < =.i O , O O O 2 q t a N u q B i < < $ 9 w 9 9 9 w w i f g a i i g g v V y q w 9 w w w q i q i i i i i i i i y 9 w y y y i d i i i f V V g g f f g f g g f i i g g f i 9 < 9 q < < < < 9 w 0 9 w w w w w w i f v U v f P P v U U U f f f d d P f f d w f d w , d i.&X&X'._ _ _ ( _ 2.4.i.[.&X&X*X5X*X=XkXxXfXxXfXkXxXxXxXxXMXMXkXkXfXfXfX*X&X*X=X+X5XfXfXn.u.8.u.) s 7 I u.y.u.'.5X Xi.[.&Xi.i.n.K.K. X Xn.E r...=.&X&X+X#X X+X*X#X+XeXlXlXlXtXlXlXcXbXbXzXzXlXlXzXzXzXcXCXZXbXHXJXJXJXHXZXZXNXgX0XOXL.J.G.F.h.B.B.F.B.F.F.F.F.F.F.F.F.F.F.B.N.F.N.h.J.Q..X.XXX.X.X.XXXXX.X.X.X.X.X.X.X",
"XXXXXX.X.X.X.X!.Q.!.!.Q.Q.Q.!.!.XXXXXXXXXXXXXXXXXXXXXXXXXXXXXXXXXXXXXXOXXX.XQ.Q.XXXXXXOXOXOXOXXXXXXXXXXXXXXXXX!.XXXXXXXXXXXXXXXX1XbXbXcXvXlXtXtXwX=X Xn.[.n.n.'.u.8.4.4.2._ E ) ) 8.8.n.n.8.5X..: E ) t 0 y 0 0 , 0 v )  .8.E.3XE.b.8.n.n.K. XR.u > v.A.c.v.V./.A.,.5 5 c 5 v D t - - X 2 v D b 5 X X   X X : d t d t 0 7 : : ; # X - 2 b D b ; X t E V 2 # # , 9 y , & & 9 y 7 # + , : : : ; B v.v.v.b X - c ,.K.K.v.c : t 2 0 9 < 9 9 9 w i 9 o v =.0 t a : t N v E Z Y Y N u g V ^ Y q < q q q i i i i a g a g g v V v 2 q i < < q i g l g l a g g a g g g g w w y w w y w q y q e i i i i i g g i g g g i i i i q < < q q < < < < q y i q w i w 9 9 9 9 w w f f f v P P P U ( P f f f f v f d d d d f d 9 , U [.*Xn.` ( _ ( _ 4.n.%X[.i.'.*XfXfX+X*XxXfXfXxXMXxXkXxXMXMXxXkXxXxXxXkXfXfXfXfXfXeXfXfXfX[.i.u.%X%Xu.d I 3.3.y.].&X'.'.*X'.4.i.[.#X XK.K.{.v 2 V u. X*X=X*X+XeX#X+X=XxXcXgXlXlXlXlXcXbXbXzXpXpXzXuXzXzXzXbXCXcXZXJXJXJXJXJXJXNXxXNXbX0XL.G.G.B.F.F.G.G.G.G.G.G.G.G.F.F.F.F.B.F.F.N.N.J.Y..X.XXX.XXXXXXXXXXX.X.X.X.X.X.X",
"XXXXXXXX.X!.!.!.!.XXXXQ.Y.Q.!.!.XXXXXXXXXXXXXXXXXXXXXXXXXXXXXXXXOXXXXXOXOX.XQ.Q.XXXXXXXXOXOXOXXXOXXXXXXXXX.XXXXXXXXXXXXXXXXXXX.X$XxXbXcXSXGXcXvXwX5X+Xn.i.'.i.u.4...2.4._ ) ) _ ) E 8.5XmX].5X..: t v v v 0 # , 7 t t 8 > v  X5X3X5Xb.8.n.5XgX Xu 5 v.v.v.E.W.8XE.c b D c b | v 5 : > c D ! D |  .5 > c c :   # 0 y y 7 , # X ; O O t ....,.,.E - c | | E 0 # # 0 0 y 0 & 7 w 0 , # , , : : O ; v ,.D - > - - > v E ..u O t < , i # < y 0 y w w # $ V U i t 2 t v W D B Z B Z Z ;.=.J.0X=.1 < 1 i g g i t i g N a p g N i 1 i i $ 2 a N N l a l p a a i i t q t q y y q < < < < q < q q q q q q g i q q i i q q 1 < < t V Z N N V Z E ~ ~ ~ Y V Y Y U V N v f i y w f v v P U U P f f d s v v 0 d d w f P f 9 9 _ *X&X_ U 4.8.y.i.[.&X*X%X[.&X5XfX5X[.+XkXxXkXMXMXxXkXxXMXmXfXfXkXMXfX*X*XfXfXkXkXfXfXfXfX[.u.'.%X'.u.d I 3.3.y.&X%X%X&X+Xn.u.8.w.#X#X X#X#XE V v w.n. X*X{.+X X{.+XgXxXgXgXgXlXlXlXzXcXzXzXlXzXzXuXpXvXzXzXCXbXNXZXJXJXKXJXZXxXxXNXJXxX$XG.F.I.G.G.I.I.Y.Y.I.I.I.G.F.F.F.F.F.F.F.F.N.J.Y..X.XXXXXXXXXXXXX.X.X.X.X.X.X.X",
"XXXXXX.XQ.Q.Q.!.!.XXXXQ.Q.Q.!.OXXXXXXXXXXXXXXXXXOXXXXXXXXXXXXXXXXXXXXXOXOXXXXX!.!.OXXXOXOXOXXXOXOXXXXXXXXXXXXXXXXXXXXXXXXX.X.XOX=XxXNXHXHXNXbXbXtX=X=X[.i.n.u.8.2...2._ U ) E ..P E '.DXkXn.n.v   : d P v 0 % , 7 d d t t v b. XE.3Xb.2 t ! 8.8.: : *.,.v.v.v.W.E.x b D v b b c 5 > D  . .#.x.x.#.c 5 D | ..v   X # , X X   # +   , ..,. .,. . .t 5 b b v v # , , , , 0 , 0 0 0 , , # # , , X : : 2 : : 2 : - # O - O X , t , 0 f , 2 i t f t t 2 : O u c a u c D c c D ! B c Z D.` u / t.a 2 a Z C a p p p a g i g N l i q i i 1 i C N i 2 q 1 1 e q 1 1 1 e q 2 q q q q q q q q t i t t i q 1 < < 2 = $ < : < $ q g V Y W C Z Z W W { %./ ^ W W ` W Y Y T Y g 9 9 f f d f f v f y d y P U f w f 0 f f f d w & 4.5Xu.( u.[.*X[.{.=XfX5X&X[.[.[.*X5X&X[.*XfXMXkXMXkXxXMXMXmXxXMXkXfXfX[.[.kXkXfXkXMX5X*X*Xw.4.n.'.'.3.7 I 3.3._.*XsX&X'.&X+Xn.u.4.8. X5X#X Xw. XU ) i.{.{.{.K.K.K.eXxXgXgXlXxXxXxXxXlXzXzXzXzXzXzXzXzXVXVXCXCXHXZXHXKXKXHXcXcXHXNXJXNXNXrXL.G.I.I.I.I.I.I.Y.I.I.G.G.F.D.F.F.F.F.F.F.F.G.Y..X.X.XXXXXXXXXXXXX.X.X.X.X.X.X",
"XX!.!.!.Q.!.!.!.!.!.!.!.!.!.!.!.XXXXXXXXXXXXXXXXXXXXXXXXXXXXXXXXXXXXXXOXXXXXXX!.!.XXXXOXOXOXXXXXXXOX;XOXXXXXXXXXXXOX.X.X.X.XOXOXtXNXJXNXNXHXNXbXxXtX=X*X[.i.u.4.y.4.4.2._ ) U ) ( ) ) ].n.d t # X , 7 d d % % , , 7 y t v v n.5XE.,.b > - 5 2 O : : B D c 5 c b.n.c 5 c v t 2 t 5 c  .,.c.x.c.c. .H D |  .r..., + X # X   X # # O : v b ! x.,. .b b b b E v : O : # , 0 , , % , , % , , 0 , # : # t t t 0 <   2 2 : $ , 2 2 , t t 0 t y r t c u u u t u 5 u c B E D ! O.F D B D OX%.3 Z ! j 1 l Z C C C a p u 1 e a p g i 1 e p g g a i q q i p p l N C C C Y C Z Z Z Z V V V V Y W ~ Y p q q 2 p p l g g g t q i N W T ^ %.^ C ^ / { %.{ ^ ] { =.{ ^ ` } { R Y w y d y f P d w w y d f P f d d s y P P f w 9 w i.[.( 4.n.[.&X*XfXfXkXxX*X[.[.[.[.*X{.w.i.[.sXfXxXMXDXkXfXfXfXfXxXmXkXfXfXmXmXxXxXfX[.&X*Xi.4.4.u.y.( 6 I ) 1.y.&X&X'.u.[.H.i.i.;.8.{. X#Xn. X*Xv ) w. X[.n.n.H.p.+XxXkXkXxXxXxXlXxXxXlXzXbXbXzXzXpXzXpXzXvXbXCXHXKXKXHXGXbXbXJXNXUXUXNXrXL.G.I.I.I.G.G.G.G.G.F.F.F.F.D.F.F.F.D.D.F.J.Y.Q..XXXXXXXXXXXXXXXXX.X.X.X.X.X.X",
"XXXX!.!.Q.Q.!.!.!.Q.!.!.!.Q.Q.Q.XXXXXXXXXXXXXXXXXXXXXXXXXXXXXXXXXXOXOXOXXXXXXXXXQ.Q.XXOXOXXXXXXXOXOXXXXXXXOX@XOXOX@X=X0XeXeXtXtXlXNXJXNXxXNXMXkXfXfX5XfX5X&X[.i.u.u.y.4.2.( P U P 3._ u.u.v , X : # X : , + # 7 % , , , d c | n. .5 > t D *.! c t 5 > > ; 2 5 > 5 5 c b c 0 t c x D v.b.b.c.v.v.c.x.A.,.| | ,.8.0 # # # X # # # # O   >  .,.,.x. . .| E D t t r , # , 0 9 7 0 w w w 9 0 0 < , , , y f f f w w 9 , # 0 t 2 , , t i u a u c r a u v r c | | c 5 | | *.O.,.! F S N 9.%..X6X9.u 1 p Z S W W Z C j e u p e i e 1 < q < 1 p Y W ~ ^ ` ^ ` { =.-.-.-.%.%.=.=.%.` ` ` ` ` W Y Z Y ~ %.{ =.=.=.{ ` ~ N i i N ^ / / { R C / / W { ] Q ] / W ^ ` ^ ^ ^ Y Y i i f d i f d f d f f U P f f f f f f f f 0 7 d '.4._ [.[.n.[.*X=X*X=XeX+X%X&X[.&X*X*X[.[.[.%X[.sXfXfX*XfXkX5X%X%X5XfXkXxXkXfXkXfXkXsX=XkXfX%X4.) ) d 7 2.2.3.3.'.%Xi.4.n.i.i.n.p.n.n.n.{._ 8.n.) _ u.n.n.[.n.n.p.K.kXxXxXxXgXgXkXlXlXlXlXlXzXlXuXpXzXlXzXbXbXCXZXHXHXGXbXcXbXNXNXJXJXNXtXQ.Y.I.I.I.G.G.F.F.F.F.F.F.F.F.F.F.D.N.D.F.L.Q..XXXXXXXXXXXXXXXXXXX.X.X.X.X.X.X",
"!.!.!.!.Q.Q.Q.Q.!.!.!.!.Q.G.G.Q.XXXXXXXXXXXXXXOXOXXXXXXXXXXXXXXXXXOXOXXXXXXXXXXXQ.Q.!.OXOXOXOXXXOXOXOXOX@X@X=XtXjXxXxXxXxXxXxXgXxXxXNXNXxXxXxXkXkXkXfX*XsXfX5X&X'.n.u.4.2.) U ) ) ) )  X].E : # : ; # X # , # , , # , f t f c t > 5 D v.3XoX3XE.x ,.,.E 2 > t > - b b t 0 8 c t 5 c x.E.b.c.c.#.x.A.b.v. .| | 8.f # , % , , 7 0 , # O D r.8.x.| ,.,. . .D ; t v 9 $ , 0 0 9 w d d d , # , # # $ # w i y V V v # $ < V f 0 2 r v V u t v D v u 5 c *.b.E.E.v.c | #.#.,.X.+.O.F a e %.wXOX] 3 p N Z Q Q Q ' ] Q / Q / S Z N l i e q q 1 < q Z ^ / -.5.6.w.w.w.e.e.9.9.9.9.w.9.-.` / ` -.9.e.p.l.p.p.w.;.W N a t i V Z ~ %.-.-.^ C Z T T { ^ C W T Y T W T T W T Y v f g f d d d P U ( U ( P f f f f f U P f 7 & U i...n.mXMXMXMXMXxXkXkXfX*X*X&X&X&X&X*X*X&X*X*X*X*X*X*X&XfXkXfX*X8.[.fXfXfXmXfXfXfXxXxXkXkXfX5X'._ 2.P 7 ) ) 3.u.'.u.y.n. Xn.i.n.n.K.{.#X5Xi # ..[.....u.n.n.8.w.H.K.kXxXkXgXfXgXxXxXlXlXlXcXbXzXlXzXvXzXzXCXbXbXZXHXKXHXHXNXNXNXJXZXMXxXeX.XI.G.I.I.G.G.F.F.F.F.B.F.F.F.F.D.N.N.F.G.Y..XXXXXXXXXXXXXXXXXXXXX.X.X.X.X.X.X",
"!.!.!.Q.Q.Q.Q.Q.!.!.!.!.Y.G.Y.XXXXXXXXXXXXXXXXOXXXXXXXXXXXXXXXXXXXOXOXXX.XQ.Q.Q.Y.Y.XXOXOXOX@XXXOXOX#X=XtXgXxXxXNXMXxXMXMXMXNXJXxXxXMXMXxXxXMXMXkXfXsXaXsXsXsXfX*X[.'.4.4.2.) ..2.I I 8.8.) t : O # X X # + # d d y ; t 0 0 5 5 - c ,.x.,.x.,.v.| v.3XE.r.5 - > t v 2 c  .E E D b 5 b  .| | | c v.E.v.b.v.,.,.v.v X # , 7 0 0 y 0 + 0 ..r.*.b >  .8.| | ! : ; 2 , , < y y 9 i y , w w i f i < # # , , w U Y < o $ y U g t r a v V t u c 5 5 u B 8.E.E.E.4X(.M D v.c.$.+.#.#.<.*.a N N.O.u u p C Z Q Q Q ] &.&.>.7.9.6.6.;.;.=.^ ^ Y V C p 2 2 i C Y ~ ^ ` =.;.;.;.9.w.5.%./ ` { 5.t.D.H.H.p.6.5.W N g N Y ~ ` =.=.=.5.w.t.p.6./ / { / %.W N ^ / / ^ { =.{ %.5.=._ Y U v f f f d f f d f f f f f v f P v f w w _ i._ %XfXxXMXNXMXMXMXMXMXMX=X[.[.&X&X+X*X*X*XfXfXfXsXkXfXfXMXMX5Xi.[.fXmXfXfXmXmXxXxXkXxXfX*X5X*Xy.3.P + I 1.3.3.[.[.n.n.[. X XH.{.#X{.5Xi.t ..*X X4.4.4.8.u.8.i.[.H.fXkXgXgXgXkXxXxXxXxXxXxXcXcXbXzXvXvXzXbXcXbXZXHXHXKXKXHXHXJXUXJXxXxX$XY.G.G.G.G.G.G.F.F.F.F.F.F.F.F.N.N.N.D.G.Y..XXX.X.XXXXXXXXXXXXXXXXX.X.X.X.X.X.X",
"!.Q.Q.Q.Q.Q.Q.Q.Q.Q.Q.Y.Y.Q.Q.OXXXXXXXXXXXXXXXXXXXXXXXXXXXXXXXXXXXXXXXQ.Y.Y.Y.Y.Q.Q.XXOXOXXXXX#X+X0XtXgXxXNXNXDXDXMXMXMXMXMXMXMXMXMXNXMXMXMXMXMXxXfXsXfXfX5XfXfX*X&X&Xi.y.y...8.2.E b E ..E b - : 0 X X - X 0 U E v : : : : 2 2 > D ,.#. . .x.,.,. .b.b.E.,.2 : | n.r.| ..8.8...8.b - > - 5 t t E./.E.A.,.| | *.d X # , 7 w 0 w y : , ) 4.E > : t | ..,..., ; < i g U ~ Y V ( Y V g V Y V V v q < < q V Y q @ & < i i a v v B v c t 2 5 5 5 2  .4X4X4X(.(.A.#.v.A.W.(.$.H #.<.<.0./ m * 3 a ^ -.&.&.>.>.>.0.h.t.z.z.J.L.H.H.H.l.w.5.=.` ` ^ V i < i ~ %.%.{ { %.` ` { =.5.e.p.D.H.H.e.=.^ C l N Y ^ =.5.w.p.H.H.{.H.p.e.9.5.;.%.=.;.%.=.^ C ^ / ^ / =.;.%.=.w.5._ ( ~ ( f f ( _ ( d 0 w w 0 7 0 w 0 w 0 7 % 9 4.4.( %XkXMXMXMXMXMXxXkXkXMXfX&X&X&X&X&X*X=XfXfXfXfXfXxXxXxXMXMXfX%X&XfXkXsX*XmXMXmXmXxXmXmXfXfX5X1.2.f + ) 3.3.2.y.4.4.w.i.H.K.p.8.....i.E i.*X[.i.u.n.u.4.8.i.K.[.[.fXkXkXkXxXMXMXxXkXxXxXxXxXcXcXzXcXbXbXbXcXCXZXZXHXKXKXJXJXJXJXJXNXgX.XY.G.I.G.G.G.F.F.F.F.F.F.F.F.N.N.N.F.G.Y.Y..X.X.X.XXXXXXXXXXXXXXXXX.X.X.X.XQ.Q.",
"!.!.Q.Q.Q.Q.Q.Q.Q.Y.Y.Q.Q.!.XXXXXXXXXXXXXXXXXXXXXXXXXXXXXXXXXXXXXXXX!.Q.Y.Y.Y.Y.Q.Q.XXXXOXXXXX@XeXfXkXxXNXDXMXMXMXMXMXPXIXMXMXMXMXMXUXNXMXMXMXMXJXkX5XfXfXfXkXxXsX*X&Xi.4.u.u.n.u.E t t b E c X t ..E 0 # X t E E E 7 # : # , # 5 | b.v.b.x.x.A.E.x.x.E.E.3X! 8.3XiX5Xv.| | | | | c - - X X X X b 3X3XE.u : 2 0 2 X # % , 0 0 w y y , y d y i : O t E ! v < t i a V ~ ~ Y Y ~ ~ U g Y Y N Y W v a e g Y i   < q y a a B W / %.| B 2 b  .*.,.D c | ,.c.c.A.A.S.A.(.(.(.(.c.F F ! B ! B S B Q >.7.t.e.z.z.h.F.J.D.}.}.|.+X+X}.|.@X+Xl.5.` ` { ` ~ g p l T =.t.p.p.H.J.L.L.L.J.z.p.{ Y N C W { 5.6.l.}.+X+X#X@X+XJ.w./ N a t q e e V W ` =.%.~ ` { =.=.-.-.5.6.5.` U U ~ ~ U U 2.i.4.( P P P f f P f d s w d w w 4.4._ [.fXMXMXxXxXMXxXMXxXMXxX[.w.&XsXsXfXsXfX*X*XsXfXkXMXMXkXfX5X*X*X*XaX*X&XfXMXmXxXfXmXmXfXfX%X2.y.d + P I d 7 v U 2.i. X*X=X X{.5.i 2 U +X Xn.4.2.i.n.n.[.[. X X XfXkXkXxXxXMXxXxXxXxXxXbXNXHXcXcXbXbXZXHXZXZXHXJXKXKXKXKXJXJXNXNXcX0XY.Y.Y.G.G.G.F.F.F.F.F.F.F.F.F.F.F.F.G.Y.Y..X.X.X.X.XXXXXXXXXXXXXXXXXXX.X.X.X.XQ.",
"XXXX!.Q.Q.Q.Y.Y.Y.Q.!.!.XXOXOXOXXXXXXXXXXXXXXXOXXXXXXXXXXXXXXXXXXX.XQ.Q.Y.Q.Q.Y.Q.!.!..XOXXX@X=XkXxXmXMXMXMXMXMXMXMXMXMXMXMXMXLXPXMXNXMXMXDXMXNXMX X[.+XeXxXgXxXfX*X&X[.i.n.n.u.8.b c b | v.E - t ,.8.8.| , X 7 y y # , # 7 f , u K.E.A.E.b. .b./.E.x.,.E.3X,.b.kX3Xb...8.K.,.| | b 2 : X O : # > n.3X| X O t v t # , X + , w w y y 0 # X X # + X X # # : < q 2 1 2 g g i Y V N Y V Y Y N C V g N g g p o o < q i t N Y ! >.,.,.b b *.| D | D x - - - H /./.S.m.(.4X/.(./.+.O.O.*.>.*.>.<.] 9.z.z.z.z.z.J.Y.}.}.J.z.e.6.6.{ ^ ` W Y V N V N N g C g i q q i p g l N N V N N g p 1 p =.{.}.}.@X1X=X=X+X{.D.5.^ Y a p p i q 1 q < < < q g ~ ` %.%.{ ` ` ` ` ~ V z V U U U U ( ( _ ( f f P P d f f f f d w w 7 7 4._ u.*XxXMXMXMXMXxXxXMXMXMXMX*X[.[.fXfXfXfXfXfXfX5XfX*XsXkXfX*X*X*X&X*X*X*X&X*XMXMXMXMXmXmXmXsXy.2.u.s   6 7 d ) u.n.5XfX5Xp.n. X{.5Xn.0 ..n.n.i.4.4.'.[. X*X X[. X+XfXkXxXkXxXkXMXMXMXxXxXxXxXcXNXNXZXbXbXHXHXHXHXKXKXKXKXJXJXHXUXxXgXOXY.Y.Q.F.I.G.G.G.G.F.F.F.D.D.F.G.L.Y.Y.Y.Y..X.XQ..X.XXXXXXXXXXXXXXXXXXXXX.X.X.X.X",
"!.!.!.Q.Q.Q.Q.Y.Q.Q.!.XXXXOXXXXXXXXXXXXXXXXXXXOXOXOXXXXXXXXXXXXX.X.XQ.Q.Q..XQ.Y.Q.Q.XXXXOXOX1XtXkX5XsXnXMXmXmXmXMXmXMXmXMXMXMXLXPXPXMXMXMXJXMXvX#XoXwXkX=X5XfXgXfXsX*X&X[.[.n.r.E b | |  .,.t 5 ,.,. .v.n.v X : # # # 7 , , ( f V v.v.v.E.v.#.v.A.b.b.#.b.3Xb.E v.| 8.3X3X3Xb.v.3X3X..: : : % # # E  X:   : v E U , X   + + + + X X               X X   X o . o . . O . . . O O $ $ = < < < < 1 2 < $ O o . o $ < 2 t a Z %.r.,.b D ,.! 5 2 5 c 5 - c A.S.m.S.A.E.(.(.A.(.<.! | -.>.>.;.*.*.0.J.Y.L.F.h.z.l.6.^ T g e e 1 1 e q i q q i p e q i q 1 1 q < < $ O o $ = = $ = q g W } -.e.p.H.J.H.J.w.` C Y Z p a a i < = g Z V i q < $ $ $ < q i g V V V z p q w w w 9 9 6 7 7 6 6 6 6 6 % % % % 7 + % % % + d y.( i.*XxXMXMXNXMXMXMXMXMXxXfX%X[.[.5XxXkXfXfXMXxXfXmX&X&X5XsX5X=X&X*X*X*X*X&X*XfXMXMXfXmXmXmX[._ u.i.7 + s ) u.u.n. XfXkX#X~ =. XK. X#XU 4.'. X4...i.'.[.+X&X*X5X&X+XfXxXxXkXkXMXMXMXMXfXeXxXgXgXtXtXhXeXOXeXbXHXHXKXKXKXKXJXJXJXJXHXrX}.Y.Y.F.G.F.G.G.F.F.F.F.F.h.F.Y.Q.Q.Q.Q.Q.Q..X.X.X.XXXXXXXXXXX.X.XXXXXXXXX.X.X.X.X",
"!.!.Q.Q.Q.Q.Q.Q.!.!.!.XXXXXXXXXXXXXXXXXXXXXXXXOXOXXXXXXXXXXXXXXXXX.XQ.Q.Q..XQ.Q.Q.Q.XXXXOXOX0XfXfX*X[._._.].aXnXmXMXLXmXmXmXMXmXMXmXmXmXxXMXxXwXK.4XR. X5X XeXxXxXfX5X Xn.n.n.n.v | b.v.,.| x ..E.b.v.b.r.v # # + # , , % % w w 2 5 : u > 5 #.x.b.b.3XE.,.E. Xb > E E.3X X X X X X3X#XE : y s % # + d   X # , 0 : # X , +   +         . X       X X X X o O $ < = O . . O O O $ o o o O . . . . O . o < 1 = O o . O O - 1 t c B 5 u c 5 - c D c - - #.(.S.A.A.A.A.(./.(.4X<.4 e u j a u j C S S R Q R C j p e 1 e e e e e p p q = i N p p g g q p z Y g q $ $ < q q p N N N T { =.^ z l l N N g g l V p q q i e i $ O 2 Y ^ W g i i w 9 & @ @ o o o . . o . . . . + + + + +     + + +             +   7 d d _ i._ i.%X5XMXMXMXMXMXkXxXMX*Xp.i.[.[.5XkXfXfXsXsXmXMXkX&X&X*XsXsX5X*X*X*X*X*X*X*X*XmXmXfXmXnXfXi.2.'.y.% f 2.2.y.i.%X&X*XeXeXK.oXeX#X#XeX4.4.n. X4.i.'. X+X X&X5X&X#X*XkXxXxXkXMXMXxXxXgXgXMXeXJ.{.=XeXtXrX0XeXrX0XhXHXKXKXJXJXJXJXHXbXrXY.L.Y.F.F.G.G.F.F.G.G.G.F.F.G.Q.Q.Q.Q.Q..XQ..X.X.X.X.XXXXXXX.X.XQ.Q.Q.Q.Q..X.X.X.X",
"Q.Q.Q.!.!.!.!.!.!.!.!.!.XXXXOXOXXXXXXXXXXXXXXXXXXXXXXXXXXXXXXXXXOX.X!..X.XQ.Q.!.!.XXXXOXOX#XrXfXsXnXnXsX%X_.u.2.u.'.&XnXmXMXMXMXmXLXmXmXMXMXxXwXn.D.r.n.+X#X=XkXkXfXfX+Xn.[.n.8.v.v.b.b.| c b E.K.E. X3X XE O # X # # # 7 % % % O O - : O - b v.v.x.3Xb.c ,.5Xb 5 b.5XK. X4X3X Xn.K.#XK., 7 7 6 0 +     + X # # X X X X X + @       . @ @ + + + @ @ @ # , q q i N e $ 1 e t q 2 1 1 < < < < < < < = 2 p p q < 1 1 1 1 < 2 2 5 5 2 5 > O 5 | | t 5 b v.A.b.A.(.S.A.(.W.(.8Xv.- N u u e e a a p p a j j j a p j z l N C C N C C g $ i V g C ~ ~ g Y =.{ p < q g p < q q i g l N N N p q e p p g p e N C t = q V Y g < = e W W C g i f g g f i 9 @ @ @ @ @ @ @ @ @ @ @ @ @ @ @ @ @ % @ + + + + + + + + 0 P f w 2.'._ i.&XfXfXkXMXMXxXxXMXkX{.i.[.[.[.5XfXfXfXfXfXmXMXfX*X*X*XfXfX*X*X*X*X*X*X&X*X*XfXMXxXMXMXnX'.u.i.( f y.u.u.u.i.n.+X*X5XtX5X5X0XtX5X+X=...n.n.2.i. X&X*X*X*X*X&X X=XkXkXkXxXkXkXgXkXMXMXNX X{.tXgXlXlXhXlXcXlXrXlXZXKXHXJXJXJXJXHXcXrXL.L.Y.G.F.G.F.F.G.Y..XXX.XY.Q.Q..X.X.XQ.Q..X.X.X.X.X.XXX.XXX.XQ.Q.Q.Q.Q.Q.Q.Q.Q.Q.",
"!.!.!.!.!.!.!.!.!.XXXXXXXXOXOXOXXXXXXXXXXXXXXXXXXXXXXX.X.XXXXXXXXX!..XXXXX.XQ.XXXXOXXXOXOX#XgXfXsXsXsXsXsXdXaX].u.y.4.'.aXnXnXsXnXMXmXmXMXMXMXxXK.8.K.#X X#X{.5XfX5X5X&X+X Xn.8.v.,.E D E E v D ,.v.E.8.v : O , : , , , 0 7 % # $ : $ - 2 ; 2 D v.3X,.t X 2 ! c : ..v.n. X8...3X XK. X5Xf X @ % % % + # # X O X + : , #     + @ + @ + @ @ @ % % @ @ @ $ < w i g N g t g g a g g p p i i i a a a e e p l l g p e q i u u N D D D B v 5 5 ..,.D c > D v.v.b.E.S.H x x.E.A.R.C.B ^ ~ / / / / / { %.{ ^ T W W T T W W W T Z C C N N Y N l p g p i q i i e q q q q e < q w q i i p i g p g g g i g g N ` N q N =.-.W N e < q ~ ` V f i f V Y Y Y V i 9 = & & @ @ @ @ @ @ @ @ % % % % % % % % @ + + +   % P f 9 0 4.%X_ _ i.*XfXkXfX5X*X=X*X*X+X[.%X'.'.[.*X5XfXfXxXmX5X*X*X&X*XkXfX5X*X*X*X*X*X*X*X*XfXMXmXmXMXfXn.i.y.P 2.u.u.y.2.u.u.+X5XeXeXtXtXgXwXwX=X8.4.i.8.4.n. X&X5X5X5X*X*X+XeXxXkXkXkXkXkXxXkXMXMXgX XeXNXxXxXlXgXcXHXHXCXZXCXZXHXKXKXKXKXJXcXrXY.Y.Y.G.G.Y.F.F.Y.!.XXXXXXQ.Q..X.X.X.X.X.X.X.X.X.X.X.XXXXX.XQ.Q.Q..X.X.X.X.XQ.Q.Q.",
"!.!.!.!.!.!.!.!.OXOXOXOXOXXXXXXXXXXXXXXXXXOXXXXXXXXXXX.X.X.X.X.X.XQ.Q.XXXX.X.XXXXXOXXXOXOX#XgXfXsXnXnXsX].].&XaX%X]._.u.].sXnXmXMXmXMXmXfXmXxX*Xw...w.{.*X#X+X X[.n.i.n.5XsX[.4.E | x.8.8.n.8.c t b b 2 t t t c t 0 v t f U v f < i t ; ; - O :  .E.c - : : X : - v .. Xn.t : 8.#XK.*X5Xf   % +   #   X   X O X O D U v ,   X @ + @ . + @ @ % & % # @ @ & 9 w i i g g N g p g g g f g i i g g g e i g l g g l g i a u v B Y W B E u ; D v...c t 5 D b.E.E.E.| - - 5 | 4X4Xv.N W W ` %.` / { =.=./ T C Z Y C C C C C C N N N N C Y z V Y Y g p z Y Y g w w i e 9 q q q q q q w i i e i i g g z l Y T g Z 6.6.{ W N V N i z g i i g g Y Y U U U U U f f f s 9 9 6 % % & & & & % % % % % % % @ + + % w f 7 w w _ [.u.) ( _ w.8...4.4._ =.w.n.i.[.'.[.[.*XfX*X[.&X&X*X5XfX&X*XmXmXsX*XsXsX5XsXfXsX*XfXMXmXmXkX5Xi.'.2.d y.u.y.2...y.'. X[.*XeXgXwXwX$X$XeX4.4.8.4.i.[. X*X5X*X*X5X&X*XfXkXkXgXkXxXxXMXMXMXxX=X#XkXxXbXNXcXcXbXGXCXCXCXbXbXHXHXHXJXKXJXlXqXQ.Y.Y.Y.Y.Y.J.J.Y.Q.Y.Y.Y..XXX.X.X.XXXXX.X.X.X.X.X.X.X.XXXQ.Q.Q.Q..X.X.X.XQ.Q.!.!.",
"!.!.!.!.!.!.!.XXXXOXOXOXOXOXXXXXXXXXXXXXOXXXXXXXXXXXXXXXXXXX.X.X.XQ.Q..X.X.XXXOXOXOXOXOXOX#XtXfXsXdXdXsX%X].%X&X&X]._._.%XsXdXnXnXnXnX[.y.i.i.y.y.y.n. X[. X*X5X8.n.*X&XsXsX[...| ,.b.b. X]. Xv 8 0 c d t c b t > E 8...E v v E 2 < Y ~ 1 O ; - 2 t X : : ; # # : 0 v U v : - t *.K.5Xn.,       # X # 0 - O X - - E 8._ v # X + X @ . @ @ % & 9 & & # @ # $ & < w w w i w q q q q 9 < < < < < < $ $ $ = $ $ $ < < $ $ 1 1 2 u t 2 2 : ....t 5 t 2 b ,.E.v.D > O > - 2 ,.4X,.2 2 i i i e e i e e q < $ = = = $ $ $ < q < < q q q q q e q q q i p i g g i e e w q w i i i i f f i i w i i g g g i W -.5.5.=.^ W Y Y Z C g i i f f g g V U V V U Y U g g g f d w 9 % % & & & % % @ @ @ @ @ @ + + + % w s w f w _ *X%X4._ U U ) U ` =.` 4.5.4.w.[.[.n.*XxXMXfX*X*XsXfXMXMX*X*XmXmXfX*X*XsXfXnXfXmXmXMXMXMXMXmX5X'.'.P f y.i.2.2.u.'.%X%X X*X5X0X=X0X0XoX{.E 4.i.u.i. X X*X*X*X*X5X*X5XfXkXkXkXkXxXMXxXMXkXkX*X5XxXxXNXNXbXcXbXbXbXbXCXCXHXHXHXHXJXJXHXlX6XQ.Y.Y.Y.Y.G.G.G.Y.Q.Q.Q.Q..X.X.X.X.XXX.X.X.XQ.Q.Y.Y.Q.Q..X.XQ.Q.Q.Q.Q.Q.Q.!.Q.!.!.",
"!.!.!.!.!.!.OXOXXXXXOXOXOXOXOXXXXXXXXXXXXXXXXXXXXXXXXXXXXXXX.X.X.X.X.X.X.XQ.XXOXOXOXOXOXOX#XeXfXnXdXsXsXdXdXsXaXsXaX%X_.%X&XaXsXsXsX'.2.u.[.[.[.%X%X%X%Xn.[.n.[.u.n.fX*X*X&Xi.....v.b.n.#X#X5X) 8 v v , - : 2 > v E. XE.v.D c t $ O < W W < ; < O O : , 7 # % # : + + X X # , # # V 4.t # X @   X X E n.8.b X x c c | E v #   X @ @ @ @ @ @ % % X @ @ X o o X o o @ % $ @ @ @ @ @ @ @ @ @ @ @ @ $ o o o $ $ $ o $ O o $ $ O $ , ; O O v t > : - 5 : > c u X O : - X O 5 ! u     $ @ o $ O o o @ @ @ . @ @ & & $ @ & & $ @ & = = $ = = @ $ $ = $ @ $ & = & = = & < 9 9 9 y g f y i w w w < w 9 q e l T W N g N g i e q 1 o @ < q q 9 q w w w w 9 9 9 & & & & % % @ @ @ % % % % % % @ @ % @ @ @ % 7 f f w w w _ *X*X%Xn.4.` ` ` _ _ ..4.=._ w.n.'.&XxXMXMXMXMXMXMXkXmXmXsXfXmXMXmXfX*XsXfXMXmXMXDXMXmXmXMXMX5Xi.y.0 U u.u.2.2.y.%X%X*X*X=X=X=X0XlXwXoXn.V E ..u.n.n.+X#X&X5X5X#X+XeXkXkXMXxXxXMXMXMXfX=XeX=XgXNXNXNXbXcXcXbXCXbXzXzXlXlXcXbXHXJXHXbXzXXXY.G.G.I.Y.Q.Q.Q.Q..XQ.Q..X.X.X.X.X.X.X.XQ.Q.Q.Q.Q..XQ.Q.Q.XX.XQ.Q.!.!..XQ.!.!.XX!.",
"!.!.!.!.!.!.!.XXXXXXOXOXOXOXXXXXXXXXXXXXXXXXXXXXXXXXXXXXXXXX.X.XQ.!..X.X.X.XXXXXOXOXOXXXOXOX=XeXsXsXdXdXsXaXaX&XaXaX'._.'.%XaX&X*X*X'.y.'.%X%X%X'.[.[.'.&X&X[.+X8.8.5X[.i.[.n.n.v.b.n. Xn.n.E y , 0 d v | | E t c n.n.b.E. .5 2 < < $ 2 %.^ 1 O < 2 , : 7 , + , % % % % # , , + # X # X # X @ # X : *.8.| | E n.n.b X : : X     & & @ @ @ . .               . X X   X . @ o X . .   . . . . . X o @ @ o o @ # o @ $ # # # # # $ # # i 2 : : : O X - - X X X : : 2 5 5 X   O X .   o @ @ o o @ @ . @ @ . . . @ .     . @ . . o @ @ o o o o . o o o . . o o o o o . o @ @ @ $ & $ @ o o o X & < w q q q q < 1 q O @ o   . . o o   . . . X o X . . . @ @ + + .   + +   + + @ @ @ % @ @ @ @ @ + @ % w d f w f f U %X*XsX&Xi.8.` 4.i.4.5.w.i.p.[.i.[.fXxXxXfXfXfXfXfXfX5XfXfXfXmXMXMXmXMXMXMXmXMXMXmXxXkXMXMXkX&Xu.) 7 w _ 2.4...4.i.'. X+X X+X#X+X$Xn.J.kX=X_ v _ u.n. X+X&X&X#X XK.5XfXfXkXxXxXxXMXMX*X*XkX5XeXNXNXNXNXbXcXbXzXtXOX.XQ..XOX0XlXZXHXbXvXQ.L.G.F.F.Y.Q..XQ.Q.Q.Q.Q..XXXXXXXXX.X.X.XQ.Y.Q.Q..X.X.XQ.Q.XX!.Q.!.!.XXXXXXXXXXXXXX",
"!.!.!.!.!.!.XXXXXXXXOXOXOXOXOXOXOXXXXXOXOXXXXXXXXXXXXXXXXXXXXX.XQ.!..X.X.X.XXXXXXX.X.X.X.X.XOX0XsXaXdXsXdXsXaX&X&X&Xu.1.3.'.aX&X&X*X%X'.'.%X&X%Xi.].u.i.'. X XE.n...5X3X X Xn.K.v.,.v.n.| 0 : , 8 t ..3XiX XE.! c x.3Xb. Xv.D > t t 2 1 a ;.Y = ; t t # : , # , , , # # # # 7 # , ; X + X + , O X ; E t > c 8.v.,.D X X X : +   X # %   + . . +     .     X . + @ . @ & % @ % % % & @ % % % @ % @ @ @ @ % @ @ @ + + +     +     0 v t : - - c t X # t X O D | ,.,.,.r.| 5 o o @ .       . .   @ . . . @ o . @ . . .   . . . o . . . o @ o . o o . . . .   . o . . o @ o . o @ o . . . . . @ . @ % = < & $ = & % . X .       .         X @ @ o . . . . @ @ + + @ @ @ .     + + .     +     . % & w f f 7 f f P %X*XfX&Xn.H.` ..8.p.p.[.5X*X&X*XfXfXfXfXfXsXkXfXfXsXfXnXMXMXMXMXmXMXMXMXMXMXfXfXMXMXMXfXfX*Xi.y.f 7 % % d f E _ u.i.[.&X*X+X Xr.5.p.kXgXfX+Xf t E n. X5X*X*X&X[.[.n.+XkXMXkXgXkXxXxXfX[. X=XeXxXbXNXbXbXuXOXL.G.h.h.Y.Y.J.XX0XlXbXlXbX.XY.G.G.N.L.OXQ.Q..XY.Q.XX.XXXXXXXXXXXXX.XQ.Q.Q.Q..X.XQ.Q.Q.!.!.XXXX!.!.!.!.XXXXXXXX",
"!.!.!.!.XXXXXXXXXXXXOXOXOXOXOXOXOXXXXXOXOXOXXXXXXXXXXXXXXXXXXXXX!.!.!.!.!.!.!..X.X.X.XXXXX.XOX5XsXsXdXdXsXsXaXaX%X].u.2.2.y.].&X&XaX*X&X%X].].'.u.y.u.i. X Xv.r.n.,.n.v.v.n.,.*.D #.b.v.r.v y E v.#X X3X3X X3X3Xc b ,.E.b.x.b.c - : ; 2 $ N ^ e $ $ ; V E t : # # , , , X X # # + : 0 : O +   : + +   f n.| b  .,.E - X - O + # X , 7 @ + + +       .   .     + +   @ & % @ & & 9 7 % & & & % & & % % % & % 6 6 6 % % @ % % + # d y ; O 2 E ..v + % y d + E n.n.v.r.r.K...o X o # & & @ @ %   + @ o @ @ # $ $ . @ o . o . . @ . o . o $ o . o o o o @ @ o @ @ @ . o @ o . o o . . . .   . .   . . . . . . . +   . + .     . .   o . . X @ @ . . . . . . . . . + + @ .     . . .     . . . @ 7 w d f f w f d f '.aXsX*X*X+X4._ i.*X*X5XkXkXfXkXkXfXmXfXfXkXkX*X*X*X*X*XsXfXfXnXfXnXMXMXMXMXfX&X[.n.i.i.w.4.y._ 7 , w 0 0 7 y d v 2.n.[.[.[.8.v i p.*XeX#X4.U E 4. X+X*X+X+X5X+X[.p.[.5XfXgXxXkXxXkXgXH.n.=XlXgXNXNXbXtXh.&.*.e.N.F.G.Y..X.XOXtXCXbXlXQ.G.J.Y.D.Y.OX.X.XXX.X.XXXXXXXXXXXXXXXXX.XQ.Q.Q.Q..XXXQ.Q.Q.Q.Q.!.XXXXXX!.!.XXXXXX!.",
"!.!.!.XXXXXXOXOXXXXXOXOXOXOXOXOXOXXXXXOXOXOXXXXXXXXXXXXXXXXXXX.XQ.Q.!.!.!.!.!.!.Q.XXXXXXOXXXXX$XsXsXsXsXaXaXaXaX&X&X'.3.2.3.y.y.%X*XsX*X%X'._.i.u.u.n. X X8.,.r.,.,.*.b.E.3XW.E.D | W.r.8.*.: u. XkX3X X Xb.3Xv.,.x.D | b | E.,.> O : 1 $ 1 ^ a < 2 ` K.r.E 2 O O # : : : t v 0 ; , U U v t # X # #   v 4.t 2 ,.b.b X 2 0 - : O   + % +   + @           . +   + +   + % % + & & 9 & @ & & & % 6 & & & % & 6 7 6 9 6 % % 7 % @ w v d t b | 8.D X # % # f 0 X D 8.r.,.| D t < 2 q $ , < @ $ # & @ @ @ @ % $ & < . @ o . @ @ @ @ @ o . O @ o o @ @ o @ $ @ o @ @ @ @ $ $ $ @ @ @ . . @ @   . .   . .   . . . . . . + + . . . X X X o o o o @ @ @ @ @ @ + . . . + . . + .         . + . + . . % 9 d f v f s f d d y.*X&X&X*X*Xu...[.sXfXsX5XfXkXmXkXkXfXfXfXfXfX*X'.[.*XsXnXMXMXMXMXmXmXMXfX%Xy.4.4...4.8.4.4.u.P , 7 d y E n.+Xi.f f E 4...` U f f q g ~ E v ..i.K.n.+X#X[. X+X[.{.[.H.H.5XgX5XfXxXkX5Xp.*XNXNXxXxXlXtXY./ ] 0.e.q.h.Q.Q..XXX>X0XzXzXtXY.L.J.J.D.Y.XXQ..XXXXXXXXX.X.X.XXXXXXXXXXX.XQ.Q.Q..XXXXXQ.Q.Q.!.!.XXXXOXXXXXXXOX!.!.",
"XXOXXXXXXXOXOXOXXXXXOXOXOXOXOXOXOXXXXXOXOXOXXXXXXXXXXXXXXX.XQ.Q.Q.Q.Q.Q.Q.Q.Q.!.Q.XXXXXXXXXX!.OX5X*XsXsXsXsXaXaXsXsX%Xy.y.y.y.2.u.i.'.'.'.i.i.i.i.u.n. X*.! <.<.<.<.A.4X3XoXE.b.,.#.b.4XK.8.5 : v )  X3X3X Xx.5 ,.E.b.b. .v.E.4X| : : : < < N B 1 5.wX5X#X8.V ` E v 2 f D E ) v t , d U E E f + #   X # O   : t f X t ,. .b b t : + + + + + @     . +     @ + + % @ % 6 % @ 6 7 9 % % 6 % & 6 7 7 7 7 & 7 7 9 7 7 % & % 7 % & ) ..E ! r.r.E :   X , % 7 E y X 2 : - # X : ^ ~ ` =.1 O O $ & # @ @ @ o @ @ = 9 . @ o o @ @ @ $ $ $ . = $ o $ = = $ $ $ $ o $ = $ $ $ $ $ $ $ @ . . @ @ . @ @ . @ @ @ @ @ @ @ @ @ + X . . . X X X X X o @ @ @ @ @ . @ @ . . . .   . . . .       . @ + + .   & 9 w f P v w d d w U [.i.'.%X[.[.[.*X*X*X*X*X5X*X5XsX*XsXsX*X*X&X[.[.[.[.[.[.%X[.[.[.*XnXfX'._ 2.y.4.4.4.4.2.4.2.f 0 7 , y &XDXkXgX{.U U 5.{.=XgXxXeX{.5.;.+XkXK.4.w.u.4.K.*X#X[. X+X X XH.&XfXeXgXeX=X{.5.#XxXlXbXgX$XOXJ.} -.h.h.F.h.h.L.OXXXOX0XtXlXtXL.Y.F.N.Y.Q..XY..XXX.X.X.X.X.X.X.XXXXXXXXXXXXX.XQ.XXXXXX.XQ.Q.!.XXXXXXXX!.!.OXOX!.!.",
"XXOXOXOXXXOXOXOXXXOXOXOXOXOXOXOXOXXXXXOXOXOXXXXXOXOXXXXXXX!.!.Q.Q.Q.Q.Q.Q.Q.Q.Q.Q.XX!.Q.XXXXQ..X*X5XsXsXsXsXaXaXaXaX]._.u.y._.u.u.y.y.4.y.i.'.'.[.n. XK.,.<.x.#.| v.W.4X(.E.c.x.(.A.,.v.4Xv.v ; 2 - | iX3Xn.| > D E.E.3X3X3X3X5X8.: ; 2 : < 1 B a  XiXwXwX8.| K.L.K.5.E E E ..! v t 2 y E ) V 7 X X X X   X X   X   c ....,...v v 7   + + + @ +   + +   + % + + 6 % & 7 & % 7 9 s 9 6 9 6 7 9 7 0 9 9 7 7 7 9 6 6 @ 9 9 9 7 7 ..n.v.r.v.E 2 X   #   7 % f ~ O O O $ O O O 1 < 3 L.>.3 < $ = @ % @ % # & @ 9 w o @ O o @ @ @ $ $ = $ = = $ = = = = = = = = = = = $ $ $ $ $ $ @ @ . @ @ o @ $ @ @ @ @ @ @ @ @ @ o @ X X X o X X o o o o o o o @ @ @ @ @ @ . . +   + @ . . .       .   .   . 9 w w f U U d d d 0 7 _ 4.4.u.i.%X%X&X[.[.i.'.[.[.'.n.i.i.'.u.u.y.2.4.u.u.y.u.i.y.4.4.y.i.4._ 4.4.` ` ~ _ U ` u.E , 7 w 7 f *XfX=XxXxXxXMXNXJXNXNXNXbXJXHXJXUXKXNXxX+X=.~ ..{.=X X#X5X=XK. X*XtXkX5X=X#X$X{.J.$X0XrX$X$XD.;.%.0.F.Y..Xh.N.h.t.J..X0XcXlXtXL.Y.F.G.XX.X.X.X.X.X.X.X.X.X.X.X.XXXOXOXOXXXXXXX.X.XXXXX.XQ.Q.!.XXXX!.!.!.!.XX!.!.!.",
"XXXXOXOXXXXXOXOXXXOXOXOXOXOXOXOXOXOXXXOXOXOXXXXXXXXXXXXXXXXXXX!.!.Q.Q.Q.Q.Q.Q.Q.Q.!.!.Q.!.XX!..XoX5XeXsXaXdXsXaXaXaX&X].u.y._.u.y.y.y.u.'.[.i.i.i. XgXn.*.v.#.| #.(.8X4X4Xb.#.x.b.(.v.<.E.v.u O : : E 3X .b ,.x.b D b.3X5X5X4X3Xn., ; 0 g V a u 8.#X4XwX5Xr./ t.K.K.oXK...B D B v t 0 0 d v y , X #     # # X X X X v E b E ,.| ..f # +     + + +     + + % + % & % & 7 % % 7 w d 9 & 7 7 w w 7 w 9 7 7 9 9 9 6 % % d d y 9 @ v 8.r...v O # :     %   @ , f ! - O O O O $ 1 * O S OX<.4 1 < 9 = % 9 < 9 & e i o $ $ @ $ @ $ = = = * = = 1 1 = = = = = = = = = = = = = = = $ $ < . & & @ $ & @ @ & $ @ @ @ @ @ o @ @ o @ @ X @ @ @ o o o o @ # $ @ % @ o . o @ @ @ @ @ . .           . . @ w y i v U ( d d d w % 0 ( ( _ 4.i.y.y.i.u.4.4._ ) U U P f _ 2.y.i.i.'.u.w.u.y.u.u.i.[.i.i.i.4.( ) _ ( _ _ U _ u.f + 7 8 , v +X=X*XtXgXgXxXjXxXjXjXxXbXNXZXcXbXbXNXNXJXkX#X~ _ {.=X+X#X=X[.+X5XeXeX*X5X0X0X$XH.p.9.9.%.-./ / ;.e.h.L.Y.F.0.;.%.9..XlXcXrX>X.XY.I..X.XXX.X.X.X.X.X.X.X.X.X.X.X.X.XXX.X.XXXXX.X.X.XXX.XQ.Q.Q.!.XXXXXXXXXXOXOX!.!.",
"XXXXXXOXXXXXXXXXXXXXXXOXOXOXOXOXOXOXXXOXOXOXXXXXXXXXXXXXXXXXXXXX!.Q.Q.Q.Q.Q.Q.Q.!.!.!.!.XXXXXXOXOXOX5XeXsXdXsXaXaXaXaX].i.u._.u.y.y.u.'.[.%X'.'.'.fXkXn.*.*.*.,.4X8X8X(.v.c.v.A.<.E.A.b.E.8.- O O t ..E > X  .n.,.b c | ,.v. X3Xn.0 # 2 ..t...2 r.wXwXiXiXoX*.v.$XoX#XiX,.| E c f 2 t t : 0 0 : # 0 7 X @ , # X     8 0 X t E ) 2.U % +     + + +     + + % % 6 7 6 7 9 & % 9 s s 7 % 7 7 9 s s w 9 9 9 s s w 9 6 9 d d d w % # ; , ; ; O O o X % & & @ X $ E B O O < O N ;.S * m M.qXS < 2 9 & < i 9 w 9 p i o $ = = = * = = = = = = * 3 3 = * = * = * = 1 = = = = $ $ = $ $ q o = < $ = < $ & = $ @ @ @ $ @ o # @ @ @ @ @ @ $ @ @ @ @ $ $ $ $ @ @ @ . . . o o @ @ @ . . . .   . . o X @ f f f U Y Y f d d d 7 % d U _ 2.4.2...4._ _ ) ( ( ( _ y.i.'.i.u._ ( _ _ _ _ ( ( ( U U ( 4.4.4.` U f ( U U _ 2.U 8 7 7 8 0 _ *XeXgXhXtXtXrX0X1X@X@X1X$XOXqXhXcXcXcXlXSXlXkXn.;.H.{.+X+X+X=X#X=X=X$X=X=X=XOXJ..X{.t.D.e.9.9.l.D.l.6.-.&.>.;.-.9.J..X@X$X>XXXXXQ.Y.XXY..XQ..X.X.X.X.X.X.XQ..X.X.X.X.X.X.X.XXX.X.XQ..X.XQ.Q.Q.!.XXXXXXXXXXXX!.!.!.",
"XXXXXXXXXXXXXXXXXXXXXXOXOXOXOXOXOXOXXXOXOXOXXXXXXXXXXXXX!.!.!.!.Q.Q.Y.I.Q.Q.!.!.Q.!.Q.!.!.!.Q.XXXX.X#X5X*X].'.].].].].].'._.i.i._.u.i.i.i.'.'.%XsXMXkX5XK.K.8.r.wX4X4XE.V.4XW.(.4Xx.v.v. .t X ; : d 0 : t > D n.,.v.t X - : t D v : 0 t _ n...: 5.iXwXwX0X4X4X6XwXvXlXvX XB E v c t 0 0 : : , , # 0 f #   , +     X   X   : : 8 ..v +   +   + + @ + +   + % % 6 9 7 7 9 % @ 7 w d w 7 9 7 9 s d w 7 7 9 d d d s 9 d d d f f d , # # : t : , & + & % & & $ O - u B q.t.N u >.O.u ] 6XyXO.* 1 q 9 9 i 9 w w g p . = 1 1 = = = = O 1 3 1 1 3 * * * 1 3 3 1 * 3 3 1 = = * = = $ = i o < < $ < q = < < $ @ o $ $ # o $ @ @ @ $ @ @ % o @ $ & = $ @ @ $ $ @ o o X o @ @ @ @ . o @ o . . o @ o $ v g f Y Y E ( P f d 7 % @ w f f f P d d y P ( ) ( ( ( ( ( U P f d _ i.y.n.*X*X*X&X'.u.4.` _ _ _ U w % % 9 U P , : 7 7 d t u.kX0XtXcXlXtXtXtXtXtX0X>X.XXXY.z.J.1X0XgXbXlXkX+Xp.5XH. X$X#X=X$X#X=X=X$X$X$X$XOX.X$X.Xt.l.t.D.}.l.e.6.%.} ] >.l.}.J.J.p.9.0XXXG.G.Y.XX!.Q.Y..X.X.X.X.X.X.X.X.X.X.X.X.X.X.X.X.XXX.XQ.Q.Q.Q.Q.!.XXXXXX!.XXXXXX!.!.!.",
"XXXXXXXXXXXXXXXXXXXXXXXXOXOXOXOXOXXXXXXXOXOXOXXXXXXX!.!.!.Q.Q.Q.Q.Q.Q.Q.Q.Q.Q.Q.Q.!.!.!.!.!.!.XXXXOXOX#X5X'.y._._.'.'._._.i.y.u.3.y.'.i.i.%X[.5XMXxXgX5X5X4Xr.| 4XwXK.#.b.E.v.W.4X(.v.K.E X X # , # , ; : 2 b v. X3X .- - : O X # ; : y 2.u.f : ..8.n.$X4X$X4XwXwX0XvXwX Xv t v f 0 - , : X X # : : y 7 7 &   + + +   X # : X # 0 ,   + % + + @ % + + + @ % % 6 7 s 7 9 % + 6 % 0 9 9 w 9 9 w d w 7 9 w d d d d 9 s f f U P f 0 , y v y 7 & 7   % 9 9 & o a *.,.+.<.<.S m S S u S 7X>XC O e e < 9 i 9 i e p i o 1 e 1 = 1 1 1 3 1 p 3 3 3 3 3 3 3 3 3 3 3 j 3 3 3 1 1 = = $ = p @ 1 < < < 1 q < < $ & $ $ $ & $ $ & @ # # @ o @ @ @ @ = < = $ @ @ $ @ o o o o o @ $ @ o o @ @   . . . @ & f U f ~ ~ E ` U s 7 7 % @ % + @ % # d f f U U U f d d U U f d U i.%Xi.[.fXMXmXMXxXkXMXxXxXfXfX*X&Xw.U f w 9 % # # 7 P d t  XkXwXlXtXhXuXuXlXuXtX>X0X>X>X0XOX.XL.h.D.L.eXlX0X;.5XeX Xp.{.+X{.{.+X+XOX$XOXOX$XOXL.t.e.e.t.l.e.;.6.}.rXtXL.t.l.l.e.;.-.l.qXL.F.G.XXXXY.XXQ..X.X.X.X.X.X.X.X.X.X.X.X.X.X.X.X.XXX.XQ.Q.Q..XQ.!.XXXXXXXXXXXXXX!.!.!.",
"XXXXXXXXXXXXXXXXXXXXXXXXXXXXOXOXOXOXXXXXOXOXXXXXOXXXXX!.Q.Q.Q.Y.Q.Q.Q.Q.Y.Y.Q.Q.Q.!.!.Q.!.!.!.!.Q.OXXX#X=XsX[.u._._.'.'.'.u.u.'.&X&XsX5X*X&X&XkXNXMXfXfXkXwX,.v | | *.c c ,.! m W.4XoXv.v # # O # # # : : 2 ; t b.n.c X : : ; : + , , , f v : 0 0 X $ Z R.$XoXwX,.! v.wXwXc ; c v v t 0 0 , 7 d t 0 0 , 7 @   + , @ + + X # # X #     + +   + % & @ + + % & & 6 7 s 7 s % + % % 6 6 6 0 0 0 w f d w w w d d d s 9 s f f v f f d y d v d y 0 7 + % % $ $ r K.tX6XC.4 X.!.O.B O.* j <.%.1 1 e < < < w 9 i g Y C O q e 3 3 3 3 3 e 3 j j 3 3 3 3 3 h 3 j j k k 3 3 3 3 3 1 = = 1 l $ 1 q q 1 1 1 < < $ < $ $ $ < $ $ $ @ $ $ @ o @ @ @ $ = < = $ @ $ $ $ o o $ o o $ $ $ @ @ @ o . . . . @ , g Y V E ~ ~ ` U y w f w & w f _ 4.y.i.i.i.i.i.u...U v f f f _ [.fXfX*XxXMXxXxXMXMXxXxXMXkXkXMXMXkXfX*X*X%X4., # 8 8 v t t [.fXwXlXrXtXuXuXqX0XqXqXqX>X6X>XQ..XOX.XJ.t.t.$XwX=.J.=Xw.v ~ 8.p.H.+X=X0X0X+XOXL.t.5.D.@X1Xe.%.{ 0.XXtXzXzXcXhXcXcXeX.X@XxX0XL.Y.Q.Q.Q..XQ.Q..X.X.X.X.X.X.X.X.X.X.X.X.X.X.X.X.XXX.X.XQ.Q.Q.Q.Q.Q.!.XXXXXXXXOXOXXXXX",
"XXXXXXXXXXXXXXXXXXXXXXXXXXXXXXXXOXOXXXOXOXOXXXXXXXXX!.Q.Q.Q.Y.Y.Q.Q.Q.Y.Y.Y.Y.Y.Q.Q.Q.Q.Q.Q.Q.XXOXOX.X=XeXMXnXsXsX&XsXmXnX&X%XfXmXfXkXxX5Xn.8.t.wXkXgXwXDXiX..v E v.K.D > 5 D > c | v.E X X 0 0 % 7 w : : : - - > > - t : : ; ; : , , : t t 7 v 2 # # 2 ..$XoX9.c D v.,.K.B 5 t t t f f f y d v v d : # #   + + % @   +   # , # X   @ % @ + % 7 % + + + & 6 6 w 7 s w s %   % % % % % 0 0 w w f d d d d d d d w 9 w f f f f f f d f f d d w 6 + & , @ $ 1 ..K.8XM.* F 8X<.j j O * O = = 1 e g q < i w i i N C . j j 3 e e 3 j 3 3 j k 3 3 h h j h j k k A A j j 3 1 3 1 * = q l $ q q q 1 1 1 1 q < < < < < < < $ $ o $ $ $ @ $ @ @ $ $ = = $ @ $ $ $ o $ $ $ $ $ @ $ = $ o . o . . . o < N ~ Y E ~ ^ U f w 7 0 w 4.&X*X*X&XfXfX5XfXfXfX=X*X*X+Xi.4.i.=XfXkXxXMXMXMXMXMXMXNXMXMXMXxXxXxXxXxXxXxXxXkXxXu.y : 7 7 0 : r.xXkXtXtXrXpXuXqX6XqXwXqX6XOXOXOX6X$XY.Y.OXOXtXgX~ v ~ ~ ~ 5.5.=.r.eXNXNXlXtXeX#X.X=XgXlXlXrX.X}.rXbXlXzXHXKXHXKXKXKXJXZXKX1XY.XX.XY.Q..XQ..X.X.X.X.X.X.X.X.X.X.X.X.X.X.X.X.X.X.X.X.XQ.Q.Q.Q.Q.Q.Q.XXXXXXXXOXOXOXOX",
"XXXXXXXXXXXXXXXXXXXXXXXXXXXXXXOXOXOXOXOXOXOXXXXX!.!.!.Q.Q.Q.Q.Q.Q.Y.Y.I.Y.Y.Y.Y.Q.Q.Q.Q.Q.Q.Q.XXXXXXOXeXMXMXMXIXIXIXMXmXmXmXmXmXfX5X X#Xn.8.,.r.n.oXwXlX5X8...t.#X5Xr.c u : D D 2 X - O : : , 0 7 , t : - D ,...! t > 5 - - O - 0 : : 8 t 8 8 v ; ; $ $ < Y W 5 D 4XvXE.v.! > - - t v v v d f f v f : # + + 0 % @ 7 % & . @ # # # @ 9 7 % + @ & @ + + @ & 9 9 s 7 0 s s % + 7 7 6 6 6 0 0 0 w d f d d d d w d w 9 w d f f f f f d P d d d d 7 + % 9 $ $ < $ u W 4 4 m J F 4 * * 1 < q q q < e q < i < $ q z T $ l l e p j 3 3 3 3 j j h h j h k k k A A A A j j 3 3 3 3 * = 1 l $ q e q 1 1 1 1 q < < < < < < < < $ o $ & $ $ & $ @ @ $ $ = $ $ $ $ $ o = < = = 1 = $ = $ @ $ < . . o o < V ~ Y Y ~ ~ U d y w & U &XfXkXxXkXMXMXMXNXMXNXxXfXxXMXMXxXkXfXMXDXNXMXMXxXMXDXxXxXNXMXMXNXMXMXkXgXgXfXfXxXNXkX8.7 7 v v c ..5XvXgXlXlXuXuXtXuXuX6XOXOXXXXXOX>XOXL.L.OXeX5X;.V 5.K.[.n.p.{.+X=XlXxXxXNXlXgXxXNXxXlXcXlXhXbXcXlXcXZXCXzXCXCXHXHXKXUXJXZX0X.XQ.Y.Q..XQ..XXXXXXXXXXX.X.X.X.X.X.X.X.X.X.X.X.X.X.X.X.X.XQ.Q.Q.Y.Q.!.XXXXXXXXOXOXOXOX",
"XXXXXXXXXXOXOXOXXXXXXXXXXXXXXXOXOXOXOXOXOXOXXXXXXX!.!..X.X.X.XQ.Q.Q.Y.Y.Y.Y.Y.Y.Q.Q.Q.Q.Q.Q.Q.XX.X.XrXlXDXMXMXMXMXDXMXfXfXmXMXfXfXeXwX X,.v.b.V.b.v.b.4Xv.n.iXgX#Xn...D c u b | u ; : ; : + : , , , : - E K. Xn.3XE.b - D 8...v : - : t v 0 7 y # , O $ o O # - v.iXwXiXoXD c  .v t t v v f f w y y #   + 7 f 7 + 9 w w @ @ # & & 7 d 9 % + @ % % @ @ @ % 6 9 s 6 7 s s % + s s 0 7 7 s s w s f f d s d w w d w w d d f f f f d f P d f f y 9 @ % , < o < : O < - S M.m m g.S * 1 p e < p p i q < i & o o < e . p z j j j 3 3 3 h j j h h j j k k A A A A k h j 3 e 3 3 1 = 1 l $ q i t q q q q e 1 < < < 1 2 < $ $ $ < < $ $ & $ @ $ $ = < < = $ < < O 1 1 < < 1 < = = $ @ = 9 o . o o < V ~ Y W ~ ^ ~ f d f d 4.kXxXxXxXMXxXeX*X=X*XeXkXNXJXNXxXxXMXMXNXMXMXNXNXMXMXkX*X=XxXNXNXxXNXNXNXMXkXeX=XfXfXkX Xy 8 8.n.) D K.xXlXtX0XtXuXtXtXqXOX.X$X$X$X6X$XOX.XL.L.H.~ ~ H.gX5Xn.i.+XeXeXeXgXgXgXxXtXgXtXrXlXbXbXbXlXcXlXrXrXhXzXbXbXcXbXZXJXKXHXHX0X.XY.L.XXXXQ.XXXXXXXXXXXXXX.X.X.X.X.X.X.X.X.X.X.X.X.X.X.X.X.XQ.Y.Y.Q.XXXXXX!.XXXXXXXXXX",
"OXOXOXXXXXOXXXOXXXXXXXXXXXXXXXOXOXOXOXOXOXOXXXXXXXXXXXXX.XXX.X.XQ.Q.Q.Q.Y.Y.Y.Y..X.XQ.Q.Q.Y.Y.XX.XOXlXNXNXDXDXmXmXkXfXkXfXfXfXfX*X5XwXn.| ,.,.,.x.v.,...R.kXfXK.i.n.8.D > 5 c D D t X - 0 , : + : t t 5 b.3XE.E.b.b. .| b.3Xn.n..., O 0 t v U 0 , # $ $ : # - 2 v.4XoXiXE.B v.iXK.| : , t y f d 0 #     # 9 f & + % 9 w & 9 9 & % 0 f w @ + % & % @ @ @ % & 7 s 6 7 0 s % % d d d s 9 s w s s f f d s d w 9 w w s d d f f f f d P v y f f w 9 @ 7 , & & # $ : 1 W !.;X<.C.6XB.3 1 e e q i i i w < f i q $ O o . l C C j j j 3 j j j k j j k k A A G A A A A j j 3 j 3 1 1 = q N $ e i p i i i e q 1 < 2 < 2 q q $ $ $ < < $ $ & $ @ $ $ $ < < = = < < $ 3 3 1 1 < < < = $ @ @ $ @ o o o < V ~ Y ~ ^ ^ ~ f d f P &XkXMXJXeXH.w.w.w.5.5.p.+XeXgX1X+X+X=X=X5XxXNXxXNXMXNXkX=XeXkXxXeX*X=XfXxXNXxXfXeX*X=X5X4.# , n.sX]...r.gXlXeXwXqXuXtXrX6XOXOX$XOXQ..X{.L.L.t.9./ ` =XeXH.[.n.[.eXfXfXgXxXkXgXgXxXxXNXxXgXxXNXcXhXlXyX1X>XqXuXzXlXlXlXbXJXKXKXHX0XL.Y.Q.Q.Q.XX.XXXXXXXXXXXXXXX.X.X.X.X.X.X.X.X.X.X.X.X.X.X.X.X.XY.Y.Q.XXXX!.!.XXXXXXXXXX",
"XXXXXXXXXXXXXXXXXXXXXXXXXXXXXXOXOX!.OXOXOXXXXXXXXXXX.X.XXX.X.X.XQ.Q.Q.Q.Q.Q.Q.Q.XXXXQ.Q.Q.Y.Y..X.X0XNXJXxXMXxXkXxXxXkXkXfXfXfXfXfX5X XE D | | |  .| | D 8.n.{.i.i. X X! c D #.,.,.v.*.E 0 ; y t : ; : > x E b.E.b.x.x.,.b.b.b.b.3Xb - 0 0 d I , X y g ; O : 2 X ! R.R.iX4XR.4XoX3X Xt : t t 0 y 7 X   w s 7 w 6 @ % 7 9 0 i w , & d P 7 + + % % % + + @ % 6 7 s 7 7 w s 7 % d d d s 0 w w w w d f d d d w 9 d 0 d d d f f f f d v d y f d w , @ 7 & @ 0 $ @ , < 9.>Xq.X.W.!.g.4 1 e q q p w q q 9 i g U z l e 1 R S C j k k h j j j j j k A A G G ' ' G G k j h 3 e 3 3 1 1 e C $ i i g i i a t q < 2 q 1 q q q < < $ 9 < < = < & $ $ & $ = < = < 1 1 = e e 1 1 1 q 1 = @ $ $ $ = @ o o < V ~ Y Y W ~ Y y f d _ kXMXMX+X5.;.w.H.l.5.w.{.=X{.H.{.+X+X{.H. X*X=XeXfXxXMXNXxXgX5X#X@X+X+X+X1XgXgXfXfXfXgXgXi.y # ) &X5X X..r.0XtXtXtXlXtXrX6X.XD.t.K.L.oXD.w.8...Y ..H.H.i.i.&X*X*XfXfXgXxXMXxXxXxXgXxXNXNXMXcXcXbXZXlXuXzXzXrXqXqXtXcXZXNXZXKXKXbX1XL.Q.XX!.!.XX.XXXXXXXXXXXXXXXXX.X.X.X.X.X.X.X.X.X.X.X.X.X.X.X.XQ.Y.Q..XXXXX!.XXXXXXXXXX",
"XXXXXXXXXXXXXXXXOXXXXXXXXXXXOXOXOX!.OXOXOXXXXXXXXXXX.X.XXXXX.X.XXXXX!.!.Q.Q.Q.Q.XXXXQ.Q.Q.Y.Y..X.XtXNXxXkXkXkXxXkXkXgXfXfXfXkXfXfX5X+X..8.r.,.| ,.,.D  .,.*.v.n.n.5X,.! b.E.E.3XE.oXn.v.v t D E | b > - - > x./.b.E.b.b.E.b.b.b. XE , 0 8 O : # =.#X Xv.E : - 2 v.oXoXiXiXiXwXoXkXK.2 2 - , y 0 %   # ( ( & 9 , + 7 w w y f i i w f U 7 % + % % % + + @ % 7 7 s 7 7 w d 7 % s s d w 7 w w 0 0 s f d s d w 0 d w w d d f f f f d f w d d w 0 & + & # , & & & # $ t a * 4 ;.G.q.* * 1 < < i w q q 2 q i g e p 1 $ R A A A k k j j j j j j A A G G ' [ [ [ G k j j 3 3 3 3 1 = p l = g i a i t g t q 1 q t 2 q e t q < $ < < < < < < & & = & < < = q e q = u e 3 3 3 q q = $ $ $ @ q $ o o < N W Z E E ~ Y f f y w.xXMXfX5.=.H.{.{.{.H.+X1XeX*X{. X*X X+X*X*X*X*X+X*X5XeXeXeX=X#X*X=X=X=X=X=X1XfXgXeXgXeXeXn._ f t [.5X5X..r.lXlXlXlXrX@X@X{.L.t.9./ =.=.W ..D.r.E w.5.4.5.[.fX*X5XfXkXxXMXxXNXNXxXxXNXNXcXxXxXbXcXlXhXhXhXuXuXuXuXuXbXbXbXZXHXHXZX>XY.Q.Q.XXXX.XXXXXXXXXXXXXXXXXXX.X.X.X.X.X.X.X.X.X.X.X.X.X.X.XXXQ.Y.Y.Q.XXXX!.XXXXXXXXXX",
"XXXXXXXXXXXXXXOXOXOXXXXXXXXXXXXXOXOXOXOXOXOXXXXXXXXXXXXXXXXXXX.XXXXXXXXX!.!.!.!.XXXX.XXXXXY.L.Q.OXxXNXMXxXMXxXxXkXgXgXgXkXfXfXfXsXfXxXfXMXkX#X X .D v.E.r.| ..b.v.n.v.E.3XE.x.,. .| D b t c v ! D D > - > D  Xb.v.b.b.v.E.E.b.b.E. .: O c E t 5 R.E.,.,.E. .> D 4XoX#XR.K.wX0XR.5XD 2 U U y y #     y ( 2.w % 0 % 9 f y f f f Y U ( f & @ + @ 6 % % + % 6 7 9 s 7 6 9 d 7 % f d s d 7 7 0 9 % w s w d s w w 9 0 d s f f d d d f d w d d w w 9 @ , % & 0 7 & 9 9 : : $ O 1 u 1 . o $ = $ 1 < < 1 < 1 $ < < < o 1 R S C A A j j A A z j k A G A ' ' ' [ ' A k k h 3 3 3 3 * 1 p g $ g i e i i a p q 2 q e q e i i q < 9 w 9 < 9 9 w < & & & < e < q q e = j p 3 e 3 3 1 = $ . O @ $ $ o o q V W V Y Z E f i V d [.MXkXp.w.p.H.*X*X=X+X=XgXfX=X*X+X=X*XeXeX*X+X=X*X*X5X5XeX=XeX5X=X=XeXeXeX=XeXeXgXfXfXeXkXn.4...t n.5X..Y {.tXlXoXe.9.{ Y T ;.=.%.*.r.Y V +X X~ p.p.5.4.i.fXfX=XfXeXkXNXNXcXcXcXbXcXcXbXNXNXcXlXjXhXhXhXzXzXzXcXzXVXGXbXHXZXHXbXcXOXQ.Q.XXXXXXXXXXXXXXXXXXXXXXOXOXXXXXXXOX.X.X.X.X.X.X.X.X.X.X.X.X.XL.G.Q.XXXXXXXXXXXXXXXX",
"!.!.!.XXXXXXXXOXXXXXXXXXXXXXXXXXOXOXOXOXOXOXXXXXXXXXXXXXXXXXXXXXXXXXXXXXXXXXXXXXXXXXXXXXXXQ.Y.Y.OXlXNXMXMXxXkXxXtXtXgXgXxXfXfXkXkXfXfXkX5X5X5XvX*.| E.E.b.v.v. .x. . .,.,.,. . .| #. ...| b D ,.| D b 5 -  .E.b.E.E. .D E.3XE.3X3X..- D n.E. .5 v.v.x.| ,.4X|  .oX Xr.a a t.wXvXK.2 O w P U 0     f U d 2.P % 9 7 , f f U V V Y ( ( d & @ + @ 6 % % % % 6 7 9 s 7 6 9 d 7 % d d 0 w 7 7 7 7 % s s w d s w 9 9 w d d f d f f y d w w d f d d & @ 9 & % , & & 7 & # : 2 1 $ $ < = = 1 e 1 p a N g 1 j e a p l $ 1 ] R C A A j A A C j j G G G G G ' G A G A k k j h 3 3 1 * 1 p e o i p a a p g p q < q q q i p i q q w w w 9 q q q < < 9 < < e 1 q e u = j j 3 e u 3 3 = * . $ $ $ o o o 2 N Y V V Y E i i f U *XxX5Xw.w.n.{.=X5X=X=XeXeXeXfXfXeX=X=XfXfXfXfXeX5X5XeX5XeX=X5XtXeXtXeX5XeXeXeXeXgXxXxXfXfXn...i.d =.4.4.+XH.K.;.t.L.1X0X}.J.@X=X1XeXwX0X^ Z f ..w.i.p.i.[.fX*X*XfXfXxXbXNXbXcXcXcXbXcXbXbXbXcXzXlXhXhXcXCXZXZXZXZXHXCXbXHXZXbXlXlXOXQ..XXX.XXXXXXXXXXXXXXXXXXXOXOXXXXXOXOX.X.X.X.X.X.X.X.X.X.X.X.XOXQ.L.Q.XXXXXXXXXXXXXXXX",
"OXOX!.XXXXXXXXXXXXXXXXXXXXXXXXXXOXOXOXOXOXOXXXXXXXXXXXXXXXXXXX.XXXXXXXXXXXXXXXXXXXXX.X.XXXQ.L.G.OXbXNXNXMXxXgXgXeXeXfXfXfXfXfXxXfXfXkXfX5X5X5X5X| v.W.E.b.c.v.H #.| D D b.E.A.A.A.c. .,. .,.#.| D D | c > ..n.r.n.8.c - ,. X Xb.3X .b v.b.x. .H | E.A.b.v.(.A.5 ; 2 2 # , i ` n.D O < @ + &   # , ( P w P ) % 6 7 & f U U V E _ _ U w & % + @ 6 % % % % 6 6 9 s 9 6 s f 7 % d d d s 7 7 9 9 6 w s s d w 0 9 9 w f d d d f d w w w f P v v f & + 9 7 , 7 7 & & # # < 2 1 < q N e p j C l N C R C j C N T N ^ 1 = &.A C A k j A A A j A ' ' ' ' A G ' A A Q ' A k k j 3 1 1 1 e e $ e p g a i p e i q q q q i p i q q < < w w w w w < 9 9 q q i q 1 e p * j j e j p 3 3 1 = $ = $ $ o o # q N Y Z v W ^ f f w _ fXkX=Xp.n.+X=XeXfXfXfXfXeXeXfXfXfX*X5XfXfXxXxXxXxXkXkX5XfXeXeXgXtXeXeXtXeXeXgXgXfXgXgXkXtXn.4.{.~ v u.eXfXkXeXK.wXgXrXrXtXhXxXgXtXcXtXlXwXg U i.4.[.[.p.{.fX*XfXfXxXxXcXcXcXzXzXzXZXbXbXbXcXcXjXhXuXhXzXCXCXCXCXcXbXVXHXHXcXgXcXbX$X.X.XXXXXXXXXOXXXOXXXXXXXXXOXOXOXXXXX.X.X.X.X.X.X.X.X.X.X.X.X.XoX.XY.Y..XXX!.XXXXXXXXXX",
"OXOXXXXXXXXXXXXXXXXXXXXXXXXXXXXXOXOXOXOXOXOXXXXXXXXXXXXXXXXX.XXXXXXXXXXXXXXXXXXXXX!.!..XQ.Y.G.G.OXNXJXNXMXMXkXeXfXgXfXfXkXfXfXkXkXfXfX5XfXxXDXn...iX8XA.v.c.x.#.x.#.v.b.b.A.A.A./. . .E.x.,.E.b. .D ! b X t E D t t : X 0 |  X3Xb.b x.b.v. .| b.H b.E.b.A.v.4X5   O # o , : O $ O   , # +     + y 0 7 0 7 U 7 % 7 & d v V v ( _ ( P w 6 % + @ % 6 6 % % 6 7 s s 9 7 s f 9 @ s s s w 9 7 0 7 9 9 9 w w 0 9 0 w y d d f d f d y 9 w U ( U U f 7 @ & & , 9 & # & , 9 2 q q e N / Z Z S Q S A Q Q S B S W ] Y W 1 1 { C z z k j C Q A A ' ' G ' G A ' A j e k ' A Q A j e 3 u 1 p p $ p g l p e p e e q q q q e e q e e < < q i 9 < w 9 9 9 w i l i 1 e p = j j e j j u 3 1 3 1 1 = $ o o o q V Y V V E Y v Y y 4.fXgX+Xp.H.=XfXfXfXfXfXfXfXfXfXfXfXfXfXfXkXxXxXMXMXMXMXkXkXgXgXgXgXgXeXeXgXtX=XfXfXxXgXxXtXn.8.r._ v n.eX[.=XeX=XgXlXlXtXrXtXlXhXeXtX$XL.D.=...H.[.H.p.[.+XeXeXfXfXMXNXNXcXzXzXcXVXbXbXcXbXbXcXlXhXhXhXzXcXcXzXzXhXzXVXCXbXtXxXHXbX0XXXXXOX.XXXXXXXOXOXXXXXXXOXOXOXOXXXOX.X.X.X.X.X.X.X.X.X.X.X.X.X.XoXQ.Y.!.XX!.XXXXXXXXXX",
"OXOXOXOXOXXXXXXXXXXXXXXXXXOXOXOXOXOXOXOXOXXXXXXXXXXXXXXXXXXXXXXXXXXXXXXXXXXXXXXXOX!.XXXXQ.F.F.L.OXNXZXMXMXMXxXgXfXgXgXxXxXfXfXfXfX5X5XfXfX X X,.b.3XE.b.c.A.x.x.v. .H ,.b.3XE./.A.x.b.E.v.D ,.3XE.b.n. .: X # ; + : , : X ; v ..b > ,.,.v.#.#.b.H H /.b.E.A.b.D : #   X # # X X X X @ + + + @ % 7 + + s 6 f 9 % 7 & 0 v U U Y _ U P s 6 % + @ % % % % % 7 9 s d s 7 s f 9 + s s 9 9 0 7 9 % 7 7 9 9 9 9 0 y d y 7 w U U f f d 0 f ( _ ( U f 9 # , & # & & & 9 y w , < 1 2 C { Q S A Q S F ' ] Q A ' F ] ] T $ 1 ^ C j C C j A A C A ' A A G F ' ' 3 . O * z ' ] A A A j p 1 e e $ N Y C l i e e q 1 q e e p e e e e 1 < q q 1 q i w q w w g l i q e a 1 l j p j p e 1 1 e e q = $ o o o q V Y V Y E N g Y i p.fX=XK.p.H.*XfXfXfXfXfXfXkXkXfXfXfXfXfXkXkXfXkXxXmXfXfXxXxXxXxXkXkXgXkXlXeXK.w.=XNXxXxXlXtXt.8.n.~ _ p.n.5.{.tX5XtXtXlXvXlXqXqXuXtX>Xt.t..X5.=.H.p.i.w.H.+X*XfXfXfXMXMXMXcXzXzXcXVXzXcXbXCXCXbXbXcXcXzXlXzXzXzXzXzXVXCXbXlXrXbXKXZX0XXXXXXX.XXXXXXXOXOXXXXXXXXXXXOXXXXX.X.X.X.X.X.XXX.X.X.X.X.X.XQ.Q..XQ.Y.!.XX!.!.!.!.!.XX",
"OXOXOXOXOXOXXXXXXXOXXXXXXXOXOXOXOXOXOXOXXXXXXXXXOXOXXXXXXX!.XXXX!.!.!.!.XXXX!.XXOXQ.!.OXY.N.N.L.@XbXZXNXMXMXkXkXtXfXkXkXxXmXxXfXfXfXfXkX5X..,.v.c.H H K A./.x.x./.H 5 - c | #.#.b E.3Xv.b.D x ,.3X3X5X..: : ; # , , , , , X # X X b ,.v.v.#.c.x. .c ,.b.3XE.E.E X # @ # X + X o # & % + + % + + + 7 0 d w 0 % % 9 6 7 f U v U ( U U s 6 % + % 6 % % % 6 7 9 s s s 7 s f 9 % d s d d w w w % 7 6 7 7 , 9 w d d y 9 0 U U v f f w U _ _ U U P w @ & $ @ 9 w w w y i 9 w 1 1 l ^ } S S A A A ' ' A A ' A Q Q l O 1 ] z z C j j A A A A Q A F ' ] &.Q * = >.z * z R A A C j j e l N $ N C Z T N p q q 3 q q e p e q e e 1 1 q q q q i w < w i g g i e e p = j j p j u e 1 = q e e = $ o o # w V Y Z Y Y v g g i p.5X=XK.H.{.eXfXfXfXeXfXfXfXfXfXfXfXfXfXkXxXfXkXxXfX*X*XkXxXgXkXgXkXkXxXgX+Xp.p.eXxXNXbXbXgXn.n.*X....n.../ 0XwX0XiXwXwXtXtXrX0XrXqXqXh..XtXH.8.[.H.H.n.[.+X+XeXMXMXMXMXxXjXlXcXCXCXbXbXCXCXCXbXbXcXcXlXhXzXzXzXVXVXVXCXbXbXtXcXHXZX0XXXOXXXXXOXXXOXXXXXXXXXXXXXXXXXOXOX.X.X.X.XXXXXOXOXXX.X.X.X.XQ.Q..XQ.Q.!.!.!.!.!.!.!.XX",
"OXOXOXOXOXOXXXXXOXOXXXOXOXOXOXOXXXXXXXXXXXXXXXXXXXXXXXXXXX!.XX!.!.!.!.!.XXXXXXXXXXQ.!.OXY.N.N.F..XcXJXJXNXMXkXgXgXgXkXkX5XfXxXkXxXfXMXMX X|  .| D H M n x.b.x.b.| b | - 5 - > - 2 E.5XiX4X .t D | | ..t # 0 X % % % , % # # % X X  .x.v.#.,.b.v.v.5 - | ,.x.(. .# # # @ + X X # 0 7 % +   % + % + 7 f d d + + % w 9 7 f P f U U P U d 7 6 + % 7 6 6 6 6 9 9 9 s 9 7 s f 9 % f f P f y w s 7 7 6 & & & 9 w i f f d y f f U f f y U _ _ U P U w @ , < < w f i w w i < q q 1 < l ] Q ' S A ' ' G G A G F ' C 1 o e { z C j p j C A A A ' ' ' @.:.:.' * 1 -.N $ q = * j e e j p p p = i e p C T Y l z C C N N C l z a p p i p i e q i q < q i g g g i e p = p p p p j p 1 = e e q < @ . o # 9 g N Y Y V i N f V p.+X#XH.H.+XfXeX*X*XfXfX5X5XfXfXfXfXfXkXxXxXxXkXfXfX=X*XxXxXkXkXkXeX=XeXtX$XH.{.=XgXgXgXxX5XK. X#X*.! ..c %.4X4X8X4XW.oX6X0XeXqXuX>X>XXX}.{.J.r.n.w.p.n.&X*X[.+XfXxXNXMXxXxXcXCXZXZXZXCXCXbXcXcXcXcXbXzXzXcXVXVXVXVXCXbXvXCXzXbXHXbXqXXXOXXXXXOXXXXXXXOXOXOXOXOXXXXX.X.X.X.X.XXXXXXXOXOXOX.X.X.X.X.X.X.X.XQ.Q.Q.!.XX!.!.XXXX",
"OXOXOXOXOXOXOXXXOXOXOXOXOXOXOXOXXXXXXXXXXXXXXXXXXXXXXX!.!.!.!.XX!.XXXXXXXXXXXXXXXXQ.XXOXQ.F.N.N.L.xXZXNXMXNXxXgXgXfXeX*X[.*XfXfXkXmXMXDXr.8.v. .c.A.A.x.M H b.c.c | E.c 5 5 5 2 > b ,.b...D *.v.v : , X 0 ,   , 7 6 @ & % # + # : ,.8.D x ,.v.v.b.x - > > c c t O o , & & # $ 2 f ,   + % 6 + + +   w P 7   + % d w 7 d f f U f d f w 7 6 + + 6 6 6 6 6 7 6 6 7 9 6 s d 7 % f g f f 9 0 7 % % & % % $ 9 y i g V V V f v Y d d f U _ _ E U U 0 & i i i i i i i g q < < t a e a l Q ] ' ' @.a.@.a.' [ G @.' 3 . e { T l p p p z C A A ' ' @.:.s.>.Q 1 = 1 = q C C z >.&.] -.} T e e i 1 q i N W T Y W / W Y Z C T C C Y Y C l g p i q < w i g z g g e p = p e p p j p 1 = q 1 = $ o . o $ 2 i g Y ^ Y g Y i V w.+X#Xn.n.+XeX=X=X*X=X*X*X5XfXfXfXfXxXMXMXmXMXmXkXkXfXeXkXxXkXgXgX+Xn.+X5XL.n.oX{.K.p.n.n.H. X5X5Xt.| D v *.R.W.E.v.<.r.R.4X0X>XqX>X.X0XXXJ.$Xw.p.8.u.w.[.[.i.&X&X5XMXMXxXxXcXcXcXcXCXbXcXzXcXbXCXCXbXzXcXCXCXVXVXVXVXCXHXHXcXcXZXbXrXOXOXXXXXOXXX.XOXOXOXOXOX.X.X.X.X.X.XXXXXXXXXXXXXOXXX.X.X.X.X.X.XQ..XQ.Y.Q.!.!.XXXXXXXX",
"OXOXOXOXOXOXXXXXOXOXOXOXOXOXOXOXXXXXXXXXXXXXXXXXXXXXXX!.!.XXXX!.XXXXXXXXXXXXXXXXXXXXXXOXXXY.F.N.D.eXNXNXNXbXSXkXgXxXNX&Xi.n.*XkXMXMXMXeXE  .8.b.(././.A.b.H D b b D v.| : 5 2 u v.R.E.,.| 8.n.5X#Xi.v 0 < X + % 6 % % % & @ # X , E b X X D v.b. .> > 5 5 - - O O : $ X : 2 c B u   # @   % w s w % 7 7 6 +   % 0 9 & s d d f f s f 9 9 7 @ % 7 9 % + + + % 6 9 6 6 w d & @ f f f 9 % , % 9 w & # @ & , w f U ~ U V v U U d 9 w ) ` ` ~ E U 9 < y g w < 1 1 i g i e e g C l l N Q :.@.@.:.a.d.d.G [ [ G :.C . e { C 1 p p z C C j j A A :.j.:.>.] 3 $ i < 1 z Y { f.6.{ e.7.` C Y ~ ` ^ ` { =.4.=.w.5.` { ~ Y W N Y Y T Y R R Y N i q w f V Y Y i i e O e p p p a 3 = = 1 1 < $ . o o $ q N g W ~ W Y Y f Z r.{. X5.p.[.{.[.[.*X=X*X*X5XfXfXfXfXMXxXfXxXxXxXkXfXkXxXkXfXeXtXgX=Xn.{.=XD.D.5XoX{.oX=X=X*.8.n. X..D v E v.4Xv.,.V.v.,.*.oX0X6X>X>XOX>XD..X$Xp.+Xw.4.4.n.[.n.[.[.n. XxXNXNXxXlXcXhXbXbXcXbXCXCXHXbXcXCXCXCXVXzXVXHXHXCXHXCXrXlXKXHXtXOXXXXXXXOXXXXXOXOX.X.X.X.X.X.X.X.X.XXXXXXXXXXXOXOX.X.X.X.X.X.X.X.X.XY.Y.Y.Q.XX!.!.!.!.",
"OXOXOXOXOXOXXXXXXXXXOXOXXXXXOXOXXXXXXXXXXXXXXXXXXXXXXXXX!.!.!.!.XXXXXXXXXXXXOXXX!.XXXXXXQ.Y.F.h.N.Y.cXZXHXvXvXtXxXvX*Xi.u.[.#XeXfXMXDX X8.E.,.v.3X3X3X/./.E.| b *.r.| n.t - E K.wX5X0X4X| ! 8. XfXfX&XE , : 0 f @ @ % % @ X @ # X : - : : - 5 v t 5 5 5 - - 4 4 4 - O O 2 5 F ! 2 X # # + 7 P P ( ( f s + + + % w s 7 s d f f w d f 9 s 7 + % 9 7 6 6 6 + + 6 s % 7 9 w 9 @ w d f & X @ % w s @ # # & 9 i U ~ Y f V V v f i U y E _ _ ( ~ U 9 $ i q $ 1 q < 1 i e a g N C l N N A :.:.a.s.d.k.k.[ G [ [ :.' * 3 -.p q p j N C A k A G ' s.g.:.:.] l $ o q i z ^ { ^ -.6.e.7.=.` T ^ U Y ^ e.l.w.w.5.p.p.p.[.{.+XH.w.-.^ ` Y Y Y Y U f i i V Y g i g i O = 1 e g p q = O = = < $ o o o o q V N ~ / ~ Y ~ f U w. X{.8.p.n.p.5.u.%X*X*X*X5XfX5XfXfXmXxXfXfXkXkXkXMXfXgXeXeXeX5XeXgX0X0XwXoXOX=X#X#XwXlXK.....D v E v u D ..v.v.,.v.,.! m v.6XqXrX>XY.OX.X>X1XD.+X X8.4.u.i.y.i.'.[.[.&XgXNXxXlXcXcXzXCXbXbXCXHXHXHXHXZXCXCXCXCXCXHXCXHXvX0X1XNXKXZXhXXXXXOXOX.XXXXXOXOX.X.X.X.X.X.X.X.X.X.XXXXXXXOXOXOXXX.X.X.X.X.X.X.X.XY.Y.Q.Q.XXXXXXXXXX",
"OXOXOXOXOXOXXXXXXXXXXXXXXXXXXXXXXXXXXXXXXXXXXXXXXXXXXX!.!.!.!.Q..XXXXXXXXXXXXXXX.XXXXXQ.Q..XY.N.N.D.0XxXcXL.L.4XtXK.&XMXfX[.4.;.8.n.#X4.n.kXn.b.x.b.3XE.E.E.x.D b.4X*. .t ; v.wXwXoX4XoX,.! 8.#XkXfXfX4.w E =.U # % % % + + @ # # , , t c : O > - > 5 5 4 H c.c.v.c O - 4 F W.8X<.B #     & U ( ( ( ( ) w   7 7 w s 9 d f f f f f d 9 w 9 + % 9 7 6 6 6 + + % 9 % 6 6 9 9 o 9 w i & @ % @ % % % % & , w f Y ~ g f v V f y w ~ i U _ _ ( _ ~ q < q $ O 2 l g 1 e p C C N l a C N j &.@.@.:.a.a.k.@.G G [ :.} 1 3 6.e e p j z z Q A A G @.g.a.a.:.' F p . o = g { 7.} -.5.6.w.=.Y e i z { ^ V 5.6.p.5.w.p.w.p.[.2XxX{.z.{.{.w.7.{ ~ Y U U z z U V U f < o o $ 1 a p e = O $ = = O o o o o q Y C / ` ~ Y ` N ~ w.+XeXi.w.p.n.w.5.p.%X*X=X5X=X*XfXkXkXkXkXkXkXkXkXxXfXfX5X=XeXeX=XeXwXeXgX0XeX#X5XtXlX4Xv.K.,. .D E v ..r.#X8.*.b.b.| B b K.0X0X0X>X>XXXY..X>XL.{.{.4...4.u.u.i.[.[.n.[.+XfXNXNXlXjXhXbXcXzXbXbXcXKXHXZXCXCXHXHXCXCXCXHXuX>XlXKXKXHXlX@XXXOXOX.XOXOX.X.X.X.X.X.X.X.X.X.X.X.X.XXXOXOXOXOXXX.X.X.X.X.X.X.XQ.Y.Y.Q.Q.XXXXXXXXXX",
"OXOXOXOXOXOXXXXXXXXXXXXXXXXXXXXXXXXXXXXXXXXXXXXXXXXXXXXX!.!.!.Q.Q..XXXXXXXXXXXXXXXOXXX.X.XXXQ.F.F.F.L.rXL.D.oXtXoX=XDXDXUXgXn.r.K.#X5X..#XkX&X X.. .iX3Xb.A.b.,.v.3X4X| : 2 D K.R.E.4XoXC.r.r.gXgXkXkX#XV ....f X @ % % # # # # # : : 2 u t 2 5 2 2 5 5 4 c./.c.<.V.M - M W.(./.iXE.c 2 , , f U ( ( P ( P % s d 9 9 7 s d f f P f d 9 s 7 + % 9 7 % % % % + + % % % & 9 % . , & i < & , @ + + @ # 0 9 y f ~ ~ v i V v f y , , , ( ....E ~ ~ q 2 q < = 1 N W j 1 C ^ T N l j S C j ' ' [ a.a.d.k.@.G [ @.@.:.e 3 6.q e p p j j Q A A G @.g.a.d.@.' ' S 3     q Y -.-.=.-.4.=.R q q e.` p T Y -.5.6.w.=.5.` =.p.+X@Xp.i.e.5.p.H.w.w.w.w.w._ z z g z w & @ $ o $ i e q = $ $ $ g Y q o o O i Y N ^ { W V ` Y _ w. XgXp.r.p.n.p.w.p.p.[.&X*X*X*XfXxXxXkXkXkXkXkXgXfXfXtXeX5XeXeX#X#X0X0XeXeXtX0XeXwX4Xv.b.E.r.,.v v E i.n.wXn.v *.*.D B O.oXwXtX0XrX2XOXXX.X$XOXD.H.4...4.u.i.n.n.i.n.n.i.[.gXJXxXjXtXcXcXzXcXtXhXHXZXHXHXHXHXHXHXHXCXHXzXhXKXKXJXKXlXOXXXOXOXOXOXOX.X.X.X.X.X.X.X.X.X.X.X.X.XXXOXOXXXOXXX.X.X.X.X.X.X.XQ.Y.Q..XXXXXXXXXXXXX",
"OXOXOXOXOXOXOXXXXXXXXXXXXXXXXXXXXXXXXXXXXXXXXXXXXXXXXXXX!.!.!.!.Q..XXXXXXXXXXXXXXXXXXX.X.XXXY.G.D.h.L..XOXq.D.R.D. XUXDXIXUXkXeXxXkX X..sX&X%X Xr.| 3X3XE.A.c.c.,.A.3XE. .t 5 t t E.iX4XoXE.| #XeX*X5Xv.5 v ! u : , 0 7 # # # # , 0 : : : : O : 5 5 t 5 4 #.A.c.#./.#.4 #.(./.).(.8X,.V U d w w P ( ( _ P 7 s s s s 9 s f P f f f f w s 6 @ 6 7 7 % % % % + + % @ % & 9 & o = $ y w 9 , % & @ @ , d y i V ..~ V V v f f i w y f _ ..` E ~ ~ q 2 N t q 2 a T C N ^ ] Q S C C S N j A A A a.d.k.k.a.[ @.@.@.g.k 3 -.q e l j j C ' A G G a.k.d.k.@.:.:.' C 1 .   . q C ` 6.6.-.` a p J.C 1 ^ -.-.6.;.=.C l l ` 5.=.w.w.i.5.5.z.i.4.4.4.[.fX[.U f g f i q < 9 @ o $ & & @ @ $ = Y =.i o O $ a Y N / { W V ` Y ~ w. XeXp.p.n.p.n.p.p.w.p.[.*XeX5XfXkXxXkXkXgXfXfXfXfXfXeXfXgXeXeX#X+X XeXtXgX=X=XeXwXK.,.E.n.8.E v v 8.n.n.eXiX| u 5 c  .oXtX0X0X1XqX0X1X0XXXY.OXp.=Xw.4.8.i.i.n.i.u.i.8.8.H.=XNXNXlXlXcXcXbXcX>XhXKXZXHXHXHXHXHXHXHXCXKXZXcXKXKXJXKXcXOXOX.X.XXXXXXX.X.X.X.X.X.X.X.X.X.X.X.XXXXXOXOXXXXX.X.X.X.X.X.XOXOXQ.Y..XXXXXXXXXXXXXXX",
"OXOXOXOXOXOXOXOXXXXXXXXXXXXXXXXXXXXXXXXXXXXXXXXXXXXXXX!.Q.Q.Q.Q.Q..XXXXXXXXXXXXXXXXXXXXXXX.XQ.Y.G.L.h.J.OX.Xt.tXJX5XsXDXUXMXeXeXeXfX8.n.5X3.8.u...| 3X5X(.A.b.v.A.v.E.3X3XD t 2 : K.3Xv.W.K.t B  XwXwX| 2 5 t 5 t t f w , # # # ; , : : ; : ; 2 : 2 t c 4 x c./.m.S.S.K c.S.(.(.).8X,.u U v f f P P L P ( w 0 L f d s L U U L f U f s s 6 % 6 6 9 6 % % % % % 6 @ 6 % & & o < q i y 9 , % # @ & 0 f f f Y =.~ v U V f U U y i V _ .._ Y ~ E q i Y i p a u a N Q ] ] ^ Q S Z S C S C j k @.a.d.d.@.G G [ @.Z.S 3 { e p l j j A ' A A G a.k.d.k.a.:.s.:.' C 1 = . . . $ q V ` 6.7.^ z 1 T 6.&.e.f.h.-.C 1 e V z z Y ~ w.i.i.u.u.w.4.~ 4.*X+X_ ( ` ~ U g f z q 9 = = & o . @ $ g V i o o $ a W T { %.~ N ~ Y ~ w.{.eXn.n.H.p.[.p.w.p.p.{.eXfX*XeXkXfXfXfXfXgXgXfXeXeX=XeXfXeXeX=X{.{.eXeXgXeXgXgX=XoX*.,.b.,.v t v 8.n.n.eXxXwX8.! oX0XwXwX0X0XqX0X0XXXF.F.L.XXD.eX;.` =.4.u.i.i.n.i.i.i.[.*XZXJXxXcXlXzXbXzX@XtXHXHXHXHXZXZXZXZXHXCXKXKXHXHXHXJXKXbXOX.X.X.X.X.X.X.X.X.X.X.X.X.X.X.X.X.XXXXXXX.X.X.X.X.X.X.X.X.X.XOXOX.XQ..XXXXXXXXXXXXXXX",
"OXOXOXOXOXOXOXOXXXXXXXXXOXXXXXXXXXXXXXXXXXXXXXXXXX!.Q.Q.Q.Q.Q.Q..XXXXXXXXXXXXXXXOXXXOXOXXX.X.X.XQ.L.L.D.G.0X0XJXDXJXMXsXfXfX5X5X5X5X.. XkX'.n.n. ...3XoXE.E.v.b.E. .D n. XE t t 2 ..3XE.b.D 2 t a E v.,. .| D 5 u 0 d 0 0 , % % , ; 2 t t , , d : t d c 5 - m A.S.S.).).S.S.S.).(.8XW.E v P f f d s P ( ( f d L f s d U U U g L U P d s 6 @ % 6 9 6 6 % % % @ % % & % & & o q f g w $ & & % + % w d f v Y =.~ V Y v g U U f Y Y _ ..` Y E Y q i Z e a l e p l C Q Q Q ^ Z Z Z S N j j A ' @.[ [ G A G G a.U.' 3 } p p p p j A } [ A G d.d.d.d.d.d.k.j.0.R l z j 1 = 1 < $ o e C -.} } { { } f.f.7.>.{ p e = 1 g ~ U U ~ ( _ 4.y.4._ ` u.u.4._ _ Y Y U z f q e i y y & @ @ $ p p q O O < a W T / -./ N Y Y Y w.H.=XH.H.[.p.H.w.p.p.H.+XfXfX=XeXgXeXeXeXgXgXgXeXeXeXeXeXeXeXfX5X[.[.fXxXxXfXfXfX*X4Xn.| D v D v U 8.n.[.#XtXlXiXr.oX0X4X4X0XeXtXqXJ.h.0.h..XXXe.J.;.` ` 4.8.i.n.[.&X*X[.[.&XxXZXZXxXlXcXbXzX1X$XCXKXKXHXHXHXHXHXHXHXHXKXKXJXJXJXKXHX>XOX.X.X.X.X.X.X.X.X.X.X.X.X.X.X.X.X.X.X.X.X.X.X.X.X.X.X.X.X.X.XOX.X.X.XXXXXXXXXXXXXXX",
"OXOXOXOXOXOXOXOXXXXXXXOXOXXXXXXXXXXXXXXXXXXXXXXXXXXXXX!.Q.Q.Q..XXXXXXXXXXXXXXXXXXXOXOXOXXX.X.XXX.XL.L.L.L.$X0XSXDXJXUXsXsX5XsXfXkX[.u.5XfXmXfXmX3XkX5XE.3XW.v.v.,.b 5 b.5X8.> > - B K.v.B : 2 f t : t v.E.b.,.| c 2 d 0 y 0 7 , 0 : , 2 y : 0 y , d v c c 5 4 S.S.).S.S.S.m.S.S./.(.8X..u _ 2.2.( d L 2.2._ s d f s d U U U U L U g s s 7 + % 6 7 7 7 6 % @ + @ % % 9 w & @ i N f i , & 7 & @ , f i U U U =.` U Y ~ Y U ( U Y Y U ) ) U ~ _ i a Z p a p e Z ^ S C S / ] S S B S C C k G G @.[ [ G G G @.d.~.[ 3 ;.C z j j A ' g.g.' @.k.k.d.d.d.U.~.Z.j.] ] Q ] R l l l p z ` 1 . l R { { >.>.f.>.>.7.] R p l e T _ f f i U U f ( _ _ _ _ 4.4._ ( } _ Y i i p i g i & @ = < p e = o o 2 l W S ] -.%.Z Z V V w.w.*X[.H.H.H.H.w.p.H.H.{.eXfXeXeXeXeXeXgXgXfXeXeXeXgXfXeXgXfXeXeX*X+XfXxXxXkXfXfX=XwX5X#Xr...) v U n.[.[.+XgXlXwXn.v.0XlX0X0XeX@XD.>.J.Q.Y..Xt.%.9.8.` ~ =.4.8.n.&X&X&X&X*X[.=XMXJXcXcXCXZXbXtX}.zXZXHXHXHXHXHXZXHXHXKXHXKXHXKXKXKXHX0XXX.X.X.X.X.X.X.X.X.X.X.X.X.X.X.X.X.X.X.X.X.X.X.X.X.X.X.X.X.X.XOX.X.X.XXXXXXXXXXXXXXX",
"OXOXOXOXOXOXOXXXXXXXXXXXXXXXXXOXXXXXXXXXXXXXXXXXXXXXXXXX!.!.!.XXXXXX@XOX@XXXXXXXXXXXOXOXOXXXXXXXXX.XQ..XY..X$XrXNXlX+XkXMXkXfXkXnX4.&XfXfXfXfXsXfXeXkX..b | v b b b c  .3Xb.t t : O t : 0 y 2 , 2 2 u v.A.c.b.A.H c 5 5 > 0 # # : 0 , : , 2 f , t , d b c t u c.S.).S.S.m.J m.(.S.S.W.r.Z ,.r.=.4._ d _ [.i.L d d 9 L U U U Y U g g f s % + 6 7 7 6 9 7 % + @ % & % 9 w = o g N g w $ # , & # w d i v U Y Y ~ ( _ _ _ _ ( ( E Y U _ ) Y ~ ~ i N W a 3 u N ^ R C N N C ^ S B Z S A A A ' G @.a.a.@.G G @.d.^.@.3 0.] p j C A :.g.Z.k.a.d.d.k.k.d.~.~.~.s.@.:.:.:.-.R N l C Y e.N o o o 1 C } 6.-.6.>.>.} { } ] T ^ ^ z q z _ Y z U f f _ ( _ ( ( 4.4._ U z z e p g i 1 $ = 9 q e = o $ 1 j / S } =.%.Y N Y g 5.5. X+XH.p. X Xp.p.H.p.H.+XeXfXeX=XeXeXeXfXfXeXeXgXgXeXeXeXtXtXeX#X+X*XgXkXxXkXfXfXtXeXeXn._ E y 4.[.[.p.{.eXwXtXtX9.$XwX$XeXOXD.t.Y.OXXXt.t..X6XtXn.` _ _ ..p. X+X*X&X&X*X+X*XkXNXNXxXcXbXbXuX@X}.zXbXbXHXHXZXCXHXHXKXKXJXHXJXKXJXKXtXOX.X.XXXQ.!..X.X.X.XXX.XXXXXXXXXOX.X.X.X.X.X.X.X.X.X.X.X.X.X.X.X.X.X.XXXXXXXXXXXXXXX",
"OXOXOXOXOXOXOXOXXXXXXXXXXXXXXXOXXXXXXXXXXXXXXXXX.XXXXXXXXXXXOXOX@X@X@X@XXX@XXXXXXXXXOXOXOXXXXXXXOXXXXX.XQ.Y..XXX$X=XtXkXfXfXmXkX&Xu.sXfXfXkX5XfXfXfXkXE 8 c b b b b c H E.E.5 u v 2 , : t y i y t t c v.S.c.c.c.#.c. .c D t ; ; # t t 0 , f y ; d O X > > - 5 C.).S.).S.c.x m c.W.W.8XV.D 8.8.8.w.` U w 4.%X_ d s 6 f U U ( U g U U f s % + 6 6 7 6 7 7 % @ @ % & & 9 d 9 $ g g g w $ & 0 , % y f V Y ~ U f E ) _ ) ~ ~ ~ _ ( ( _ _ _ U ~ ~ e a / Z e a R / W C C l e N Z S S S A Q ' ' ' [ [ @.G A G [ k.^.@.j F.&.e z A ' f.a.k.k.a.d.@.a.d.d.~.~.~.d.g.k.g.j.h.] R C C N 5.l q e = .   o 1 j ] ] ;.;.;.;.} { 5.-.` Y ( ^ ~ ~ _ d & 9 s _ ` U 4.i.Y q q e q z p i = o = e q = = o $ 1 l / Q } %.=.Y N Y N 4.w.H.{.H.H. X Xn.H.n.p.H.{.+X5X=X=XtXeXeXeXgXeXeXeXgXtXgXtXfXgXgX5X=X*X*X+X=XfXfXfXeXtX5Xi...P 0 _ i.i.w.{.eXeXeX6Xt.D.>X0XOXOXY..XOX.X9.h.0XtXtXrX X` _ 4.w.H.+X*X=XeX*X+X%X[.=XJXJXNXcXbXbXlXeX>XlXlXtXzXZXHXZXHXHXKXKXHXJXKXKXJXJXlXOXOXQ..X!.!..X.X.XXXXXXXXXXXXXXXOX.XOXOX.X.X.X.X.XOX.X.X.X.X!.Q.Q..X.XXXXXXXXXXXXXXX",
"OXOXXXOXOXOXOXOXXXXXXXXXXXXXXXOXOXXXXXXXXXXXXXXX.XXXXXXXXXXXOXOXOXOXOX@X@X@XXXXXXXXXXXXXXXXXXXXXXXXXXXXX.XY.L.L.J.H.#XgXgXfXfXkXu.[.fXfXkXfX5XfXfXMXvXE c b b b D D #.c.b.| - 5 5 - : 2 2 2 i t 2 5 m V.E.c.A.A.x.A.b.| ,.*.t : : , y t , f 0 0 v 0 X X - X : | /.S././.o.4 4 c m | C.9.Y ;...5.w.5.4.f f w.u.f w % f U U U f f g U f w & % % 6 7 6 7 6 % @ % & 9 9 9 f w $ g g g q & , 0 , 7 f U _ ~ ~ v f _ ..` E U _ _ _ ( ~ _ _ ) U ~ ~ q N / / Z Z / Q R T T l 1 j N S S S S ' } G [ ' ' [ A A G @.d.~.[ j P.-.j C ' :.k.a.k.k.d.a.[ a.d.d.Z.~.Z.d.Z.U.j.P.0.-.-.] C l { C l ^ W T C p = o * = e C ^ } -.-.6.-.-.-.} ` ~ ~ ~ g w s ( ( ( _ 1.w.i & @ = l l g i $ o q i q = $ . O 2 a / W / %.=.Y g Y V ^ i.n.{.[.{. Xn.5.n.{.n.p.p. X=XeX=X*XeXeXeXeXeXeXgXfXgXxXgXgXgXgXeXfXeX*X{.+XfXfXeXeXfX5X4.) d d 2. X[.4.H.=X$X#X.XL.t.0XtX0X>XXX.XL.^ %.OXlXtXtXlXxXr.` ;.4.w.H.+X5XfX*X+X&X+X=XkXJXZXcXxXcXcXlXuXuXtXqXuXHXHXCXCXCXKXKXKXHXKXJXNXcXgX1XOX.X.X!..XXXXXXXXXOXOXOXOXOXOXXX.X.X.X.X.X.X.X.X.X.X.X.X.XQ.Q.Q..X.XXXXXXXXXXXXXXX",
"OXXXOXOXOXOXOXOXOXOXOXXXXXOXOXXXXXXXXXXXXXXXXXXXXXXXXXXXXXXXOXOX@X@XOXOX@XXXXXXXXXXXXXXXXXXXXXXXXXXXXXXX.X.XQ.G.D.D.D.$XgXkXkX X4.5XkXfXfXsXfX5XkXvX5Xt > c b  .H x.(.A.A.c.,.D - c r.K.| ; 2 t 5 2 | V.v.A.S.S.A.A.A.,.#.b.*.: : , 0 2 t 0 : f v b > - - - : 4 #.S.S.v.m c #.O.D c t N / 5.^ 4.=.w.w.4.v U i._ 9 % d U g U i f i f d w & % % 7 7 6 7 6 @ @ % 9 9 w w g i $ g N g i < < w 9 y P Y =.=.` g f ` .._ U Y ` _ _ U E Y ) ~ U ~ ~ i V ] ] W S / W Z Z Z l e N l j C ] ' ' ' ' [ @.@.[ G G G @.d.U.[ j P.:.A C } k.k.a.k.k.k.d.[ d.k.d.~.~.~.k.~.U.j.U.j.j.h.7.] ^ ` l C 6.9.5.=./ T ^ z e 1 = = 3 q p C Y ` { ` ` ` } 4._ ( ` 4.~ ( _ ` } U < = 1 e l N i $ = p g e q $ o o 2 g / T ^ =.5.^ V ~ V Z i.H.=X{.H.H.w.=.w.[.n.p.i.+X=X5X*XtXeX*X*XeXeXfXgXgXgXgXeXgXfXfXfXtXeX=X*X*XfXfX=XeXeX*X..P 7 E u.u.n.=.i.=XeX5XOXOX%..X0X.XJ.D.-.N 1 ^ }.OXtXcXgX5X+XK.H.p.w.4.=.p.+X=X&X+X=XeXfXNXZXcXxXxXxXcXzXcXtX>X0XbXCXZXHXKXHXZXHXJXUXNXeX0X0X1XOXOXXX.X.XXXXXXXOXOXOXOXOXOXOXXXXX.X.X.X.X.X.X.X.X.X.X!.!.Q.Q.Q..X.XXXXXXXXXXXXXXX",
"XXXXXXXXXXXXOXOXOXOXOXXXXXXXXXXXXXXXXXXXXXXXXXXXXXXXXXXXXXOXOXOXXXOXOX@XXXXXXXXXXXXXXXXXXXXXXXXXXXXXXXXX.X.XQ.G.F.D.J.{.wXkXgX8.[.5XxXxXkXfXfXfXkXkX X .D D c b ,.(./.b.c.A.(.(.F #.V.<.m - 5 u c c v.R.A.W.V.#.A.A.A.v.#.v.v.v : t , ; f : O c v b t X - t c u 4 F | 4 2 b  .r.*.c 2 a ;.w.` 4.w.n.i.4.~ d 2.4.9 @ d P f v i V f g f s % % 6 7 7 6 6 & @ @ % 9 w y i N i < V Z N g q 9 y 0 f U _ 5.=.=.U V ` ..) v U _ _ E U U V Y E U ` ` i l %./ Q Q Q ^ S Z T l e C N l S ' ' ' ' ' @.a.a.@.G G G @.d.~.[ j T.:.A A a.U.k.d.k.k.Z.k.@.d.d.k.~.~.~.k.U.U.Z.T.U.U.P.j.7.;.^ e N 5.-.%.=.-.{ 6.6.-.] T z p q 1 = = O $ q a Y ~ =.4._ ( g i f ( Y ~ 4.Y p a e p i q $ < g l e e < & $ 2 g / T / -.6.` Z W Z v p.H.eX+Xn.n.[.w.` w.p.p.H.H.#X*XeX5X X X=X=X=X=XeX=X=X=X=XeXeXeXeX5X*X+X+X*XfXfXfXfXfX*X..v , ) i.2.8.n.*XtX0X5XwX#X9.{..X;.N Z %.l.^ Z 9.h.>.;.=.r.gXJXDXDXNXeXp.=.p.+X[.[.*X=XeXxXZXNXcXxXcXbXcXcX0X}.XXhXzXcXcXCXZXHXHXJXKXNXeX=XeX0X#X#X@XOXXXXXXXXXOXOXOXOXOXOXOXOXXX.X.X.X.X.X.X.X.X.XQ.Q.Q.Q.Q.Q..X.XXXXXXXXXXXXXXX",
"XXXXXXXXXXXXOXOXOXOXOXOXXXXXXXXXXXXXXXXXXXXXXXXXXXXXXXXXXXXXXXXXOXOXXXXX.X.XXXXXXXXXXXXXXXXXXXXXXXXXXXXXXX.XY.F.F.h.D..X4XwXn.*.n.8.v.#XfXfX5XfXfX5Xn. X5XE.,. ./.(.A.A.c.A.A./.A.H M #.H m > 5 4 b r.C.v.| x - v.A.c.W.,.#.v.c 2 2 : 0 2 X 2 D E v 0 : : t v B b 2 ; O ; 5 t E 8.V a v 5.p.p.p.p.=.5.5.` U U i.f & d P P v g U Y Y f s % & 7 7 9 6 & % % @ % 9 w i i N g < V V N g q < y y U _ Y =.5.=.Y Y =.` _ v v _ ( E Y ( v Y E Y ` { p l &.Q ^ ' Q ^ S S ] N e N S Q S ' ' ' ' G [ @.[ [ G G G [ k.U.G j -Xg.G ' k.Z.k.d.k.k.Z.k.a.d.d.k.Z.~.~.k.Z.Z.U.^.T.T.T.Y.f.>.^ p C e.9.;.=.%.W %.;.6.6.-.-.-.^ W C z e = O   . $ q i q w 9 @ . & q g Y Y z l p e $ & @ O = $ . o < $ $ 2 g ^ W / =.;.{ C Y Y v w.p.+X*X[.n.{.[.=.~ =.w.H.H.{.{.*X[.{.+X5X=X*X=X=X*X*X=X5X5X5X=X=X5X=X*X*XfXkXkXeXfXfXi.v 7 : E 4.n.n. XwXtX5X#XL.9.^ =./ T t.tXZXKXbXqX$X.Xh.h..XbXNXJXUXKXDXJXJX+Xw.H.{.{.=XgXgXNXJXZXNXcXbXbXcXtX>X.X>XlXzXrXOX>XlXHXKXHXJXJXHXxXxXtX@X#X#XOXOXXXXXXXXXOXOXOXOXOXOXXXXX.X.X.X.X.X.X.X.XQ.Q.!.!.Q.Q.Q.!..XXXXXXXXXXXXXXX",
"XXXXXXXXXXXXOXOXOXOXOXOXXXXXXXXXXXXXXXXXXXXXXXXXXXXXXXXX.X.XXXXXOXXXXXXXXXXXXXXXXXXXXXXXXXXXXXXXXX.XXXXXXX.XY.Y.F.Y.F.R.#XoX8.r.b.8...v.5XfX5X5XsX5Xn. XiX3Xb.E.3XA./././.A.A.S.c.#.#.A.c.c.c - - 2 5 5 4 - - - | A.V.S.+.| E 2 2 $ 2 r O X c E d , - - : O 2 v v u t y 0 d r 0 ..v i V w.p.p.{.H.=.4.w.4.4.U ( U 7 d v U f V Y ~ ~ f w % 6 6 6 7 6 & & % % & w i g i N g 1 V N C N q < i y ( ` w ` n.5.U U ` ~ _ v v _ ( _ ( ( N Y Y ~ =.` p N %.S N Q F Q S A ] z e N C Q A Q ' ' ' G [ @.[ [ G G G [ a.Z.G j -Xj.' a.k.k.k.d.k.k.Z.~.d.d.d.d.~.~.~.k.~.~.^.:X:XT.-XT.f.0.;.p C t.t.6.-.%.T { -.-.-.6.e.l.e.t.l.e.6.6.=.Y p 1 o o e Y i i i i @ @ i U p e = .         . .   . o o $ q p ^ ^ ^ { =.=.Y Z Y N ` p. X*X[.p.H.+Xn.=.` ` ` 4.w.i.p.p.p.p.p.H.[.{.[.+X{.{.=X*X*X+X*X5XeX=X*X=XeXfX5XfX*X..y # y 2.u.[. XeXeX5X X8.B u a K.eXlXHXZXHXbXHXKXCXCXHXHXKXHXHXJXJXHXHXKXJXxXH.w.H.{.+XxXNXMXZXJXNXbXbXcXlXuXtXqXrXuXzXrXY.L.1XcXHXKXJXKXJXJXZXgX+XOX@XOXOXOXOXOXOXOXOXOXOXOXXXXX.X.X.X.X.X.X.X.XQ.Q.!.!.!.!.Q.!.!..XXXXXXXXXXXXXXX",
"OXXXXXXXXXOXOXOXOXOXOXOXXXXXXXXXXXXXXXXXXXXXXXXXXXXXXXXXXXXXXXOXXXXXXXXXOXOXOXXXXXXXXXXXXXXXXXXXOX.XXXXX.X!.Q.Y.Y.F.Y.R.4Xv.b.n.,.8.v.| n.xX5X5XfX5X X X3XE.E.3X3XA.A.A./.S.A.m.c.A.x.H H c.#.c > 2 - ; : > 2 - 4 c.W.(.v.u - 2 < < t ;   O t f t E v : ; X X O # : 2 : , , , 0 ..E t V H.+X{.+X{.{.r.=.5._ U f U % w f v f Y _ Y ~ f w & % % % 7 6 7 7 & $ & e i g i N a 1 V V C N q q g i ~ ..N =.H.5.Y Y =.` E v V ~ ~ _ Y Y U Y V T =.` p l ] Q C ] F Q S Q Q l p S N C B ] ] G ' G [ @.a.[ G G [ [ [ g.' j -Xj.:.k.k.Z.d.a.d.d.Z.~.d.d.d.d.k.~.k.k.~.~.^.^.^.U.-XXX0.h.z.j S J.D.e.6.-.^ -.-.-.-.-.9.l.z.Y.J.z.z.J.J.J.l.5.{ ` ` z q z z d & @ $ < q   . $ < $ O = 3 = . .     = i g ` { W ^ { ;.T V Y g N p.+X*X[.{.H.+X{.i.=.` _ ..=._ U v v g V ~ E Y _ ~ V Y w.w.4._ ` 4.i. X=X*X*X=X=X5X[.P 0   f u.u.i.K.n.w.` q B 9.;.5.HXbXbXbXZXHXCXKXZXCXKXCXbXCXbXHXNXHXJXHXNXJXJXgXw.5.{.eXkXNXxXNXJXNXbXbXlXlXlXbXzXlXuXbXuXY.D.OXcXKXKXHXJXHXJXNXtX#X$XOXOX@XOXOXOXOXOXOXOXOXXXXX.X.X.X.X.X.X.X.XQ.Q.Q.Q.!.!.!.!.!.!..X.X.XXXXXXXXXXX",
"OXXXXXXXXXXXOXOXOXOXXXXXXXXXXXXXXXOXXXXXXXXXXXXXXXXXOXXXXX@X@X@XXXY.OXOXL.J.Y.Y.Y.Y..X.X.XXXXX.X.X.X.XXXXX.XQ.Y.Y.Y.L.Q.oXr.b.x.v.v.,. . XsXfXkX5X4.K. X X,.| v.,.| x #.).A.A.m.m.m.m.x.H H #.,.B 2 2 5 0 5 2 O O u ,.W.*.5 O O 2 q $     X # # + v ) ) U 2 X # X X X X # 7 y y E ..Y ` {.{.+X{.*X+XH.w.4.~ E v d 9 w f g f U 4._ Y V w % % % % 6 6 9 9 & & q i g V i g g < l g N g 2 t a i ~ ~ ~ p.H.p.~ ~ =...Y U v ~ E U ~ V N Y Y ^ -.{ p l } Q ] :.] S Q ] &.N j N C S Q Q ' A G A [ @.[ G A G ' k 3 j 3 k -Xj.f.Z.k.Z.k.a.d.k.~.~.k.k.d.d.k.k.k.k.^.~.^.,X,XT.-XT.F.f.h.l T }.J.z.h.e.{ -.-.-.7.6.6.z.e.e.e.h.z.z.J.z.z.z.}.w.` T l V V i 9 i N o   O i a p < * 3 C p = = = $ O e p } &.^ ^ / -.^ ~ W g w 5.p. X&X{.p.p.H.p.4...5.=.~ f f v Y ~ _ ..4.=.~ U N v U ( 8.+X[.i.` E u.&X5X5XeX'._ ) v # U ..U v E V : u 8.=XwX*.0XbXxXbXHXHXKXHXHXCXCXCXHXHXHXHXCXbXbXbXbXNXbXbXDXkXp.w.+XtXkXxXNXHXxXlXlXZXlXzXzXzXtXuXpXlXyXqXzXKXHXHXbXHXHXHXlX0XOX#XOXOXOXOXOXOXOXOXOXXXXXXXXXXX.X.X.X.X.X.XQ.Q.Q.Q.!.Q.Q.Q.!.!.!.!.OXOXXXXXXXXXXX",
"XXXXXXXXXXXXOXOXOXOXXXXXXXXXXXXXXXOXXXXXOXXXXXXXXXXXXX@XOXOX@X@X.XOX>X.Xt.t.D.J.L.Y..X.X.XXXXXXX.X.X.X.XQ.Y.Y.Q.Y.G.Q.G.oXE.x.,.b.b. . .8...b.fX X8.iXiX8.D D D H H M c.S./.S.c.A.c.m.A.x.x.#.,.E v v v V y ; - O O - 4 < O $ 2 < $ $ , # X + +   # : , v U t X O # # y y U ) v f 8.=.8.J.J.l.@XeX=Xp.` E E ( f 7 0 f v v f U _ Y U z q @ & & % 7 9 s w & $ w g g Y g N g < N N V a 1 q i i ~ W / t.H.p...~ ` =.~ U U _ U ~ ( V N W { %.-.-.p l &.>.&.&.<.] ' :.&.S Z S N B Q ' Q A A A ' @.[ G G G k j A j . j -Xj.j.U.k.Z.k.a.k.k.~.~.k.d.d.d.k.k.k.k.^.^.:XyX7X-X,X;XL.h.l.l C |.}.z.h.e.-.;.6.6.7.e.6.e.z.z.h.z.z.l.z.z.z.z.L.l.%.W T C l p q g Y o $ p l p e 1 = j A j e 3 3 * $ e l ] &.} %.^ -.%.%.` ~ q ` 5.p.*X+X{.[.{.[.{.H.4.V i g Y _ =.i.i.w.5..._ E ` ) U f f .. X5Xn.E ( ( i.&X{.4.U U 0 # 0 f ! E u 2 E #XlX#XK.n.tXbXNXHXHXHXHXHXHXHXZXZXHXHXHXZXZXCXCXbXZXHXHXNXNXNX=Xt.H.#XtXgXxXxXbXbXxXlXtXqXtXvXpXuXuXpXzXlXbXbXeX0XtXbXHXbXwXOXOXOXOXOXOXOXOXOXOXOXXXXXXX.X.X.X.X.X.X.X.X.X.XQ.Q.Q.Q.Q.Q.!.!.!.!.!.!.OXXXXXXXXXXX",
"XXXXXXXXXXXXOXOXOXOXXXXXXXXXXXXXOXXXOXOXOXXXOXOXXX$X>XOXXX@X@XXXXX>XOXL.h.t.t.t.t.D.Y..XXXXXXXXX.X.X.X.XXX.XY.L.XXG.G.K.oXv.v.E.x.,.| E | ) | n.n. X5Xv.D D !  .| b H A.A.S.c.m.S.m.m.S.A.c.F c u f U ~ E y # < 2 O X O O 2 y < # $ < w , # # + X # # O , y 0 # X ; y f 0 f U E v i.5.9.H.H.9.{.+XH./ ~ ` U U U w & d U i f ~ ~ Y Y Y w @ % & & 9 9 s w & $ i N g C g N g < N C C l a N g a Y ~ / t.p.w.` ~ ` =.` ~ Y _ ~ ..~ V l / 6.5.;.6.p j -.:.&.>.g.&.' :.&.R Q Q m B Q ] ] A A A G @.G G A A j A j.P.A k -Xj.j.U.k.Z.Z.k.Z.k.~.^.k.d.d.k.k.k.k.Z.^.^.:XyXqX>XqX>X@XF.z.C C |.}.L.J.l.-.6.h.e.e.z.e.0.F.Y.h.h.h.e.z.J.L.J.F.D.9.-.T z N g i g W $ p Y l p p e 1 C S j k z e * = p C ] } &.{ { ;.5.6.{ ` N y p.4.w.H.[.[.[.i.w.=.~ Y E ` 4.5.w.H.i.w.w.5.=.=.E U U v 0 w ..[.4.f _ ) 4.i.8.U v _ d + , c v 2 v 5.#X5XwX.X,.wXSXbXHXKXHXKXHXHXHXHXHXHXHXHXHXZXHXHXHXZXZXHXHXJXNXHXbX+XH.{.#XeXgXlXlXxXbXlXlXlXtXlXtXuXtX0X0XtX$XOX0XtXtXcXNXtX$XOXXXOXOXOXOXOXOXOXOXXXOXOX.X.X.X.X.X.X.X.X.X.X.X.XQ.Y.Y.Q.Q.!.!.!.!.!.!.OXXXXXXXXXXX",
"XXXXXXXXOXOXOXOXOXOXOXXXXXXXXXXXOXXXOXOXXXOXOXOXOXOXOXXX@XOXOX@XXXY.F.D.F.D.t.0.0.h.D.L..XXXXX.XQ..X.XQ.Y.Y..XXXQ.Q.oX$X8.| D  . . .b b E  .8.....8.n.b.8.r... . .b ,.8X3XA.#.A./.c.m.S.(.J 4 5 f f v f t 9 : $ ; < : q g y $ @ 9 < < w 0 X   # X X # , # # t v ; O t f f f f v Y ` ;.9.t.D.H.H.H.5.=.w.H.i._ U f % d U f f Y Y V Y Y w @ % & 6 s 9 w 9 < = p V N C g N N 2 C C N V Z W g a Z ~ { t.p.9.` ` =.=.` ~ Y ^ ~ ` ~ V N &.9.>.;.6.p j 7.&.&.0.j.>.' &.&.S Q ] B S ] ] ' A A G [ a.@.G G A A ' s.F.S e -Xj.k.~.~.~.Z.k.k.Z.~.^.k.k.k.k.a.d.k.Z.^.<X,XyXqX>XqX2X2X|.}.R R @X}.|.}.z.-.e.}.Y.z.Y.J.0.h.L.z.7.7.e.z.}.|.J.J.J.9.;.W C Z N g g Y < N C l a p e 1 R A j A C 3 o 1 z W } &.&./ W %.9.9.=.=.=.q ~ w...~ ~ U U V V V U Y Y _ _ =.5.=.=.=.=.4.` E v v P ( P f v _ U y ) 4.4...) Y 8..., X - - 2 ..8.r.n.oX4Xv.r.vXKXHXHXHXHXHXKXHXHXKXKXKXKXHXHXZXHXHXHXHXHXHXHXZXNXJXHXgX{.D.{.#X+X0XrXtXtXtXlXrXuXzXtX1X.X@X1X$X{.L.tXbXgXgXtX#XOXOXOXOXOXOXOXOXOXOXXXOXOX.X.X.X.X.X.X.X.X.XQ..X.X.XQ.L.Y.Q.!.OXOXXX!.!.!.OXXXXXXXXXXX",
"XXOXXXOXOXOXOXOXXXOXOXOXOXOXXXXXXXXXOXOXXXOXOXOXOXXXXX$XOXOXOXOXY.N.h.h.h.h.h.h.h.h.t.h.J.Y..X.X.XQ.Y..XXXOX$X=X$XoXK.,.| ! | v ,.x.E D D E 8.,.D 8.#XkXkX5Xr. . .D | v.4Xv.F A.A.c.A.S.A.D 5 t d f f y t a 2 O O q v f , @ # , y w , , 7 , # # # # X # # : P ) v : : t v E v f f Y w.w.5.5.5.w.t.=.w.+X[.[.w.f , % f U g z Y T Y Y Y w @ % & 6 d w 9 9 < = p V N C g C V 1 C V N Z W W N V W ^ %.9.t.6./ / ` ` =._ Y ~ ` ~ ~ N T 0.7.-.6.-.p j e.:.] <.B.f.' &.' A ' ] S ' &.%.' A G ' a.k.a.G G A A ' @.s.C k :Xk.k.~.~.~.Z.k.Z.Z.~.^.k.k.k.d.a.d.Z.Z.^.:X7XyXyX7XyXqXqX>X@X^ R 1X@X@X}.z.7.z.@XXXJ.Y.XXz.0.F.z.>.0.z.z.L.@Xz.J.Y.7.-.^ Z Y T V l Y 1 C C C p a q 1 S ' A A A = o 1 z ^ -.-.&./ ] -.6.t.w.=.5.i < Y ` 4.~ ( _ _ ~ _ _ _ Y V f f d w i i 9 0 9 , y y U ..U ) E P v v f U ) f U ) U 0 X t ..E > | 8.r. X5Xr...4XvXSXHXHXHXHXCXHXHXHXKXKXKXHXHXHXCXZXHXHXHXHXHXHXHXZXNXNXJXtXH.t.H.D.#X$X$X0XgXgXlXeX@X$X0X.XD.9.;.H.$XxXJXJXNXeX#X#X#XOXOXOXOXXXXXOXOXOXOX.X.X.X.X.X.X.X.X.X.XQ..X.XQ.Y.Y.Q.!.XXOXXXXXXX!.XXOXXXXXXXOXOX",
"OXOXOXOXOXOXOXOXXXXXOXOXOXOXXXXXXXXXOXOXXXOXOXOXXXOXOXOX$XOXXXY.J.h.N.N.h.h.N.h.h.t.e.h.J.Y..X.X.XY..XXX$X$X#XoXD.9...8.8.| E E ,.n.x.E D E ..| | iXkXK.,.,.| ,.| 8.E c M M c V.A.A.(.W.,.c u v E E v v v u 1 1 g g w $ # , , y y , 7 d y , # # # $ # O # d ) ) v c : , 0 d d d < f ..=.` ;.5.H.t.=.H.[.w.[.4.f & & v ~ f g Y Y ~ T ~ i @ & & 9 d s w 9 & $ i N N C g Y N < N N l l Z ~ C N W ^ -.6.e.6.Y C / =.;.~ V Y ` ~ ^ N ^ e.7.7.0.6.p j -.] ' f.j.g.@.] A A ' &.' :.>.&.' A ' [ a.k.[ G A A G @.:.g.A m :XZ.k.Z.~.^.~.Z.~.~.~.^.k.k.d.a.[ d.~.~.^.<XyXyXyXqXuXqXqX>X>X^ ^ 1X@X>XXXJ.z.J.>XOXJ.F.>X@Xz.F.z.>.h.F.h.F.XXz.z.F.0.-.^ T R W Z l Z 2 T ^ R p g e 1 S ' ' A j o O 1 N ` ;.7.-.%.] 9.6.5.p.=.g $ 9 & < g _ y.[.[.[.&X*X*X*X*X+X+Xp.4.` _ U d 9 0 0 0 w d P ) ) v d w d U ) v f 2 + X v n.3X XD 2 D ,.K.8.E v.SXvXbXHXbXHXHXCXCXHXHXHXKXHXHXHXHXHXHXHXHXZXZXHXHXNXJXHXHXNXxX#Xt./ ` t.H.{.$XeX0X0XeX=X{.t.=.e.H.eXxXxXxXxXHXDXgX#X+X.XOXOXXXXXXXOXOX.X.X.X.X.X.X.X.X.X.X.X.X.X.XQ.Y.Y.Y.Q.Q.XXXXOXOXXX!.XXOXOXXXXXXXOXXX",
"XXXXOXOXOXOXXXXXXXXXOXOXOXOXOXXXXXXXOXOXOXOXOXOXOXOX.X.X$X0XOXD.h.N.h.h.t.q.0.0.0.e.h.h.F.Y..X.XY..X.X.X}.L.{.+XL.K. X..| | | |  .b.8. ...b.5X,.E r.r. .| ,.,.r.,.r.8.*.c 5 5 b ,.A.W.x.b u f f v E E Z u 1 5 Z g $ @ & 7 , , y 7 0 f v 0 : # + X O # X : I ..E b E c t y y 0 f f d _ _ f ..8.w.r.r.H.{.p.w.4.U # @ U ` g V _ ~ T ^ ` f @ & 6 w f s w q = $ i l N N g T C < N C V N Y { W C ^ { -.9.t.9.Y N W 5.=.~ f N ~ ~ ~ N / 7.7.0.6.6.p j &.Q } g.B.g.:.' A S ' } ] f.f.@.' A ' [ d.k.a.G G G [ a.:.:.G A ^.k.d.Z.~.~.Z.k.^.~.~.^.k.k.a.[ G g.:X~.^.,X7XyXqX7XuXqX2X>X>XR ] qX1XqX>X@XY.Y.0XqX.XF.OX0X}.J.z.9.l.D.t.D.+XJ.z.e.7.6.] ^ ^ C T l Z 1 W ^ T a a t 1 Q ' j 3 * . = q Y { 5.9.-.} ] ;.-.9.-.Y < w 9 , 9 ` eXMXMXxXkXfX5XeXfXfX=XfXkXkX*X[.4._ ( U y v v d d v P w E P v _ ..4._ 0 - d v. Xn.E...c c c c t E n.4XvXSXHXbXGXHXCXHXHXHXHXHXHXHXHXHXHXHXHXHXZXZXHXHXHXJXHXHXNXDXeXp.D.;.~ =.p. XL.D.p.t.9.5.D.eXxXNXNXMXgXgXkXbXNXNXtX=XOXOXXX.XOX.X.X.X.X.X.X.X.X.X.X.X.X.X.X.X.X.XL.L.Y.Q..XXXXXXXXXOXXXXXXXOXOXXXXXXXXXXX",
"XXXXXXOXOXOXXXXXXXXXXXOXOXOXOXOXXXXXXXOXOX.X.XOXOXXXXXXX.XJ.t.t.N.F.h.e.e.9.<.t.0.q.h.D.F.L.Y.Q..XY.Y.XXOX#X$X#X5X#X#Xv.8.,.,.E 8.,.v.8.8. XiX..b.8.v.v.,.,.,.r.r.K.K.,.c - - - c M D v v V f v v V v a t a v i # & w d d w , , 7 y d 8 - O # 0 t ; : O ; v v t v I v 0 y 0 7 0 d v 4.` f V f f ` 8.H.[.p.i.4.f # , U ` f U _ _ ` { 4.g % 9 6 9 f s w 9 < = i l l l p Y C 1 N C Z Z W ^ W Z %./ ] 9.t.9.^ V C ` =.~ V V Z ~ ~ Y ] -.>.-.] -.p j :.&.@.g.T.g.@.@.' F ' } @.j.j.:.@.G ' @.k.k.a.G G @.a.k.g.:.' A :Xs.@.@.a.a.@.a.~.~.~.^.Z.U.a.G A k.<X~.T.:X:XyX7X:XyX,X2X2X1XR { zXzXhX0XqX>X.X>XtXOXD.Y.qX1X}.D.t.l.l.t.J.+XL.0.e.e.0.} ^ T C Y C ~ 1 T ^ Z z l i = Q A * * O . = q T =.5.6.%.&.} 0.l.e.a q i i $ i i.MXMXxXxXfXeX=X*X*X=XeXeXeXkXkXMX5Xw.4..._ ....2._ v P v ) 3.3.v 8.i.i.n.f O E 8.| b.n.b.8.c b b c E ..n.iXSXSXSXGXbXHXKXHXHXHXHXHXGXGXHXZXHXHXHXHXHXHXHXHXHXHXNXNXNXgX{.#XlX#X9.Y W Y V Z =.{.H.+XNXJXNXNXJXJXJXJXJXNXxXxXgX0XOX.X.XOX.X.X.X.X.X.X.X.X.X.X.X.X.X.X.XQ.Y.L.L.Q..XXXXXXXXXOXOXXXXXOXOXOXXXXXXXXXXX",
"XXXXXXXXXXXXXXXXOXOXXXXX@X@X@XXXOXXX.XXXOXOXXXY.OXL..X.XY.t.h.N.F.B.h.q.q.0.0.0.0.e.h.F.F.J.L.Y.Y.Y.Y.Y..X.XOXOX.X$XoX#Xr.,...8. X| 8.v.4.3XkX,.3Xb.b c ,.|  .v.8.K.*.D - > > 5 | B : 2 y y 7 v U E y < v v 0 , d v v _ ) P y , 0 , : : - u ,.iX XD O ; ; 0 2 : v E v y d w w d P f v f U f 0 v 8.w.=.5.4.8.8.w & 9 _ _ g Y _ ^ =.-.5.g $ & & 9 d d w 9 < = i g p a i ^ N $ N C C N Z W / T / / &.%.>.t.9.^ g Y =...g a W %.^ ^ %.&.>.} &.7.j j 0.:.@.g.U.g.:.&.' A ' &.] j.Z.:.[ A [ a.s.k.a.[ a.d.g.Z.j.U.@.m ^.k.Z.d.d.a.d.Z.~.~.~.<X~.Z.k.a.a.U.:XU.U.:X:XyXyX7XyX:X2X2X1XT ;.cXcXuXzXyXrX.XOXyXtXOXL.@XqX0XY.0.0.l.z.J..XJ.0.e.h.7.^ ^ W W C C W 1 ^ ] S C N p * Q R o p 1 . < e ` 6.6.9.;.&.&.h.D.6.a g i 9 ( *XxXgXxXeXp.H.=XeX X*XkXkXkXkXkXkXkXfXfX+X8.i.i.'.'.n.8.0 P '.u.8.I _ n.[.&Xn.f 2 v 8.n.E.b.E. .x b E ,.b.4.n.SXwXn.*.r.tXHXHXKXKXHXHXKXHXHXHXHXHXKXKXHXZXZXKXZXKXJXNXxXbX+X$X{.w.%.~ *.D.n._  XkX[.%XIXMXDXDXDXJXJXJXJXJXNXNXbXxXgX=X+X+XXXOX.X.X.X.X!..X.X.X.X.X.X.XL.L.L.L.Q..XOXOXXXOXOXOXOXOXOXXXXXXXXXXXXXXXXX",
"XXXXXXXXXXXXXXXXXXXXXXXX@X@X@X@X.XOXXXQ.OX6XQ.0.Y.XXXXXX>XL.h.J.N.h.h.g.h.t.0.q.q.t.h.D.F.F.G.Y.Y.Y.Y.Y..X.XOXOX$X.XOXOXOXD.L.#Xn.4.,.8... XkX..,. . .b b D | ,.v.K.<.,.,.| x > u D t y y f 0 y i V i y f , , f E ..U ) ) v w 7 7 0 2 : t b.4X3X3XK.v 2 ; : O : 0 v v y f v ( 4.i.8.4.( U v P _ i.5.~ =.p.4.Y 9 9 9 _ _ g Y _ ` 5.;.=.f o # & 9 f d 9 9 < < i a N l p ~ N = N C N Z W ^ / W { ] %.>.0.e.5.=.~ W ` ` g N W / %.] &.:.>.-.>.7.j j >.:.s.g.U.f.@.] ' ' @.:.' :.f.s.[ A [ a.d.g.a.a.a.a.k.k.P.P.@.G :XU.k.a.d.Z.~.k.~.~.~.<X~.k.k.k.k.~.:X~.~.7X:XyXyX,XqXqXqX>X>XS { cXZXhXrX1X@XXX.XrXqXtXOX.X>X$X}.e.e.l.l.l.}.L.e.e.0.;./ ^ ^ ^ T z T q ^ ^ S A S j = C 6.p g < o = i -.9.9.h.>.;.%.7.t.;.a g i w.fXxXkXNXxX{.9.4.{.5X5XgXxXkXxXkXkXfXfXfXgXfX*X*X5X*X&X%Xu.d P n.%Xn.) 2.[.+X5XeX{...t v b. XE.b.b.b b v. X5X Xv.v.| B c B R.KXHXKXHXHXHXHXHXKXKXHXHXKXKXHXHXHXKXHXZXNXZXNXNX=X5.%.9.K.#X5X+X4...fXfX&XMXUXMXUXUXUXUXUXJXJXJXJXJXNXNXbXgX0X$X+XOX.X.X.X!.!..XQ..X.X.XQ.L.L.L.L.Y.Q..XOXOXOXXXXXXXXXXXXXXXXXXXXXXXXXXXXX",
"XXXXXXXXXXXXXXXXXXXXXXXXXX@XOXOXXXOXXXOX6XXXh.>.J.Q.Y.J..XD.0.h.h.N.h.h.N.h.t.t.h.h.h.F.J.J.J.G.Y.Q..XY..X.XXXOXOXL..XOXOXOXOX$Xn...| | E r.5X| D E  .| D | n.v.K.4XE.A.8X(.v.c.m 5 u v y 0 0 w 0 q f y # 7 f U U ) f f d 0 w 0 w y 0 : #.b.x.|  .v.u O 0 2 : 0 , y y y U _ 4.[.*X&X[.4.4._ U v ~ ~ E 4.5.4.f # 9 0 ~ ~ V ~ _ ^ -.=.-.g # $ & 9 d d w q < 1 a l N N p W g = N N C Z ^ ! %.{ { ] -.9.t.t.-.%.` ` =.~ V Z Y ` -./ >.<.:.&.-.-.p C >.>.g.g.U.g.:.] A ' &.:.' @.:.g.[ G [ a.a.a.s.s.@.a.g.U.U.j.@.A U.g.d.k.^.^.~.Z.Z.~.U.<X~.Z.U.Z.k.Z.^.~.~.yX,XyXyX,XqXqXqX2X>XZ { ZX2X}.XX|.Y.F.h.>XrXhXqXOX1X>X@Xz.7.h.l.e.}.}.l.e.7.-.} ] ^ ` W C T q R R A R C z 1 $ T Y i . o $ p 5.6.6.l.-.>.&.0.t.{ i i Y fXMXfXfXxXeXp.p.w.+XfXeXfXfXgXxXkXMXxXkXfXfXfXfXfXfXkXfX*X'.) f u.'.u.4.n.*X5X*X5XtX5Xv.t v v. Xb. .D v b ,. X XK.8.| ..*.D *.SXHXKXHXHXKXHXHXKXKXKXKXKXHXHXKXKXZXZXZXZXNXbXxXp.8.5XlX0XwXeX..U +XMX=XsXUXPXIXUXJXUXUXJXJXJXJXJXJXJXJXNXxXlX0X#X.XOX.X.XQ.!..XQ..XQ.L.L.L.L.L.Y.Q..XXXXXXXXXXXXXXXXXXXXXXXXXOXOXXXXXXXXX",
"XXXXXXXXXXXXXXXXXXXXXXXXXXXX@XOXOXOX.XXXQ.N.q.h.0.9.0.0.h.h.N.N.h.B.F.N.N.N.N.h.h.h.h.F.F.L.G.G.Y..X.XQ..XOXOXOXY..XY..X.XOXL.oX3Xb.8.....r.3X..b E E D b b.kXr.,.v.,.#.A./.A.(.E.D v v v 0 : ; O 0 , X , y 7 d w w , 7 % , y 0 0 d t v v.x.#. . .D ; 5 8.t.Z 2 : t d U U _ 2.[.fX*X%X&X*X[.u.( V g f E ` ) 7 # 0 w ~ ~ Y ~ ` ^ ^ ` =.z @ $ & 9 d f w w q q l C N C l ^ p $ l N C C W ^ %.] ^ / 0.t.e.0.%./ ` ;.=.Y W Y Y -.-.' >.0.>.>.7.>.p C <.<.f.<.Z.f.>.@.' ' &.&.' ' ] a.@.[ a.a.a.a.g.@.[ a.a.U.P.P.&.k g.~.^.Z.~.<X^.k.Z.~.~.<X~.~.~.~.k.k.~.~.~.yX:X7XyX7XyX,X2XqXqXS -.lX}.|.qXyXhXqXF.>XtXuXtXrX1X0X1XJ.6.e.l.e.}.}.z.e.7.6.-.} ^ { ^ Y W q T R R R A C e o @ = o   @ $ l 9.6.6.z.-.0.;.0.t.^ i i 5.fXfXfXMXMX=XH.p.w. XeX=XeXfXkXxXMXxXeXeXfXfXfXkXfXkXfXfXfXsX&X2.) 8.i. X&X5XfX5XeX#X#X5Xf X c ,.D c v  .b c  .,.8.*.*.r.n.,.! 4XHXHXHXHXHXHXHXKXHXKXKXKXKXHXHXKXJXHXHXJXZXZXxXt.5XkXbXxXkXlXw.{.NXxX=XmXMXUXUXUXNXDXJXJXJXJXJXJXJXUXJXJXNXNXlXeXOX.X.X.XQ.!..X.XQ.Q.L.L.L.L.Y.Q..X.XXXXXXXXXXXXXXXXXXXXXXXXXXXXXXXXXXXXX",
"XXOXXXXXXXXXXXXXXXXXXXXXXXXXXXXXXX>XY.e.<.h.F.F.h.0.q.h.h.q.N.h.N.B.F.N.N.D.D.N.h.h.h.F.L.L.J.J.Y..X.XQ..XXXXXXX.X}.}.}.Y.Q..XoX5XiX5X,.*.8.K. XK.v c E ! kXJXE.| ,.,.#.c.S.A.(.4X| c ! V t O + : 0 # ; , # 7 w 0 7 % 7 7 w d t 7 t : E E.b.c.x.v.,.4 ,.wX5XoX*.y v U ) _ 4.u.[.*X%X&XsXMXmXfX+Xi.E f & 0 0 , 0 0 w Y ~ ` =.=.{ ^ =.6.V @ $ 9 0 i f i i q q g N l N N / p $ g N N C W / %.^ T ^ &.9.>.&./ ~ / =.^ V W Y Y -.-.] >.<.>.0.h.7.p C g.f.f.:.f.<.>.:.&.&.:.&.' A A :.a.[ :.a.a.g.U.@.' :.j.P.P.U.:.k T.:X^.Z.Z.U.Z.Z.^.^.~.:X~.~.~.~.k.k.U.~.~.9X:X9XyX,XuX,XqXrXuXW ] |.@XhXhXqXyXyX2X1XqXrXhXuXqXqX@X}.0.h.z.e.}.|.l.e.0.0.7.%.^ { ^ T ^ e Q ^ ^ A S l e =   . . @ $ < C t.9.6.t.-.>.;.e.t.~ q f [.xXfXxXMXxX Xw.H.[.+X5X=XfXfXfXfXxXkXeXeXkXxXkXxXxX*X5.+XMX5X5X5X*X5X5X5X5XgXxXeXgXgXtX Xt : > - b ..b.n.b.| b | | ....| ,.8.! v.ZXHXHXZXKXKXKXKXHXHXKXKXKXHXHXKXZXKXZXZXHXZXgXH.NXgXxXxXDXNXkXMXMX*X=XMXMXUXMXIXDXJXJXJXJXUXUXJXJXUXUXKXJXJXHXxX=X.X.X.X.XQ.Q..XY.Y.L.L.L.L.Y.Q..X.X.X.XXXXXXXXXXXXXXXXXXXXXXXXXXXXXXXXX",
"OXOXXXXXXXXXXXXXXXXXXXXXXXXXXXXX.XOXY.h.q.N.F.h.q.0.q.N.N.h.N.F.N.h.N.N.N.D.F.D.N.h.z.F.J.J.L.G.Y..X.X.XOXXXXX.X.XY..XQ.Q.OXoXv.r.oXiX5X XK.n. XkXE E ! n.DXvXv.E.E.E.A.A.v.c.A.(.*.v v t 0 t O : : O , 0 0 d y d d 0 0 w y 0 0 0 f 2 | E.#.#.H ,.,.,.4XwXR..X5X) E ..8.[.&X*X*X[.%X*XfXnXkXmXxX5Xn...P 9 , , 7 0 f U Y 5.w.6.-.=.5.p.Y $ & 9 w w i w q w q g g N N l W e $ l N N Z ! / O.] W S ] ] R T ^ { ~ W W E W W W %.-.' e.>.-.0.h.7.e C h.g.<.&.<.<.>.&.] >.g.&.Q S C :.a.[ a.a.:.a.~.g.} f.B.T.P.I.&.A ~.~.U.Z.U.~.U.U.:X^.U.^.~.~.~.~.Z.k.U.~.U.<X<XyXyX,XuX7XyXrXhX^ ^ @X@XrXzX1XqXuXuXuXqXrXuXrXrXqX@X}.e.l.J.t.{.}.z.h.e.7.6.&.{ { { T R e ^ ^ Q R Q Z e < o o . . @ < Y p.9.7.e.&.;.>.h.t.^ q f *XxX=XxXkXgX+Xp.[.+X*X+X5XkXxXxXkXfXMXxXkXkXkXfXkXgX5Xw.[.gXeXkXfXfXeX5XfXeXgXgXgXgX=X$X5.q 2 t E b.v.n.n.E.b.E ,.8.,...D | n.R.5XHXKXKXKXKXKXKXKXJXKXKXKXKXHXKXKXJXJXKXJXHXNX=XH.+XkXHXNXkX=XeXkXkX*XfXIXMXUXMXMXUXUXUXUXUXUXUXUXUXJXJXJXJXJXJXNXtX$X.X.X.XQ.Y.Y.Y.L.L.L.L.Y.Y.Q.Q.XXXXXXXXXXOXXXOXOXXXXXXXXXXXXXXXXXOXXX",
"XXXXXXXXXXXXXXXXXXXXXXXXXXXXXXXXOXQ..XOXY.N.q.0.0.0.q.h.N.h.h.F.N.h.h.N.N.D.F.F.F.F.F.F.F.J.L.L.Y..X.X.XOXOX.XY.Y.Y..X.XoX.Xv. .#.,.3XDXJXDX*XH.DX..U 8.xXDXkX8.oXW.A.<.v.A.V.v.b.,.D E ..v 2 : : O : : 8 t t 0 d f d 0 w 0 0 7 0 v > | x.c.c.#.E.c.A.wXiXoXv.r.E E 4.n.&X%X*XsX*XsXfXsX*X*XsXmXmXkXn.4._ d # w y U U V 5.e.5.-.-.5.e.T = & 9 9 w w w w w q g l Z Z l W q = N C C S W / ] %.] S W W ^ ^ W ~ ~ / ` ` W W %.%.%.] <.:.&.&.6.;.e S h.g.>.&.<.0.:.] &.j.P.<.Q Q C :.:.[ s.a.:.@.U.U.j.I.j.T.j.z.@.A U.U.U.U.^.^.~.~.:X<X~.<X^.~.~.^.Z.Z.Z.~.~.<X<XyXyX:XuXqXyXyXlX/ %.cX>X@XuXuXyXuXrXqXqXqXrX1XqX>X>X}.e.l.}.D.L.|.J.l.e.6.>.-.{ ^ ^ C R q ^ ^ R Q R Z l e $ . o $ $ < W l.0.e.z.-.7.;.t.t.;.a U 5XxXgXMXfXgXgX*X+X+X+X+X5XfXfXeX=XfXMXxXkXkXkXfX5X5XfX=XeXgXgXkXeX5X{.H. X#X=XeX@X9.p. Xn.n.U + 0 v .... .E E E ..n.E.K.b.E.4XwXwXcXZXKXKXJXKXHXHXKXHXJXJXKXKXJXKXKXZXZXJXxXxX+X{.~ K.xX5Xw.p.=XfXsXsXmXIXMXIXUXUXUXUXUXUXUXUXUXJXUXJXJXJXJXJXJXJXbXeX.X.XQ.Y.L.L.L.L.L.Y.Y.Y.Y.Q.!.XXXXXXXXXXXXXXXXXXXXXXXXXXXXXXXXXXXXXX",
"XXXXXXXXXXXXXXXXXXXXXXXXXXXXXXXXXXQ.OXXXF.h.q.0.0.e.h.N.h.h.N.N.B.h.h.N.D.F.F.D.F.F.F.F.J.J.L.Y..X.X.XXXOXOX.XY.Y.Y.Y.R.oX8.|  . . .K.SXJXDXtX[.NX4.V *XKXKXSX0XoXE.x.v.E.E.A.E.V.,.r.E.5Xn.t O X t ..8.E , : 8 t d d d d w d , y E t E v.#.#.c.S.#.<.9XwXwX-.c E _ 8.[.'.[.*XsXsX*XsX*X%X'.%XfXfXMX%X_ 2.y 7 0 d f f N w.w.-.e.e.6.w.T < & 9 w w d w w w w g N C Z N T 1 $ N C Z W ! ] ] &.*.] ^ Z W W Y %.` ~ ` ~ C N %.-./ ] 0.<.%.C C ~ 1 Z h.g.<.:.>.>.&.] ] h.I.h.' Q A g.f.:.k.:.a.@.Z.U.^.P.T.F.P.F.' k k.Z.~.Z.~.~.^.:X<X<X^.<X~.~.~.~.Z.~.U.^.~.<X<X<XyX,XuXqXrXuXzX/ } zXlXqX-XyXyXuX>XF.Y.>XrXqX>X1X1XXXe.l.}.z.L.@XJ.l.e.;.-.-.-.^ C z ^ e ^ ^ S Q T Z C l < $ & @ & < W l.9.t.J.>.;.-.e.p.9.g U *XeXkXMXkXkXeXH.p.[.*X+X*X+X*X+X+XeXxXMXxXxXkXeX{.+XxXxXgXgXxXgXgX5X{.{.{.D.H.=Xp.t.l.+X{.=X..0 : O : c 8.8.E E K. X3Xn.b.E. XR. X5XtXcXHXKXKXKXKXHXHXHXKXKXJXKXJXJXJXZXZXNXxX{.#X5.i Z ~ i.=X*X5X*XfXIXIXUXIXIXIXIXUXUXUXUXJXJXJXUXUXUXUXUXUXUXJXJXtXOXQ.Q.Y.L.G.Y.Y.Y.Y.Y.Y.Q.Q.XXXXXXXXXXXXXXXXXXXXXXXXXXXXXXXXXXXXXXXX",
"XXXXXXXXXXXXXXXXXXXXXXOXOXXXXX.XXXY.XXOXY.N.q.q.q.h.N.F.N.N.N.N.N.N.N.D.F.F.B.B.F.F.F.z.D.J.L.@X.XXX.X.X$XOX.X.XY.Q.Y.R..X9... .,.,.wXJXJXDXMXH.kX....DXKXJXDXiXE.E.E.v.c.b.v.v.,.| v.4X8.E E - > b  . XiX8.5 : : t 0 d s d d s y v t t  . .#.E.W.#.D 4X8X6Xq.u ~ 2.n.n.i.*X%X%X%X%XaX&X[.&X*X*XsXfX[.U P f y d y v ~ 5.w.=.6.e.e.5.e.` < < w 9 w d w w w q g N C Z N N < = N V S ^ W ! O.] ] / ] %./ ^ / %./ ` ~ ~ Z ~ %.] ;.%.h.>.Q S N l = W t.h.<.>.:.<.0.] %.h.I.Y.' S Q F.g.@.k.:.a.[ @.k.Z.j.B.I.|.Y.} k U.T.Z.Z.U.U.<X^.^.:X~.:X^.~.~.<X~.~.Z.~.~.<X:X<XyX,XuX,XqXuXzX^ %.hXlXtX1X>XyXqX}.XXz.h.>X1X.X$X@X}.z.J.|.J.}.@XJ.l.z.6.6.6.{ R p N ^ q ^ ^ A ] ^ ^ l l < < # $ < < T l.t.z.h.0.t.&.t.p.5.v V *XfXkXkXxXkX{.w.[.&X=X&X+X+XfXxXfXfXfXkXkXxXkXfXfXfXkXxXxXxXxXhXeXtX0XeX0X=XhXH.D.rXl.t.$XH.f : , 7 : ; ! 5X5X*.5X3XE.4X5XoXE. X4XOX$X0XtXcXHXHXKXKXJXKXKXJXJXKXJXHXNXNXJXHXxX{.eX{.: Y  X5XfXkX*XsXMXIXMXUXUXUXIXUXUXJXJXJXJXJXJXUXUXUXUXUXUXUXJXJXbX}.Y.Y.Y.L.G.Y.Y.Y.Y.Y.Q.Q.XXXXXXXXXXXXXXXXXXXXXXXXXXXXXXXXXXXXXXXXXX",
"XXXXXXXXXXXXXXXXOXXXXXXXXXXXXXXXXXXX.XQ.XXY.h.q.q.h.N.N.N.N.N.N.N.F.F.F.F.N.B.B.F.F.D.D.L.$X5X$X4X$X4XOX4XOX.X.X}..XL.L..Xv.......K.SXKXUXJXNX{.eX` +XDXJXKXSXn.E.8X4X4XE.,.b.E.c 5  .,.b | ..5 b  .b b x.3Xb.: : 8 : y d 8 8 s y d v t 5 c <.4XV.D 1 N.iX0XG.p f 4.[.i.'.&X[.'.[.&X*X%X[.%X*X[.*XmX[.d f _ f w f ..=.=.5.-.9.e.e.6.l.` = & 9 9 w i w w q q p N N C N l = $ a l Z W S Q %.O.%./ / W C W { =./ ` Y ~ Y ^ { { ;.&.h.0.Q Z N N < W 0.j.F.:.:.>.e.' &.B.F.I.] C ] F.g.<.P.@.@.@.[ ' :.g.g.P.T.Y.] z j.k.k.k.U.Z.:X^.^.<X^.^.^.^.^.<X^.~.k.Z.Z.^.<X<XyX,XuXqXyXzXcX^ %.lXrX0XuX>XOXY.|.>XY.h.J.@XY.1X}.L.z.J.|.J.{.+XJ.l.z.6.6.-.^ R e N { e R ] Q ' / ^ l l q 9 & < < < W D.h.h.h.0.h.;.t.t.9.V f  XeXgXfXxX5X[.[.&X+X*X&X*X&X*XfX*XeXkXxXxXkXkXkXxXxXxXxXxXxXjXtX0XrXeXtXeXrXrXl.0X#XJ.t.p.` v 2 # 0 t t 0 *.3X..K.5X XE.3X3XE.4XwXwXlXrXrXlXjXZXKXHXJXKXJXKXKXJXHXJXNXNXJXNXMX*XgX+Xi p.kXgXfXfX*XfXMXLXMXUXUXUXUXUXUXUXUXJXUXUXUXUXUXUXUXUXUXUXJXJXNX.XL.L.G.Y.Y.Y.G.Y.Y..XXXXXXXXXXXXXXXXXXXXXXXXXXXXXXXXXXXXXXXXXXXXXXX",
"XXXXOXOXXXOXXXXXXXXXXXXX.X.X.X.XXXXXY.Y.>X.Xh.h.h.h.N.N.F.F.N.N.F.F.F.F.F.N.B.F.F.F.D.L.OXeXtX5X5X X.... XoXOX.XY.Y.Y.L.Y.4XK./ ,.kXKXDXKXJXDX5Xn.4.kXDXDXbXoX| E.iX4XW.E.E.4X,.5 u ,.#.c ,.#.5 b b.x.x.|  .3X| > : : 8 s d d s P I d t t 2 c | ! u c W .X0XL.a ~ i.n.i.[.[.'.'.%X%X%X%X'.%X%X%X*XfX_ f i.&Xv y f ..4.5.5.-.e.t.e.e.J.=.= = 9 9 w f i i i q i N l C N l $ $ g N V Z S ! %.*.;.] / W Z T ^ / W ~ Z W Y { { &.>.&.h.>.R Y Y N $ Z h.h.j.>.:.>.>.Q &.F.Y..X&.N &.I.B.g.^.:.@.:.@.G ' ] :.P.L.F.] j f.f.:.:.k.a.k.^.:X9X:X^.:X^.^.<X:X^.k.k.Z.^.<X<XyX,XyXqXuXzXzX^ ^ lXhXtX>X.X>X>X>XqXJ.F.z.Y.XX}.}.L.D.z.@XJ.{.@XJ.e.z.7.0.-./ ^ C T { i Q ] ' ] ' ^ N N q w < < w q ~ H.h.h.h.e.t.>.t.e.w.U y {.fX*X5XxX5X+X*X&XeX*X[.*X*X*X&X[.fXxXxXxXxXxXxXxXxXxXxXxXhXtXrXqX0XqXL.6.OX0X%.D.D.@Xp.J.K.H.8., , : t t E K.,. X5X4XE.3X4XoX5X5XwXgXlXxXxXxXNXHXJXJXJXJXJXJXJXJXJXJXJXZXNXNXeXeX5XU =XkXgXfX*X5XMXIXPXIXUXUXUXUXUXUXUXJXUXJXJXUXUXUXUXUXUXUXUXUXKXNX.XL.L.J.G.Y.G.G.G.Y.XXOXOXXXXXXXXXXXXXXXXXXXXXXXXXXXXXXXXXXXXXXXXXXX",
"XXXXOXOXXXOXXXXXXXXXXXXXXXXX.X.X.XXXQ..X>XY.q.h.N.N.N.F.F.F.F.N.F.F.F.F.F.D.F.F.F.J.J.XX$X0XiX5X#XE | E.E.K.oX#X.XL.L.Y.Y.Y..X4X#XDXKXDXKXKXJXeX4. XDXDXDXJX#Xt.*.v.4XwX8X4Xr.5 - b A.,.| v.x. .D b.x.E.b.,.x.,.8 : 8 8 v 2.3.) v P d I ..8.v 2 2 B r...-.OX-.i ..[.'.i.i.u.'.'.'.%X'.[.'.'.&X&X*X'._ u.sX*X( f d ~ =.5.6.{ 9.e.e.w.H.=.< = 9 9 w f i e i q p V l N l g $ $ l Z T W ! / O.>.<.%.Q ^ T C Y W Y ~ Z ~ T %.} ;.>.&.h.>.] ^ Y V $ Z h.j.j.>.&.:.Q S &.F.T..X;.l Q z.B.:.-XP.k.f.a.:.@.&.:.7.] { C = R R ' [ f.@.s.~.:XyX<X^.<X^.^.:X<X<XZ.k.k.~.<X<XyX<X7X,XuXzXzX^ ` lXrX1XY.Y.>X>X@X1XXXL.z.L.J.J.z.F.z.t.@XJ.J.}.J.e.l.6.e.6.{ { } ` { e ^ ] ' &.] ] C C i i < < q q ^ J.l.h.h.e.9.;.t.t.w.Y i n.fX5X5X5X[.[.+X*X+X*X[.*XeX=X+X+XkXxXxXkXxXxXxXxXkXxXxXxXhXrXqXqX0XOX9.] OXeX-./ t.D.6.H.eX=X5XU , : y v r.n.*. XK. XE.E. X3X5XoX5XtXlXxXbXNXNXbXJXJXJXJXJXHXNXJXJXNXNXNXxXNXxXfXeX..fXgXkXfX*XfXMXUXIXIXUXUXUXUXUXUXUXJXJXJXJXJXUXUXUXUXUXUXUXUXKXbX.XL.Y.G.G.G.G.G.L.Q.XXOXOXOXOXXXXXXXXXXXXXXXXXXXXXXXXXXXXXXXXXXXXXXX",
"XXXXXXXXOXXXXXXXOXOXOXXXXXXXXXXXXXXXXX.X.XJ.t.h.N.N.F.F.F.F.F.F.F.F.F.F.F.F.N.N.F.D.F.OX#X5X5XwX3Xn.3XE.n.#X..oX{..XL.}..XXXXX$XvXDXJXJXDXJXDXkX=.[.IXUXDXUXkXK.D 2 D r.K...2 5 > b A.c.A.A.c.c.H ,.b.x.b.b.b.b.t # v ) 3.u.u.3._ I ( ) 4.n.8...f u Z ! E ~ q i _ w.4.i.u.y.4.y._._.%X_.i.%X[.&X&X[.%X*XfX*X2.f w _ ` =.9.{ -.6.p.5.w.{ < < 9 9 w f e q e q p Y N C N l = $ g V Z W W W ^ &.>.&.^ W Z N Y W Y Y W ^ Z / ] ;.&.&.h.0.9.` Z Y < Y h.z.P.g.&.Q p j &.I..XY.>.l C -.j.>.-X^.U.j.k.k.:.:.' Q C q = < e j j A :.a.s.Z.^.yX<X~.<X^.^.:X<X<X~.k.Z.Z.^.^.9X:X:X,XyXzXzX^ %.0XJ.L.@X>X>XXX}.XXF.Y.L.J.9.D.t.z.z.p.@XJ.H.{.J.e.l.6.7.7.-.-.{ =.=.e ] &.] &.&.&.Z Z p i < < < q ^ L.D.F.h.e.9.>.h.l.w.Y i 4.+X5X%X&X&X[.*X[.[.*X+X*X*X*X[.[.gXxXxXkXxXxXxXxXgXxXxXhXhXuXqX>X>X>X$XOX$X.XL.L.D.p.n.+XtX X X..# # 0 8.n.....n...,.n. X X X Xn.n.tXgXgXNXNXNXNXJXJXNXlXxXNXHXNXNXxXNXxXNXNXxXfX*Xw.xXkXfX5XfXMXMXUXIXIXUXUXUXUXDXJXJXJXJXJXJXJXJXJXJXUXUXUXUXUXUXxX}.L.Q.G.G.G.Y.Y.Y..XXXOXOXOXOXOXOXOXOXXXXXXXXXXXXXXXXXXXXXXXXXXXXXXX",
"XXXXXXOXXXXXXXXXOXOXXXXXXX.XY.J.OXOX.XD.h.N.h.h.N.N.F.F.F.F.F.J.G.J.F.F.F.D.N.N.F.N.D.L.R.#X3X5X5XiX3X Xb.#Xn.n.#X#X.X.XY..X$XeXDXDXJXSXR.oXwXvX8...DXIXMXJXDX8.5 - : : 2 u 2 a 5 D b.E.E.c.x.x.x. ././.x.b.E. X .8 I 3.3.3.3.3.3.2.u.3.3.4.3.8...E v 0 t i 9 w _ y.4.u.4.2.1._.'.'.'._._.[.[.%X*XaXfX&XnXfX4.f w U ` 5.6./ -.6.p.-.5.` < < < 9 w g i i i e g C N Z C V < $ g l N Z W S S ] &.>./ W Z V W T Z Y W ~ C ^ / -.>.&.h.0.0.{ Y E < C h.h.F.g.&.N 1 p &.Y.Y.OX0.l C ' f.f.:X^.T.U.Z.g.&.' S p e g Y g g C p z ' :.:.:.U.:X:X~.^.^.:X<X<X<X~.k.Z.Z.~.^.<X:X:X,XuXzXzXW ~ }.H.+X1X>X>XOXXX7.] }.J.t.6.D.l.D.z.e..XL.H.}.J.e.l.7.7.6.-.-.W { { 1 ] &.] &.>.&.S T a i < < < q / J.D.F.z.h.e.7.t.D.w.~ i ` ..n.[.5XfXfX5Xn.i.+X*X*X+X&X[.+XkXkXkXkXxXxXxXxXlXxXxXhXuXrX>XXXOX>XOX>X$XOX6X0XOX0XOX{.K.n.+Xi.0 t U K. XU ..5X8.v v | 8.8.| Z a p.eXgXMXZXJXJXJXxXeX#X=XlXHXJXxXxXNXNXNXNXkXgX[.p.kXkXeX5XMXNXMXIXLXPXUXUXUXJXUXUXUXUXJXJXJXJXJXJXUXUXUXUXUXUXUXgX.XL.Q.Y.G.G.Y..XXXXXOXOXOXOXOXOXOXOXOXOXOXOXXXXXXXXXXXXXXXXXXXXXXXXX",
"XXXXXXXXXXXXXXXXXXXXXXXXXX.XJ.h.L.L.J.0.0.h.N.D.D.D.F.J.F.F.G.G.F.J.J.F.F.F.F.N.G.J.J.D.D.#X#X5X5X5X5X3Xn. Xn.K.#X=X#X.XOXOX>XtXxXKXDX5XE | *.K.E v 5XDXDXDX*XV ; 2 2 : 2 f i , 0 u b v./.A.x.c./.v.H b.A.E.E.3X .t ) 1.3.3.3.3.) 1.3.1.) 3.3.) ..8.i.2._ 4.( ( 4.u.y._ 2.u.y.i._.i.'.'.[.%X[.%X*X*X*X*XfXfXy.f d f { w.6.^ -.6.e.-.w.{ < & & w i V z z g i a l l Z Y Y < $ p g V Z ^ / Q Q ] >./ W Z Z W Y Z ~ ~ ~ Z ] } >.>.>.h.0.>.` ^ Y $ N e.j.j.:.' S j p >.Y..X.X] p C Q >.<.-X:X^.Z.s.@.G ' l e p w 9 7 = e q l S ' :.:.g.~.^.~.^.^.<X<X<X^.^.k.Z.Z.~.~.<X:X:X7XyXzXhXW Z {.+X$X$XL.z.h.e.^ >.L.e.9.;.J.z.D.l.w.L.L.H.{.J.e.z.6.0.7.-.-.T { { 1 R ] } &.>.&.S ^ l i < < q i ` J.D.z.h.F.h.7.t.t.w./ i ` 4.` _ y.i.&X*X[.n.+X5XfX*X&X[.eXxXkXgXgXxXxXxXjXxXNXcXhXtX1XOXOXXX6XOX$XOXL..XOX}.rX0XJ.n. XfX*Xt f u.i.n.P n. Xr.| ..,.,...! E a ` *XfXgXNXNXJXNXeX#X+X*XtXNXNXNXNXNXMXNXMXgXfXw.{.fXfXfXxXDXMXMXIXMXPXUXUXUXUXUXUXUXUXUXJXJXJXKXUXUXUXUXUXUXUXJX0X.XL.Y.Y.G.G.Q.XXOXOXOXOXOXOXOXOXOXOXOXOXOXOXOXOXXXXXXXXXXXOXXXXXXXXX",
"XXXXXXXXXXXXXXOXOXXXXXOX>XOXY.J.;.0.q.0.h.J.D.J.F.J.G.G.F.F.F.J.F.J.J.J.F.F.F.F.F.F.J.D.n.#X X5XiX3X3X3Xn.n. X X5X#X4X4X4X4X$XK.wXDXiXK.B D b b 2 + U kXMX[.y ; ; v f : : , , : : O X  .4XE.b.b.b.b.- 5 x.E.E. Xv 7 P P ) 3.2.1.3.y.3.3.1.3.3.u.i.i.n.u.i.i.u.i.y.4.i.4.4.i.4._ 4.i._.'.%X%X&X%X%X*X[.*XnXsXu.f f V =.5.6.^ } 0.e.7.l.w.w < 9 i f U V z a i p a l Z T Y < @ i g N Z ^ %.] S Q >.] ^ T C Y V V W / / ^ -.-.>.;.-.h.D.6./ ~ Y < Z 0.h.h.0.' ] W C >.Y.OXe.e 1 N R 0.>.P.!.U.@.' ' :.S j g 9 9 w 9 w w e z A C } :.a.Z.~.~.^.^.:X<X^.^.^.k.Z.Z.^.~.^.:X-X,XrXuXhXW l J.D.D.1XL.^ N N &.}.l.t.6.6.p.l.H.l.e.{.}.D.J.J.l.J.0.7.-.{ { z } 5.1 C ] >.>.>.&.Q ] C g < = q e ` L.D.h.e.h.h.6.t.9.5.` i ..'.2._ i.4.4.+X[.n.{.[.*XfX*X[.fXkXkXgXjXxXxXlXxXxXxXlXtXtX0XOXOXqX!..X4X>.Z / >.*.%.;.*.t.#X Xn.t ! n.i.) d ....E r. XK.n. X Xn. XH.H.+XfXxXMXDXxXeX=X#X+XeXNXJXNXJXNXxXNXMX{.H.p.eXeX+XfXMXMXMXIXIXMXPXUXUXUXUXUXUXUXUXKXJXKXUXKXUXUXUXUXUXUXUXZX@X.XQ.Y.Q.G.G.Q.XXOXOXOXOXOXOXOXOXOXOXOXOXOXOXOXOXXXXXXXXXXXOXOXXXXXXX",
"XXXXXXXXOXOXXXXXXXXX.XXXXXOX>XXXD.0.t.t.t.J.D.D.G.G.G.G.G.G.F.F.G.G.F.F.F.F.F.F.N.L.N.t.D.oXoX#X X Xr.n. X Xn. X3X3XK.v.r.4XE.B  .,. .D c c c b D > : v v , X v n.3X Xf # : , 2 : O : u E.E.v.4X3XD - 5 > b b. Xv + 8 P ) ) 1.3.u.3.3.3.3.u.u.n.].y...'.'.i.i.i.i.i.i.u.'.'.y.( 2.i._.i.[.%X&X[.*X&X&XsXfX5Xy.f d g 5.=.6.{ Q -.e.w.{.l.q < w i z V g g g i a l z Z T Y q $ i N V C T ^ ^ / Q %.] Z Z C N V Z T W ~ Y 5.;.6.;.;.D.9.{ ` ~ ~ < C l.l.h.0.>.>.] Q h.;XOXQ 3 p p Z -.0.Y.;Xh.' :.>.h.Q a g $ w f U P d d e Z A } :.a.g.k.~.^.^.^.^.^.<X<XZ.d.k.~.Z.^.^.^.,XqXuXhX^ g p.t.l.t.}.$XJ.L..Xl.t.;.9.9.p.p.D.p.t.{.J.l.J.J.l.z.7.;.-.{ { z -.{ 1 W ^ &.&.:.&.Q ^ S a 1 = e e { J.H.t.9.z.l.9.D.;.,.| t u. X2.) y.i.n.[.[.[.&X[.[.*XfXkXkXjXjXjXjXcXcXxXxXxXxXgXtXlX$XK.OX$X4XK.,.E |  . .! b c B E r.b.b.c ..8.8.v U E ..V ! ..=.8.n.[.[.+X X{.n.{.gXxXMXkXkXxXgX=XxXNXNXNXMXxXNXkXn.p.r.n.tXgX*XxXNXMXMXLXIXIXUXUXUXUXIXUXUXUXUXUXJXJXJXJXUXKXUXUXUXUXJXhX.XY.Y.Y.Q.L.G.Q..XOXOXOXOXOXOXOXOXOXOXOXOXOXOXOXOXXXXXXXXXXXXXXXXXXXXX",
"OXXXXXXXXXXXXXOXOXOXXXXXOXXXXXOXY.t.t.t.h.D.D.J.F.F.F.F.F.F.F.F.D.D.D.F.F.F.F.F.F.F.L.t.N.OXn.n...,. X X{. X X X X8.....E  .D x H ,.c. .D M D D b t X X # # Z  XK. XiX| 5 2 5 2 O # u : E E.4XE.,.> > | b : : ) d : 7 s I I 2.3.) ) y.n.'.i.'.'.n.u.y.'.n.i.'.%Xi.u.u.u.'.'.i.y.u.i.[.[.'.'.%X[.%XsXaXfXfXfX8.d i g =.6.6.{ C R e.e.J.{.q 9 i i U Y V N g p g l z Z T Y q $ i g N V Z ^ ^ ^ R ] %.W Z C N C Y T W W Y 5.5.6.;.;.5.` Y ~ ~ Y < T l.t.6.7.z.h.} } F.XXF.S z S C a } h.@X>XF.] &.>.&.R p 1 9 d f L d f d i N z A ' :.g.k.~.^.^.^.^.^.<X<Xk.@.k.~.~.~.~.^.:X2XqXhX^ l l.;.w.t.t.9.L.J.D.6.5.-.%.=.w.p.D.D.t.H.J.p.J.z.h.e.0.7.-.} { C -.%.1 ^ ] -.-.>.>.' &.R N q 1 e e =.{.J.l.e.}..XD.D.K.8.| c 2.y.( u.[.'.&X[.n.[.[.+X[.+XxXxXxXgXjXjXcXNXcXxXkXlXgXgXtX#XD.r.,.v.v.! D ,...|  ...| D t 5 c D b > E 3...t ....U D V v ) 8.n.n.n.H.{.{.[.[. X=X5XkXkXxX*XeXJXNXxXNXJXkX5Xn.r.{.i.gXgXeX=XMXMXMXPXPXPXIXUXUXUXUXUXUXUXUXUXKXJXKXJXKXUXKXUXUXUXUXJX0XQ.Q.Q.Y.Y.J.G.Q..XOXOXOXOXOXOXOXOXOXOXOXOXXXOXOXXXXXXXXXXXXXXXXXXXXXXX",
"XXOX.XXXXX.XOXOXXXQ.XXOXOXOXOX>XG.q.q.t.t.D.D.F.F.F.F.F.F.F.F.F.D.D.D.D.F.F.F.F.F.F.D.t.D.OX{.R.4X3X#X5X#Xn.{. Xn.8.b. .,. .5 b A.(.(./.x.x M H E B : X # i K.5XoX3XK.b > u B 2 O : B O ; B ! v - > D v v ) t   : d P d P d v P ) ) ..i.u...2.i.n.i.'.i.y.u.&X*Xu.u.'._.[.'.'.'._.%X%Xu.u.[.&X*X%XaX*XsX*X*X..f V ~ =.w.e.{ j l 6.l.J.{.e = q i U Y V N l g l l N Z T T e $ i g V V Y / ] ' Q ] >./ Y N N C Z T ^ W Z 5.;.6.-.%.;.^ Y _ ~ ~ 9 T w.w.t.e.h.e.&.} F.;XF.] Q Q Q l &.z.;X>XP.&.&.0.&.Z p $ w L P s d L f w e j j ' @.g.U.~.~.~.~.^.^.<X:Xa.G a.~.~.~.U.~.-X,X>XrX^ p D.e.;.` ;.=.-.-.=.-.;.5.` =.6.t.p.p.w.H.{.p.H.l.l.0.0.e.} -.} C -.{ 1 ] { 7.>.7.0.&.>.^ Z e q e i =.{.D.9.6.J..XoX9.E D D v I v _ '.[.i.[.[.[.+X[.[.[.*XfXxXkXjXxXcXcXxXjXgXeXeXtXlX0XD.>.>./ Y v D | ..| | ..D D b c  . .c > t v 8...v ) E v v v f E 8.i.n.n.i.n.{. X{.H.[.[.gXMXeX{.gXxXxXNXDXfXH.i.+X5Xi.=XxXgXeXfXNXNXDXDXIXIXUXUXUXUXIXUXJXJXUXJXJXUXKXKXUXUXUXUXUXUXUXNXOXY.Q.Y.Y.L.J.L.Q..XOXOXOXOXOXOXOXOXOXOXOXOXXXXXOXXXXXXX.X.X.X.X.X.X.X.X",
".XOX.XOXOXXXOXXXOXY..XOX.XOX0X.Xt.0.0.0.t.J.F.N.D.N.F.F.F.F.G.G.G.F.D.D.B.F.G.G.F.F.h.t.h.D.D.D.4XoXoX5X5X=X Xn.K.v... .x.H M M b.A.A.A.A.H x M D 5 : # , E  XK.v.4XE.#.F E.4Xc X 2 ~ : ; X X - : , E E I _ U : + 0 v f v t 0 d c ..8. X#X[.8.8.'.'.[.i.u.[.%Xu.y.i.[.i.'.[.%X[.&X%Xi.u.%X&X[.%X&X'.&X*X&X[.U Y Y =.=.6.e.-.W S -.p.H.{.i & < i V U g l z l N l N Z T T i $ i p V Z T / %.&.] } 9.%.T l g l C T ` ^ C ;.;.5.=.%.5.` E ` _ ~ < Y 4.w.e.-.F.h.&.-.P.>XF.] ] ] ] C 7.F.-X>XY.&.>.>.;.Y i $ 6 d U d L s % @ = z Q } :.k.~.~.~.~.~.^.^.^.:Xk.[ a.Z.^.~.U.T.-X2X>XrX^ e z.t.-.-.=.W ` / ` ` / ` T ` -.p.t.w.6.l.{.e.D.l.z.0.0.e.} -.} C -.{ 1 } &.0.>.>.7.>.-.] Y p e e i -.{.z.e.6.J.@X8.u D 8...E t ( y.u.[.'.[.=X*X5X*X[.[.*X*XfXgXxXxXcXjXeX=X=X=X1XgXrX+X9.5.8.| E B E | | D b D E D x  .b.v.x.v 5 c E d ) ..v d d v E ..i.i.n.'.n.H. X+X X[.i.H.fXxXgXeXNXNXJXkX XH.K.{.*X{. XxXgXgXeXeXMXNXNXUXDXUXUXUXIXDXIXUXJXUXUXJXJXUXUXUXUXKXUXUXUXUXJXgXY.Q.Q.Y.Y.Y.J.L..XXXOXOXOXOXOXOXOXOXOXOXOXOXOXOXOXXXXX.X.X.X.X.X.X.X.X.X",
"XXOXXXOXOXXXXX.X.XY.Y.OXOX>XOXq.9.9.0.t.h.J.J.D.F.F.F.F.F.F.F.F.F.D.D.F.F.F.F.F.D.N.D.D.D.D.D.K.0X$XoX$XoX#X XK.n. .D ,.D M ,.M x.A.A.A.E.,.M D D b 0 : + E K.D ,.iX4XE.A.E.4X| O 5 ..2 , : : : , X - t v P U y 7 # , 0 y 2 t D ,.K.8.K.kX5XfXu.u.n.'.i.i.%Xi.4.i.i.i.u.'.[.%X%X%X[.[.&X%Xi.[.*X%Xi.*XfX*Xi.U ..Y =.-.6.6.6.l.-.=.5.H.{.f = < i z g i g N N N l N Z Z T i $ i i N Y W / %.%.] / >.&.S a a l N Y ^ W C -.-.;.-.%.5.` Y ~ ~ ~ 9 Y 5.5.e.e.}.z.6.-.T.;XF.>.&.>.&.Q F.L.-XqXF.&.&.&.{ Y d & @ 6 6 6 7 6 % & $ 1 A ' j.g.Z.U.U.~.~.~.<X~.^.U.:.a.Z.^.^.U.^.:XyX2XrX^ p l.6.;.l.6.Z / { ^ W W T Y ` 5.p.w.6.5.p.J.w.D.e.h.0.7.7.} { ^ C -./ 1 } } >.&.-.-.&.&.^ T l p i p -.J.D.t.6.L..X*.5 E 8.,.c t n.i.i.*X%X*X5X5X=XeXeX{.[.&XeXkXxXxXkXeX@X+X$X=XtXgX@XJ.8.;./ D E D u t D D c b D D b A.b.x.b.D 5 0 b t 2.8.) v f E _ 4.i.i.n.[.[.[. X+X X[.[.&XgXkXxXgXxXxXgX+X[.n.#XgX{.H.gXxXgXeX5XeXNXMXMXMXMXDXUXDXDXDXUXUXUXUXUXUXUXJXJXUXUXUXUXUXUXUXxX$XY.Q.Q.Y.Y.Y.L.Y..XXXOXOXOXOXOXOXOXOXOXOXOXOXOXOXOXXXXX.X.X.X.X.X.X.X.X.X",
"OXOXXXXXOXXXXX.X.XXXY..X>XOXY.e.q.0.e.h.F.D.F.J.F.F.F.F.F.N.B.N.D.F.F.F.F.N.N.h.N.F.N.N.h.D.D.L.q.D..X.Xt.n.#Xt.,.,.,. .x  .b.H b #.b.A.x.H H H | | v   X 2 2 | 8X8X/.(.v.v.(.W.4 5 ! : : : : : : # # # 7 d d 0 7 , # i f v ..b.3XE.E.v.n.#X5Xn...i.u.u.'.n.1.4.u.y.y.y.i.'.'.'.[.[.%X&X'.'.&X%X[.[.*XfX5Xw.4.4.V =.=.;.6.0.0.{ { ` l.+Xg = w i g p e g N N l g l C C T i @ w i g Y ^ / %.O.] Q %.&.S j N N N C ^ W C -.-.6.-.%.;.` ~ ~ Y ~ w Y 5.p.H.J.|.6.&.-.T.;XT.F.g.h.>.>.Y.Y.>XqXj.] &.} V g ( f & 7 % 6 % 9 f Y z e j R g.:.g.U.~.Z.U.~.<X~.~.Z.a.@.k.^.^.~.^.qXhXrXrXT z z.5.;.;.l.{ N Y C l C Y W ` =.w.6.6.6.p.l.6.D.e.h.0.7.6.&.} ^ C -.^ 3 { ] -.} &.&.] } Q W l l g l 5.J.z.l.7.F.oX8.t v ..E t ) [.[.'.*X&X&X X*X*X*XeX*Xn.{.fXfXxXkXgXeX1X0X0X1X0X@XJ.K.9...Z B v D t > 5 c D D D 5 c b.v.b.x.D > : # : v ....2...4.2.4.i.i.i.'.[.[.[.&X+X&X&X[.eXkXgXgXxX5X X X X5X*XK.[.xXgXlXtX5XeXgXNXMXxXkXMXNXDXDXMXDXUXJXUXJXJXUXUXJXUXUXUXUXUXUXKXJXtX.X.X.XY.L.Y.Y.Y.Y..XOXOXOXOXOXOXOXOXXXOXOXOXOXOXOXOXXXXXXXXX.X.X.X.X.X.X.X",
"XXXXXXXXXXXXXXXXY.XXXXOX6XXXq.0.t.t.t.N.F.N.N.J.F.F.F.F.F.N.N.N.D.J.G.F.F.N.h.h.t.D.N.G.L.L.J.L.>.%.6.t..X#XD.n.8.r.H c b #.c. .x > c c c H  .| *.*.B X O O t 4X8X4XS./.#.A.E.4XD 5 v O : + X X : : : # # , % % , 7 , y v | v.b.E.A.E.E.b.4XwX8.4.u.y.i.[.'.2.4.y.y.y.y.4.u.i.'.%X%X[.%X[.[.%X'.'.[.*X*X*X4.w.4.Y =.=.;.e.6.Z Z R / p.@Xz = 9 i f f i g N N l p N C C W p @ e i i V W ^ %.%.&.' ] ;.^ C Z C C Z / ^ Z 6.9.e.;.=.5.` ~ ~ ~ ~ 9 v w.p.{.L.l.Q -.7.T.XXI.I.I.F.0.e.Y..X2XqXF.] Q C i v %X4.f P d f U ( 4.` z q p A &.:.g.U.~.k.Z.~.^.~.^.~.d.a.k.~.^.^.^.qXuXuXrXT z H.-.%.{ J.6.N T Y N N Y ~ =.-.-.5.5.5.p.t.6.l.e.h.7.7.6.} ;.^ C &.T e } } -.&.&.] ] ] ^ ^ C N g l ;.J.J.D.7.D.OXK.! 2 f t 0 4.%X%X'.*X*X[.[.=X1X=X=XfX X&XxXfXkXkXgXrXtXtX0X$X.X}.L..X{.=.v E E ! c 5 5 c D M M M x  .b.b.x.x.5 - X - b ) E ..u.n.n.i.i.i.u.i.[.&X[.&X&X&X+Xn.p.=XfXgXeX#X=X X5X#X8.w.gXlXgX0XtXeXeXeXxXxXxXxXMXMXMXMXDXJXJXDXJXJXJXUXUXUXUXUXUXUXUXKXJXxX$X{..XQ.L.L.Y.Y.Y.Y.Y..XOXOXOXOXOXXXXXXXXXOXOXOXOXXXOXOXXXXXXXXX.X.X.X.XXXXX",
"XXXXOXXXXXXXXX.X.XF.G.D.N.h.<.F.e.h.h.N.D.N.D.F.D.F.F.F.F.N.N.N.D.D.F.F.N.N.N.F.G.h.G.L.L.Q.9.L.h.h.t.F.D.L.D.K.b.D x 5 D v.#.v.#.5 5 ; > D #.,.E.| 2 X : X | iX(.A.S./.| A.4X4X*.; 5 X : > : : : ; # : # # 7 7 7 7 , ; t | v.v.b.c.E.8XK.E 5.) 2.4.u.[.[.%X%X&X*X%Xi.y.2.4.i.%X%X%X%X%X'.[.'.'.'.i.&X5X5X4.w.5.~ ` -.6.6.-.p Z l { w.+XU = & i f z g N C N N a C Z Z / g $ i g i g N Z / ] &.Q ] 9.%.Z Z C C W { ^ T e.l.D.e.;.w.` Y ~ ~ _ w v w.p.+X=Xl.j ] h.T.T.I.T.!.j.g.h.Y.OX2X>Xh.Q N e w f [.g P 4._ u.y.( ( i o e z C -.g.j.U.~.k.k.~.~.~.^.~.k.@.k.~.<X^.^.qXuXuXrXR C J.5.{ ^ z.e.C ^ T Y T W T { -.%.=.=.=.t.t.9.t.9.h.6.0.7.] ;.R S -.T e %.%.-.&.-.] ] ] { ^ Y C p g -.J.J.z.-.t.J.H.n.Y 2 , f u.[.*XsX*XH.p.H.1XeX1XeXgX*XfXkXfXgXgXtXeXeX0X#X{.$XeXwX4XiX,.t v v b t 5 5 b #.| D #.#. .b.E.b.b.b X - : E ) | ..v 4.[.n.'.'.i.[.[.[.[. X+X*X&X&Xi. XfXtX5X*X#X5X X#X..#XgX0X=X$XgXtX=X=XxXxXkXMXMXMXMXNXJXJXJXDXJXUXUXUXUXUXUXUXUXUXUXKXHXtX.XQ.Q.Q.Y.Y.Y.L.L.Y.Y.Y..XXXOXOXOXXXOXOXOXOXOXOXOXXXOXXXXXXXXXXXXX.XXXXXXXXX",
"OXXXOXXXOX>XN.9.9.0.>.0.q.0.t.h.h.h.h.D.D.N.D.D.N.F.F.F.F.F.N.N.M.N.N.N.F.F.F.F.G.D.J.J.D.Q..XXXY..XXX}..XL.D.K.K.| c D H b.v.b.| - 2 5 : : - u c 2 # $ O O D wX(.W.4X(.b D 4XwXr.> X t | ,.8.,.,.,.) 8 # # , f ( U v : t *.b.W.A.H c.A.oXv v r.8.) 8.u.'.*X*X*XsXfXfX'.4.[.&X[.'.[.[.i.u.[.%X'.'.i.*XsX5X..i.w.Y =.{ -.6.} ^ T %.=.` +XT & < i g g v V Y N l g Z S C W g $ w i i p p l W %.&.Q ] ;.O.S Z l W ^ } { T t..XJ.e.;.w.` ~ ~ ` ~ d U 5.p.+XJ.e.e C e.T.;XU.T.I.;XB.h.OX@XqX2Xe.Q l g y U [.f % w w f w & $ o o 1 N p ^ f.j.T.U.g.d.~.~.^.~.~.k.[ a.Z.<X<X^.uXuXhXhXR C L.5.{ ^ 6.e.^ T T C ^ W ^ { 5.=.^ %.-.t.9.e.h.9.0.0.0.-.} &.^ ^ -.z a -.-.>.>.>.&.-.} { { C C p g -.D.}.l.;.%.D.{.n.5.E 0 U i.[.fXfX=X[.+X1XrXeX1X=XeXfXkX5X&XtXgXgXgX#X$X5XoXK.n.v.E.n.E c t D D b > x #.<.#.#.x.c.H ,.E.b.,.t - X > E ,.| 8.E t E n.'.n.u.i.'.%X*X*X5X5X*X*X#X5XeXkX3X3X5X X5XwX XK. XtXeX+XeXgX$X*XfXxXfXMXxXMXNXNXDXJXJXNXJXUXUXJXUXUXUXUXUXUXUXJXlXOXL.Q.Q.Q.L.L.L.L.L.Y.Y.Y..XOXXXOXOXOXXXXXXXXXXXOXOXOXOXOXXXXXXXXXXX.XXXXXXXXX",
"XX.XOX.XXXXXt.<.t.q.<.0.t.t.h.h.h.h.D.D.D.D.D.N.N.D.F.D.D.D.N.N.N.D.F.F.F.J.F.J.G.L.J.h.J.Y.G.D.F.Y.Y.F.h.J.D.t.R.| | D  .3Xb.,.5 - c E v t - ; 2 2 O o $ O : D V.iX4XF - 5 b | D O t v.b.8.,.v.v. X8., : : % _ v ) ) 0 v v. X3Xx.M A.V.4X..t n...( u.'.&X&X%XfX*X*XsX5X[.%X[.i.u.'.*X%X[.i.%X&X%X'.*X5X*X_ 8.w.Y =.{ -.;.-.7.9.e.-.` H.T & 9 g V g g g Y V N l C T Z Y p $ q i i i e a Z / &.' / >.&.S S C W ] &.} W D.@XY.z.6.D.5.{ =.5...d g =.5.H.p.9.q z e.XX-XI.T.I.XXj.j.Y.OXqX@Xe.Q N N w d u.U & 9 @ & & @ $ q < q ` i ^ z.Y.j.U.Z.d.k.Z.~.~.~.Z.a.a.Z.<X<XT.yXuXuXtXR z J.6.6.-.l.H.=.^ ^ T ^ ^ ` ` -.-.^ / -.e.e.e.h.9.0.0.7.-.} -.^ ^ -.z l 6.7.6.7.-.-.7.&.] ] Y C l g -.e.J.e.-./ ;.H.t.*.E y _ n.*X2X2X*X2X1XfXrX1X=XeXfXeXfXeX{.5XxXkX0X5X#Xr.| | ! | | | b 5 c b D | c #.c.$.c.x.x.b.| x 5 c D ,.n.v. .b  ...b.n.! 0 t _ n.'.'.*X&X&X5X5X*X+X[.#X3X XK. X Xi.r.K.kX X8.{.H.L.J.{.$XtXgX+XgXMXxXMXMXUXUXUXUXDXDXDXJXJXJXUXUXUXUXUXUXJXxX=X.XQ..X.XQ.L.L.L.L.L.L.Y.Y..XXXOXOXOXOXOXOXOXOXOXOXXXOXOXXXXXXXXXXXXXXXXXXXXXXX",
"OXOX>XXXOXQ.t.0.t.t.0.q.h.h.N.h.h.D.N.h.N.F.D.h.N.N.N.N.N.N.N.N.F.F.G.G.F.J.J.F.F.Y.L.D.Y.L.J.D.J.F.F.F.D.D.D.G.K.*. .c #.(. .c 5 2 v | E a v c c 2 O o & 0 $ # c E.D - 5 5 t c b > c v.n.x.,.v.b.8.c X # : 7 0 7 + P v , ! K.r.b c b.E.5Xn.0 ..8.n.%X[.%X&X*X*X+X X*X*X*X=X&X[.*X*XxXfXfX%X%X%X'.y.%X5X*X( 4.p.~ =.%.;.6.6.z.F.9.{ W w.Y = w V V g g l Y V l g C T Z Y i $ w e q i p l C W ] ' ] >.0.Q S S S ] } } ^ J.XXY.F.e.D.5.` ` ` _ w f 4.4.5.9.e.p C l.@X>XI.T.I.XXj.h.XX>XrX>Xe.^ R Y d 7 _ U @ i V z g g g g i o g C 7.-X>Xk.U.Z.k.a.k.~.Z.Z.~.d.a.k.<X:Xj.qXuXtXtX^ N D.6.t.e.J.}.e.{ { W ^ ` { { -.;.W / -.e.e.h.z.0.e.f.7.>.&.} ^ ^ -.N N e.e.e.7.-.-.7.&.] ^ C C p p =.6.J.h.6.%.^ t.5.` Y i ` i.[.eXfX*X2XfXeX+X=X=XeXfXgX*X*X+XeXkX$X#X5X>.B ! |  .#. . .c 5 x b D D | c.#.#.#.,.x.v.D 5 x  .b.oX3X3XE.,.E  .8.,.,...E d v 8. X*X5X5X5X&X X[.+X[.[. X X#Xn.8.3X XK.5X8.5X5XeX0X5X#XeXxX=X=XkXNXMXMXMXMXDXJXJXDXJXJXJXJXJXJXUXUXUXJXxX5XOXOXOX.XOX.XQ.Y.Y.L.L.Y.Y..X.XXXOXOXOXOXOXOXOXOXOXOXOXOXOXOXXXXXXXXXXXXXXXXXXXXX",
"XXXXOXXXXXQ.t.0.0.t.t.h.N.h.h.h.h.h.h.h.N.N.N.h.N.h.t.N.D.F.D.D.G.G.G.L.G.F.F.G.J.Y.G.Y..XJ.J.L.F.G.F.J.J.D.D.R.,.r. .b b D  .v. .c 5 | | B ..D u : , , , 0 0 , - > - > c b D | 8.| c D v.b.,.b.,.- X 0 : # 7 % % # d v 0 , t t 5 c | n.E...t ..'.%X'.%X%X%X*X*X&X[.+X*X*X*X*X*X*X[.[.fXfX*Xi.i.y.( [.fX*X( 8.H.Y ` %.w.t.t.J.l.5.{ W ` g & w V V N N N V N g g C T Y T p $ q i w i g a a Z ] &.] >.h.&.' S Q &.>.&.Q z.@X|.J.>.;.Y p q w w @ g 5.` / ` w.l Z h.@X,XT.T.U.;XF.h.XX@X1X>X6.` T Y U w d i o p ` -.` V g e q o e V e.>X-XT.T.U.Z.k.k.Z.Z.Z.~.k.a.d.^.^.s.,XuXrXtX` N z.9.D.z.J.|.J.-.-.{ -.-.-.;.6.6.^ ] >.0.0.h.z.e.h.z.0.7.>.} ^ ^ &.l C l.e.e.7.7.&.;.-.{ ^ z z p a -.e.J.D.9.-.-.t.9.=.Y y _ 4.n.=X=X=X=XrX1X1XeXfXeXfXfX X{.=XgXtX#X5Xv.E | r. .,.x.x.,.b D D b ,. .H c.#.X.$.b.b.#.5 5 D E.E.b.E.E.E.3X| D  .,.v.n. X Xu.n.n. X5X[.[.n.n.%X&X5X5XkXfXn.r.fXJXvXn.n.t.5X=X#XOX$X0XeXgXeX=X=XxXkXMXMXNXNXDXJXJXJXJXDXJXJXJXJXJXDXkX=X#XOXOXOXoXOX.X.XQ.Y.L.L.L..X.X.XXXXXOXOXOXOXOXOXOXOXOXOXOXOXOXXXXXXXXX.X.X.X.X.X.X",
"XXQ.XX.XXXQ.t.>.0.h.N.N.N.N.N.N.h.h.h.h.N.h.h.N.N.t.t.N.G.L.L.G.G.G.L.L.L.G.F.G.L.G.F..XY.F.F.J.J.D.J.D.J.D.L.K.r.b.,.b b ,.3X3Xv.,.c u D c D B u 2 0 0 w , , , : X > c |  .D b b !  .....,.v.b.v.t : : : , 7 7 7 P d w d y t t : c 0 v v t I '.&X'.n.[._.i.[.*X+X+X*X*X*X*X+X+X%X` 4.*XfX*X4.( U d y.fX&XU 5.H.Y ` -.t.t.0.t.6.=.=.{ =.g 9 w g U V N g V N g l Z T T T i $ 9 i w i g i p Z ] &.] >.j.e.] Q &.7.0.-.Q h.Y.Y.F.} N p i q i w $ f 4.=.` ` w.N T F..X>XU.!.T.>XF.F.OX2XrX>XJ.-.Z ~ _ 0 % w < p { R C i q q o   z 6.} z.|.;X^.^.~.Z.d.Z.U.k.U.Z.d.k.^.-Xf.qXhXrXhX{ z H.l.}.Y.}.XXJ.9.6.>.e.6.6.6.0.6.^ ] 7.0.e.h.z.h.F.F.f.e.7.-.} ^ %.a C l.9.7.e.e.-.;.&.{ ^ l g p l 6.p.D.D.6.>.>.e.w.w.~ v 4.8.8.[.{.*X=X=X+XeXfXeXfX5X=X=X+XeXNX5X4X4XE D r.v.#.x.b.x. .c H ,.b D ,.D c.c.#.x.c.b.H 5 5 b b.3X(.E./.E.x.D  .E.3XE.,.n.5X#XwX#X..i.#XfXsX5X[.n. X X5Xr.*.5XUXJXJXkXr.8.5XoXOX$XOXOXOX=X0XtXeX*XeXgXMXNXNXDXDXDXDXDXDXJXUXUXJXxXeX=X#XOX#XOXOXOXOXOX.XQ.Q.L.L.L.Q..X.XOXXXXXOXOXOXOXOXOXOXOXOXXXXXXXXXXXXXXXXXXXXXXXXXXX",
"OX.XXXXXQ.Q.h.*.t.N.N.N.N.F.N.N.h.h.h.N.N.h.h.N.h.h.h.D.L.Q.Q.L.G.G.G.Y.L.L.G.G.J.J.L.XXJ.F.F.D.G.h.L.D.D.J..X>.r.,.b 5 v.3X3X3Xv.W.b.D t 5 5 2 5 t t # , v U t 2 2 ; E ,.#.v.x.v.v.,.v.,.,.8.8.r...d : , , 7 s f y.( w s f v v y y y , 7 2.[.].'.n.'.'.y.2.&XfX+X*X=X+X*X=X=X*X[.8.[.fXfXfX*X*Xi.i.%XnX[.i 4.p.Y =.-.9.5.{ &.-.5.-.` 5.g < w U U g g g Z V g l C R T C w @ 9 w w i a a a S / &.&.0.P.j.&.&.h.f.>.>.] f.z.z.h.&.{ ^ T g V g < i 5.5.=.` 6.N R l.|.;XP.XX!.;XF.P.>XqXhX0X=X6.T Y w @ w f i p -.T C p e < @ $ w w.6.{ J.;XT.^.^.U.k.Z.Z.g.U.^.Z.k.U.:XB.yXzXrXhX{ z J.J.@XXXXX@X}.t.0.e.z.t.0.e.e.;.Q ^ 7.0.z.F.F.h.F.F.h.e.0.>.-.^ &.a Z F.0.6.7.7.-.;.{ ^ ^ z l i l 6.t.t.h.>.>.t.e.w.w.Y f ` _ 4.&X*X{.+X5X=X+XeX=X=X+X*XfX5XxXNX+X#XoXB 5 b D x.,.#.#.H c H ,. .b  . .|  .,.b.b.,.x x t 5 t D #.A.b.x.c.x.#.b.b.8X3Xv.,.n.5XgXn.) n.MXDXMX[.) v E v ..fXJXJXJXJXJX5Xn.5X#XOXOXOXOXOX$X#XOX5XeXeXeXeXgXNXNXNXNXJXJXJXJXJXNXkX5X#XOXOXOXOXOXOXOXOX.X.XQ.Y.Y.L.Y.Q..X.XXXXXOXOXOXOXOXOXOXOXOXXXXXXXXXXXXXXXXXXXXX.X.X.X.X",
"XXQ..X.XY.Q.F.*.t.N.D.N.N.F.N.N.h.h.h.N.N.h.h.h.t.N.D.G.L..XQ.L.L.G.G.Y.Y.L.G.G.F.J.Q.Y.F.F.F.J.G.L..XL.D.L.oX,.| b D  .n.iXiXiX3XE.b.! b 5 ; > t 5 0 t , t v c : 2 - c ,.,.b.A.b.b.c x ,.v...8.n.u...7 # 0 7 0 d 2.y.( f d s w d f d w P [.&X'.'.].'.'.2.( %X*X{.{.+X=X=X+X=X*X[.[.*XfXfXfXMXfXmXnXsX*X8.y 4.H.V { =.-.-.{ ;.9.e.5.` w.V < 9 g U g i i Y C p l N T T V q @ 9 q i i g a a C ^ ;.:.f.I.F.>.>.P.z.g.0.] j.L.F.z.>.} %.^ Y T T 9 i w.4.` ^ 6.T ^ t.|.;XP.T.T.;XF.I.>X@XtX2X.X` Y w % 7 w q T R R ^ R l l < $ i & i w.W 0.XXT.^.yX^.Z.Z.k.a.U.^.Z.g.~.7X!.uXzXrXjX{ C |.|.@XXXXX>X}.z.D.z.F.F.t.e.e.;.^ ^ >.0.F.F.F.h.J.F.F.f.7.;.&.Q &.a Z J.e.7.6.-.} -.] ^ ^ z l p l 6.t.t.t.;.;.e.6.=.5.Y f U U w.[.p.4.p. X#X*X*X=XeX+X+X*X=XkX X{.oXK.! 5 > x  .#.#.,. .c  .b.v.,.H | b H x.v. .x 5 b - - - 2  .x.b.b./.b.x.A.b.b.3XE. .v.#X3X#X X_ 8.fXxXfX X&X| E v.vXDXDXUXKXSXwX0X#XOXOXXXOXOXOX.XOXOX#XOX=X5XeXgXxXxXxXNXNXNXNXxXxXtX=X+XOXOXOXOXOXOXOXXXOX.X.XQ.Q.Y.Y.Y..X.XXXOXOXOXOXOX$XOXOXOXOXOXXXXXXXXX.X.X.X.X.XQ.Q.Q.Q.Q.",
"Q.Y.XXXXY..XY.<.q.N.G.D.N.D.N.N.N.N.h.N.N.N.h.q.q.D.L.L.L.Y.Q.L.L.G.G.L.Y.L.G.G.G.F.Y.F.F.D.F.F.!.Q.Q.OX$XoX4X4XoX XiXiX .v x.E.E.v. . .r...D c b b t v c t t 2 > - 5 D #.#.v.b.E.,.> X b ..v.4.8.u.8.E , , s s 7 L 4.u.) P d f d f f P d 2.&X'.'.%X'.i.y.u.&X[.H.{.=X*X*X*XfX*X{.+X=XfXfXfXMXxXMXfXsX'.( w ..n.Y =.%.;.e.6.t.J.D.6.^ w.U 9 w g U i i i V N g N l Z T Y i $ 9 w i i l N a j Z %.>.g.I.P.h.h.L.L.f.g.&.F.Y.z.z.7.7.6.` ^ ^ ^ 9 f w.=.~ W 6.W { z.T.;XI.T.Y.OXP.Y.>XqXqX1X{.~ g $ 9 f i z ` { l -.} C e = 9 g w 9 ~ =.&.F.;X:XyX<XZ.Z.Z.a.Z.^.Z.s.<XpX,XuXuXqXlX%.Z @X@X@XXX@X>X}.Y.}.J.F.Y.l.7.7.>.} ] 7.7.z.z.F.z.Y.F.Y.f.7.-.} W &.p N z.0.7.>.-.{ -.{ ^ ^ l p i p 6.t.l.t.;.;.9.;.=.w._ f U ) 4.E ~ =XxX X8.{.{.+XgX*Xn.[.eX=X=.n.n.t.,.D  . .|  .,.#. .b c  .v.b.#. .5 5 c 5 > > b x > > >  .b.A.b.b./.A.A.A./.E.b.3Xb.8.3X5X XfXn.E n.DXDX5X8...n.n.n. XgXJXKXJXlX5X#X#XOXOXOXOXOXOXOXoXOXOX#XOX#X#X=X0X0X5XeX0X5X5X#X#X#X#XOXOX#XOXOXOXXXOXOX.X.X.X.XQ.Q..XXXXXOXOXOXOXOXOXOXOXOXOXOXXXXXXX.XQ.Y.Y.Y.Q.Q.Q.Q.Q.Q.Q.",
"Y.Y.Y.Q.Q.Q.L.h.q.t.D.F.N.F.G.N.N.h.h.h.N.h.q.9.0.D.L.Y.Y.Y..XY.L.G.G.G.L.D.L.L.L..X.XoXQ.F.G.W.W.C.!.W.OXG.Q.lXvXkXDXfX..b E  .n.b.v.E.4XE.D x  . .b E b v E c > > c D ,.x.,.b.b.E X X X 0 U ..2.8.2.P 7 , 8 7 s d _ y.y.2.2.1.1.( ) ) _ ( '.&X'.'.%X[.'.*X*X*X+X+X=X=X+X+X+X&X{.*XfXfXfXfXxXkXMXmXnXi.v d ~ 5.Y =.5.t.e.0.e.h.e.=.=.5.f 9 w f U f e q V C i g g V T Y w @ & q i p Y Y W ^ { >.0.h.F.F.h.j.Y.XXF.j.0.T.T.Y.L.z.f.7.6.-.-.{ i i ..~ Y ` %.;.>.h.I.>XI.T.I.Y.P.Y.>XrXrXrXp.^ < < p i Y W -.6.S 1 1 = O @ w U f s w 5.T Y.OX-XyX<X~.Z.Z.d.Z.U.Z.^.yX<X7XuXuXqXlX-.T $X@X.XOX>X@X.XY.Y.F.J.F.e.0.0.-.' } e.0.j.h.Y.Y..XY.Y.F.h.f.&.R -.p N z.6.7.7.-.&.-.{ { ^ C l t N 9.t.t.t.0.9.t.9.;.D._ f E V v t =.#X#X X..5.[.=XfXeX=X[.{.[.5.p.8.t.v.K.3XE. . . .x. .D D b ,.E.b.D - - > 5 b b b c D 5 > c.E.A.b.A.b.c.A.b.A./.(.E.3X,.K.iX3X3X5X Xv ].n.) ..5X Xn.n.b.K.oXSXwXR.#X5X$X4XoXOXOXOXOXoXoXOXoXOXOXOXOX#XOXOXOX#X#XOXOXOXOX$X$XOXOXOXOXOXOXOXOXOXXX.X.X.X.XOX.XXXXXXXOXOXOXOXOXOX@XXXXXOXXXQ.L.F.L.Y.Y.Y.Y.Y.Y.Y.Q.Q.Q.",
"Y.L.G.Y.Y.Y.Y.G.h.q.h.F.D.N.D.N.N.h.h.h.h.q.0.0.q.h.D.L.Y.Y.Y.L.G.G.G.G.L.L.OXOX$X$XQ.Q.Q.v.R.4XW.c.V.(.4XE.v.4XvXkX X....E  ...3X4X4X3Xb.| b E v.b. .,.8.! v D 5 > 5 x | x.v.b.8.> X X # 0 : , d 0 7 7 , , 8 v f w d P 2.y.u.u.y.y.2.) _ 4.&X*X%X%X&X%X&XsX5XfX5XfXeX=X=XeX*X[.=XfXeXfXeXeXfXkXfXnXmX&Xv i Y 4.Y =.6.e.6.>.0.t.e.-.` ` w & 9 f U f i e N V g g g V ~ Y w & 9 w i g C T W ^ =.e.e.h.Y.Y.j.F..X;XF.F.g.T.|.|.|.F.f.e.0.-.5.5.p i ~ ` Y =.-.0.0.h.T.;XF.I.T.XXY..X>XrXqX1X=.~ < f g z C ` 5.e.-.g = o @ < 9 w 9 s w ` Y e.|.XX7X<X~.Z.^.Z.U.^.~.^.yX<X<XyXuXqXhX} Z XXXX.X@XOX.X}.Y.Y.F.J.J.h.0.f.7.} &.0.0.h.j.Y.Y.OX.XY.F.F.h.>.^ -.p z F.e.e.0.>.-.6.-.%.^ C N i N w.t.t.h.t.e.D.t.9. X4.w v E 8.D | *.8.i._ Y {.eX5XfXfX=X{.H.p.t.5.5.r.R. X| b ,. .| H x.,.| b | D > > - : t b v b c D c c ,.b.c.b.b.A.x.b.E.E.b.E.3XE.v.n.5X X5X5X XD t d 5X5X5X Xn.n.v.,.,. X5Xv.8.v.R.oX0XOXOXOXOXOXOXOXOXOXOXOXOXOXOXOX$X#XOXOXOXOXOXOXOXOXOXOXOXOXOXOXOXOXOXOXOXXXXX.X.XXXXXXXXXOXOXOXXXOXXXXX.X.X.XY.L.Y.Y.L.G.G.G.L.L.Y.Y.Q.Q.",
"G.G.G.L.Y.G.G.Q.G.h.t.N.D.D.N.h.B.h.h.h.h.0.0.q.N.h.t.F.L.L.L.L.L.G.L.J.D.L..XOX4XwXoX8XW.| V.R.,.$.c.A.E.V.<.E.iX#XD ..n...b 8.5X5X3X3Xb. . .v.,.3X,.D v.v.| c t > 5 5 D ,.v.8.c X O X X 0 ; X , # , 7 0 s w P ( d d P ( ) _ ) 4.u.4._ _ y.'.%X*X&X%X%X*XfX*X5XeXfXfX*X*X*X*X*XfXkX5X&X+X5XfXfXfXsXmXfX_ y v ` ~ -.;.5.-.;.>.6.9.5.=.~ 0 & 9 g U i e e N N f g g N ~ Y w & 9 e e p C W W ^ / -.0.h.Y.Y.I.XX,X>XF.I.j.T.|.;X;XL.h.h.e.-.6.w.f i ` =./ 5.;.0.7.h.P.-XP.T.XX@XY.OXqXrXtX1X` Y < z i ~ T { -.6.-.~ < $ & $ & & % s q ~ R { }.XX7XyX^.U.:XZ.Z.^.^.~.<X:X:XyXuXqXhX} C @XXX}.OX.XY.Y.Y.Y.F.J.L.z.e.h.7.&.&.0.0.h.F.Y.Y..XOXY.F.F.h.7.&.6.p C J.e.h.h.-.&.7.-.} ^ C N i C t.l.l.h.t.t.L.D.` n.4.f ..n.n.,.K.n.n. X..E +XeX*XgXgXfX=XeXH.t.9.;.t.5Xv.c D D D  .x.E.3XE.| x 5 5 t > > 0 0 c t D D 5 D x.x.v.E.E.b.H b.E.3XE.v.3X3X,.v.4X4X3Xv.D |  .c 8. XkXDXkX3X,...v.K.vX#Xv.v.K.K.oX$XOXOXOXOXOXOXOXOXOXOXOXOXOXOXOXOXOXOXOXOXOXOXOXOXOXOXOXOXOXOXOXOXOXOXOXOXOX.X.XOXOXXXXXOXOXXXXXXXXX.X.XY.Y.Y.L..XY.L.J.F.J.J.J.F.F.G.G.",
"F.G.G.L.Y.G.G.Q.Y.G.N.t.h.N.N.h.N.h.N.h.q.e.t.D.F.N.t.D.J.J.G.G.G.G.L.L.L.XXOX$X$Xr.v.oXoXF W.4Xv.c.c.v.A.x.,.,.5Xn.d ..5Xb.E 3X5X4X3X3X3X3X3X3Xx.b.E. .v.b.,.D t 2 t 2 t b c t : : O O   , 2 , d y d P U d w P P w f _ _ 2.) P ) ) ) ( _ 2.i.[.&X&X%X&X*XsX*X5XeX5X*X+X*X*X*XfXMXkX*X[.*XfXfX=XfXfXmXkXi.v f ~ Y =.;.-.-.-.6.7.;.5.4.~ 9 , 9 f U i q e V V g v V N ~ U w & 9 i i g C W W / { -.9.h.I.Y..XqXyX>XY.XXP.I.T.-X>XI.z.f.e.6.w.5.g f ` ` / -.6.;.>.h.P.-XT.XXOX.XY.OXqXuXrX@X` z < w f ~ ^ 5.p.J.4.` i = $ % & 9 9 f q ^ ^ T L.-XqX9XU.Z.^.k.g.~.~.Z.^.^.,XuXyXqXhX-.S 1X@X}.XX.XY.Y.Y.Y.J.F.J.F.h.e.7.&.-.0.7.h.F..XY.XXOX.XY.F.h.e.>.e.l T L.e.t.e.-.&.7.-.^ T C N i Z t.D.l.l.t.e.t.p...i.i._ i.n.8.8.v.n.E.K.E ..+X=X=XeXfX*XeXgX=XH.p.D.{.5XE c D v D  .b.3X3X3Xv.5 t c t - : t c t >  . .>  .b.v.b.E.E.H 5  .E.3X/.,.v.E.,.v.3X3Xx.| ,.3X3Xx.x c v v.#XSXiXb.r.oXSX5Xv.v.v.K.{.0XOXOXOXOXXXOXOXOXOXOXOXOXOXOXOXOXOXOXOXOXOXOXOXOXOXOXOXOXOXOXOXOXOXOXXX.X.X.X.XOXOXXXOXOXXXOX.X.X.X.X.XY.Y.Y.Y.Q.Y.Y.L.G.J.J.J.F.N.N.N.",
"F.G.G.G.L.G.G.L.G.Y.Y.N.q.q.h.N.h.N.N.h.q.h.N.F.F.F.N.D.F.J.L.L.G.G.L.L.Y.XXOXOX.Xn.>.K.v.b E.4Xv.c.c.,.v.,.,. . Xn.v v u.8.n.fX5X3X3X3XE.3X(.3XE.b.3Xv. .b.v.D 2 0 0 : - X X X : , # X   0 0 , I ( ( ) ) P d f s w P 2.y.2.) ( ( ( ( P P u.%X%X[.%X*XsXsX*X*XfXfXeX=X=X=X=XfXxXxXkXfXeXfXeX=XfXMXfXmXxX[._ g Y g =.5.;.6.e.0.6.;.=.=.Y , , 9 y g i i p Y Y V Y V g V V q = 9 q i p C W { { -.>.0.B.Y.!.>XuXzXqXXX>XI.I.T.;X,XI.F.h.h.9.w.w.g N 4.` ~ %.;.&.>.h.P.-XT.!.OXOXT.>XyXuXrX@X^ V 9 , w i ~ 4.w.[.p.5.Y w w s 9 w d f 9 { T C z.-XyX,XU.~.^.k.Z.~.U.k.^.^.7XpXyX2XhX-.T 0X1XXX@XXX}.}.}.Y.J.F.L.F.e.0.7.&.>.7.>.e.F..X.X>X>X.XY.L.z.h.>.J.Z T J.e.h.7.7.6.0.-.^ T N l i Z t.D.D.D.l.h.e.D.;.4.w.8.[.n.n. .v.b.K.n.t U *XeXfX=X*X+X5X*XgXtX+XK.K.oXv t c | | D b.iX3X X| 2 t t t t : > v t - D E > ,.b.v.E.E.x.t 5 c |  .D c b D | ,.(.b.#.b.(.E.b.b.c x v E D | E.5X8.R.iXvXn.L.5XL..X0XOXOXOXOXXXOXOXOXOXOX#XOX#XOXOXOXOXOXOXOXOXOXOXOXOXOXOXOXOXOXOXOXOXXXOX.X.X.X.XOXXXOXOXOXXX.X.XY.Y.Y.Y..X.X.XXXQ..X.XY.L.L.L.G.L.G.F.N.",
"F.G.G.G.G.G.G.L.G.Y.Q.L.N.t.h.N.F.N.h.h.h.N.N.h.N.J.F.D.F.J.Y.L.Y.Y.G.G.L.Y.L.K.D..XR.R.9.E v.3X,.c.,.| | |  .E n. Xv E ..8.5X5X X X3X3XE.3X3X3X3XE.3XE.t > t : , , , + X X X : : t t # X ; , # P ) ( I P d v v P f ( 2.2._ ) ) 1.2.) P d 4.[.%X%X&XsXfXsX*X*XfXMXxXgXeX=XeXkXMXMXxXxXkXfXfXeXfXMXfXMXfX[.` g U z -.6.6.9.t.0.&.%.=.=.V % % 9 w w i f N Y Y E ` g i f g w & < w i p C ` -./ %.9.h.G.OX>X6XuXzXqX!.>XI.P.T.;X,XT.Y.h.D.e.p.l.V V 5.=.W =.-.>.>.g.j.T.!.XXXX;XOX>XuXyXtX@X~ ~ 9 < w w i g ( 4.4._ U U f d s s f U i 4.z W h.@XyX-X^.:X^.k.Z.~.U.Z.^.U.,XyXyX1XhX-.S 0X0XOX>X@X.X|.@XY.J.Y.}.F.0.e.0.-.>.0.>.e.F..X.X>X>XL.F.L.z.0.0.|.W R J.h.h.0.e.7.e.;.] R C l p Z p.D.l.z.l.h.e.t.;._ ~ ~ 8.r.,.| r.n.n.4.t E H.+X=X&X X*XfXeXgXxX+XJ.{.L.| v b ,.8. .| E.n.E 2 t c c > E D t t t 2 c c - b E c b D x > c b x x c b  . . . .c.#.b././.A.c.(.M 5 E  .D |  .b.8.n.vXvX4X#X$X$X$X$XOXXXOXOXOXOXOXOXOXOXOX#X#XOXOXOXOXOXOXOXOXOXOXOXOXOXOXOXOXOXOXXXXXXXXX.X.X.X.XOXXXOXOXOXXX.XY.Y.Y.Y..X.XXXXXXX.X.XXXQ.Y.L.L.Y.Y.Y.G.F.",
"G.G.G.G.G.G.Y.Y.Y.Y.Y.Q.Y.F.h.N.F.N.h.h.N.D.N.h.N.J.J.J.J.L.Y.Y.L.G.G.L.Y.L.L.L.D.K.R.n.K.| ,.b.v.,.,.#.| #.*.| n.5X) ..u.u.&X#X3X3XK.,. .v.3X3X8XW.E.E.5 O : : 0 , , : ; ; X X + : : : : ; f t ......) P s d P U d U 2.2.4.y.y.y.1.( ( P ) u.'.sXsXsXsXfX=XsXfXJXMXgXeXeXgXxXMXMXNXMXkXfXfXfXfXxXmXmX=X%X4.z V g 5.w.-.-.6.-.{ ^ -.=.V % % 9 0 9 w g Y V N Y ~ i f g V i & 9 w g N T { %./ >.D..XXX>X>X>X>XrXqXY.;XY.I.!.-X,X!.I.F.Y.l.D.H.Z V 5.` Y -.;.>.0.g.<.Z.T.XXXX>X;XqXyXrXrX1X` _ w 9 9 i w d f d d f f f d f f f L ) U 5.p -.F.|.qX-X:X^.^.k.Z.~.~.U.~.Z.:XqXuX1XjX-.S 1X0X>X>X@XXXOX>X.XY.Y.}.J.e.z.e.>.0.e.0.h.F..X.X>XXXL.P.I.F.e.l.@XR T J.e.h.e.7.7.0.-.{ ^ C C p T D.J.l.l.h.t.9.t.9.=.E 0 : : : c 8.v.n...0 ..4.H.[.[.+X5XfXgXtXNX5XH. X#XK.8.b...v.E.b > > : t t D c , E n.v : ; t D D > > : - - - t c t b x b  . .x.x.,. .,.E.b.x.x.b.b./.D x v v | ..8.5Xn.v.4XwX0X$X.XXXOXOXOXOXOXOXOXOXOXOXOXOXOXOXOXOXOXOXOXOXOXOXOXOXOXOXOXOXOXOXOXOXOXXXXXXXOXOXOX.X.X.XOXOXOXXX.X.X.XY.Y..X.X.X.X.X.X.XXXXXQ.Y.L.L.L.L.L.G.G.",
"G.J.G.G.G.G.Y.Y.Y.Y.Y.Q.Q.F.h.h.h.h.h.F.F.F.D.D.N.F.F.J.L.L.Y.L.F.G.G.L.Y.L.Y.J.G..XL.D.D.K.*.*.r.K.4Xv.O.<.,.! n.fXE ..u.U E n.n...| ! c x ,.3X3X4XE.,.- : , , 0 % , 0 t 2 # : O O X : : v E t ) ) _ ..I v P I v d P ) 2.y.i.i.u.4.1.) ( 2.i.u.*XsX*X*XfXsXfXxXNXNXNXNXgXgXxXNXMXxXMXjXfXfXfXfXnXnXfX[.*Xu.z V g 4.-.` } >.-.^ W 6.=.g & & 9 w w 9 z Y g g V g i g p g i & 9 w i N W =.{ %.0.L.Y.l.t.t.0.t.J..XY.>XQ.Y.XXXX;X!.I.F..XJ.L.H.V V 5.~ T -.7.&.>.<.f.g.P.T.-X>X>XrXuXyXrX0X5.{ U i 9 9 9 d f s s L f f f L L ( _ U ` 5.1 6.L.T.:X:X<X^.^.Z.Z.~.~.U.~.Z.<XqXuX>XhX-.T =X0X1X>XXXXXOX1XOX}.Y.}.Y.l.F.h.0.h.h.h.h.J.Y..X-XY.Y.|.Y.L.h.l.1XT C l.e.e.0.7.7.0.-.{ ^ Y C p T J.L.D.l.h.t.t.D.9.;.~ , X X - : E 8...v t U 8.%X[.i. XeXeXeXtXgX#Xn.K.K.n.E.b.,.8.b.E 5 t t c v ....0 t n.E : X 2 D ! 0 c t ; : , 5 2 : t t c D |  .,.E b x.b.v.x.,.c.E./.x 5 E E ,. ...5XiX Xn.5X#X#X$X$XXXOXOXOXOXOXOXOXXXOXOXOXOXOXOXOXOXOXOXOXOXOXOXOXOXOXOXOXOXOXOXOXOXXXXXOXOXOXOXOX.X.X.X.X.X.X.X.X.X.X.X.X.XY..X.XXX.X.XXX.XY.Y.L.G.G.G.Y.Y.",
"G.G.G.G.G.G.G.G.Y.Y.Q.Q.Y.G.N.h.h.h.N.F.F.N.N.N.D.D.F.J.G.L.L.L.G.G.L.L.Y.Y.L.J.J.L.Q.D.D.N.D.L.L.L.G.Q.K.*.*.Y i.5X_ ..2.v , v c ) ,...b > c ,.3X5XE.v : t , , , t f v d 2 t > > : - 2 E v.E - ) ..3.E I ) ) P f d P 2.u.u.[.[.'.'.2._ 2.y.y.u.&XfXfXfXfXfXxXMXNXNXNXNXxXgXxXNXNXxXxXfXkXkXkXxX=XmXMX[.fXy.U g z 5.5.^ -.9.-.^ ^ e.w.g & 9 9 0 9 i z V V g g i i p g f i & < w i g Y ~ W { 9.-.-.6.e.9.t.e.e.>.9.XXY..X!.T.;XT.F.Y.L.F.L.{.N Z 5.~ ^ ;.-.&.:.>.s.:.g.P.!.>X>X,XyXqXyX1Xw.` { 9 V d 9 w f L U ( U ( _ 1.4._ P U H.i C z.L.L.T.-X^.^.^.k.U.U.~.~.:Xg.,XyXqX2XhX-.Y eXtXrX1XXXOXOX1X@XY.}.L.F.e.z.0.0.z.h.z.h.h.Y.Y.OXY.T.XXY.F.h.h.@XT C e.6.0.>.>.7.6.{ { ^ C l p ^ {.@X|.J.l.J.L.H.H.w.~ < X X - 0 E v f d d ..i.i.i.[.*X5XfXeX5X5XoXr.8...E E c b D | E x - t E 8.r.8.v : ..v - : c ! ! t v v : : : 2 t t c c b b D v | E 5 b b c b c b ,. .5 x E E  .| ,.3XiX4X X4X#XOXOX@X@XOXOXOX$XOX@X$XOXOXOXOXOXOXOXOX#X$X$XoXoXOXOXOXOXOXOXOXOXOXOXOXOXXXOXOXOX1XXX.XOXOXOXOXOXXXOXOX.X.X.X.X.X.XXXXX.X.XXXXX.XY.Y.Y.Y.Y.Q.Q.Y.",
"J.J.G.G.G.L.L.G.L.L.Y.Y.Y.G.D.h.D.D.F.J.J.D.N.N.F.F.F.F.J.G.L.L.L.L.Y.Y.Y.L.F.J.J.Y.Y.D.N.N.N.J.J.l.J.L.K..XD.K. X*X_ ) f d t t ) 4...| b 5 t c ..K...2 t , 0 y , 0 v v d t c t - > t b E | b > E 3.3.b d I P P d d P _ 2.2.u.[.&X*X'.y.y.4.2.i.aXfXfXfXfXkXMXUXNXNXNXNXNXNXNXNXNXMXMXjXkXfXxXMX=XfXMXfXxXy.z g Y 6.-./ 6.e.-.^ ^ 6.H.Y $ % 9 d w i V Y V p i i i i f i i & q i g t g g Z / / -.{ { ^ ^ ` { p.z.;.;.F.Y.T.T.XX!.T.!.F.J.}.+XN V ;.~ W &.&.&.>.>.@.:.:.B.Y.;X7X,XuXqXqX>XL.Y w.V f 4.` U ( y.y.4.u.y.4.) P 9 U n._ 1 R }.F.L.T.-X^.~.U.k.~.~.U.U.:Xg.:X,XqX1XjX{ T rXtXrX0X@X$X@X>XXXXX}.Y.Y.h.l.e.0.z.F.J.F.e.D..XOXY.Y.Y.L.F.f.z.@XC C e.6.6.;.>.>.-.^ { ^ C z p W +X1X$X.XL.}.=XJ.=.i i w 2 , : v E E f y P 2.%Xy.u.&X5X5X#X#X5X5XwX X| u 2 c 5 x D E | D > c b.K.n.r.D : D f - D ..E c t : : : 0 2 2 c b D c 5 c D b b t 2 D D t c b > 5 > c b v E ,.,.v.8.,.n.5X5X$XOX$X$X@X$XOXOXOXOXOXOX$X0X$XOXOX#XOXOX$X$X$X$X$XOX$X$XoXOXOXOXOXOXOXOX$XOXOX.X0XeXrXOXOXXXXXXXXXXXXXXXXX.X.X.X.X.XXXXXXXXXXXXX.XY.Y.Y.Y.Y.Y.Y.Y.",
"J.G.G.G.L.Y.L.L.L.L.L.Y.Q.Y.L.F.D.D.F.J.J.F.F.J.J.F.F.F.F.G.L.Y.Y.L.L.Q.Y.L.F.F.J.Y.Y.D.F.N.h.F.J.}.J.J.L.L.L.{.#X*X=.U d : , v 8.3.) v t c t : 2 : 2 0 # y E 4.f O t v v u > - t |  . . .D > - 8 c b : t b 8 8 d d f U 2.1.4.&XsX&Xu.( 2.2.4.%XsXfXfXfXfXxXNXUXNXNXNXNXNXNXNXNXNXMXMXxXfXfXMXMX*XfXkXfXMXw.U V T 6.-.{ e.l.>.{ / 6.H.Y $ & w d w i Y Y z i i i g i f f i % 9 y g t i a Z / / T g T ` ^ =.` ` w.w.^ 7.F.T.T.;X;X;X.XG.J.L.J.a N =.~ T %.&.&.:.:.[ :.>.B.I.>XyX>XqXyXqX>X@X%.C H.V f 4.[.'.y._ ( d d s w P ( 5.w.q q -.@Xz.T.-X:XT.U.U.k.~.^.U.U.^.g.^.,XyX2XhX` T rXtXrX0X$X1XOX0XXXXXY.}.}.l.l.t.t.z.F.J.J.>.h.Y..X.X@X.XY.F.7.l.@XN Y e.6.>.>.>.-.-.^ { ^ Y N p W .X=X@X}.}.{.5.W W ^ ` a t v U E v ( f d P ) i.4.[.5XfXeXiX5XiXoXr.D v b b D b |  . .,.E v c ..r.8...d O t f f ..E 2 v E t : c t 5 D .. .|  .c 5 c E c 0 t ....| | E b E v E E b b b D D E D 8.kXwX5X#X@XOX@X#XOX$X$XOX$X0XOX0XOXOX#X#X$X$X0XrXtX0XOXOXOXoXOXOXXXXXOXOXOXOX$XOXOX+X$XrXeX0XXX@XOXOXOXOX@XXXXXXXXXXX.X.X.XXXXX.XXX.X.XQ.Y.Y.Y.Q.Q.Q.Y.",
"G.G.G.G.L.L.L.L.L.L.L.Y..X.XY.Y.J.F.F.F.J.J.J.G.F.J.J.J.J.G.L.Y.Y.L.L.Q..XQ.Y.L.Y..X.XJ.G.G.F.F.}.J.L.L.Q.L.K.{.#X5X&Xn...E ) ,. ...v b v ..E 2 : 2 0 , , v ) ) E : 0 t t 2 X 5  .,.,.x.x. .x X 5 t b > t v t 8 8 t d ) '.u.y.&X&X%X2.P _ 2.u.*XsXfXfXMXMXMXNXNXJXJXNXNXNXNXNXNXMXjXxXxXkXkXMXkX&XkXxX*XgXw.z g Y 5.-.-.e.z.>.%.%.p.6.N & < 9 y w i Y V g i i f g i f f d $ 9 w g g i v Y ~ V i ~ ` 5.5.w.w.=.^ e.-.Q z.Y.!.;XXX;X!.Y.J.D.t.q g =.^ W &.&.&.&.] ' :.s.j.P.;XqX;X>X,XrXOX}.z.N ~ [.U , U p.[.&Xi.f 7 s ( ..w.5.i < R z.>XF.:XT.-XT.U.~.k.U.^.Z.T.^.s.P.yXrX1XrX/ W rXtXrX0X1X0X>X0XXXXX.X.XY.D.z.t.z.F.J.F.J.&.0.Y..X.X@X|.Y.F.0.e.}.l T e.6.>.>.;.-.-.^ { ^ T N l ^ @X$X#X+XL.t.D.n. X5X Xv # f v y U 2.( ( _ 4.w.'.&XfX5XgX5XK.b.*.D D | D | ,.x.x.x.x.v.,. .b - t t > 2 2 0 v v t u : t E | 2 5 5 t D ..,...x...t X > : : d ..4.n...v ) 8.) ....E c x D  .E.E.E.kXgXtX0XOX$X@XOXOXOXOXOX#XK.OX$X#XOX#XOX$X.XOXeX0XeX0XOXOX$XOXOXOXOXOXOXOXOXOXOX+X#XOXeX$XtX0XOXOXOXOXOXOXOXOXOXOXOXXX.X.X.X.X.XXXXXXXXX.XY.Y..X.X.XQ.",
"G.G.F.F.L.L.L.L.Y.L.L.Y.Y.Q.Q.Y.L.L.G.J.J.F.F.J.J.G.G.G.G.G.L.L.L.Y.Y.Y.Q..X.XY.Y.XXXXL.Y.Y.L.L.L.L.OX.XC.C.oXR. X{.n.n.8.n.n.r.......b E 8...t # , : , U ) t ; 0 : : O # # - D x.x.b.b.x.#.D > > b E t c t 0 0 t w d 2.%Xi.y.'._.'.2.( 2.u.%XsXsXfXmXMXNXMXNXNXJXJXJXJXHXNXNXNXNXkXxXMXxXkXkX*Xp.fXxX=XkXp.z l T 6.5.%.7.h.>.%.-.D.w.g & & 0 w w i z N g i g v f i f d y % w y i i t N / W i W w.z.5.4.w.p.p.=.{ 6.N 0.Y.!.;XT.OXY.J.z.e.6.< g =./ / -.>.:.&.&.&.:.g.j.B.;XqX;X7X>XyX,X@X>Xe.p V p.w.g w f ~ U w w i _ p.5.f q C e.@X>XY.qXT.T.U.U.U.k.U.-XZ.T.^.s.f.>X2X1X2X^ W tXgXrX0X>X1X>X>XXXOXOX@X}.L.D.9.D.Y.Y.J.F.] >.F.}..XOX.XY.J.0.l.|.p T e.6.6.>.-.>.>.^ %./ T l p ~ $X*X$XOXD./ K.#X#Xr.E D | 8._ , 7 v U ..y.4.n.*X5X5X4XK.v.v.b.v.H #.#. .H c.A.b.b.c.b.b.x.! b t , : f t : t # O 2 ; - 5 v v | ,.,.D b | |  .b.b - : : - v i.4.4...4.8.) E .. .E b | | ,.3X3X3XwXkX5XeX0X$X$XOXOX=X$XOX$Xn.$XOXOXOXOX#X5XoXOX4XrXwX0X=XOXOXOX$X$X$XOXOXOXOXOXOX#X+XOX.XOX0X0XOXOXOXOXOXOXOXOXOXOXOXXXXXXX.X.XXXXXXXXXXXXXXX.XXXXX.XQ.",
"L.L.L.L.Y.Y.Y.Y.Y.Y.Y.Y.Y.Y.Y.Y.Y.Y.L.G.G.J.G.G.G.L.L.Y.L.L.G.J.G.Y..XQ.Y.Y..X.XY.XXXXY.Q.Y.L.L.L.$Xv.<.C.v.*.! n.n.8.u.n.n.8.n.n.v.| v ..n.8.y : , : 0 ) _ y # , : , y u t 5 c H #.c.x.#.x.#.b b E b > c t 0 c 0 t f 2.%Xi.y.i.'._._ ) 2.u.%X*XsXfXmXMXUXJXJXJXNXZXJXNXNXNXNXNXxXfXfXxXxXxXxX5X*XfXkXfXxX5.p p T 5.-.{ ;.z.7.&.6.l.H.V $ , w 9 q w g V f q i Y v f v y y % w i i f i Y / g i =.z.z.U V 4.p.4.=.W 6.C &.Q.XXXX!.;XF.F.t.9.5.< g { ^ ` -.>.0.>.>.<.s.j.j.j.;XqX;XqX!.qXyX>XqX|.5.z w ~ 5.[.4._ ` 5.p.H.w.Y q & V ;.z.>X>XY.,X^.U.Z.Z.U.k.U.^.Z.^.^.g.:.j.@X1XrXR T eXrX0X1XOX1X>X0X.X>X$XOX.XXXJ.6.D.}.Y.J.J./ &.F.}.XX>XOX}.J.0.z.}.p T p.6.0.0.-.>.6.] -.{ W N p ` $X=X#X{.;.a t D D E ,.b.E. Xn.v : y f U _ _ 8.[.*X#X,.r.v.c.b.#.H #.#.x.x. .b.A.b.x.v.v. . . .c : 0 v 2 : f O : - 2 - ; O D E.3XE. .D D D D  .E u : : : c 4...E E 4...) ..) E 8 b  .E  .E.E.oXwXkX5XwXtX0X1X$X=XOXOX#X0XOXOXoXoX#XOX#XtXwXeXtXrXtXrX$XOX$XOXOXOX@XOXOXOXOX$XeXeX0XrXOX0XOXOXOXOXOXOXOXOXOXOXOXOXOXOXOXXXXXXX.X.XY.Y.Y.Y.Q..X.X.X.XY.",
"L.L.Y.Y..X.X.X.XQ.Q.Q.Q.Q.Y.Y.Y.Y.Y.Y.Y.L.L.L.L.G.L.L.L.L.L.G.G.G.Y.Y.Y.Y.Y..X.XY.XXOXY..XY.L.R.$Xv.R.R.4X4XK.r. ...8.8.u.8. X Xn.r...E ) 8.E 0 0 0 : E 4.t t 0 , # , U =.! B 5 - x #.x.#.x.x.H  .,.E - t b c t y t v 2.'.'.i.i.u.u._ _ y.'.*XsXsXfXfXMXUXUXJXJXJXJXNXxXxXNXNXNXgXeX=XfXMXMXMXfX=XfXfXfXxX4.i a T -.-.] -.z.7.-.9.t.{.=.< 9 d w w f Y ~ z < f ~ U v U d d # w i i i g Y ~ i ~ 5.[.4.g d Y H.5.=./ ;.Z ] Y.!.!.!.OXF.F.h.9.5.< g 4.` =.;.:.0.:.<.g.g.g.j.j.-X7X-X7X!.qXuXuXqXhXJ.4.U w w f ( _ _ ..Y i q < q V 5.t.J.qX-X@X,X^.U.Z.k.Z.k.U.T.k.-X^.k.:.>.Y.rXrXT T eXrXrX0X>XqXqX1Xl.OXOXOXXXXX}.t.J..XY.L.J.Q S L.XXOXOXOX}.J.e.l.J.e T l.9.e.e.>.>.-.] -.{ T N g { *X=X+XL.%.u u D E r.E.n.n.b. XE , y P U ) 4.i.*X X8.v.,.,.x.x. .x.x.c.c.b.#.b.A.A.c.b.b. . .,.E t t t : f v O O ; 5 : 5 u v.E.b.,.| D  .v.v.A.v.| v : ; t *.n.8.) f v ..2.8.) 8 b E E  .E.b.oXoXoXwXtXgXeX=X0X0Xt.r.0X5X#X=X$X#X=X#X#X0XgXeX$X0XeXeXeX1XOX$XOXOXOX$X$X$X$X>X=X$XtX0X$XOXOX.XOXOXOX>XOXOXOXOXOXOXOXOXOXOXXX.XY.L.J.F.F.F.J.G.Y.Y.Y.Y.",
"L.L.Y.Q..X.X.XQ.Y.Y.Y.Q.Q.Y.Y.L.Y.Q.Q.Q.Y.L.G.J.G.G.G.G.L.Y.L.L.G.G.L.Y..X.X.X.XY..XOXY..XR.L.Q.W.E.W.A.(.E.E.#.D v U ..8.u.v...| E v v f E v y f 7 7 ) f # : d # , # 0 ^ v 5 > 5 #.c.#.x.c.c.#.x.v.,.- - 0 t v 0 , P 4.'.%Xi.2.u.y._ _ i.&X*XsXfXfXfXMXUXUXNXNXJXJXNXxXxXNXNXxXxXeX=XfXMXxXfX[.%XxXMXfXxX=.e i Y -.-.} -.h.>.-.9.e.p.p.0 & w f i g Y ~ V q g Y V f V d f $ 0 d v g V V ^ a ~ w.{.~ 9 9 V +XH.5.^ / l / F.Y.T.Y..XF.F.z.e.6.< N -.` -.;.>.f.:.f.g.g.f.B.B.!.7X!.;X-XqX7XrXuXhX2Xw.4.5.~ f q < o $ $ < e g ` e.6.z.OXhX@X>X,X!.U.U.k.g.k.T.^.Z.^.^.P.g.f.Y.tXeXR Y 1XeXeX0X$X1X0X.X&.Y.OX>XXXY..XJ.}.OX.XY.J.C p J.XXOXOX@X}.F.e.e.p.q T H.6.9.e.6.;.{ ^ { ` Z l i / +X=X+XL.%.u E 8.| ,.n. X3X Xn.E : y U E v _ 4.8.E E v.#.,.b.x.K c.c.c.A.A.b.c././.E.b.v.x.| ,.n...v , - E E : ; t 2 - 5 r.3X3XA.,.,.#. .b.c.v.E.E.| : - E 3X Xn.K...v E U ) v b E E |  .b.E.3X,...vXbXNXxXeX#X#X=Xt.#X#X#X#X#XoX4XL.L.oXwXOXOXOXOXOXOXOX$X$X$X0XeX0XeXrXqX0XL.L.0X$XOXXXOXOXOXOXOX>XOXOXOXOXOXOX>XOXOX@X.XY.L.J.D.D.D.N.N.N.F.G.L.Y.",
"L.Y.Y.Q.Q..XY.Y.Y.Y.Q.Q.Q.Y.Y.L..X.X.XY.L.L.L.G.G.G.G.G.L.L.L.Y.G.J.L.L..X}.}..XY.Y.XXQ.Y.L.L..X8XE.V.<.#.| M 5 c u 2 t Z ~ n.R.E.C.*.B 2 2 u q t O 0 0 0 d t 0 7 7 % # i t 2 5  .c.#.#.,.c.#.#.x.b.b.t - 8 , y v 0 ) u._.'.'.'.y.2._ y.[.*XaXsXfXfXkXMXMXDXDXJXJXNXZXNXNXbXxXNXNXxXfXfXxXMXxXfXkXMXxXfXxX` g i C 6.{ ^ >.z.7.-.6.l.H.{.i 9 i d w g V Y Y i f Y U U U U f $ y i g i C Y ` a T 5.+Xw.g q Y H.w.=.Y ^ e ] F..XI.F.L.F.J.h.D.e.= Y 9.} >.>.>.<.<.j.P.g.g.g.<.-X,X!.;X!.uXqXqXqXhXqX}.l.e.6.` ^ p $ p l R { -.-.e.h.F.qXuX-X>X-XI.I.T.B.g.j.U.U.U.7X:XT.B.F.F.2XrXT Y 1X2X@X=X1X0XrX}.Z z.@XXX@X.XY.J.}.>X.X.XL.] l D..XXXXXY.F.F.e.p.e.< ~ D.6.9.7.7.;.&.^ { ` T C g ~ +X#X+XD.~ a *.n.8.8.v. X3Xr.v : 7 0 , y P _ ..v v ..|  .x.x.H K c.c.b.A.b.A.x.#.b.A.A.v.r. .| ..D : O c | v t t c u 5  .b.b.x.D x.,.| #.,.b.b.E.,. .c > E n.n.n.n.r.E E I v t E E D  .D  .b.b.D b 3XJXKXJXJXkXK.*.Z oXD.r.0XoX$XK.C.R.D.wX.XoXOXOXOXoXOXOXOXOXOXeXL.OXwXtX$Xt.D.OXXX.XOX.XXXXXXXOXOXOXOX>X>XOXOXOX.XQ.Q.Y.G.F.J.G.G.J.D.N.h.h.N.D.F.",
"J.J.L.Y.Y..XQ.Q..X.XQ.Q.Q.Q.Q..XXXXX.XY.Y.Y.Y.Y.L.L.G.L.L.L.L.G.L.G.Y.L.J.L..X.XY.Y.Q.Q.Q..X.XOXW.A.A.A.#.M H v.E.K.r.a - D Q.8X8XiX8XW.X.1 1 a t 2 , , t t : , 0 0 , # : 2 5 c ,.,.,.c.v.H x | v.v.n.b - : : # 0 w ( y.'.'.i.'.'.i.i.[.*XaXsXfXxXMXMXNXDXDXNXNXZXZXJXHXbXxXxXJXNXMXfXgXMXMXMXxXmXmXfXfXkX~ i i Y 6.-.} >.z.7.-.>.h.H.+Xg 9 i i d g Y Y ~ g g ~ ~ v V w , @ i g i g Y W / C l 5.6.{.p.=.H.p.p.` ` C j ;.F.Y.P.P.Y.z.F.h.z.e.< ^ h.;.9.0.0.g.<.<.g.s.g.j.@.I.7X!.-X!.yXqXqXqXzXuXqXXXJ.l.w.{.=.p w.e.z.h.6.-.h.J.Y.rXuX>X,XT.>.P.;XB.f.j.U.U.U.,X;X-X!.F.e.1XeXY Y =X1X@X=X1X0XrX.X^ h.XXXXXX.XL.L..X$XL.L.Y.>./ J.XXOXY.Y.F.F.e.l.t.1 T l.5.6.>.>.6.6.{ ` W Y Y V ^ +X#X.XD.` N t.R.K.n.r.8...t # + 0 w % % , 7 : : D ,.|  .x.x.H D c.x.c.c.b.(.H 4 b D | | E E d : : : t E | | B c t c 5 ,.3Xv.x c c.,.H #. .b.b.b.E.D t 2 : ..8.n.n...E 4.8.I 8 b D E  .| b  . .D D oXDXiX5XxXxX5XD. X4X*.! *.4X4X,.,.N.C.4X$X.XOXOX.XOXOXOXOX$XOX0XOX$X0XrX$X>XOXOX.X.XXX.X.X.XXXOXOXOX>XOXOXOXXX.XY.L.G.J.F.F.J.G.J.J.F.D.D.h.h.h.h.",
"J.J.L.Y.Y.Q.Q.Q..XQ.Y.Y.Y.Q..XXXXXXXQ.Y.Y.Y.Y.Y.L.L.L.L.L.G.G.G.L.G.L.G.XXqXtX$XOXOXOXoXoXOX$X4XE.A.v.b.#. .E.4XE.oX4XB 4 B #.V.S.W.W.(.G.m u Z r 2 0 t y d 0 t d 0 0 0 0 t B D b.v.v. .D - - D b. Xn.t X : , 7 w d ( y._.'.'.%X[.[.%X*XaXsXnXMXNXDXDXJXJXJXDXNXJXNXZXZXNXNXNXNXNXNXMXMXMXMXMXMXmXxXfX=XfX~ e e Y -.{ ] -.h.>.&.>.t.l.=XY & w d i f U Y ~ f N E f 9 w 9 $ @ i g g N T W / ^ p Y { p.p.l.p.p.5.~ ~ e N 7.F.Y.F.Y.|.z.F.z.z.h.1 %.l.>.>.<.0.g.<.:.@.:.s.g.' f.yX-XXXXXyXqXqXqXuXuXqX1X@X$X+XjXe.l J.z.z.7.>.0.F.F.@XyXuX2X>Xe.Q Y.>XP.f.P.U.U.^.7X7XI.Y.Y.7.1XrXC Y @X=X@X1X0X0XrXXX>.F.OX@X}..XJ.L.}.OX}..XXX0.] Y.OX>XF.Y.F.D.e.t.e.1 Y p.5.6.;.>.-.6.{ { ^ Y Y C W +X}.{.t.%.N D r.K.,...v , , 7 7 0 , X + & % + : c v D b b b > b v.#.#.c.A.A.H b M c c 5 t > : , t 0 v ....D t B c t 5 x.v.c > 5 #.,.| ,.|  .E.E.K.D t : t E | ,.8.| ) 8.8.v 8 E E D E  .D D  .b b E.5Xv.v. XgXwX0XwXK.! | ! oX4XR.*.r.N.oXoX.XOXOX.XOXOXOXOX.XOX$X$XOX.X$XOX$XOXOX.X.XXXXXXX.XXXOXOXOXOXOXXXY.L.G.G.G.J.J.J.G.J.J.F.F.J.J.J.D.D.D.N.",
"L.L.L.Y.Y.Y.Y.Y.Y.Y.Y.Y.Y.Y..X.XXX.XQ.Y.Y.Y.Y.Y.L.L.L.L.L.L.L.L.G.Y.L.Q.0XwXwXiXv.u O.N.G.6XR.r.E.b.v.#.D | b.oXoXE.v.F F O.#.o.V.S.W.!.I.S a N < t t d v v v U P d f d : t D B ,.| b - - > 5 D E.3X..: : 8 d E ) _ 2.y.u.i.i.'.'.%X*XsXsXnXMXMXIXDXNXNXNXJXJXJXJXJXJXJXZXNXNXJXNXJXNXMXMXMXMXxXmXMXfX*XfX_ i e Y { ^ ^ -.h.0.>.>.l.l.1X~ & 0 y f f U Y ~ N v V f f f V f $ f N Y W -.%./ W N g R 5.w.p.w.5.W Y a e S 7.J..XF.Y.Y.z.J.F.h.l.1 %.D.9.0.<.<.g.s.:.:.:.g.g.:.:.,X!.XX-XuXyXuXyXuXyX,XqX1X1X$XhX9.p l.F.z.7.7.f.F.Y.-XuXuX>X-X] &.>X,XU.h.F.j.P.:XqXg.A <.F.] J.rXC Y +X=X=X1X0X0XrX@XD.XX>XXXY.Y.J..X.XOX}.XXXXe.%.Y.@XXXD.F.F.t.e.9.9.< Y p.5.9.>.-.&.-.^ { { T T Y W +X}.{.p.;.W u t 5 : 2 : , , # , , 0 v f y 0 : : : : : X X X 5 x | ,.x.c.b.E.c x D c t > - : : y 0 # : f f : ; t t c c b D | H 5 c  . . .D > b | v t t c r.r...| | E | ....d c E  .| D E D H | c x v.v. .x.n.K.wX0X#XR...W 9.$XQ.oXv.*.t.G.$X.XOXOXOXoXOXOXOX$XOX.X$X0X$X>X.XQ..X.XXX.X}.XXXXXXXXXXXXXXOXXX}.J.J.J.L.L.L.G.G.G.G.J.F.F.J.J.G.G.J.J.J.",
"Y.L.L.L.G.G.G.G.L.L.L.L.Y.Y.Y.Y.Q.Q..XQ.Y.Y.L.L.L.L.L.L.L.L.L.L.G.L.L.6XiX9X9XiX#.D c.C.R.4Xq.*.,.b.c. .D c | 8.E.,.D A.V.o.m.$.J o.m.S.M.m a N 5 a D E ) E I ) _ E f d 2 v t - : : 2 : 2 2 t 5 E E 0 , t y v ) ) 2.2.2.u.u.u.'.*X*XsXnXnXMXMXMXNXMXMXMXNXJXJXJXZXJXJXJXNXNXNXZXNXZXNXNXMXxXxXkXmXmXkX*XeX4.g i Y { { } >.z.f.h.6.D.l.eX` & w d f g Y Y ^ ~ Y Y ~ ~ Y ` U $ g W 6.-.e.-.W N N l z T ` { ` Y T p e N Q 9.J.Y.F.j.F.h.Y.F.e.h.e %.D.<.>.<.<.s.g.s.<.B.Z.P.I.s.-XT.T.-XyXyXuXuXuXuX7X>X>X1X1XhX7.e 7.F.F.0.g.F.T.>XqXuXyX;XT.>.P.,X,XT.F.I.h.h.XX>X' j h.Y.W l.rXT C +X1X=X1X0XqXtXOX}.>X>XXX.XL.J.Y.XXOXY.Y.XXh.&.L.XXY.z.D.z.0.9.6.6.< V w.;.5.;.%.} %./ ` ` ^ ^ T W }.{.L.p.t.9.W N a v v < < # & 0 , f 4.4...~ E ) ......b > > > 5 5 b  .b.E.E.5 O 5 : : 2 t t t d d 0 : # : : O X - 2 5 b x.(.E.b.b 5 c 5 > > > - - t t ! 3X Xn...| E ..) ) 8 c D | ..b D  .| | b x  . .| ,.,.r.tXwX0X0XoXt.4XoXoXoX4X,.*.N.OX.XOXOXOXOXOXOXOX.XOXXXOXOXOXOXOX.XXX.XXXXXQ.XX.XXXXXXXXXXXXXY.J.F.L.L.L.L.L.L.G.G.G.J.J.G.G.G.G.G.G.G.G.",
"Y.Y.L.G.G.G.G.G.J.J.G.L.L.Y.Y.Y.Y.Q..X.X.XY.L.L.Y.Y.Y.Y.Y.L.L.L.L.G.L.4X8X8X(.v.M (.v.<.4XoX,.! H |  .D b b t c b c X.(.V.H m.m.$.J o.S.C.m M a t c ~ .._ U E U U ..v y v v ; t - X ; 0 0 : 0 , , t , d v f P ( ( 2.y.y.4.2.y.%XfXfXfXnXfXMXNXNXDXDXDXNXJXJXJXHXNXZXZXJXJXZXZXNXNXZXNXNXMXMXMXxXmXmXkX*X2X5.f g T %.&.-.7.z.f.h.e.H.H.1X^ & w w g U Y Y ~ ~ ~ _ ~ ~ _ ` Y $ C -.9.;.e.;./ C 1 1 e l g V C i 1 < a C ^ 0.F.I.P.h.F.h.L.F.e.h.j %.F.9.<.q.<.s.g.s.s.!.U.U.-XU.-X-XU.>XqXqXuXyXyXuX;X>XqXqXqXlX9.e h.T.U.j.P.T.XX>XyXpXuXXXF.I.,X2XqX;XT..X:.' 0.F.>.S g.J.} z.1XC Y +X=X$X$X0XqXtX>XXX>XOXXX@XJ.J.L.XXOXL.Y.>XF.%.J..XL.z.z.h.9.6.6.6.< g 5.%.-.-.&.&.%./ / ` { ` C T {.L.J.t.h.h.0.t.t.w./ < , & , f y , v _ 4.i...E ..n.u. .c 0 c v t > b | ,.! t : : : t c v t d v d , : 0 0 0 ; : - X 5 ,.E.E.E./.b.5 - - 5 b 2 ; 2 2 v K.3X Xn...| | ....E : v D E E b ,.E.b. .b x  . .D  . .5XbXlX0XoX4X$XoXoXQ.OXoX$XoX6XOX.XOXOXOXOXOXOXOXOXXXOXOXOX$XOX.X.XOX.XOXXX.XXXXXXXXXXXXX.XY.J.N.J.L.Y.L.J.L.L.L.G.G.G.G.L.L.L.L.L.L.L.L.",
"Y.Y.Y.L.L.L.Y.Y.J.J.J.G.L.L.Y.Y.Y.Y.Q..X.XY.Y.Y.Y.Y.Y.Y.Y.Y.L.L.L.Y.Q.!.q.,.o.M #.(.A.$.W.C.O.W | M c b b b D D D c c.V.m.J J A.C.m.+.M.s.m S u 5 v U ) ) U U ) U U y 0 P t d U ; + # : : , y d y d d 8 d v P ( _ 2.i.y._ _ '.5XfXfXfXfXfXMXUXUXDXJXJXJXJXJXJXJXZXJXJXJXZXZXJXJXZXNXNXNXNXNXNXMXxXfXmX*XfXw.p p W -.&.-.0.F.f.z.e.D.H.1X^ < w w U Y ~ ~ ~ ~ Y ` Y Y ` ` Y = Y W ^ -.e.;.] S e p < = = = < $ q p C C ^ h.F.I.F.h.P.g.F.F.h.F.Z O.Q.h.q.N.s.s.B.s.Z.^.U.U.T.!.T.-X!.7XqXqXuXyXuXuX;X7XqXrX0XlX7.p >.j.T.U.T.I.XX,XyXuX,XP.F.>XqXqXqX;XXXOX7.>.I.rXXX] 0.J.t.|.1XC C +X=X$X$X0XqXqX>XXX@X>X@X@XJ.J..XXXXXF.L.OXJ.%.J..XL.l.F.h.e.6.6.5.< g 5.=.;.-.;.>.-.` ` { %.^ V T {.}.}.l.t.t.9.t.L.D.E $ < & # 0 0 f =.{. X X X| E ..8...v v c t > v v : 2 c E ; O 2 v ) ) ..E ) v t , t v U f : - B  . .,.c.b.x.c.b x 5 5 D 5 - > 5 b ,.n.,.| E | ..8.,...c E D v E r. XiXiXE.D c v.v.D  .E.DXJXcXeX4X.XOXoX$X.XOXQ.OXoX.XQ.OXOXOXOXOXOXOXOXXXOX$XOXOX.X.XXX.X.XOXXX.X.XXXXXOXXXXX.XY.L.F.D.J.G.L.L.L.L.Y.L.F.G.G.L.Y.Y.Y.Y.Y.Y.Y.Y.",
"Q.Q.Y.Y.L.L.L.Y.G.G.G.J.J.G.L.Y.Y.Y.Y.Y.Q.Y.Y.L.Y.Y.Y.Y.Y.Y.Y.Y.Y.L.J.Q.,.M M H S./.S.#.R.W..XQ.W.v.b.E.3X X,.v c D c.A.V.<.4 m O.v.+.F M 4 B t B E E ) E U U E U y w U , 0 E d 7 , , # # # , 7 % 8 P w d U U ..2.y.u.) U _ [.sXfXxXkXkXMXUXJXMXNXJXJXNXNXNXJXJXJXNXtXeXgXNXJXNXNXMXxXMXMXMXMXxXfXfXmX*XfXp.p p T %.-.-.7.z.h.J.e.l.H.1X_ 9 w w z Y T ~ ` ~ Y ` ` ` -.-.W < W a = Q 0.9.>.] S j i g $ = < = p z ^ R ] h.P.XXg.g.P.0.z.F.h.F.S ] F.q.0.h.<.<.Z.g.Z.Z.U.P.I.U.I.;XT.,X:X>XyXqXqXuX7XqX6XuXrXzX7.j -.0.U.-XT.I.;XyXpXyXU.f.I.,XqX2X,XXX@X>XF.I.2XhX>X>.F.OXD.}.1XN N +X=X$X$XeXqXqX>XXX.X>X@X}.F.L.XXXX.XJ.L.XXD.&.J..XL.h.F.h.h.>.;.-.= a 9.;.6.;.6.9.;.%.` ` %.W N Y J.L.L.l.e.t.D.J.D.t.=.f 9 # d , y 8. X*X X Xv. .v )  .b t c b b t b t > c ! 5 X X : > t D b c v t t 5 u ....v : : | v.#. .c.b.#.c.A.(.v.c | #.#.,.| b c D 2 b E ,.....4.8.v b v D E  XwXiXSXiX*.B K.E. .,.vXKXKXHXlX$XoXoXoX.XOXOXOX.X.XOX.XOXOXOXOXOXOXOXOXOXXXOX.XOX.X.X.XOXOXOXOXOXXXXXXX>XOXXXY.L.F.F.G.L.G.G.L.Y.L.L.L.L.L.Y.Y.Y.Y.Y.Y.Y.Y.L.L.",
".XQ.Y.L.L.L.L.L.Y.L.L.J.J.J.G.G.L.G.G.L.L.L.G.L.Y.Y.Y.L.Y.Y.Y.Y.J.}.F.Y.N.| X.V.(.(.A.v.!.G.D.G.G.R.oX#X5X3XE D D #.A.(.c.c - u c c c - - N Z 1 t V U U v U U f y 0 f , d E v , 0 0 7 # # + # + + 0 _ U f ( y.4.2.y._ U _ w.n.[.eXxXMXMXMXkX+XH.+XxXNXJXJXNXNXgX}.w.` %.e.}.gXbXJXJXNXxXMXMXxXkXmXfX=X=XxXH.g p ` -.&.>.e.z.Y.L.h.D.{.+X4.w 9 i U V z ` -.` ~ ` / %.5.6.^ 1 ` W 1 Z h.h.>.&.Q Q C g g p e p N R { ^ 0.L.Y.P.j.h.F.0.P.Y.h.h.Q Q 0.<.<.<.<.s.P.Z.Z.U.U.U.T.U.-X-XT.,X-X>XqX,XqXqX;X7X,XrXyXhX>.j F.0.f.j.-X,XqXqXqXXX:.>.,X2X,X,X>X@X2X>Xz.@X1XuX>X&.J.OX.X$X+XN N #X@X=X$XqXqXtXOXOX>X>X>X}.J.D.Y.XXY.Y.L.@XL.6.D.@Xz.0.F.z.e.;.=.5.i g w.-.6.9.;.;.=.{ { { ^ Z l C H.{.{.e.0.l.D.;.=.5.w.` v & w 0 _ [. X Xn.K...v.v.) E b v E I E b c b t u : O 2 E n.r.c > b ,.b.,.v.8.! | v : + O E r.#.,.b.v.x.A.(./.E.v.(.(.A.v.E.| 5 v D v E 4.8.8.8.8.| b D | b.4XwXvXlXvXtXR.wX4X8.5XHXHXHXHXcXeXOXOXOXOXOXoXOXoXOX.X.XOXOXOXOXOXOXOXOXOXXXOX.X.X.X.XOX.X.XOXOXOXXXXXOXOX@X.XL.D.J.Y.L.J.L.Y.L.L.L.L.G.L.L.Y.Y.Y.Y.Y.Y.Y.Y.Y.Y.",
"Q.Y.Y.L.L.L.L.Y.L.L.L.L.L.L.J.J.J.D.D.J.L.Y.L.L.L.Y.Y.Y.Y.Y.Y.Y.Y.J.Y.XXN.;.<.M.(.W.(.<.!.N.J.G.J.Y.OXoX4X4XD b | F #.,.c - : v E V v t O g v < v ` E v i V f 2 , 0 , 0 U P 0 7 0 7 7 # # #   +   , ) _ _ _ 2.4.4.4.4.p.&X{.p.H.*XkXfX&Xp.5.w.n.w.H.+XgXeX{.w.=.W / { w.D.t.p.+XeXxXHXNXxX{.{.=X*XfXfXMXMX{.g l ^ { -.>.h.F.F.L.t.l.J.+X4.w 9 f T Y V W { / ~ =.%.{ -.9.^ 1 -.6.W ] h.h.0.0.] ^ ^ C l N T T T { ] ] h.Y.T.I.F.h.F.g.I.Y.h.h.Q S h.<.O.:.N.P.U.Z.Z.U.U.T.!.!.;X-XU.>XT.-XqX>X,X,X;X7X,XqXrXhX6.z Y.j.f.:.g.T.>X-Xj.>.:.U.,X>X,X2X,X>X2X>XF.>X>XqXOX] F.1X}.=X1Xl N #X@X=X$XeX0XqX>X>X>X>X@X}.Y.h.Y..XY.XX.X@XJ.9.D.XXl.0.z.l.0.;.=.5.N a 5.;.w.6.-.6.;.{ ^ ~ ~ C g N D.L.D.>.e.Y.0.W -.p.r.~ y , % f ..4...E .. X5X5X3XiX| t : c c t t 5 t t > - b v.4X5X3Xb.c D E.A.x.E.oXv.v X # , : t ,.v.v.b.#.b.E.A././././.E.E.v.v.v.D v b d E n.n. X3X Xb.| E v.3XiXkXiXlXvXJXSXcXtXtXJXJXJXHXHXbXtXOXXXOXOXOXoX.X.XOXOXOXOXOXOXOXOXOXOXOXOXOXXX.X.X.X.X.X.XOXOXOXXXXXXXXXOXXXY.J.F.J.Y.G.L.Y.Y.Y.L.L.L.L.L.Y.Y.Y.Y.Y.Y.Y.Y.Y.Y.Y.",
"Y.Y.Y.L.G.L.L.Y.L.Y.Y.Y.L.L.J.J.D.h.N.J.Y.Y.L.G.L.L.Y.Y.Y.L.L.Y.Y.J.Y..XL.Q.OXV.C.V.M.N.!.G.J.L.Y.J.XXoX#X5XE D v.,.D 5 - : 0 w P P U f # v u 1 N v v c v t # : : + t E E v y d f 0 7 # + + # & % 0 _ 2.2.2.i.n.[.&X[. X=X+X[.[.&X{.4._ ~ ~ Y U ~ Y Y ~ ~ Y V V W ~ -.p.L.L.D.D.H.J.gXxX=Xw.{.kXkXMXMXNXNX{.i g ^ { 6.0.h.z.e.h.t.l.H.{.=.w 9 f ~ ^ W Y ~ ` { ;.;.%.;.e.^ 1 -.t.9.>.h.h.0.>.] ] ;.W Z Q ] ^ ^ } } } h.I.T.T.P.j.j.f.I.P.0.e.] Q h.<.S &.I.T.U.U.g.B.U.;X!.!.-X!.T.;X!.>XyX>X>X,XT.;X>XqXrXhX6.C T.|.U.j.f.j.P.j.j.h.-XqX,X>X,X>X2XqX2X2XY.qX1X2XOX] 0.0X@X@X1Xg V +X@X=X$X0X>X0XOX>X>X0X@XXXY.0.L.XXY..X.X>XJ.7.D..Xl.0.t.e.9.-.{ 5.Y g 5.5.w.;.;.6.-.^ W ~ / W g l p.J.D.-.6.J.;.W ;.p.~ < # 0 7 P ..) v t ..4X5X XK.3XE  .,.v 0 > c c D ! t c b.4X3XE.A.3Xc.5 c.b.x.b.v.v.B O # # ; ; c ,.v.D c A./././.A./././././.b.v.D v D v ..5X5X5XkXkXiXE.v.3X5XiXiXiXlXvXlXlXlXcXHXJXHXHXHXJXHXzX0XXXOXXXOXOXoXOXOXOX.XOXOXOXOXOXOXOXOXOXOXXX.X.XOXOX.X.X.X.XOXXXXXOXOX@X.XJ.D.J.L.L.L.L.L.L.L.L.L.L.G.Y.Y.Y.Y.Y.Y.Y.Y.Y.Y.Y.Y.",
"Y.L.L.G.G.G.Y.Y.Y.Y.Y.L.L.L.J.J.D.D.D.L..XQ.L.J.L.L.Y.Y.L.L.L.L.J.J.L..XQ.G.Q.!.G.G.N.!.OXY.J.J.F.Y.Y.#X#X5X Xn.R.r.u X O : % d P P P 0 $ V 2 1 5 c c 5 c B c 2 : : v E v 7 8 d w 7 % 7 7 % , & # v 4.i.i.w.[.n.[.{.H.H.+X*X{.n.=.( y , 0 y 0 < w w w < 9 i g g g i a Y 9.#X0X0XL.H.#X+XJ.=.H.NXMXMXMXMXNX+Xg l T { >.7.e.h.0.h.h.l.J.{.=.9 9 f Y ` =.` ;.;.%.-.9.-.6.9.W 1 -.0.0.>.h.t.>.>.} %.0.-.-.-.%.&.>.7.>.7.z.I.T.I.P.j.g.f.I.F.&.&.Q ] h.<.A >.I.!.T.T.<.g.!.;XT.!.-XT.I.;X!.;X7XXX!.;X!.;X>XqXuXuX&.C @X,X:X-Xj.P.U.j.P.-XqX,X;X,XqX>X2XqX>X,XL.qX2XrX;X>.' L..X}.1Xp C +X@X=X$XeX0XqXXX$X1X1XOX@XF.9.L.@XY.Y.Y.@XJ.6.D..XD.t.e.9.6.&.{ =.~ N 5.;.5.-.%.=./ Y Z Y ~ Y g g w.l.p.=.;.D.9.^ ;.p.Y # # 0 f ..4._ v t ! #X3X X X..|  XSX3X .b | | ,...x 5 r.b.oX4X3X4XE.c x #.v.A.A.b.,.t : ; ; X X 5 x > x A.A.(./.A.A./.A.E.(.E.v.D t b v E u.5X5X5X3X3Xb.8.v.n.iXiXvXiXSXvXbXbXHXHXbXZXHXHXKXKXZXrXOXXXOX.X.X.X.X.XOXoXOXOXOXOXOXOXOXOXOXOXOXXXOXXXXX.X.X.X.XXXXXOXOXOXXXY.D.D.L.L.L.L.L.F.F.L.L.L.L.L.Y.Y.Y.Y.Y.Y.Y.Y.Y.Y.L.L.",
"G.G.J.J.J.G.Y.Y.Y.Y.Y.L.L.L.L.L.J.J.F.Y..X.XY.L.L.L.Y.Y.L.L.L.L.L.L.J.Y.Y.D.G..XY.G.OXG.Y.Y.J.J.J.L.L..X#X Xn... .v : : ; # % d P U v w $ v v %.9.C.V.v.v.v.,.D - v v 5 : # t f w 7 7 d d 7 % + & 4.i..._ U Y ~ E ~ _ _ ....~ Y 9 , # < f U U U Y V V v Y ` ..=.5.` ` Y N %.J.#XL.{.H.w.8.=.H.NXMXMXMXMXNX+Xg N Z / &.>.e.z.I.OXl.D.{.+X=.w 9 f Y ~ -.5.9.%.{ 9.9.-.6.6.T 1 &.9.>.>.h.q.>.7.>.-.;.>.7.;.-.-.>.h.0.g.F.I.XXI.B.j.g.>.P.h.S ] Q O.N.g.F <.I.T.T.!.g.g.!.T.T.-X-XC.B.-X!.-X,XI.P.T.T.!.XX>X>X1X] C >X-X-X>XP.P.P.j.U.;X;X-X>X,X,X>XqXqX>X>XJ.2X>XyX>XF.;.9.h.@X0Xe Y }.#X$X$XrX1XrXOX>X0XOX@XXX0.h.}.XXY.Y.}.XXD.9.D..XJ.z.t.7.;.%.{ %.W g 5.=.=.{ ~ ` ` Y Z Y Y V g g 6.w.5.~ { t.;.~ -.t.~ i t 0 y ..4...v f E n. X Xr.t |  X XE. XE  .,.v.x.D 5 > t | ,.,.v.A.A.#.H F #.v.b.n.b O O O - 5 5 > 5 b b.b.b.E.A.A.3X/.E.E.E.b. .c 8 t d t E  XkX3X .b D E b.3X5XSXSXSXpXvXGXHXHXHXKXKXKXKXKXHXuXXX.X.X.XOX$XOX.XOX$XOXOXoXOXOXOXOXOXOXOXOXOXXXXXOX.X.X.X.XXXXXXXXXXX.XY.D.J.Y.L.L.L.L.L.F.L.L.L.L.Y.Y.Y.Y.Y.Y.Y.Y.Y.Y.Y.L.G.",
"G.J.F.F.F.G.Y.Y.Y.Y.Y.Y.Y.Y.Y.Y.L.L.L.Y.Q..X.X.XY.Y.Y.L.L.L.L.L.Y.L.G.J.L.Y.Y.L.G.G.G.G.J.L.L.G.G.Y.L.L. X..d : t : : 0 : , 7 s d U U i : N K.vXiXiX4X(.V.#.| D > 5 B ,.8.E t 0 f w s d d w % + & U V 0 w f g Y ~ Y Y Y V i 9 < i v V U _ ..` _ ` ` ` _ ..w.r.p.w.p.p.w.5.~ W 5.+X{.D.p.5...w.=XkXxXMXMXJX@XN Z W ] &.>.e.j.L.|.t.l.+X+X=.w < f ` ` =.=.%./ %.t.-.&.7.6.W < } 9.>.>.t.t.<.0.7.>.0.9.0.0.0.>.0.h.h.j.F.I.-XP.j.P.g.:.j.&.C ] Q ] F.F.] <.Y.T.U.!.Z.j.-XT.!.;X!.g.B.-X-X,X,XP.j.I.P.P.I.T..X-X] A -X|.-X:XT.P.P.j.!.:X:X,X,XqXqX>XyX,X-X;XL.qX-XqX,X.X.Xh.7.1XeXi Y }.@X=X1XrX>XqX>X0X1XXXOXL.;.z.}.@X}..X.X@XJ.e.D..XL.F.h.7.;.%./ =.W g =.=.` W Y W E V Y Y ~ N g i =.%.^ Z ` t.` ~ t.J.5.Y t ; y _ 8.8.V V E ..n.r.v 2 E 3X3X3Xn.| ,.b.E.E.x. .x - - 5 : 5 v.(./.S.#.M 5 D b.E O : t c t t 5 5 5  .b.b.E.(.b.b.3X(.(.(.v.b 5 > : 0 v t ..wXSXK.t b | ,.,.v.iXvXE.v.4XHXKXHXbXHXHXKXKXJXHXtXL.D.D.D.G..XoXOXOXOXOXoXoXOXOXOXOXOX$XOXOXOXOXXXOXOXOXOXXXXXXXXXXXXXY.L.F.L.Y.L.L.Y.L.L.L.L.L.L.L.Y.Y.Y.Y.Y.Y.Y.Y.Y.Y.Y.F.F.",
"G.J.F.F.J.L.Y.Q.Y.}.}..X.X.X.X.XY.Y.Y.Y.Y..X.XXXQ.Y.Y.L.L.Y.Y.L.Y.G.L.L.J.D.J.L.Y.L.F.G.Q.F.L.J.G.G.L.oX..0 v t I 8 # 7 8 0 7 w f f v ; : m C.iX8XW.S.S.A.#.H c 4 H v.4X3XK.E , y 0 s d d f 7 + @ w i i y g f f ` V g g q < g ~ w.n.p.w.u.i.w.4.p.p.p.w.i. X=X=X{.{.H.p.p.p.=.Z ..p.n.r.w.w.5.w.gXNXDXJXJX=XV W { / &.>.0.e.0.h.e.l.}.}.` 9 < g ` =.=.%./ %.;.0.%.-.9.6.T < / >.;.;.t.h.0.0.9.>.t.>.>.e.0.0.e.h.Y.Y.F.I.-XB.g.P.f.:.h.] A &.Q ] F.F.&.f.I.XX-X!.P.Z.:X-X-X;XI.<.B.!.-X,X,XB.g.!.U.I.!.XXY.OX' C -X-X:X-XT.^.^.U.!.;X,X>X;XqXqX,XyX>X>X@XL.uX>XqXqX.XrXXX0.$X0Xi T }.@X$X$XqXOXqXOX0X>X@X0XJ.;.z.}.OX.X.X}.OXY.t.D.}.J.D.D.9.;.%.^ ;.~ a ` ` / Y ~ ~ Y g E ` ` V f q ~ W W Y =.H.6./ 5.w.=.V q : < ..4._ U E v v v d t c t v  .v. .D  .x.b.E.E.b. .c > - : O | E.S./.W.b.5 > b t O : t D *.8. .D 5 c  .v.E.E.| b v.E.E.3Xv.5 > t : # t t E n.3Xn.b b E D  .b.iX3Xv.v.!.iXlXHXKXHXHXHXKXJXHXqXt.q.q.9.>.9.N.Q.OXOXOXOX$X$XOXOXOXOXOXOXOXOXOXOX.XXXOXXXOXOXXXXXXXXXY.L.J.L.L.G.L.L.L.L.L.G.L.L.L.Y.Y.Y.Y.Y.Y.Y.Y.Y.Y.Y.L.G.",
"L.G.J.J.L.Y..X.X.X.X.X.X.X.X.X.X.X.X.X.X.X.X.X.X.XY.L.L.L.Y.Y.Y.G.L.G.J.L.L.J.L.J.G.L.J.J.L.J.L.L.K.{.=.v f t ..I 8 : 0 7 0 0 f d y i < < a m ,.W.(.S.A.A.(.c.H | $.v.b.n. X8., 8 w w d d f s + @ 9 9 w 9 w y y g i w q i _ p.{.{.=X=X+X{.H.n.[.[.{.{.+XeXMXNXxXNXxX*X{.H.p.t.9.W Z ` D.n.5.=.5.p.*X+X*X=XH.g ^ ;./ ;.0.f.h.f.z.h.l.}.{._ < < g ` { ` ` ^ %.;.;.%.;.6.%.C < / ;.-.%.>.e.<.9.>.&.;.&.&.>.9.0.g.Y.I.P.F.T.:XP.j.I.g.:.j.&.' 0.Q >.F.F.:.h.I.;X,X^.U.P.;X-X-X;XZ.s.B.!.!.,X,Xj.h.;X!.!.XX.XI.OX' C XX-X:XT.-X:X;XP.;X:X,X-X>XqX;XqXyX>XqX@XL.uX2XyXqXOX>X@X0.|.1Xi T }.+X@X$X0X@X0X$XqX>X>XqXJ.0.J..XXXY.XX}.XXY.l.D.}.D.z.D.0.;.%./ 6.W i W ~ / / ~ ` ~ v Y ` ..V q 2 ` =.%.W ` w.;./ =.t.9.V y q < ;.i...~ 4._ v 2 : d t > - b ,.,.,. . .v.b.b.E.E.8.t O O O ! 8XA.A.E.4XD X : - : 2 D b.oXoX XW.| 5 c D | D > > c D E b.,.c c : , , : t !  Xn.*.c b c ! b.3XwXA.A.W.v.K.wXvXHXbXKXJXKXHXHX0Xt.t.t.t.q.<.9.D..X.XOX$X$X$XOXOXOX$XOXOXOX$XOX.X.XXXOXXXOXOXOXOXXXXXY.J.J.L.L.J.L.L.L.L.L.L.L.L.Y.Q.Y.Y.Y.L.Y.Y.Y.Y.Q.Y.Y.Y.",
"Y.G.G.G.Y.Y..X.X.X.X.X.X.X.X.X.X.X.XXXXXXX.XY.Y.Y.Y.L.L.L.Y.Y.Y.L.L.G.Y.G.J.L.L.L.Y.J.L.L.D..X{.{. XK.) v E 4.4.t U ) E v t d d w d v , $ t O 2 x c.S.S./.(.c.c.(.v.v.3XE.#Xu.8 y d d d d d w +   # , , , # w y w # y V 5.H.[.+X*X[.[.+X+X*XeXeXfXgXxXNXDXHXbXbXNXNXcXxXeX}.J.H.D.;.V v =.w.w.8.5.=.Y N ~ w.i W p.} &.e.f.F.0.z.h.F.}.{.~ = 9 g ~ ~ ^ ` / -.6.-.%.&.-.%.V < / %./ %.0.9.7.>.>.&.&.&.*.9.e.h.e.I.I.T.P.T.,XT.B.P.j.h.P.h.0.z.Q &.F.Y.h.F.!.;X7X-X!.P.T.-X-X;Xj.<.F.XX-X7X7X>.>.,X!.-X;XI.I..XQ C T.;X-X|.,X2XXXT.,X>X>XqXrXqX>XqXrXqXqX.XXXuX-XqX2XXX-X1Xe.}.rXp W .X+X$X$X>X>X0X>XOX$XqX@Xh.t.J..XXX}.}.}..X}.t.D.Y.J.D.t.9.;.%.` 5.Y a / / ` / ~ ~ ~ i i Z %.*.8.E ~ ..Y ~ Y ` ;./ ;.K.w.i t 2 : ~ 9.5.5...;.=.t u D 2 > E ,.v.b. .| ,.D | v.n.b.8.t X : ; 5 oXW.E.W.A.c > , : t .. X X3X(.E.E. .|  .| 5 X 2 2 c 2 : t v v d 2 : , , : E 8.5.! b E c ! v.v.b.E.,.b.v.v.6XiXlXtXHXHXHXbXbXeXD.N.N.G.G.N.0.t.L.OXOX$X$X$XOXOXOXOXOXOXOXOXOXOXOXOXXXOXXXOXOXXXXXXXY.D.J.Y.J.J.Y.Y.Y.Y.Y.Y.Y.Y.Q.Q.Q.Y.L.L.L.Y.Y.Y..XQ.Y.Y.",
"Y.G.G.G.Y.Q..X.X.X.X.X.X.X.X.X.X.X.X.XQ.Y.Y.Y.L.L.L.L.L.L.Y.Y.L.L.Q.Y.Q.Y.Y.L.J.L.L.L..X{.#X#X#X=X5X Xn..... X) ) ..]. X..P y d 7 f f 7 X , : - - | /.(.8XA.A.S.(.W.,.! ..) f : s f f d L P 7 # + +   # + + @ & w v _ 4.w.[.+X+X*X=X5XgXMXNXDXDXMXNXHXNXbXcXlXcXcXxXlXNXZXhX1X+XJ.D.p.` g i V ` ;.w.` ` H.p.i g w.7.;.>.0.F.j.J.J.Y..X{.T & w g U Y T ~ ^ =.-.{ ] %.%.{ N < / %./ %.0.0.0.9.>.&.&.&.;.e.h.F.g.P.I.T.B.T.qX-XP.I.j.j.U.j.-.e.R ;.Y.Y.F.I.I.!.,X7X;XP.-X-X-X|.h.0.F.XX;X7X,X:.:.>X!.;X,XF.f.>X} C T.;X;X-X,X2X@X|.>X1XqXqXqXrX,XqXqX>X>X|.@XqX-XqX2X-X>X@Xe.J.rXp W .X@XOXOX$X>X0X>X>X>XqXXXt.h.J..X.XY..XY.XX.XD.h.L.J.D.9.%.%.{ / 5.Y g ` ` %.` ~ ~ E i ~ t. X4XwXn.N ! #XgX.X=.../ ;.t.` u f a : Z r...8.r.H.^ 2 ! ..5 c v.b.8.x. .x.b.b - t t t - X : , O O D oX4Xv.b - X : : b b.3XE.3XE.A.E.c.b.E.E.8.> - : : t f 2 0 d f t ; , ; # Z 5.8.! c b | ,. X3Xv.,.E.oXb.v.oXpXuXzXlXbXHXHXbX>XD.F.G.G.G.D.t.t.G.oX$XOXOXOX$XOXOX$XOXOXOXOXOXXXOXOXOXOXXXOXOX.XQ.Y.D.h.J.Y.L.L.Y.Y.Y.Y.Y.Y.Y.Q.Q.Q.Q.Y.L.L.L.Y.Q.Q..X.XY.Y.",
"Y.G.G.G.Y.Q.Q.Q..X.X.X.X}.}.}..X.XQ.Y.Y.L.L.L.L.L.L.L.Y.Y.Y.L.L.Y.Q.Y.Y.Y..XY.L.L.oXK.v.8.K.r.r.4XkX5X Xn.8.4.8.kXu.8.n...U y y d d w , # , : - c W.4X4X4XE.(.(.E.4Xv.> > 7 : d f P d d P d 7 P U ,   #   + 0 v ) 4.8.[.+XfXxXkXfXkXMXNXNXNXMXgXxXNXNXNXbXbXbXcXlXbXcXcXbXZXcXtX#XJ.J.D.t.~ 2 < i T W _ ` V q g -.l.7.&.0.z.L..XY.}.@X}.~ = w g g Y T W ^ -.-.{ ] %.%.` N = / %.{ -.0.9.9.0.>.&.&.&.;.e.h.F.g.F.Y.T.B.!.yX;XI.T.P.j.F.h.0.>.e ;.>XY.h.Y.OX>X;X,X-Xg.-X>X;XXXj.h.P.-X,X;X7X>.<.>X!.-X,X0.Q OX] C T.;X;X;X,X2X@X|.>X>XqXrXqXqX,XyX2X;X>XY.@X2X@XqX1X@X1X@Xh.z.0Xp ^ }.@XOX@XOX6X>X>X1X1XqX.X0.D.J.}.L.L..XL..X.XD.h.J.h.l.9.;.-.-.{ 9.W V -.=.%./ ~ ` V E oX5X XR.oXn.v *.wXlXlXoX../ *.8.Z v E ! f V 8...*.t.~ v ..n...O v 8.v.8.|  .x.,.5 X : X X : 0 : ; ; X - u b 5 X X : c t : b | ,.b.E.(./.E.b.b.b.E.! - 5 u 2 : : t d f d 0 , # : ! 8.r.| c b | | 8.3XiX3Xb.b. X4XtXtXuXuXlXbXbXZXlXXXJ.Y.Y.G.F.G.D.N.G.Q.$XOXOXOXOXOXOX$XOXOXOXOXXXOXOXXXXXOXOX$XXXY.J.D.h.D.L.L.L.Y.Y.Y.Q..XQ.Y.Q.Q.Q.Q.Q.Y.L.L.L.Q.Q.Q..X.X.XQ.",
"Y.G.G.L.Y.Q.Q.Y.Q..XY.Y.Y.L.L.Y..XY.Y.Y.L.L.Y.Y.L.L.L.Y.Y.Y.Y.L.L.Y.Y.Y.Y.Y.D.D.R.#X*.D D v.v.| K.5XiX5X5X X) &XDX5X..v.8.) v y d d w # # # O - ,.4XE.v.| 3X4XE.5X3XD - t d v P v d P P d 7 P I v + # # % 0 v _ ..n.5XkXkXgXkXkXeXgXxXNXNXxXxXgXbXbXxXxXbXbXCXzXzXzXhXhXzXlXcXcXcXrX.Xp.p.H.=.V < $ $ w < $ g C C e.>.>.F.h.F.L.J.Y.@X+XT = i f g Y ~ W ^ -.-.{ %.&.=.` N = / %.{ -.9.>.9.9.>.&.&.&.>.h.F.F.0.F.P.T.B.!.yX;XT.T.U.P.P.h.z.&.. l XX}.D.Y.>X,X;X;X-X<.T.;X-X;XP.j.I.-X;X;X7XB.g.>X-X-X,X7.S XX' C .X;X;X;X2X2XXX|.>X@XqXrXqX2X>XuX2X;X2XI.OX>X@XqX-X@X1X@XF.e.1Xp / .X$XOX@XOX0X$X>X1X0XqXY.t.F.L.}.J.J..XJ.Y.Y.D.h.J.h.h.0.;.;.;.=.w.W Z 5.5.=.~ Y Y v E n.5X5X4Xn.r...*.r.R.{.r.*.! 5.*.v U E ~ E v E v u D t *. Xw...2 v  .8.,...b E t : b c v b v E ) ) v : : O X X - : 0 v v - > > D E.4X/.E.A.c.b.v.E.v.- 5 t 0 2 0 f v v v v t : t | ,.,.| E b b  .,.| E.kXE. .,.wXlXtXqXqXtXlXlXlXwX.XL.Y.L.G.F.G.G.L.G.K.L.OX$X$XOXOXOXOX.X.X.X.X.X.X.X.XQ.XXXXXXY.D.D.D.J.L.L.L.L.Y.Y.Y.Q..XQ.Q.Q.Q..XQ.Q.Q.L.L.L.Q.Q.Q..X.XQ.Q.",
"L.G.G.L.Y.Y.Y.Y.Q.Y.Y.Y.L.J.J.L.L.L.L.Y.Y.Y.Y.Y.L.L.L.Y.Y.Y.Y.Y.Y.L.L.L.L.Y.R..X5X5X| > b b.3X .8. X3X5XvXfX..kXDXDX X8.....E t 0 v 0 # X # : O b D v t 2 n.3X3X5X| - , v v P I P P P d 7 % 8 8 w 7 d w d ( ) 4.[.*XfXfXfXgXtXeXgXxXxXxXxXjXgXxXNXNXlXxXbXbXcXuXqXhXhXrXuXzXhX1XlXcXrX}.l.t.w.9.W g $ $ & < g g l 6.;.&.h.0.F.Y.Y.}.+X{.U & i f f Y Y Y W =.%./ %.-.-.%.V < ~ ` ^ %.9.9.0.9.;.] } %.>.h.h.h.>.h.j.T.B.T.qX:XT.I.I.j.P.>.F.h.1 * ] Y.L.F.Y.XX>X;X-Xf.U.;X;XXXF.j.I.;X;X;X7X!.B.;X:XXX2Xj.>.>X^ C @X@X;X>XqX,XXX-X>X>XqXqX1X>X>XqX2X;X2XL.@X>X-XqX>X@X1X@XJ.0.@Xl { .X=X$XOX$XeXOX$X$XqX0XJ.J.F.L..XJ.J.OXJ.L.J.z.e.F.h.h.7.;.6.9.{ 9.Y V =.%.` ~ ^ Z a t v E ! v.W.b.,.4XK...r.*.*.E 5...v E E E v t | | v f t E ..8.E 0 t E E E E t t 8 t v E ..E ) 8.n.[.n.E O : : > 2 > t E ..t 5 x  .E.(.E./.b.| E.v.b.v.2 t t v V U E E U v D E E ! *.8... .b b  .,. .b  .iX4Xn.r.v.iXvX6X$XqXlXlXtXOXL.L.L.G.G.F.F.G.L.G.N.N.L.OX$X$X$XOX.XY.L.Y.Y.Y.L.L.Y..X.XL.G.D.h.J.L.Y.Y.L.L.Y.Y.Y..X.X.XQ.Q.Q..X.X.XQ.Q.Q.L.L.Y.Q.Q.Q.Q.Q.Q.",
"Y.L.L.Y.Y.Y.Y.Y.Q.Q.Y.Y.L.F.J.J.L.L.L.Y.Y.Y.Y.L.L.L.L.L.Y.Y.Y.Y.Y.Y.L.L.Y.}.$XoX3XiXn.c x.3X3Xb.D b. X5X5X8.E SXSXDXkX) I ) v d t f d y O t u 2 : > v v 8 t n.5Xr.t t d d P P I ( P v s 7 P ( I ) ) ( d ( ..4.[.5XfXfXgXtXgX#X*XgXtXlXxXgXgXxXbXbXbXcXbXCXbXcXhXrXrXrXyXuXqX1X>XuX@X0XlXY.6.%.W T W V q o 9 z V l -.6.-.f.h.F.Y.XX|.@XH.Y = w f f Y Y V Z ` / ^ / %.&.%.V $ W W T %.0.9.0.9.-.] } %.&.>.>.0.&.g.g.I.j.T.yX,X!.P.T.I.T.0.B.&.* u ] Y.J.F.Y.XX,X-X-XN.T.;XXXT.j.g.T.;X,X,X7X;XP.XX,XXX;XL.Y.2X^ N .X@X;X>XqX>XXX>X1X>X0XrX>X@X>XqXqX-X2XF.|.>X@X2X-X|.>X@X}.e.XXl { @X$X1X$X>XeXOX$XOXrX>XJ.Y.J.L.Y.F.J..XJ.L.D.z.e.F.h.t.6.;.;.5.` 9.V g ~ Y ~ ~ ^ Y a y : 5 ..3X3XE.v.oX4Xv.,.K.r.Z ! E v v v E t v E.n...E v t t E v , d E c v c 8 8 t c v t d ) 8. X5X5XsXi.0 - O - > t v E E c > c ,.E.E.E.3Xx.5 ,.E.E.,.> 5 u Z E ` E E U E E ........8.8.n.b c E  .| E  .E.5X| K.4XiX0X4XoX0XlXcXqXY.D.G.F.F.N.h.D.G.G.G.D.D.D.G.Q.Q.Q.R.L.Q.Q.Q..X.XQ.Q..XOXL.D.D.D.D.L.Y.Y.L.L.Y.Y.Y.Y..X.X.XQ.Q.Q..X.X.XQ.Q.Q.R.L.L.Y.Q.Q.Q.Q.Y.",
"Y.Y.Y.Y.Y.Y.Y.Y..XQ.Q.Y.L.J.J.J.L.L.L.Y.Y.Y.L.L.L.L.L.Y.Y.Y.Y.Y.G.Y.Y.Q.Y.L.{.v. X5X3X,.n.3X3X3X . .,.,.n.*.E n.n.n.4.v t ) v I v f v f ; i v u D c ) P I y d E 0 d v f v P P P P I d , v 2.) _ 3.) f f ) 2.'.5XkXfXfXgXeX{.p.H.0XrXxXlXrXgXbXcXNXbXcXzXzXzXzXVXuXzXuXuXrXqXqXqX>X@X1XrX@XD.-.^ T W =.~ 9 < g Y l ^ >.-.>.h.F.|.XX}.=XH.U = 9 i f Y V N N ^ / Q ^ ] %.%.V $ Y T W &.0.>.7.>.-.&.&.&.&.&.>.0.:.g.f.I.B.!.yX7X-XI.P.T.;XF.F.Q * >.XX>XF.F.Q.;X>X;X!.P.I.-X!.XXF.h.T.!.7X:X,X:XP.P.>X;XXXY.|.1X] N @XOX-X>X2X>X@X1XqX>X2XrX>XY.>XrX2X;X,XL.T.;XT.>XXX|.-X@X}.l.}.l %.@X@X1X$X0XeX>X>X>XqXXXL..X.XL.L.D.J.Y.J.J.D.z.h.D.e.0.;.%.%.%.%.9.N i Y V Y ~ E v y i : | 5X XE.K.v.R.3XK.D | 8.V i f d t v v : v K.n.n.n.| v > , t 0 t t v v b t 8 v E v I v I E ..&X5Xn.v , : > 2 2 d E | v - - t  .E.E.E.3XD - c ,.n.8.5 t v E Z E E ..) E ) ..8.r.8.8.n.wXE.D D | D b | ,.3XD v.vXvX4X4XiX6XqXtX>XL.J.F.D.D.h.h.D.G.G.G.L.D.N.t.N.D.D.G.L..XQ.Q..X.XOX.XOX.XG.N.J.L.G.G.L.G.G.L.Y.Y.Y.Y.Q..X.XQ.Y.Q..X.X.XQ..XQ.Q.R.L.Q.Q.Q.Q.Q.L.",
"Y.Y.Q.Y.Y.Y.Y.Y..XQ.Q.Y.L.J.J.L.L.L.L.L.L.L.L.L.L.L.Y.Y.Y.Y.Y.L.G.Y.L.L.L.L.oXr. XE.3X3XE.3X3X3XE.E  .8.3X8.E 4.n. Xn.u...t t v f v d 0 , t v 2 v ) ) ) ) v + , : , f v P ( P P I P 7 7 ) ) ( P _ P 7 ) 2.u.nXkXfXfXxXeX*Xw.=.;.D.rXtX0XjXcXcXHXcXlXcXzXhXzXzXCXVXzXuXhXhXuXuXuXuXrX>XOX>XqXF.e.W Z p.=Xp.f w z i N 6.0.0.F.F.|.}.}.@Xl.z & = q U T Y N C ` %.{ ^ %.-.%.V = W W W -.0.>.>.;.-.&.&.&.&.>.0.h.>.g.>.I.P.-XyX,X-XT.!.T.!.I..X>.3 &.>XOXY.Y.Y.XX;X-X!.I.B.!.XX;XP.h.T.T.,X-X;X;XP.j.!.,XXX.X}.1X&.N >X>X-X-X2XqX-X>X1XqXrXqX>XT.qXyX>XXX>XY.XX;XI.-X@XXX-XXX}.F.|.N %.@X@X1X$XeXeX0X0X0XrX.X}.XXOXL.L.h.J.L.J.J.z.z.9.t.0.e.;.%.-.5.%.5.g i Y V E _ U v y : t n.5X XE.| *.K.n.K.B u E v 0 y t t U v - b n.n.E.,.D t 2 2 c t E v t c t t b  .b c I ..I E v I v t : , : E E t > b | v > > c  .b.3X3X,.5 x b t | ..2 t v ! ......) ) _ ..i. XK.n.r.oXvX3Xb b | ,.H b D 3X| ..4XiX<.V.pXGXtX>XY.D.J.J.F.F.D.D.J.G.G.G.G.D.D.D.D.J.L.Q..X.XQ.L.Q..XOXXX.X.XG.N.G.L.G.J.G.G.L.Y.Y.L.Y.Y.Y..X.XY.Y.Y.Q..XQ.Q..X.XQ.Q.L.Q.Q.Q.Q.Q.Q.",
"Q.Q.Q.Q.Y.Y.Y..X.X.X.X.XY.J.J.L.L.L.L.L.L.Y.Y.L.L.Y.Y.Y.Y.Y.Y.Y.Y.G.Y.L.L.L.OXK. X4X#X XE.3X3XwX3X8. X X*.n.=X=X{.eX5Xn.&Xu...t r d t 2 # 2 u 2 v v I ) ) I d , # : y U P ( ( P 8 7 + w ( ....P f 7 P '.i.*XMXfXeXgXgXgX}.6.=.-.D.$X0XtXcXcXcXbXlXhXhXcXzXuXzXzXzXVXzXzXzXuXuXyXuX1XqXzXrX>XY.z.e.{ 0XNXeXw.f l p C >.e.z.F.XX>X@X}.1Xw.i & i w f Y Y N T { { / Q &.&.-.l $ ^ =.{ %.-.>.>.>.>.&.>.-.%.>.>.e.>.g.>.P.Z.T.qX7XT.I.!.-X;XOXG.F.S ] F.L.h.F.!.!.!.!.!.I.I.!.XXXXF.g.!.T.!.U.-X:XP.f.U.7X;XY.F.1X} C >X@X>XqXrXqX>X1X>XqXqXrX@X.XqXqX>X-X>XT.XX;XT.-XY.@X-X@XY.}.}.l -.+X.X0X$X0XeX$X0X0X0XY.@X.XXXL.L.t.L.l.L.D.D.e.9.e.e.7./ { -.;.%.5.i i Y Y ~ Y U U y # v K. XK...v  .n.r.t.D u f f y y y f v t : 2 D n.E. .r.v.v v E c t v b t c | b. Xv E E E t b t c 8 : : , , .. X8.E t 5 5 - t E ,.n.E.! 5 5 t c v ..E v v v v ......) U _ 8.K.#XoXK..XtXtX4Xx.c.A.4X4Xv.D v. ...8.oX,.,.W.vX0XY.D.J.J.J.L.F.F.F.G.J.G.G.J.G.L.L.Q.Q..X.X.X.X.XQ.Q..XQ.XX.XL.D.J.G.L.D.J.G.L.L.Y.Y.Y.Y.Y.Y.Y.Y.Y.L.L.Q.Q.Q..X.X.XQ.Q.Q.Q.Q.Q.Q.Q.Q.",
"Q.Q.Q.Q.Y.Y.Y..X.X.X.X.XY.L.F.L.L.L.L.L.L.Y.Y.Q.Y..X.XQ..X.X.XY.Y.G.L.G.L.J.OXJ. X#X5X5X XK.4XiX5XK.K.~ J.$X=X+X Xn.n.8.n.n.n...r t d t ; 2 Z 2 v U ) ) ) ( 8 , , : , w f P d 7 7 7 % s P P P P d 7 u.sXfXmXxXfXkXeXeXgXH.=.5.p.D.}.eXxXlXlXxXhXlXlXlXcXcXzXzXyXzXCXhXuXzXuXuXqXuXuXuXrX>X@XY.l.L.D.xXJXNX+XY g p T >.h.J.L.@X-XXX}.@X=.z & 9 w g ~ Y N W / ^ W ^ &.{ { g < %.-.{ -.>.9.>.;.;.&.>.&.' &.>.0.:.0.:.B.B.I.,X,XT.T.!.;X>XXXB.e.a W ' &.&.>.N.F.C.P.I.P.I.I.!.T.h.F.-X!.^.U.!.^.Z.f.P.-XI.F.J.XX] S 1X>X1XqXqXqX>X0X1XqX0XqX>XOXqXyX>X;X,XT.@X-XY.;XT.;X>X.XL.}.}.l ;.@X@X0X$XrXtXqX0XtX1XXXOXXXY.L.J.9.F.D.J.0.e.0.6.0.>.-./ %.-.=.{ ;.t q Y N Y U U d f f f E E v b E B ..*.E a a y t f y y 0 7 : : > > t D b.W.A. ...8...v B t D  X3XkX3X .I E E b b b v v c 8 : , v 8.#Xb.t > > > > b ,.E t 5 t E ) ) E E D v ) v t v 8.]. Xu.) ..#XtX#X5XtXlXuX8XiX4XA.E.8X(.,.r.,.R.v.*.,.,.<.oXoXG.D.G.G.L.J.J.F.L.L.L.G.G.L.G.G.L.L.Y.Q.Q.Q..X.X.X.XXX.XXXQ.Y.J.J.G.L.G.L.Y.L.L.L.L.Y.Y.Y.Y.Y.Y.Y.L.L.R.Q.Q..X.X.X.XQ.Q.Q.Q.Q.Q.Y.Y.",
"Q.Q.Q.Y.Y.Y.Y.Q..X.X.X.XQ.Y.L.L.L.L.Y.L.L.Y..X.X.XOXXX.XOXOX.X.XQ.L.L.G.L.L.OX+X#X5X XK.#X X XwX*X=.Z {.#X#X{.+X5X[.].'.n.) t , , t E c - 2 B a V E E P v v t , : : 7 , 7 P P P ( w + d ( ) ) 3.w ( sXmXmXfXfXkXkXeXeXfXH.6.e.l.J.H.+XtXgXlXlXeXhXlXhXhXlXzXzXrXyXuXqXuXyX>XuXuXCXhXqX>XY.XXXXL.e.J.ZXNXJX5X` g l ^ -.h.z.J.|.@X}..X|.=.~ = = w g Y V g Y ^ ^ W W ] / / i < -.;.%.;.6.9.>.>.>.-.7.{ Q &.>.0.>.<.&.j.j.Z.;X-XT.!.-X;XXXXXF.0.3 S h.F.B.P.-X;X;X;X!.!.!.I.XXP.>.I.XXT.-XP.U.U.Z.g.Z.T.I.Y.9.^ p Q rXqXqXrXrXrX0XqXrXqX1XqX>X>XuXqX>XXX>X|.@X@XY.-XXXOXOX|.Y.}.Y.l 6.@X@X0X0XtXhXrX0XtX>X>X>XOXJ.}.J.>.h.h.D.9.e.0.;.9.6.-.{ -.=.` ` =.q q E V ( U Y E _ ) v t t t t v t 2 t t t i t t f w d y , : 2 8.| 2 D 3X3X3Xb.,.8.v.E t b  XiX3X3X Xb. ...x.8.E 8 8 E 8.3.v t : : b  . .x.b. .c > v c t c t v ) E c v E 8.v.E d t ..n. X].n.E  XkXeXtXcXzXqX8XpX8XV.c.W.4XV.r.,.iXwX| v.b.v.v.$XR.D.G.D.J.J.F.L.J.F.G.G.G.L.L.L.L.Y.Q.Q.Q..X.X.XXXXXXX.XXXY.Y.L.J.G.J.L.Y.Y.Y.L.L.L.Y.Y.Y.Y.Y.Y.Y.Y.Y.Q.Q.Q.Q.Q.Q.Q.Q.Q.Q.Q.Q.Q.Q.Q.",
"Y.Q.Q.Y.Y.Y.Y.Q.Y..X.X.XQ.Y.Y.L.L.L.Q.Y.Y.Q..X.XOXXXXXOXOXOXOXOX.XQ.Y.G.Y.Y.OX@X+X{.L. X{.oXK. X8.v {.OX}..X=X*X5XfX Xn.n.v : 2 2 2 *.! - O B c u u 2 2 : : 0 0 : : , , 0 ) _ ) I 7 7 ) y.y._ ) w u.nXmXnXfXfXfXfXgXeXeX+X}.}.J.H.D.H.#XeXeXeXtXlXlXhXlXlXhXlXhXhXuX>XrX2XrXhXzXuX>X@X>X}.XX@X}.^ e.HXbXNXfXw.Y Z -.&.z.z.F.L.L.Y.XXJ.7.4.< = w f U z g C T W T S / / / q = 5.6.;.6.>.>.;.>.>.-.6./ Q &.-.0.<.0.:.j.B.B.^.!.U.!.-X;X;X;XF.>.3 ' >XqX;X-X,X7X,X:X;X;XT.U.>Xh.&.I.!.U.:XI.T.T.P.Z.j.B.F.Y.] p 1 { uXrXrXrXuXhXqXqXtXqX1XqX1X>XuXqX;X|.>XT.|.@XL.;XXXT.Y..X}.Y.Y.l 9.@X@X1X0XtXuXrX0XqXOX1XOX@XJ.}.D.;.t.9.e.9.t.9.;.e.9.%.^ ` =.` ` =.< q Y V U U V ~ ) V v t 2 c D | D c c v v ..i.r.n.4.f , , # t #Xn.b c v.3XE.K.D 8.K.| t n.5X5XE.n.b.n.b.b.b.n.8.E : t ..n.8.3.c : b b. X3XE.n.n.v 0 E 8.b.n...v , d E _ ..E v v v ..8.v.8...i 8.tX0X6XuXlXqXuXpXW.$.<.V.v.4XOXK.SXHXR.v.v.v.R.wX.XC.G.J.J.L.F.F.L.L.G.G.G.L.L.L.L.Q..X.X.X.X.XQ..XXX.XXXXXL.Q.L.L.L.J.Y.Y.L.L.L.L.L.Y.Y.Y.Y.Y.Y.Q.Q.Q.Q.Q.Q.L.Q.Q.Q.Q.Q.Q.Q.Q.Q.Y.Q.",
"Y.Y.Y.Y.Y.Y.Y.Y.Y.Q..XQ.Q.Q.Q.Q.Y.Y.Q..X.X.X.X.XOXXXOX.XOXOXXXXXXXOX.XY.Y.Y..X.XL.L.L.L.{.{.+X$Xw.n.#X+XOX.X+X X5X5X#X Xr.c t - : : u c 4 - B u - b F H H | v 2 2 : : , P 2.) ( I 7 , d v d 7 # f %XnXmXkXfXfXgXgXeX+XeX1X=X=X+XH.H.H.+XeXeX=XeXgXlXlXxXzXtXrXtXrXhXuXuXuXzXVXuXY.}.|.XX}.$X1X@X{ -.xXxXxXeXp.` T 6.-.L.L.L.F.h.F.}.p.H.w.< 9 i f V N g Y Y Y C R / { { 1 = 6.w.6.9.;.;.&.>.>.-.>.^ ^ >.>.e.g.g.:.B.B.P.^.!.T.!.-X>X>XXXh.&.1 Q >XrX>X!.;X:X:X;X!.-XU.T.>X:.] P.!.T.,XT.-XT.U.P.g.j.g.Y.%.^ l ^ uXrXqXrXuXhXrXrXrX0X>XqXqX,XuXqX@XT.>XT.XX-XY.@XT.I.Y.@X}.Y.L.N e.$X@X$X0XtXhXtXeX>XOX0X@X.XJ.J.t.9.D.9.9.9.J.t.;.e.9.%.~ ~ %.%.` =.< 9 Y V U V v a E ..,.v. .t  .v.8.,.8.r. .! 8.n. Xv.U d t , v  XK.E c !  XE. .2 D v...b  X3Xn...v.E.E.b.n. X].'.u.c # 8 v b t t  . X3X X Xn.E.4X .t E n. X X5Xu., t v U v v f c ..u.i.n.n.) t w.5XK.L.0XpXpXVXpX9X<.M.W.V.wXvXvXbXSXpX,. .#.E.iX$XoXoXR.D.D.L.J.J.G.D.G.L.L.G.L.L..X.X.X.X.X.X.X.XXXXXOX.XL.L.Y.L.L.L.Q.Y.L.G.L.Y.Y.Y.Y.Y.Y.Y.Q..X.XQ.Q.Q.Q.Q..XQ..X.XQ.Q.Q.Q.Q.Q.Q.",
"Y.Y.Y.Y.Y.Y.Y.Y.Y.Q.Q.Q.Q.Q..X.X.X.X.X.X.XOXOX.X.X.X.X.X.XOXXXXXXXXXXXXX.X.X}.Y.Q.L.Q.L.L.L..X9. X+Xw.0X.XL.$X5Xn...) | v t c 5 O 4 H c.#.n 4 4 m S.(.(.8X(.V.D : 0 d v ) ) ( ( ( 7 + + 7 s P d P &XmXnXkXfX5X5X5X+X X=X*X=XeX+X{.{.{.*XeXgXeX5XgXkXgXhXlXtXqX0XrXuXuX1XrXuXhX@XY.@X}.L.|.1X1X1X@Xt.lXZXNXgXH.5.T -.-.Y..X|.Y.h.F.Y.e.+X4.= < w d g g p C Y T C Q ^ { { < < w.e.5.e.>.>.-.7.>.-.>.^ ] 0.>.h.h.h.:.j.B.Z.!.!.T.!.;X>X>XY.h.>.1 C .X,X-XT.^.:X;X^.^.;XU.!.!.' %.Y.!.!.:X^.;X^.T.U.f.j.g.F.} >.Y W hXtXtXtXuXtXrXtXrX0X>XrXqX2XuX2XXXT.,XT.@X>XY.@XI.T.@XOXY.Y.Y.C e.$X@X@X0XhXlXuXqX$X0X0X@X.X}.F.9.6.t.;.>.6.D.9.6.6.9.;./ / %.` ~ ` < < ~ V U v f ..K.R.E.b.| x  .x.v.v.b.E.n.,.D E b.8...v v c v  Xn.E | v E E 2 t : t t t v E v ..n. XE.n. X3X X Xn.v : : 8 0 : E n. Xn.n.3X3X3Xn.,. .E v.#Xn.&X&XE : t f f t t v ..n.[.n.n...=.#X+XH.Q.0XzXvXzXpXpXC.v.(.wXpXSXKXcXSXlXv.H D v.4X4X4XoX.X.XG.L.L.L.L.J.L.L.D.J.L.Y..X.X.XY.Y..X.X.XXXXXOXY.L.L.L.L.Y.Y.Q.Y.L.L.Y.Y.Y.Y.G.L.Y.Y.Y.Y.Y.Y.Y.Y.Y..X.XQ.Q.Q.Q.Q.Y.Q.Q.Q.Q.",
"Y.Y.Y.Y.Y.Y.Y.Y.Y.Y.Y.Y.Y.Y.Y.Q..X.X.X.XOXOX.X.XY..X.XOXOXXXXXXX@XXX@XOXOXOXXXXXXXQ..XY.L..X.XJ.@X*X+X$X0XtXwX..v v t t t c t 5 c A.8X).9XS.m - o.9X).).).S.8XC.u t v E ) I ( ) I , + d ) 3.2.f ( &XmXsXkXfX+Xp.[.{.{.*X+X5XfX=X+X+X=X=X=XeXeXeXgXxXgXtXhXtXtXtXrX1XuXXX@XhX>Xz.@X@X@X@X1XeX0XrXlX@XtXNXDXgXH.w.W %.&.F.@X@X@Xh.F.}.e.@X{ = & w i f f p V C T T R Q %.{ = 1 t.e.5.e.>.>.;.0.6.;.>.^ ] 0.>.h.F.h.&.h.j.P.^.!.T.!.I.XX7XI.e.&.1 C I.;X-XU.T.^.^.^.:X;X!.!.P.' :.T.!.!.-X;X,X-X-XU.g.j.e.h.} 6.Z / hXuXhXhXhXuXrXuXtXrXqXuXrX>XqX>XXXT.2XXX;X>XP.XXT.T..X.XY.Y.Y.C 9.1X@XL.OXtXlXrX0X>XqX0XXX}.XXJ.0.0.h.&.>.e.J.6.6.%.%.%.` / =.` ~ ~ < < Y N Y f ! K.b.b.E. .c D v.x.,.x.b.v.,.v.8.b E .. .v t : v  Xn.b E c 8 - : 2 : # X : # # b 8. X3X Xn.8.b.&X&X].v : : : : c v.n.n.n. X3X Xb.b.n.n. .E n. Xn.5X Xv : ; , t t E ) ..4.u.8...5X=XK.+X4XtXlXpXzXvXpXW.M.4XpXvXcXbXNXJXiXE.H M  .3X| ! R.OXL.G.J..XOXOXXXL.D.G.J.Y..X.X.X.X.XY..X.X.X.XXXXXF.Y.L.G.L.Y.Q.Q.Y.Y.Y.Y.Y.Y.L.G.G.L.L.Y.Y.Y.Y.Y.Y.Y.Q.Q.Q.Q.Q.Q.Y.Y.Q.Q.Y.Y.",
"Y.Y.Y.Y.Y.Y.Y.Y.Y.Y.Y.Y.Y.L.Y.Y.Y..XXXXXOXOXQ.L.L..XOXXXXXXXXXOXOXOX@XOXXXOXOXOXOXoXQ..X.X.X-.$X=XgXeXw.tXeXK.B E | b t b b 5 b A.(./.(.).).J - M A.).).).).iX,.c d v E ..) I ( d % d 3.y.1._ f ..&XfXsX5X&XH.i.H.+X+X*X=XfXfXfXeXfXkXfXfXgXfXeXkXlXtXtXgXrXrXhXgXeXcXe.{ 1X}.1X@X.X1XrX1XrXlXhXtXrXeXxXNXxXJ.t./ &.&.F.;XXX@Xh.F.Y.t.@X{ 9 & q i f g p Y C T T S ^ -.{ $ 1 p.w.5.0.-.-.;.t.9.-.;.Q / >.-.h.F.h.:.g.j.P.-X^.T.!.h.F.XXN.>.] * C -X,X-XU.T.^.^.^.^.!.^.!.P.] >.T.;X;X;X,XqX,X-XI.P.B.0.0.7.h.T ^ jXtXhXlXcXlXtXtXtXrXqXhXuX1XqX>XXXT.qX;X-X;Xz.T.OXY.Y.}.Y.Y.Y.C e.0X.Xe.D.rXlXrX0X1XrX>XY.Y.XXL.0.l.J.&.>.t.Y.9.^ C T ` ` / %.~ ~ ~ < q T Y ~ V K.v.r.E.,.,.x. .b.b.b.E.E.b.E.v.b. .c b v b 0 : v 5Xv., , , : - 0 0 c : : , t 8 8 ) n.3Xn. XE t I 8.n.E : - # : I ]. X3X X Xn.|  .n.E.n.b.: E 3X X].5X8., ; O 0 E n.+Xn.) U v E 5XK.n.+X0XlX0XtXuXpXzX8XW.pXSXvXlXvXHXSXwXoXD D | wX,.! *.t.OX.XOX$XQ.L.$XoXC.D.J.Y..X.X.X.X.X.XY.XX.X.X.X.XJ.Y.L.D.L.Y.Q.Y.Y.Y.Y.Y.Y.L.G.G.G.L.L.L.Y.Y.Y.Y.Y.Q..XQ.Q.Q.Q.Q.Q.Q.Q.Q.Y.Y.",
"Y.Y.Y.Y.Y.L.Y.Y.Y.Q..X.XY.Y.Y.Y..X.X.X.X.XL.L.L.}..X.XOXOX.XXXXXOX.X$X.X.X$X6XR.oX4XoX X{.+X5.=XxXxXxXp.n.kX#Xv E E c b b b > #.8XS.).).).S.M M S.S.S.).).).c.x b v ) ) .._ I v + 8 _ y._ 3.2.P 2.sXmXmXsX[.n.i.[.[.{.&X5XfXsXfXfXxXkXfXkXxXfXeXgXfXeXxXlX=XeXrXgXrXH.{ Y l.@X1XL.+X2XrXtXrXrXrXxXlXrXbXNXjXH.6.} &.0.F.I.|.Y.f.F.F.z.@X~ w & w i i z z V C T T ^ ^ >.=.= < p.w.9.h.>.&.;.;.%.%.%./ %.0.>.0.g.j.:.f.B.F.I.I.;X-Xh.<.Q.e.&.' * C I.7X-X~.U.^.U.:X^.^.!.^.U.<.:.P.!.,X;XyXyX-XU.I.F.B.g.F.7.e.C ^ jXjXhXlXcXhXtXtXhXqX@XyXrXyXqXOXOXOXuXOX|.OXF.XXY.Y.z.h.XXD.}.Z 7.0X@X=.%.1XcXeX1X1X1X>XJ.;.] h.t.D.t./ 7.D.J.-.l ~ { e Y ^ { ~ ^ ^ = q Y V V Y 4...B u ,.(.v.x.v.E.b.x.,.,.E.v. .b D D t 8 b 8 c  X.., , , # : d v 7 # f ..) 8 8 v ..n.&Xn.v : : y v f : # : , t v v ) E b t > .. Xn.b.b.2 X .. X Xn.&X8.: d 8.5X*X5X Xn.f t ..+Xn.D.{.5XtXlXlXqXpXzXbXzXlXHXbXxXxXSXHX0XiX,.D | gXwX%.W *.R.Q.4X4X8XW.<.oX4XR.Q..XQ..X.XXXOX.XXX.XXX.X.XOXD.Y.L.D.Y.L.L.Y.Y.Y.L.L.L.Y.Y.Y.L.G.L.Y.Y.Y.Y.Q..X.X.X.XQ.Q.Q.Q.Q.Q.Y.Y.Q.Q.",
"Y.Y.Y.Y.Y.Y.Y.Y.Y.Q..X.XY.Y.Y.Y..XY.Y.Y.L.L.}..X.XXXXX.X.XOXXX$XOX8X4XwX4XK.,.,.v.b.K.oX#X` +XeXMXMXMXfX=.eXMX X Xn.| x c x x H S.S.S.).S.S.$.m.).).).).).).$.4 c v ) 2.....P s 7 P 2.2.) 3.2.d 2.*XmXfXkX&X[.n.[.%X%X&X5XfXfXfXfXkXfXfXkX5XfXfXeXeXgXtXgX1XJ.}.*Xp.=.H.+X=X@X{.J.@XrXrXrXrXtXtXcXjX0XxXNXjXL.t./ &.>.F.Y..XY.h.z.z.J.@XW e & w w w i g V V ~ C ^ } 6.%.= < w.w.e.t.9.%.;.t.;.%.] W &.e.:.0.h.g.&.<.>.g.T.!.!.F.F.N.B.>.&.] * j P.:X-XZ.U.U.U.^.:X^.!.^.U.g.s.U.;X;XqX7XyX,X-X^.P.j.h.Y.0.z.^ ` jXjXjXxXxXhXtXuXrXrX2X>X>X,XyX>X>XOXuXOX|.@XF.XX@XJ.-.%.}.}..XZ e.>Xl.C ^ { J.tX1X0XqX>X9.S S 0.t.D.t.] ;.l.D.%.C C e . i ^ ` ` ^ ` = < C V N i w 2 : : ,.E.c.b.A.E.E.v.D 5 B D | E D  .v 8 t 8 v  XE : : O , d v 0 , v ) v 0 8 v 0 t 8. X.., : t t 7 , , # # # , 8 8 t t 8 t t ,.b.v.n. .X O : ..n.&X X&Xn.].&Xu.2.4.u. Xn.w.H. XH.K.#X0XtXhXuXqX6XqXuXlXbXbXcXlXbXHXvX4XSXoX,.E  XJX#Xn.#XK.R.4Xq.8XR.<.E.v.4X.X.X.X.XOXOXXXXXXXOX@XXXOX.Xl.L.L.J.Q.Y.Y.Y.Y.Y.L.L.L.Y.Y.Y.G.G.L.Y.Y.Y.Q..X.X.X.X.XQ.Q.Q..X.XQ.Q.Q.Q.Q.",
"Y.Y.Y.Y.Y.Y.Y.Y.Y.Y.Y.Y.Y.Y.Y.Y.Y.Y.Y.Y..X.X.X.XOX.XOX.XXXXXOX4XE.E.E.E.#.| ,.#. .| ,. Xn.U kXMXNXMXNXNX4. XUXKXJX4X .c H M x n $.A.).).).).).S.S.S.).).).9X/.x E I E ) ) ( d 7 s ) _ 2.3.2.I s y.sXnXsXkXfX+X[.[.&X5XsXfXfXfXfXsXsXfXMX&Xu.fXkXgXeXxXlX1XH.w.p.5.` w.*XeX=X@X+X.X=X0X1XeXtXjXhXxXrX+XeXxXgXJ.p.] &.>.F.Y..XL.z.F.h.J..X~ g & 9 w y w 9 w p Y R Q &.7.{ 1 < w.w.e.>.>.%.9.L.-.%.^ S &.e.&.>.h.0.Q :.<.g.B.h.B.:.g.!.h.>.;.&.* j P.-X-XP.U.U.Z.U.^.^.^.;X^.j.f.U.^.:X7X;X,X-X-XT.B.I.j.F.e.J.^ =.jXjXlXcXxXhXtXhXqX2Xh.f.>XrXqX>X>X-XrXOXY.OXF.|.>X7.l p 0.}.}.N e.$Xe.p 1 = 6.tXqX0XqX.X] C / D.0.l.0.} ;.l.t.{ W p $ o q ^ ` W ^ ~ < < Y N z f f i t 5 v.E.E./.A.x.E.3X| 2 c !  .b |  .| b : 8 b n.v X : , t d 8 X t E v 8 0 t c t 0 v E 0 : 8 , 8 ; , 8 : d t : 8 , : : 0 t 5 | n. Xn.d O : X X y E 8.n.n...v 2.i. X X Xn.K.H.p.n.J.$XrXhXlXuX0XOXOXOXtXbXbXcXcXHXKXlX0XJXJXiX5XxXJXSX#XL.K.R.Q.F #.,.R.8Xv.v.$XOX.X.XOXXX.X.XXXXXOXXXXX}.t.L.L.J.Y.Y.Y.Y.L.L.L.L.L.Y.Y.L.G.G.L.Y.Y.Q..X.X.X.XQ.Q.Q.Q.Q.Q.Q.Q.Q.Q.Q.Q.",
"Y.Y.Y.Y.Y.Y.Y.Y.Y.Y.Y.Y.Y.Y.Y.Y.L.Y.Q..XOX.X.X.X.XXXY.OXOX.X$XV.b.v.A./.| c ,.| | b b ,.E i.NXDXNXxXMXNX%Xw.xXJX5X| | #.,.,.J n n $.).).).).).S.S.S.S.).).).8X#.v v ) ....) s % f 2._ ) 3.2.P s i.nXnXnXkXfX*X&X*XsXfXfXfXfXnXfXfXmXfX*X4.` fXfXfXeX=XeX+X[.+X*X{ ` +X+X{.*X#X{.J.{.}.1XtXlXhXhXxXgX=XrXNXjXJ.e.-.&.>.F.|.|.L.F.F.e.Y.L.Y V & 9 f w 9 q ~ 5.^ T ^ &.9.%.q = 6.w.;.%.;.^ 6.L.{ / ^ R &.e.&.>.h.h.Q >.h.<.:.e.!.*.' I.h.0.>.] * N P.!.!.I.T.^.P.P.P.U.-X:X^.j.g.^.^.9X7X;X,X-XU.P.I.;XF.h.h.J.^ -.jXjXxXcXlXtXtXuXrXF.] &.0.Y.qX>X>X>XyXOXY.@XF.Y.@X^ < = / L.}.N 9.$XL.{ Z ^ XX0X1X0XqX.X6.;.t..X9.h.6.&.6.t.6.^ ~ C i t Y =.^ T ^ ~ = e ^ N N V U Y Z v r.E.E.A.A.,.E.E.D 2 c ! ! b c E b 8 : : 8 ) b : : 0 8 t : 8 d t : , t t 8 8 8 : : # : : # , : : : , c : # # X # : : : : d n.n.I : , # : # # X d E c d ..i.n. XK.K. X XK.p.D.J.$XtXhXlXlXtX>XOX$XqXuXlXcXZXHXHX0X5XSXKXJXKXKXJXSX0X{..XR.OXO.O.v.wX4X,.*.Q.OXOX0X$X>XOX.XOXXXXXOXXXY.h.L.L.J.Y.Y.L.L.G.L.L.G.G.L.L.G.G.G.Y.Y..XQ..X.X.XQ.Q.Y.Y.Y.Q.Q.Q.Q.Y.Y.Y.Y.",
"Y.Y.Y.Y.Y.Y.Q.Q.Y.Y.L.L.L.L.L.L.Y.Q..XOX.X.XOXXXXXY..XQ.L.$X9.*.b.b.b.c.#.x  .,.M b b c t 5XNXNXMXxXMXPXxX=.5XDX<.F c.c.#.$.o.J x m.).).).S.).S.c.S.S.).).).8XE.t c ) ....) s 7 P 2._ ( ) ) P f i.sXmXnXfX&X*XeXfXfXfXfXfXfXnXnXnXfX%X[._ _ [.[.[.*X+X{.+XfX*X+X` ` +X{.{.+X{.l.+X{.H.=X=XrXrXcXgXgXrXgXxXeXH.w.-.-.>.F.Y.I.F.L.h.0..Xl.Z V $ 0 U d 9 9 Y w.-./ / &.7.-.e = 5.6./ -.&.a T 6.~ ` ^ ^ ;.0.&.>.h.h.F &.e.:.&.&.N.S u g.g.0.<.] 1 m g.T.-XT.T.P.:.>.B.P.T.^.-XP.g.^.^.:X7X!.,XI.&.>.U.-XY.Y.F.Y./ 6.xXlXlXlXuXrXrXrXqX7.N A A 0.>X>X>X>XyX-XY.OXL.Y.XXC < e / J.}.C 9.1X1X@X.X$XrX0X>XtX0XXXL.}..X}.>.h.;.;.0.e.{ T ` Y Y T / 5.-.Y ^ ~ = e ~ Y V z _ ` ~ i B n.K.E. .5 c u 5 5 e 5 c : : 0 # : : v ,. Xn.E c c 8 : # , # : : 8 d d d d 0 : # , : : y ) ..I t O : - : c d : : : 0 t : v 8 X , , # # # # # 0 d t ..8.4.u.i.u.i.n.K.H.H.D.{.rXlXtXrXhXeXOX.X0XtXqXuXvXvXCXbXR.0XNXJXHXJXJXKXbXwX#XR.R.OXO.*.4X8XoX4Xv.oXOXOX0XL.$X$XXX.XOXOX.XXXY.D.L.L.G.L.L.G.L.G.L.L.G.J.J.G.G.G.G.Y.Y.Q.Q.Q.Q.Q.Q.Q.Q.Q.Q.Q.Q.Y.Y.Y.L.L.L.",
"Y.Y.Y.Y.Q.Q..XQ.L.L.L.G.G.G.L.L.Y.Q..X.X.X.XOXXXQ.Q.L.L.oX9.! | x.b.c.x.x.D x H b D b 5 D kXDXMXMXMXmXMXUXw.K.KX,.| V.o.J o.H m M m.).).).S.)./.H n K A.).iX8XE.| E ......( 7 w 2.2.2.( ( ) P d '.sXnXnX*X[.&XfXfXfXfXfXnXnXnXnXkX%Xu.4._ n.5X[.[.[.[.+X=XgXfX=X_ ~ p.+X{.p.w.5.{.J.H.}.l.H.J.=XxXgX=X=XxXgX{.9.{ &.>.h.z.h.z.z.e.0.Y.-.g Y $ 0 f w & @ o p ^ ` / ;.>.6.q = =.-.6.e.%.1 < p i ^ { / >.0.&.&.0.h.B ] e.0.Q 1 3 * 3 &.h.h.g.:.3 B B.T.-XP.P.' &.P.<.P.T.!.:XU.g.U.!.7XyXT.;X:.j A ] T.;XOXY.XX^ >.cXlXlXhXrXqXtXrX>X>.j j } F.>X@X>X>XyX-X}.@XY.}.@XC p W 9.L..XZ 9.>X0X0X0X1X1XqX1XtX>X}.}.@XXXY.>.t.-.;.e.e.^ Z W W Y T ` e.;.W ^ ` 1 i ~ Y Y V _ _ ~ Y a %.n.8.c O O - t u e 5 - : , : - # v  X3X3Xn.8.v , : 8 : : X # : 0 v v U ) v , X # # y 8.n.n.n.4.8 X d ,.8.8...) v 8 8 8 : X , , # # X # # ; f v d _ ) ..4.....4.4.w.H.r.H.0XhXtXqX0XtXrXtXqXtXiX6XiXpXvXGXbXL.lXJXJXKXHXJXJXcXtXOXOX4XD.,.OX4X<.,.v.4X4X$XoX0XG.OXOXXX.X.XXX.XXXL.D.J.L.L.G.L.G.G.F.L.L.G.J.J.G.G.L.Y.Y.Y.Y.Y.Y.Q.Q.Q.Q..X.X.X.XQ.Q.Q.L.L.L.L.",
"Y.Y.Y.Q..X.X.XY.Y.Y.Y.Y.Y.Y.Y.Y.Y.Q..X.X.XOX.X.XL.J.Y.Q.$X,.E | x.c.#.x.x.H 5 b M b x 5 r.SXMXkXMXMXmXMXUX*X8.tXO.#.$.J #.$.H M H J S.(.S.)./.A.x - 4 x #.X.M B t c v E 2.2.7 d u.u.4.( P ) ) d 2.*XfXfX*X&X&X*XfXfXfXfXfXnXnXfXfX%Xu.n.*XkXfXkX*X*X+X*X*X+X*X+X5.p.+XeX{.5.w.H.{.+X{.J.p.D.{.=XeX+Xp.{.xXNX+X;.{ &.>.e.0.f.h.f.>.9.J.Y i Y & < g y 9 i g T { W ^ >.;.-.e = { { -.>.^ 1 = = g 5.>.} >.0.&.&.0.f.C ] h.e.S . O 1 u ] j.F.e.>.3 C h.h.j.j.g.e 3 ' } U.!.^.7XU.k.U.U.,XqXT.-XA 1 3 S ;X2X>XOX>X^ 6.zXlXzXuX0XqXtXrX1Xe.&.>.z.>XrX@X>X>XuX-X|.>XXXXX@X/ / 9.J.@X@XN 9.$X>X1XqXrX0X0X>XqX@XXX}.}.L.J.9.e.-.;.0.0.] C T T T ^ ^ 9.6.T ^ ^ 1 i ^ Y Y Y ` _ ~ _ f y U t 2 2 $ $ t u u e 0 0 0 : 8 , ) E.n.b.8. .c > c t t v 8   + : : : 8 t 8 , # , , ) u.8.8.v.n.8 > )  ...,.,.8.u.E - : X : : X : : X : : , v 0 f U v ~ _ ~ ) ` ..4.p.r.J.rXrX$X0X0XtXeXhXzXlXyX9X8X9XpXpXuXR.GXKXHXHXJXKXKXxXeX$XOXOX4X4XOXoXW.r.*.0XoXoX$XtX0XwX$XOX.X.XOX.XY.D.D.F.L.Y.J.L.J.G.J.L.L.G.J.G.G.G.Y.Y.Y.Y.Y.L.Y.Q.Q.Q..X.X.X.X.XQ.Q.Q.Q.Y.Y.L.",
"Y.Y.Y.Q..X.XQ.Y.Y.Y.Y.Y.Y.Y.Q.Q..X.XQ..X.XOX.XY.Y.L.Q.OX.X.X,.! ,.c.| H  .| M c D b b 5 K.SXMXMXMXxXMXMXMXkX..n.| ,.o.#.+.F M | J x M $.S.).c.M 4 4 4 - m - X - : c t 8 v _ 0 f u.i.u.2.( ( ) f d %XfXsXkXfXfX5XfXkXkXfXnXnXnXfXkXfXfXfXmXkXfXfXkXfX*X5.4.w.i.p.5XfXfXxX=X[.+X=X*XeXeX*X+X=XeX1Xw.n.{.eXjXgX{.e.%.-.-.>.>.h.z.e.] 9.L.C i ~ & , i w 0 f T ` W ^ R >.6.{ a = { ` { -.^ l e q T p.9.] ;.9.] ] >.7.l ] >.>.W S Q Q F &.F.I.e.e.3 j &.] ' :.j.j O * ' -X!.T.,X^.Z.U.!.-XyX;X,X:.3 j h.qXqXqX>X1X{ 9.jXlXzXrX>X>XrXrX>X}.Y.@X.X>X>X>X>X>XrX>XXX1X@X@X@X9.e.l.}.$X$Xl 5.eX$X1XrXlX0X0X>X>XXX@XY.J.J.J.t.t.;.;.6.0.} C T / ] ] / >.-.T W R = q ` T T Y _ _ .._ ( y , , t a $ q N e u p y d d 0 X : v 8.b.v.8...v E  .b 0 v v 7 # : : : , , , , # % + f 3.3.8.,.8.t b 8.| E |  ...r...t # : : # t ..) v : : : 0 , f f U E ) E ~ ..;.w.p.9.9.{.OXOX0X0XtXlXtXlXzXiXW.<.c.W.8X8XW.GXGXKXKXHXKXbXcX0X.XOXOX.XoXQ.oXOXG.K.$XoXoXOXtXuXrX$XOXOXXXOXY.J.h.D.J.L.Y.J.G.J.J.J.L.L.G.F.F.G.G.L.Y.Y.Y.L.L.L.Y.Y.Y.Q..X.X.X.XQ.Q.Q.Q.Q.Q.Q.",
"Q.Y.Y.Q.XX.XQ.Y.L.L.Y.Y.Y.Y.Y.Y..X.X.X.X.X.X.X.XY..XXXOXQ.oXr.*.v.v.A.v.#.#.| b b D D D wXDXMXMXmXxXMXMXMXUXn.u ! ,.v.+.c u ! O.| $.M 4 n M 4 5 m D D u B 5   2 t t t 0 , v v P n.i.i.u.2.2._ P 7 y.fXfXxX*XfXeXfXkXfXfXfXfXsXfXfXfXsXfXfX*X*XfXfX5X*Xi.n.[.[.[.*X*XfXkXfXfXfXeXeXeXeXeX1XxX=X+X{.5XgXxXgXxX$Xw.{ -.>.7.0.h.F.7.%.9.L.{ g Y < & g i < g Y W ^ { Q >.;.{ p = ^ ` =.R j C / C 5.p.9.] -.7.{ ^ >.e.N } 0.&.] 0.D.h.:.f.j.F.h.0.3 j 0.h.h.F.z.-.p A P.qX:X!.:X-X^.^.U.:XqX:XqX-Xz.T.uXuXuXyXqXrX-.9.jXlXtX1X@X>XyXrXrX>XJ.1XXX>XOXOX>X1XrX1X@X1X>X}.0Xl.t.L.}.$X#Xa 5.eX1X>X0XqX>XqX1XqXY.F.J.}..Xl.e.t.7.-.7.0.] R W } ^ ] ^ ;.%.T ^ T < e ^ Y C V ~ ~ ` .._ U f d v i < V N a p g d U v y # + , E ,.,. . . .8.x. .d y t , , # # : : 8 0 y , # # , c I .. .b x ,.b.8. .b b  .,.E t - - O : ..3.....v v t 8 , v U U v U ~ _ ` ;.8.r.w.=.w.+X=X1XrXtXlXtXwXpXW.X.H M M F o.W.SXGXSXSXHXKXHXuX$XOXOXOX.X.XQ.Q.oXoX$XoXoXoXOX0XrX$X$XOXXXOXOXL.h.D.L.J.L.L.G.G.G.J.G.L.L.L.L.L.L.Y.Y.Q.Q.Q.Y.Y.L.L.L.Q.Q.Q.Y.Q.Q.Q.Q.Y.Q.Q.Q.Q.",
"Q.Y.Y.Q..XQ.Y.Y.Y.Y.Y.Y.Q.Q..X.X.X.X.X.XOX.X.X.XXXY..XOXOX#Xv.v.W.iX6X0XK.*.K.,.E E D ..kXMXMXkXMXkXMXDXkX X5.2 B ! m 4 O O t ! ,.v.#.F 4 4 | E E | ..V v 0 + 8 t t t t t y v _ '.u.i.i.'.n.2.) 7 U 5XfXfX5XfXfXkXkXkXkXkXfXfXfX*XxXmXfX&X&X&X&X*X5X*X[.[.[.[.[.[.&XfXfXfXkXfXfXgXgXeXeXfXeX+X=XxXNXxXeXeXxX*Xl.` &.6.7.0.h.z.e.>.D.@X9.V Y < , i f < i g Y / ^ / >.;.=.p = ^ ` Y C ^ a R T ` p.6.} >.6.} ^ &.0.S ] 0.&.' e.J.F.>.f.F.h.h.0.3 C Y.T.P.h.F.z.-.h.XXqX-X-X,X;X-X:X!.<X7X,XuX,X>XqXyXuXzXuXrXrX-.6.bXtXtX2XXX>XuXyXrX1XY.qX>X>XXXY.>X1XyX1XOX0X1XXX0XJ.J..X.X=X@Xg 5.eX$X$X1XqX>XqX1X>XY.}..X@X.XF.>.t.e.>.>.>.] ^ ] { ^ %.] 6.-.T ^ T < p { Y Y Y ~ ` _ ( ( P f P f y 2 E N N N C f f P v % + : 2 c ..8.,.,.8.,...t , 7 0 7 7 , # , : , 0 7 # # : - - v E b b 8.b.8.,.| t 0 c t O - E | t E v.8. .| ..) ..E f _ ..) ) ~ ~ =.5.5.8.p.t.t.D.OX0XrXhXlXuXlXwX<.,.c.c.c.H M (.AXV.A.W.tXGXHXuXOXOXOXOX.X.X.XQ.Q..XoXoXoXOXOX$XwX.XeXOX.XXXQ.D.t.D.L.J.L.L.G.G.J.J.L.L.Q.Y.Y.Y.Q.Q.Q.Q.Y.L.L.L.L.L.L.Y.Y.L.Y.Q.Q.Q.Q.Y.Q.Q.Q.Q.",
"Y.Y.Y.Q.Q.Q.Y.Y.Y.Y.L.L.L.Y.Q..X.X.X.XOXOXOXOX.XXX.XOX0X4X0XoX5XwX0X0XeX0XeXwX5X5X5Xr.n.xXxXmXMXkXMXkX5X..v D : X - O : O $ # # c ,.v.v.#.4 5 v E 8.! 0 y # # 7 8 8 : : , y d ) n.n.n.u.u.u.u.2.0 y [.sX5XfXfXfXkXfXkXxXMXfX*Xi._ +XkX&X[.&X%Xn.&X5X*X&X&X[.%X[.i.[.5XfXfXxXfXkXkXkXeXeXfX+X+X@XeXeX=X+X*XxX=X{.%.%.>.>.0.z.z.F.7.J.>Xl.Z Y < < w V w < N ~ / -.} >.;.5.V < ` T p } 6.W l W / D.e.%.-.>.>.&.&.7.Q ] 0.-.] h.F.Y.0.<.j.0.h.e.1 N L.F.F.j.I.F.h.L.;X7X-X!.,X-X-X,XU.:X,X,XuX,XqXuXVXuXuXyXqXuX-.6.jXxXrX@XXX1XuXuXyXqXY.>X>X@XXXY.>X>XrX1X>X0XqXXX1XY.}.@X@X1X#Xa ;.eX$X$X0XqX1X1X@XXXXXOXXXXXY.F.>.e.0.;.;.>./ ^ / Q W &.} 7.>.R Q S = l { T W Y ~ ` _ ( _ ( U U f y 2 ~ V Y W ^ v f P P 7 + + O O c b b ,.8.,.,.0 , d v y f y , 7 7 , # # # , : : t | ,. . .b.b.v.b.v.v : - : : E b.n.v.)  .8.8.8.u.2. X[.) ) ..) _ ) ~ =.4.;.5.w.w.p.J..XOX$XtXtXtXvX6XC.W.X.#.#.c.c./.(.c.c.W.wXHXbXtX$XOXOX.X.X.X.XQ.R..X.X.X.X.XoX0XwXOXtX.X.X.XJ.q.t.G.L.G.L.L.L.G.G.G.Y..X.X.X.X.X.X.XQ.Q.Q.L.L.L.L.L.L.Y.L.L.Y.Y.Q.Q.Q.Y.Q.Q.Y.Y.",
"Y.G.G.Y.Q.Q.Y.Y..X.XQ.Y.Y.Q..X.X.X.XOXOXOXOXOX.X@X>XeX0X$X4X4XwXeX1X0X1X$X1X$X$X0X5X;.#XDXkXkXkXxXMX5X..t c v > - : $ : ; $ # X O t *.<.| c : , v ..U 0 t X 7 0 0 0 t t v , # f ..u.u.4.u.n.n...0 0 i.*XfXfXkXxXkXkXMXxXkXfX*X[.5.*X5X+X&X[.i.n.*XfXfXfXfX*X=X*X[.[.*X*X*XfXfXxXxXeX*XkXgXH.{.*X{.{.H.+X*XxXgX*X` { >.0.e.z.F.J.7.F.XXl.C Y < , w i f $ g { ^ %.%.>.-.=.C q ^ e p Q R ^ p a ` D.6.] ;.>.;.&.&.7.Q } 0.>.&.h.F.F.f.>.j.0.h.h.1 l F.F.P.P.XXF.h.F.-XyX,X-X,X:X:X7XU.-X,X,XyX,XqXyXpXuXuXuXrXhX-.7.@X=XtXrX1XhXcXhXzXrXY.XX@XXXXXY.>X>XrX2X@XqXrXXX0X.XXX$X$X0X@Xi ;.eX$X1XrX0X1XXXXX.XOX$XXX}.J.l.6.e.>.&.;.>.^ Q R W Q -.&.7.7.^ ^ Z O l -.R / W ~ ~ _ _ ) ) ) P v y 9 ^ Y ^ / ` v f U v w # X # # : X -  .b.8.I 8 y f d y d 0 , , , , 7 , # , 0 : E ,.,... .b.8.v.v.8.v : : : : ,.8.8.b.8.E  . .v.n.n. X&Xn...4._ ..4...=...=.=.;.;.D.$XOXL..X0XuXlXlX8X9X9XH M J x.#.c.m.c.c.V.8XGXvXuX$XOXOXOX.X.X.XQ.Q..XOXOXoXOXOXwX$X$XtXOX.XQ.N.q.D.L.L.L.L.L.L.L.L.L.Q..X.X.X.X.X.X.XQ.Y.Q.Q.L.L.L.L.Y.Q.L.Y.Y.Y.Q.Q.Q.Y..XQ.Y.Y.",
"Y.G.L.Y.Q.Q.Q..X.XQ.Y.Y.Y.Q..X.X.XOXOXOXOXOXOXOX0X0X0X>XOX0X4X$X0XeX=X1X1X>X0X$X0XwXv.wXxXMXNXkXfXkX Xb t b b > - , , $ , , : # - O c *.*.D t 8 : 7 7 y f # : 8 E ......y y ) 4.( v v ( 4.i.u...7 d [.*XxXkXxXMXkXxXMXgXfXgXeXfXeXgXfXeXeX+XH.{.5XfXfXfXfXeXfX*X[.[.*X*XsXkXkXfXkXkXfXkX=XH.{.{.+X+X[.+X*XgXeX*X/ %.;.>.7.z.}.F.7.F.XXh.C Y & $ 9 q ~ e < W ^ ^ &.7.%.{ C q R = 1 z S &.l l Y w.9.{ 6.9.>.-.;.9.^ &.7.>.>.h.F.F.f.>.B.h.h.e.e l z.z.F.F.P.P.B.B.!.7X,X^.:X:X-X,XT.^.7X:X,X;X,XyXuXuXuXuXrXuX>.e.1Xz.{.$XrXcXlXlXzXtX}.}.@X.X>X.X>X>XrXqXOXqXqXXX0XXXOX1X1XrX$Xt ;.eX=X1XrX0X$XY.XX.X>X@XXXY.J.e.-.9.>.&.-.-.^ Q ^ ] ] ;.-.7.>.^ ^ S O l -.^ %.^ N f ( _ ( _ ) v U v t ` ~ / / =.U U ) U f 7 + # 8 t : : b 3.) 8 f P d 7 w d y 0 # , 7 , # X t U : E v.v. .b  .,.8.v.r.) , , - c b.n. Xb...8.b.b.v.n.n.n.5X X) .._ =.w.8.4.;.;.=.;.9.K.$X=X@X@XOXtXlXvXpXpXiXv.H #.c.,.H M #.c.$.v.lXvXlX$X+XOXOX.X.X.X.X.X.XOXOXOX.XOX$XG..X$XOXQ.G.t.t.G.Y.Y.Q.L.L.L.L.Y.Q..X.X.X.X.X.X.X.XQ.L.Q.Y.Y.L.L.L.L.Y.Y.Y.Y.Y.Q.Q.Y.Y..XQ.Y.Y.",
"Y.L.L.Y.Y.Y.Y.Q.L.L.L.L.L.Q..X.X.X@XOX#XOX#X#X=X0X1X$X>X0XeX0X0X$X0X0X$X$X$X$X1X4X0XK.iXkXtXkXxXxXxX,.t b D t - : 9 9 & # , , : 0 O Z v.,.E t 0 7 t # y 2 X t ,.8.n...f _ +XfX=XH.p...f y U _ U 7 U *X5XMXNXxXxXxXxXxXkXgXfX=XgXxXgX5X{.[.+X=XeXfXfXfXfXfXfXfXfXfXfXfXfXfXxXxXkXMXxXkXMXkX+X{.[.{.{.[.+X5X=XH.{.=.;.-.;.0.F.J.>.&.z.XXl.C T = $ < g _ Y $ N { { &.9.-.=.Y e R e 1 l ] Q p ^ N t.6.^ -.;.-.{ &.-.] &.>.>.>.h.I.F.f.>.g.e.e.e.p a F.h.j.F.P.I.F.I.^.7X;X-X,X,X-X,XU.T.qX:X7X;X:XyXpXuXuXuX2XuX-.e.}.2X=XJ.J.1XhXtX0X1X}.Y.>X.XqXOX>XqXrXqXOX1XqX}.1X@X>X1X1XrX@Xt 5.0X=X1XrX0X>XY.XXXX1X@X}.z.z.h.-.6.;.{ %.%.W R ^ ] ^ &.>.7.-.^ ^ A O l >.} { R g N _ _ ( ) P P U V f =./ / { 5._ U ) ( v 0 % % t P d t : 8 8 8 P P w w d d f y , , # # , # d v 8 E n.8.E : 0 E 8.u.u.) , : # v n.n...E 8. Xn. Xn.n.8...n.u.( _ ..4.n.i.=.=.4.;.=.H.+X.X#X$XOXXX0XtXzXvXvXpXW.H H #.A.x.H F M F q.uXvXlX0XOXOXOXOXOX.X.X.XOXOXOXOXOXeXrX$X0X0X6XL.N.t.D.L.L.Y.Q.L.L.L.L.Q.Q.Q.Q.Q.Q..X.X.XQ.Y.L.Q.Q.Y.L.L.L.Y.Y.L.Y.Y.Y.Q.Q.Y.Y..XY.Y.L.",
"Y.G.G.Y.Y.G.L.Y.Y.Y.Q..X.X.X.X.XXX@XOXOXOX#X5X0X0X1X1X0X1X$X>X6X0X0X$X$X0X1X0X$X4XwX.X#XgXxXNXNXxX5XD 5 D c 5 > ; y y , & ; : t , ; v *.,.,.D t 8 , # t : t E 8.8...D n.fXfXkXeX X*X{.n...y y y , ..5X5XxXNXMXxXxXxXkXxXfXeXeXgXgXeXeX+X[.[.H.+XkXfXfXfXfXkXkXfXfXfXfXfXfXxXMXxXkXxXkX*X=XfX*X+X X X+X=X*X=XH.H.%.=.;.9.z.z.;.Q ] h.@Xl.C T $ < q f p N e l ] { { ;.{ -.Y q Y z p = l p S T T e.;.%.6.>.{ ^ &.0.%.} >.&.:.g.F.F.f.>.>.7.e.z.p z J.e.h.h.B.I.C.I.^.;X-X!.-X-X-X,XU.^.qX,XyX:X:X9XuXuXyXuXqXhX-.6.@X@X=X1X}..X0X.XD.Y.J.J.>XY.qX>X1XqXuX1X>XOXqX}.1X@X>X0X1XrX$Xi 5.1X1X=XrXqX>X}.}.>X>X@XY.z.z.e.>.0.>.} } { S S Q T R &.-.>.>.^ ] R O z 7.{ ] T ^ ` 4.~ U P f U E U v 8./ ` -.e...v U ) v 0 7 7 w f v d s % 7 P v d w d d d d 0 0 v v 0 , 2 v v : v I 8 : > # : c ) 3.I : # # t E v t 8 v.n.K.n. X X..: y U ..4.4.w.n.i.=.=.=.5.5.{.#X{..XOXOXOXqXuXuXlXvXpX4X<.v.4XE.4XiXE.b.v.4XvXlXuXeXOXoX.XOXOX.X.X.X.XOXOXOX.X0XrXtXeX$X.XD.t.N.L.L.L.Q.L.L.L.L.L.Q.Q.L.L.Y.Q.Q.Q.Q.Y.Y.Y.Q.Q.Q.L.L.L.Y.Y.Y.Y.Y.Y.Q.Q.Q.Y.Q.Y.Y.L.",
"Y.G.G.Y.Y.L.L.Y.Y.Y.Q..XOXOX.X.XXXOX$X$X$X0X0X0X1X0X0X0X1X$X>X>X$XOX5X$X$X1X$X0X$X$X5XwXwXgXxXxXxX Xt b E x b  .f f ( U f 2 2 O : 0 ..*.=...0 , , # v t f ..| 8...E K.*XtXgXgXgX+X*X#X=X+X..i 2 , n.5X5XgXkXxXxXNXxXgXgXgXgXjX@X=XgXgXfXfX+Xp.+XkXkXfXfXkXxXxXfXfXmXfXfXfXkXkXxXxXeXeXi.u.=XkXMXgXxXgXeX&XfXfXH.^ %.>.e.h.-.Q ] &.h.$Xl.C Y $ $ q < = g p e / %.-.;.` -.Y = N W T 1 = p ^ l 5.t.;.-.;.-.-./ -.e.&.] 7.&.>.e.h.j.>.:.:.>.0.z.p C J.l.F.e.B.!.I.I.-X7X:X!.^.-X:XyXU.^.:X-XyX;X,X7XuXyXyXuXqXhX>.t.=X{.=X@X=XtXD.6.6.z.J.Y.>XY.qX>X>XrXhX>XqX@XqX}.>XXX@X$X$XeX+Xe 9.0X0X=X0X0XXXL.XXqXXX.XY.}.J.7.-.0.6.{ { / S T T C T -.-.>.7.] ] R * N 0.&.] ^ / { =.~ P f P U _ U v r.^ %.-.e...U ~ ( P f s s d d s P P P P P P P d v f P d w U ....) ) v U f # # # # # : : : : , d 0 # : , , : v v t .. Xn. Xn. X..v ) 2.4.8.w.i.u.i.4.w.5.w.K.H.{.$X@X}.OX0X>XuXuXpXuXtXlXvXSXSXE.wXSXSXpXSXSXGXlXuXtXoXOXOXOXOXOXOXOXOXOXOXOX.XOX$X>XOX.XQ.D.t.G..XL.G.Q.L.L.L.L.Y.Y.L.L.L.Y.Y.Q.Q.Q.Y.Q.Q.Q.Q.Q.L.L.L.L.L.Y.Y.Y.Y.Y.Q.Q.Y.Q.Y.Y.L.",
"G.G.G.G.G.F.G.Y.Y.Y.Y.Q..XOXOXOX$X$X$X4X0X0X0X0X0XeX0X1X1X0X1X$X6XOX>XOX$X0X$X=X5XOXeX0XtXtXtXlXxXK.c v c 5 E.DXfXn.U U *...E f y ..8.K.8.U y v d , d t 5.n.n.8.v n.eX=XeXjXrX@X0X#X+X+X{.H.f < t i.eX#X*XtXNXNXxXgXeXgXgXjXgX1X*XeXeXeXeXfXH.{.gXjXgXxXxXxXMXxXkXxXMXxXxXkXxXkXfXfX{.[.i.[.[.5XfXfX*X*X+XgXxXH.T { 6.e.;.&.0.%.-.9.$XD.V C $ $ e e e l l e R ;.%./ / %.Y = g C e $ a T l W t.t.w.=.` %.-.-.;.9.&./ >.>.e.0.>.g.:.%.&.>.h.z.a C D.l.J.e.h.Y.I.P.!.,X:X^.;X;X:X7X^.U.-X^.yX-X:XyX7X,XyXuX>XuX%.^ 1X@XJ.J.+X5.` 6.-.e.t.z.XXY.>X>X1XrXhX1XqX@XtX.X0XOX$X1X$X0X{.q 5.eX1X$X1X1XXX}.0XOXY.Y.Y.l.t.;.%.6.;.{ ^ ^ T C R C Q } >.>.:.&.} R * N e.{ { { { ` =.~ U U U _ 4.U V p.-.%.-.0.=.E =.4.v f f f ( ( ( ) ( ( ) ) P d f f d f f f U ( _ ` ..) U t - # : 8 8 t 0 , : + : , : : : , 0 v U U 0 4.K.#X Xn.E y.2.2.u._ 4.8.4.w.p.w.r.n.+X{.{.OX@XY.OX0XqXuXzXuXtXvXiX4XvXvXoXlXpXpXuXvXGXbXbXbXtXOXOXOXOXOXOXXXXXOX.XOX.XOXOX.XOXOXJ.D.D.D.G.G.L.L.L.L.Y.Y.Q.Q.Y.Y.Y.Y.Y.Q.Y.L.L.L.Q..XQ.L.L.L.L.L.L.L.G.Y.Y.Y.Y.Y.Y.Q.Q.Y.L.G.",
"G.F.F.J.F.D.F.L.Y.Y..XOXOX$X$X$X$X$X4X0X0X0X0X0X0XeX0X1X0X0X1X$XOX$X$X0X0X$X0X#X0X#X0XeX=XtXtXgXkX Xn.! t u 5.t.n.i.) y f E *.E v v U _ ) y 0 f 0 v O 5 =...E t v n.{.=X0X$X=X$X1X+X{.+X+Xp.Y , $ ~ 5X+XK. X5XeXxXgXeXgXgXjXjXeX}..X1XgXxXgX+X=XgXjXxXxXxXxXxXkXxXxXgX*X=XfXMXxXMX*Xi.n.p.%X'.i.i.[.[.[.*XxXxXp.V / ;.>.&.9.>.^ &.t.$Xt.Z V O O e a l C N 3 S &.%.%./ -.N < p $ 1 e Y V ^ e.9.9.;.=.-.;.-.%.&.;.%.' >.>.>.&.&.0.g.] &.0.z.F.j N h.h.J.e.h.I.I.I.^.:X-X^.:X:X:X<XU.P.-X^.<X^.7X,X7X7XuXyX>XzX-.^ e.+X1Xe.^ T T W ` =.6.z.XX}.>XqX>XrXzX0XqXOXtXXX>X>X1X1X@X0X}.q =.1X=X1X0X>X@X>X>XY.OXXXJ.F.D.e.&.6.%./ T W R T R S Q } :.>.:.] } R * C l.-.} W T W { ` ( U U _ 1.U Y H.-.&.} 7.;./ r.i.~ U f ( u.2.1.2.) ) ) ) P ( P w d f f f U ( _ U U E v , : 8 t t c v c 0 : 8 , 7 : # , : d d f ) f t 4.n.n.8.f 2.u.4.2.E U ..8.w.i.p.r.9.$X#XOXOXXX.XXXOXyXrXuXuXtXiXK.| ,.iXC.Q.Q.wXqXlXlXbXHXHXuX$XOXOXOXOXOX.X.X.X.XXXOXOXOX.XOX.XD.N.J.G.G.L.L.L.L.L.Y.Y.Y.Y.L.L.L.Y.Q.Q.Y.Y.Y.Y.Q..XQ.L.L.G.L.L.L.L.L.Y.Y.Y.Y.Y.Q..XQ.Y.L.J.",
"J.F.F.G.J.F.J.J.L.L.Q.XXOX$X0X0X6X4X4X0X0X0X0X0X0X0X0X0XeX0X0X1X$X$X4X#X#X0X4X4X0X5X0X0X5X5XeX[.w.+XkX=.f E r. X X5X5X[.v _  XK.8.v # 0 f y U i v v t t 2 2 X # ..i.n. X=X*XeXeX$XOXJ.{.+X X4.$ y v p.+Xi.w.K.+XgXgXrXeXrXgXgX1XL.}.=XtXxXxXgXgXeXgXxXjXxXxXjXxXxXxXfX+X5XxXMXfXfX[.i.%X*XfX*X[.[.&X&X*XxXNX=X=.C W %.;.9.t.&.W &.J.$Xw.Y l . O 1 p j N j 1 S ] { { { -.Z < < = T N a W e.9.9.6.6.%.-.;.%.;.6.-.] / &.&.>.>.<.h.h.] &.g.F.F.N C F.D.J.e.e.P.B.f.P.U.U.^.:X:X;X7XP.Z.^.!.:XT.,X,XqX,XyXuX>XrX-.6.-.=.H.l.` Y ~ { ` ` =.e.J.|.@XuX1XrXzXqXqXXXqXXX>X>X>X1X1X0XL.q -.=X1X0X0X1X0X0XOX>X.XL.l.t.l.e.;.6.{ ^ T W T T T C R } :.>.>.} ] Q = C z.>./ N l W ` ` ( U U _ _ ( Y {.-.>.] >.e.=.H.p.` _ P ) '.3.2.3.1._ 1.) ) ) P s f f f v v U U U V v y : 0 v E b b v v t 8 : : , 0 8 , , , 0 f ....0 : t v E d ) u.8.4.) f U ..4.i.n.w.5.J.#XOXOXXXXXOXOX0XuXuXuXSXpXv.*.| oXv.oX6XpXpXpXyXlXbXCXuX$XOX.XOXOXOX.X.XOXXXXXOXOX.XOX$XL.D.D.L.L.L.L.L.L.Y.Y.Y.Y.Y.Y.L.L.L.L.Q.Q.Y.Q.Q..X.XQ.Q.L.L.L.L.L.L.L.Y.Y.Y.Y.Y.Y.Y..XQ.Y.L.J.",
"J.J.F.L.L.G.L.L.}..XXXOX$X>X0X0X0X0X0X0X0X0X0X0X0X0X0X0X0X0X$X4X6X0X.X6XwXOXR.4XK.0X5X$XeXgX[.H.fXUXUXK.K.gXDXDXDXUXUXDX) ..*Xn.w.~ y v f f f : a a n.n.| D ..u t ..4.K.*X0X#X$X$X+XJ.K.K.H.4.9 ~ E E *X{.[.eXgXgXgXgXjXlXxXgXeX@X1XeXrXxXgXgXtXrXjXcXcXNXNXMXNXxXNXMXxXMXMXMXxXeX+X=XfXfXfXfX%X[.*XfXkXMXgXH.Z g ` &.;.9.t.] S ;.}.qX9.W l . O = e p N j 3 S ] ] ^ / %.W o 1 C i e ^ 5.t.t.;.9.;.>.;.;.6.&.%.7.-.] &.&.>.h.h.j.j.:.f.F.F.h.j C F.h.F.e.g.P.g.:.g.k.k.U.^.U.U.<XZ.g.P.Z.:XU.-X7XyX;X7XyX,XyX;.9.H.` -.w.-.{ =.{ { { ^ -.9.}.@XhX2XrXzXrXqXXX>X@X@X>X>X1X1X0XJ.q 6.=X1XrX1XqXrXOX.XY..XOXJ.0.l.;.6.-./ W T W Y C N l C ' &.:.>.&.} ] = C h.-.Q p i Y { ` Y P P _ ` ( U {.6.e.&.>.l.5.p.i._ _ ( _ '.2.1.2._ _ ) ( ) P P P P f f f f f U Y U v 0 # t I E v v v b b 8 : , 8 0 t , 7 0 y v ..8.=.f v 4._ w U 4.y.u.( f v ..8.w.w.r.t.t.OX0X0X>X0X0XqXuXlXvXvXvXpXv.#.D <.v.iXvXiXiXpXyXtXuXlXrXOXOXOXOXOXOXOXOXOXXX.XOXOXOX$X$XD.D.G.L.L.L.L.L.L.Q.Q.L.Y.Y.Y.L.L.Y.Q.Q.Q.Q.Q..X.X.XQ.Y.L.L.L.L.L.L.L.L.Y.Y.Y.Y.Y.Y..XQ.Y.L.J.",
"G.F.F.F.L.Y.XXOX$X$X1X1X>X$X$X$X0X0X=X$X>X0X0X0XeXeX0X0X0X4X4X0XwXC.v.<.,.#.,.c.#.W.0XwX=XH.fXUXUXUXUXUXDXMXMXMXDXDXMXMXu.P [.8...E f y 0 y t D t ` R.v.9.E K.v.V E n.n.{.=X#X{.+X+X XH.r.i...f 8.4.y i.{. XgXkXtXeXrXjXxXxXtX1X1XrXhXtXgXgXxXgXgXlXjXxXcXNXZXNXNXMXMXMXMXMXxXxXkXfXxXxXMXxXxXfXsXkXMXMXxX+Xw.N g W W &.t.0.] Q ;.L.0X-.^ C . . * e j A j 1 N ^ ^ Q R { Z o C z = ^ e.e.9.9.6.6.6.0.9./ ^ { 6.e.9.] >.] 0.j.g.j.F.g.B.F.F.h.j Z F.h.F.h.h.P.g.<.P.j.Z.T.U.g.k.^.Z.:.k.s.U.U.^.9XyX-X,XyX,XqX&.9.}.w.5.5.-.-.-.C T ` ^ { ;.J.@XrXqXrXuXuX1XOXXXOX}.qXrX$X@X1XJ.1 5.1X0XtXrXrX0X.XXXQ.qXXXD.e.t.6.6.%.] R W ^ W Z N l C ] -.:.:.&.&.&.1 z h.-.Q p a Y ` ~ Y U L _ ..Y Y J.0.z.<.e.L.5.t.p.` ) ) 4.'.2._ ) _ 1.) ( ( P ( P f d f d f V U U U v d , , : , c v v c t : 8 0 t t d 0 + t v E 8.8.n.w.i.u.P 7 U u.2.4.2.v E ..4.4.8.t.n.n.=XeXeX0XtXuXpXbXzXuXpXvXiX#.D F ,.C.8XpX6XqXuXqXuXuXtX>X.X.XOXOXXXXXOXOXXXOXXXOX$X$X.XL.t.D.G.G.L.L.L.L.L.L.L.L.L.Y.Y.Y.Q.Q.Q.Q.Q.Q..X.X.X.XY.L.L.L.L.L.L.L.L.L.Y.Y.Y.Y.Y.Y.Q.Y.Y.G.J.",
"L.L.Y.Y..XXX>X>X$X$X1X1X1X$X=X1X0X0X1X1X0X0X0X0X0XeX0X0X0X0X0XwX(.(.8X(.c.H /.(.c.c.r.v.#XDXUXUXUXDXUXUXDXDXDXMXDXMXmXmXu.f u.8.) V 0 0 y v V v D 8.v.9.! B ,.oXn.U U r.D. X0X5X{.{.{.w.=.4.U f 4..., U H.[.*XeXtXtXlXxXlXgX0X=XrXrXrX#XJ.$XxXxXbXlX0X1X$X2XcXZXJXMXMXJXNXMXkXfXxX5X*X5XfXmXMXMXMXMXxXeX*X{.w.g a / W W &.9.] S ] h.$X/ / Z . . = e j C p = j Q / ^ R { C 1 C O l -.e.e.6.e.6.6.e.>./ p e p / 9.;.^ >.&.0.0.>.j.P.j.j.j.F.F.l S L.F.Y.B.j.I.g.f.T.P.Z.^.U.k.k.^.k.@.g.a.k.Z.<XyX7X-X7XuX;XXX^ e.+Xl.-.5.;./ %.%.Z / ^ %.9.F.@XrXqXqXqXuX1X0X.X>X}.qXqXOX.X1XJ.q 5.eX0XrXtX0XOX>X0X>XXXt.9.6.t.e.-.} %.^ ^ ^ ^ T C l R -.>.:.:.:.&.0.e N h.;.^ C W W ` Y Y U L _ _ ( Y J.t.F.h.h.J.6.w.p.` _ ) y.'.y.2._ _ 1.) ( ( P f f f d d d g U v v f f f y 0 # : c c t t t c t t t f v y , , U 8.n.i.w.4.4.u.v 7 v y.2.2.4.) ) _ 4.4.8.t.t.H.=XeXrXrXhXlXlXlXzXuXtXvXiXv.v.E.R.oX4X!.wXzXqX0XuXtX>XOX.XOXOXOXOXOX.X.XXXOXOXOX$XOXD.t.t.J.G.G.L.Y.Y.L.L.L.L.L.L.Y.Q.Y.Y.Q.Q.Q..X.X.X.X.X.XY.L.L.L.L.L.L.L.L.Y.Y.Y.Q.Q.Q.Q.Q.Y.G.J.F.",
"L.Y..XXXOX>X>XOX$X$X1X1X0X0X0X0X0X0X0X0X0X0X0X0X0X0X0X0X0X0X4X4X/.(.).)./.K K S.A.A.c.v.DXUXUXUXUXUXUXUXDXDXDXDXDXIXDX5XE 0 v v 0 , , 0 f v D t ! n.R.W.*.m >.D. X4.E a Z / =.5.` ` ` Y i w 7 y 9 0 $ f {.n.w.5.{.@XrXgXgXrX0XrX0X1XL.6.{ -.{.lXhXOXJ.h.6.0.J.+XxXxXxXjX+X[.[.[.H.w.4.i.p.&X5XkX%X[.i.p.{.[.8.i v ` ;.%.%.] W ^ ] J.OXW =.Z . O < e p j q 1 p R ^ ^ R { C e p o = p T { 6.l.w.6.e.e./ a C $ < =.{ W %.} >.>.0.j.P.h.h.B.F.N.a Z F.F.Y.h.B.Y.h.g.T.U.U.^.^.Z.Z.^.Z.:.Z.k.k.a.^.7X:X-X7XyX;X,X' &.}.z.9.e.e.%.%.e.` / ^ ;.D.J.XXqXqX2XqXuXqXqX.X>XXX>X>X@X@X$XJ.q 6.eX0XrXrX1X>X1X>XL.h.D.9.-.l.t.%.{ =.^ ^ ^ W Z S N ^ -.:.f.:.:.&.h.j C f.&.] ] %./ ~ Y Y U U _ _ ~ Y J.h.J.h.h.l.9.e.t.` _ ( i.'.2.2._ ) _ ( P P f w s d f y f v g f f f d f v V v ) E > > b E E c c v v f t ..E 4.w.i.i.5.=.w.i.U v f 2.2..._ _ ..4.4.4.8.p.K.{.0XtXlXlXlXlXlXlXlXzXvXuXiXwXiX4XV.W.!.q.C.uX6XwXtX>X.X.XOXOX.XOXOX.X.X.XXXOXOXOX.XL.N.t.D.L.L.G.L.Y.Y.L.L.L.Y.L.L.Q.Q.Q.Q.Q.Q.Q..X.X.X.X.X.XY.L.L.L.L.L.L.L.Y.Y.Q.Q..X.X.XQ.Y.L.L.J.F.",
"Y.Y..XXXXXOXOXOX$X$X$X1X1X1X=X$X0X0X0X0X0X0X0X0X0X0X0X0X0X4X.XC.S.).(./.S.S.K A.m.S.S.V.gXDXUXUXIXUXDXkX5X X5X5X#Xv...c 0 0 , : # O 2 , 0 i 2 Z ..D *.R.| D N.t.8.8.n.=.t u v V Y ~ E Y v V E ) _ ( f w i.p.5.%.Y / 5.l.}.=X@X$XL.l.-./ ~ l / uXOXh.e.0.>.9.7.;.5.5.5.5.=.w.H.p.p.y.i.i.w.y.i.i.8.4.=.w.+X{.5.i i ~ r.w.0.>.^ / 7.OXOXW 9.W . o = 1 e e q 1 p Y Y W Y ` z < l i q q $ q W -.6.5.5.6.=.l Y < < i Y Y T ^ -.0.h.F.h.e.B.F.F.h.j S h.L.Y.N.h.P.g.g.T.!.-X:X^.U.U.:XZ.k.U.~.U.[ g.:X^.^.,XqX;X>X' >..XL.t.9.t.;.-.e.6.^ ^ 6..XL.}.>XqX1XqXuXrXrX.X1X.X>X>XXX}.@XJ.q w.0XrXhXeXqXqXOXY..XY.J.e.t.0.0.-.{ %.^ W ` ^ T R C ] -.:.f.:.:.@.j.j z e.&.] } { / ~ ~ ~ U U ( _ ~ N J.l.F.j.g.D.e.l.p.=._ U [.'.2._ ) ( ( ( P P P f f y d y d v f g g f g g V U V ) v : b ,. .8.b c D E t d w.w.i.4.w.r.4.r.n.i.P P P 2.2.4.....8.u.4.4.n.{.{.=XeXlXlXhXrXlXhXlXgXtXtXpXiX8XiXE.,.C.!.G.M.uXuXrX0XXX.XXXOX.X.XOX.X.XOXXXOXOX$XXXD.t.D.D.L.J.L.D.L.L.L.L.L.L.Y.L.Q.Q.Q.Q.Q.Q.Q.Q..X.X.X.X.XQ.L.L.L.L.L.L.L.Y.Y.Y.Q..X.XXX.XQ.Y.Y.L.G.J.",
"Y.Y.Y.Y..XOXOX@X>X$X1X0X0X1X1X0X1X1X1X1X0X0X0X0X0X0X0X0XtXK.r.<./.8X(.(.S.S.m.x.A.A.A.E.n.DXUXUXUXMXn...8.8.8.8.,.b > > v b v 0 O u : 0 v : a ..r...u c B / r..Xn.K.v.8.,.n.#X X{.n.w.p.i.i.8.i.p.n.` w H. Xp.6.W N Y ~ -.9.e.e.7.9.%.^ Z W 0.F.>.>.g.>.0.>.S N l N Z Y V Y =.p.[.p.w.5.=.5.5.5.5.` ~ 5.{.{.5.i i ~ ;.t.t.&.^ %.J.0X#X` p.V o . @ < < < $ = i Y Y C Y ` V $ = i e q w e i g Y Y Y l U g V 9 & 9 g V V Y -.>.7.z.h.0.h.J.F.e.a W t.Y.J.F.L.Y.e.B.T.P.^.:X~.U.^.<XU.Z.:X^.^.[ [ :.U.:X,XqX-X;XQ &.XX}.z.e.p.l.t.e.l.{ W ^ Y.D.Y.@XqXqXuXqXtXtX@XXX}.Y.$X@X}..XJ.1 6.tXtXrX0X>XXXY.>XXXh.9.;.7.e.-.6.-.{ / N / { ^ ^ S ] -.>.f.:.:.:.f.j C f.} ' ^ / / ` Y ~ U f ( _ ( Y L.l.Y.h.e.h.0.D.J.6.~ Y [.*X2._ ) U P d 7 U _ _ ( f d f f U U g g U f g v v E ) t t ..x.8...c c v E E , _ 8.8.4.p.4.5.n.[.i.P U U 4.4.y.y.u.8.8.u.w.i.n.K.+XtXgXxXxXgXtX1XrXgXtXrXlXiXwXiX4XG.v.oXOXK.tX6X$XOX.XOXXXXXOXOXOXOXXXOX$X$XOX.XL.D.t.D.L.L.L.L.L.L.L.L.L.L.Y..X.X.X.X.X.XY.Y.Y.Q..X.X.X.XQ.Q.Q.Y.Y.Q.Q.Q.Y.Y.Q.Q.Q..XXXXX.XY.Y.L.L.Y.Y.",
"Q.Y.Y.Y..XXX@XOXOX$X1X0X1X1X0XeX0X0X0X0X0X0X0X0X6XeX6X4X$Xt.9.<.c.(.8X(.S.c.A.x.x.A.A.v.v.kXDXUXDX[...*.8..... .,.| b c x b D | t t u v t : ! ,.K.K...u v ..n.r.| *.E D | r. X#X#Xp.Y w.n.w.i.n.n.n._ w 4.H.5.5.;.{ N V W / ^ ^ ^ / Z C T S S S N A A k j 3 * * e l C Z N g i g Y _ 4.4.` 5.4.` U ~ ~ =.p.n...i i W w.l.0.%.] 9.L.0X.X` p.N o o $ $ = & = 9 w f g f N Y z w < q & 9 q w q q < < = q i w g y @ w f U g N ^ W -.6.l.t.J.l.e.9.g Z J.L.l.z.Y..X0.h.;X!.T.,X:X^.U.<X^.U.:X^.^.@.G ' Z.:X,XyX;X>XQ &.XX}.J.t.l.l.t.t.J.6.{ ] J.J.Y.>XqXqXuXrXuXqXXXXXXXY.>X@X.X+XJ.2 6.hXrX0X0XOX}.OXY.Y.D.>.;.e.t.;.6.;./ { T { -.{ ^ R &.:.0.f.:.:.:.0.j z 7.] ] ] } %./ Y Y Y f ( ~ Y Y {.D.Y.j.h.D.t.D.J.w.` ~ &X*X4.) ( P f d f _ 2._ _ U f f f U 4.U U Y g g f V U E t 2 | 8...c > 2 t v v 0 =.n.w.w.w.5.p.H.[.u.f ) U ( _ 4.y.u.i.n.n.n.p.p.p.=XxXbXxXgXrXtX0XeXgXbXvXtXtXtXpXwXwXoXq.D.G.OXOXOXOXOXOXOXOXOXOXOXOXOXOX$X$XOXL.D.D.D.J.L.L.L.L.L.L.L.L.L.Y.Q..X.X.X.X.X.XQ.Q.Q.Q..X.X.XQ.Q.Q.Y.L.L.L.L.L.Y.Q.Q..XQ..X.XQ.Q.Y.Y.L.L.L.Y.",
"XX.X.XOXXX.X.XOX$X>X0X0X0X0X0XeX0X0X0X0X0X0X0X0X>X0X>X0XR./ *.v.C.iXiX8XW.A.A.#.H #.<.r.v.5XDXDXkXw.4.r.4...,.,.,.,. .| c b D ,.D O t D v > 5 c ! ,.! t 2 t v a B ..,.| | ..,.n. Xr.%...4.w.4.w.p.n.w.i ` p.w.t.5.5.T V N N C T Z N a u u u l B B B A A A m m p p a e p N N p p g N Y ^ Y V f i g Y Y ` 5.i.~ , i W t.t.e.6.6.e.D.$XJ.` i.f @ , 0 0 w w w f U U Y U ~ _ _ _ ~ _ ~ Y U v g g i f i U ( U f w   9 f g i e l l l T W T / ^ ^ ` p Y e.J.J.D.L.}.e.F.L.:.] :.-X-X-X<X^.U.<X^.^.:.@.@.P.,X7XyX7X7X' &.XX.X.XD.l.t.t.e.J.h.{ / z.Y.Y.>X1XqXuXrXuX>X@XXX>X}.1XXX.X.XL.q e.rXrXrX1X>X>XOX@XJ.t.9.e.e.9.9.;.6.` { / { 6.-.] Q &.>.f.f.:.:.:.f.C C 0.] } ] / ~ Y ~ Y U f ( ~ Y V {.F.Y.B.h.F.0.h.D.w.` ~ &X5Xu._ 2._ _ 2.y.4.2.( U ( U v P _ i.` _ _ ~ U z V N V 0 : t v v c c c v v Z v w.w.w.n.r.p.r.p.[.i.s f y % % w v E _ ..=.w.p.{.=XxXNXcXlXxXNXcXlXxXxXgXtXlXcXlXtXlXlXwXt.L.wXOX$XOXOX$X$X$X$XOXOX$X$X$X$X$XOXY.D.D.D.D.L.L.L.L.L.L.L.L.Y.Y.Q.Q..X.X.X.X.X.X.X.X.X.X.X.X.X.X.X.XY.Y.L.L.L.Y.Q.Q.Q.Y.L.L.Y.Y.Y.Y.Y.Y.L.L.Y.",
".XY..XOXOXXX@X$X>X>X1X0X0X0X0X1X0X0X0X0X0X0X0X0X0X>X6X0XK.Z >.G.wXwXwXwXv.v.A.b.c <.E.E.K.wXJXDXMXw.u.r.,.8.b.x.x.,. . .D D D ! ! 5 D c v ,.,.D b v 2 : - 5 E t.8.,.K.n.v.8.E ! r.r.t.;.~ ` w.i.{.r.8.g ^ K.H.w.6.=.%.W Z N l l u 3 a ' t.Y.F.<.<.:.g.C.j.g.B.0.9.6.] ^ C a e p i i i p q q g g z Y Y ~ ~ ` Y q t T w.t.e.e.t.h.J.OXJ.` i.f @ 0 i f f U _ 1.y.i.p.[.[.&X*X+X%X%X*Xp.u.4._ ` ~ ~ ( ` ` _ g y @ i { 5.=.5.{ T R C l N Z T T Z q g 6.D.L.l.D.Y.>.&.S z e 3 :.T.-X9X:XT.<X:X^.g.g.g.Z.,X,X7X7XqX] &.XX.X$XL.J.l.t.e.J.F.%.^ t..XL.>X>XqXuXrXrX>X@XXX>XXX1X.X}.L.J.e 9.hXtXeXtXtX>XXX0.0.9.;.>.6.e.l.%.;./ ^ / ^ -.;.&.Q >.>.f.:.:.:.@.0.C A 0.] &.^ Z i N ~ ( U f U _ Y V {.F.Y.B.F.F.0.h.l.9.` ~ +XfX%X'.%X[.i.i.y.2._ ( ( _ _ _ ..4.[.[.u.4.=._ ~ V N V v v t c B E ! ! ` ..=...w.w.p.p.p.{.p.{. X_ , # w v _ ..) 4.8.;.=.5.p.+XxXbXbXNXcXcXNXcXNXJXNXbXbXlXNXNXlXwXrXwX.XR.lX5X$X$XOXXXOX$X>X>X$XOXOX$X$XOX.XL.D.D.J.G.L.L.L.L.L.L.L.L.Q.Q.Q..X.X.X.X.X.X.X.X.X.X.X.X.X.X.X.X.XQ..XY.L.Y.Q.Q.L.L.G.G.L.Y.Y.Y.Y.L.G.L.Y.Y.",
".XXXXXXXOXOXOXOX$X>X0X0X0X0X0X0X0X0X0X0X0X0X0X0X0X0X0X0X6XD.0XwX0X0XtXtXwX4XV.*.| 8XvXvXvXDXJXUXfX_ ..8.8.,.b.b.x.,. . . .#.,.| | 2 c ..8.E.oXb.,. .b B c c E ..*.|  .! | 8.! B *.n.L.#X9.V E =.8.~ i : N {.D.-.5.%.%./ ^ Z a e p } L.OX>XOXXX7X!.T.;X^.I.I.T.Y.F.L.L..X}.F.>.W i q i l g t g N g i p g q i i q i V ^ e.D.h.z.z.L.$XJ.%.p.i @ w f ( 4.4._ 4.y.y.[.&X%X%X&X&X&X[.[.[.u.4.~ ( ( ( _ 4.4._ U i o N 4.p.w.p.{.w.=.T { l.}.+X}.p.=./ -.;.6.6.F.XX} p l j j e j I.:X7X9X^.<X^.:XU.T.U.P.,X,X7X7XqX%.&.XX.X$XL.J.D.z.t.L.Y.-.] e.XXJ.@XOXtXuXrX1X1X@X.X@X}.$X.X.X{.J.q 9.hXtX0XrX>XJ.e.9.-./ / %.%.9.e.-.=./ W { ` -.6.-./ >.0.g.:.:.:.:.0.C C 0.] &.R p < l ~ ( ( P U _ Y U {.F.Y.F.F.F.e.h.l.9.^ ~ =XfX*X*X*X[.i.i.i.y._ _ 4.2.4.u.i.'.&X[.[.i.i.w.~ Y V V E E U E ..E E ~ _ 5.r.w.8.H.+X[.H.H.i.{.&XP # 7 ..'.[.[.i.w.n.H.p.p.w.w.H.{.@XeX0X=X=X$XeXeX0XtXeX0XgXbXxX+X0X$X$XL.tXlX0XeX$XOXOXOXOXOX$XOXXXOXOXOXL.D.D.D.L.G.G.L.L.L.L.L.L.Y..X.X.X.X.XOXOX.X.X.X.XOX.XOX.X.X.X.X.X.XQ.Q.Q.Y.L.Q.R.L.G.L.L.Y.Y.Y.Y.L.G.F.L.Y..X",
"XXOXOX.X.XOXOXOX>X0XqXeX0X0X0XeX0X0X0X0X0X0X0X0X0XqX6X0X0X$XwX0XeXeXeX0X0XwXtXR.,.iXlXvXvXKXDXDXMX#X5XxXkX X8.,. . . . .,.,.x.,.8.5 c n.oXv.v.E.3Xb.| D c | ..| *. .!  . . .| ..B 9.OXOXOXK.E < t Y Y q t %.%.Y Z / W W T Z T } .X>XqXrXrXrXqX>X-X;X-XU.!.-XXXXX>XOX.XOXXXOX$X.Xt.` T Y C V { 5.l.p.e.5.Y g i i N Y Z 6.J.F.z.h.J.>XL.=.p.i @ w w =.=X4.g ( _ 4.i.'.i.i.i.i.p.i.y.i.i.4.U f f i.u._ 1._ U e O R { { ` W 5.~ Y z Z 6.e.D.L.J.@X+XJ.e.-./ &.7.Q 3 = = p u 3 j.;X,X7X-X<X-X:X^.:X-XB.7X7XqX7X6X%.&.@XXX$XL.L.J.z.l.J..X7.} 0.OXJ.XXOXtXuXqX>XqX>XXX>XXX@X}.XX}.L.q 9.rXtXtX1X}.h.9.] -.>.6.6.%.7.6.6.%.{ ^ -.-.;.e.;.] 0.0.g.:.:.f.:.0.z A e.&.&.N 1 2 Y ~ ~ ~ U U ~ U Y {.D.Y.F.j.B.e.h.D.e.~ ~ eX*X&X&X&X[.p.[.[.i.y.1.4.u.i.i.%X%X&X*X*X[.H.p.4.` ~ ` =._ ~ ..~ ^ =.w.n.[.{.{.w.H.[.n.H.+X+Xn...0 , ) u.y.i.i.w.5.n.n.w.t.p.p.t.p.J.}.{.{.#X+XoXJ.#X0X$X#X{.{.J.$XgXlXxX.XOXwXOX#XOXOX$XOX.X.XOXOXXXOXXXL.D.D.D.D.G.G.L.L.L.L.L.L.L.Q..X.X.X.X.XXXXXOXOXOXOXOXOX.X.XQ.Y..X.X.XQ.Q.Y.L.L.L.L.L.G.Q.L.Y.Y.L.L.L.L.Y.Y.XX@X",
".XXXXXOXXXOX0X0X>X0X0X0X1X>X1X0X0X6X6X0X0X0X0X0X0X0X0X0X0X0X0X0X0XwX4XeX0X$X$X0XL.lXvXvXwX5XkXNXNXDXDXDXSXfX..|  .,.,.,.,.,.,.,.D ; D K.E.W.W.3Xb.v.,.,.| ,.v. .,.v.x.b.v.v.n.r.! ;.L.L.t.OXoX;.8.+X#XE $ a Z N W 6.;.-.;.e.L.rXrXlXcXzXtXqXuXqX;X7X7X-X7XqXqXXXY.XXY.OXOX0XtXrX0XOXL.6.{ D.rXxXcXZXJXgX+X=.g q Y =.{ ;.l.z.l.h.}.qX}.{ w.q o w q f U f ( ) U _ 4.1.1.y.y.4.4.4._ _ 4.) L f f &X%XU L U Y q = T ` R ^ -.Y i 5.=.e C C ^ { ^ -.6.D.D.F.e.-.] S e 1 N l 1 j j.^.7X7X<XyX:X:X-X:X^.B.,X7XqX7X0X&.%.@X@X$XY.L.L.l.l.h..Xe.%.6.OXJ..XXXqXuXqX>XrX1XXX>XXXXX}.}.L.J.e 9.jXrX1XXXt.%.%.9.-.6.t.9.^ %.9.9.{ { { -.=.6.e.;.] e.0.g.<.f.f.>.0.j S 0.&.] e < N W ~ ~ ~ P U ( U U H.h.Y.F.h.g.>.0.z.e.T ~ eXfX&X[.[.%X%X%X*X%X%X_.i._.i.u.[.*X*X%X[.%X+XH.p.w.=.4.4._ ..4.=.w.H.{.[.H.H. X{.H.H.{. XH.p._ f y d ..u.4.4.w.w.5.p.n.w.t.D.D.p.D.L.}.L.J.{.{.{.oX{.$XwXeXeX*Xp.J.tXbXlXeXR.K.5XD.L.OXOXOXOXOXOXOXXXXXY.J.D.D.J.L.L.L.L.L.L.L.L.L.L.Q..X.X.X.X.XOXOXOX.XOXOXOX.X.X.XQ.Y.Q..XQ.Y.Q.Y.Y.L.L.L.L.L.L.G.L.L.J.L.Y..X.X.XXX@X",
"OXOXOX$X>X0X0X0X0X0X0X0X0XeX0X0X6X6X6X0X0X0X0X0X0X0XqX>X0X0X0XwX6X6X0X6X6XeX4X5X{.lXvXoXv.*.r.n.K.fXxXkXDX3X,.x.x.,.,.,.,.,. .| c 2 t ,.v.,.,.A.E.v.b.,. .,.3Xx.,.v.,.,.,.b.E.*.r.L..XQ.L.$X#X#X$XoXK.%.u 5.l.t.l.D.J.D.@XtXhXlXZXCXqX0XrXyXuXyXyXyXyXyXyXpXpXF.>.OXqXqXqXqXyXtXqXrXqXOXD.rXcXbXNXcXNXJXJX{.V i Y { { -.J.F.z.J.@XuX}./ 5.9 o w g & @ g _ U d s s d f L U U U U U U f U f s 9 ( _ s w i ~ = q Y C C C ^ q = C { q e 1 e l e z C Z ] h.Y.J.z.h.} ^ N 1 1 N g.T.:X9X,X7X-X,X,X,XT.U.7X7XrXrXyX7.-..X@X$X}.}..Xl.z.0.XXh.%.;.@XJ.Y.XX0XhXqX1XyX1XXXXXXXXX}.J.H.l.1 w.gXtX1X}.z.>.-.S W 0.t.;.T / 5.9.{ %.-.-.&.6.l.>.&.h.f.g.g.g.g.s.f.j S 7.&.' 3 i { W Y _ U f U ( Y U l.e.Y.F.h.h.<.>.t.9.Y ` fXfXeX{.[.+X*Xp.[.aX%X%X'.'.%X&X%X[.*Xy.i.+X*X&X&Xp.p.p.[.K.+X{.H.p.{. X{.H.K.{.{.[.H.H.p.` ) ( ( y U ..2...=.5.5.%.9.t.t.D.D.D.l.D.L.L.L.}..X+X+X{.#XOX#X=XtXgXxX+Xt.tXeXoXOXoXD.L..XOX.X.XOXOXXXXXXX.XL.D.H.L.J.L.L.K.L.L.L.L.L.L.L..X.X.X.X.XOX.X.X.X.X.XOX.X.X.X.XQ.Y.Q.Q.Q.Y.Y.Q..XQ.Q.R.L.G.L.G.L.G.J.L..XXXXXXXXXXX",
">X0X0X>X>XOXOX.XD.D.G.L.OX0X0X6X0X0X6X6X0X0X0X>X0X0X0X0X0XqXqX0X6X6X0X0X0X1X#X0XR.4X,.,.v.E.W.v.| 8.iXDXkXb.n.b.x. . .| |  .D E ! 5 5 2 5 b v.4X3X(.A. .D #.(.b.E.E.E.E. .c D *.Q.Q.G.M.L.OXoX$XQ.OX.XW ` $XOXL..XrXlXzXlXbXCXCXHX>X0.Y.qXzXqXuXuXzXpXuX>XyXuX>XY.1XqXrXuXuXuXuXzXzXzXhXhXzXhXcXCXcXNXZXUXlX` i ~ ;.=.-.D.z.z.}.@XrX@X^ { < $ q i w q i i q 9 w s w w w 9 s f f d s s w d s s 6 w f & g Y = e C l z C z p e q q l q e e j p p j z R >.7.0.>.} ^ p 1 O e A e.P.:XyX7X7X-X,X7X;X;XXX!.j.>XqXyXe.;.}.}.rX}.Y.}.h.z.e.J.}.>.-..X.XY.@X>XtXuX>XrXqXXX}.F.t.D.H.e.p.q e.rXrX1X|.F.7.R N >.F.J./ T T =.6.%.-.0.e.>.e.z.:.:.f.f.g.s.s.:.f.0.3 R f.&.' S / ` ~ Y Y U U f ( U V H.h.Y.B.g.h.*.0.0.;.N ^ gXgXgX5XeXgX[.p.*X*X&X&X*X&X%X*X[.*X&Xp.5.i.+X*X+X{.+X+X5X*X XH.w.H. X+X{.{.+X{.n.n.r.;.^ ~ 4...U f ( ) _ ..4.4.=.%.%.r.t.D.F.Y..X.XL.L.}..X+X{.#XrXtX0X5XeXtXgXxXxX+X=X+XD.D.D.G.F.N.D.L..X@X@X@X@X#X+X{.+X#X#X+X+X+X+X{.J.L.{.{.L..X.XOX.X.X.X.XOX.X.X.X.XOX.X.XQ.Y.Y.Q.Q..X.X.X.X.XQ..X.XQ.Y.L.L.G.L.L..XOXOXOXXXOX$X1X",
"0X0X0X$X.XD.9.;.>.>.>.>.9.N.L.OXOX$X6X0X6X6X0X0X0X0X0X0X0XqXqX0X6X6X6X0X1X0X0X5X*.#.A.A.#.A.(.8X4X#. .SX5Xn.K.b.....,.,. .D | 8.r.v u Z u V.8X4X/.3XA.b.b.,.E.3X/.(.3X3Xb.c | R.N.Q.G.G.OX.X.XK.L..XOX^ e..X.XlXlXcXbXzXzXCXCXbXqXh.h.L.e.z.L.qXuXzXuX>XF.P.OX>XOXrXqXqXuXzXzXzXzXzXzXzXzXVXcXCXCXcXcXcXJXNX=.i ~ =.{ { z.F.F.}.@XrX$X` W $ @ < < = < q 9 9 9 9 9 9 6 9 6 6 s 9 9 9 @ % 9 6 % & 6 & @ ( q = e = e 1 1 q e e 3 3 e q e e e e e e p j N l N j e 1 $ = e z Q h.P.;XyXqX7X-X,X9X,X;XY.>Xe.&.F.zX0.;.@X}.0X.XY.}.h.z.e.J.|.9.;..X.XY.Y.>XuXuX>XqX>XL.F.z.D.L.J.e.p.q e.hXhXqXXXF.h.-.7.h.z.e./ ^ T 6.;.>.;.9.e.h.f.z.:.f.g.g.k.g.g.<.g.f.3 A 0.-.} ^ { ~ W ~ U U U f ( U Y J.l.Y.B.g.N.*.9.6.-.N T +XeXxXxXgXgX=X*XfXfX*XfXfX=X[.H.[.*X*X[.[.[.+X=X=X*X+X{.+XK.p.w.8.H.{.+X+X{.H.n.p.r.4.5.4.w.i.2.d f ) ) ..2.4.;.=.*.%.q.t.D.F.Y.XXXXY..X.X@XOX$XtXxXlXwX5XeXgXlXxXNXlXgX#XD.D.D.N.D.J.G.D.J..X0XrXgXlXxXlXxXxXxXxXxXxXxXgXgXtX0X=XOXOX{.Y.Y..X.X.XXXXX.X.X.X.X.X.X.X.X.X.X.X.XQ.Q.Y..XQ..X.XQ.Y.Y.L.L.L..XOXOXOX$X$X>X0X0X",
"qX0X@X.X.X.XY..XY.Q..X.XY.D.h.t.J.Q.>XqXqX0X0X6X6X6X0X0X0X0XqX0XwX6X0XeX1X0XwXR.| E.3X/.x.c.iXiX8Xv.b E.n.n.K.v.8...v. .D D | | ;.B v | t R.4XE.(.3Xb.3X(.b.E.3X3X3X(.E.3X! 9.v.R.Q..X$X.XD.L.J.OXL.%.N L.tXlXCXZXCXbXzXbXCXCXCXzXD.0.>.e.J.F.Y.uXhX;XL.L.Y.F.Y.XXcXbXuXuXuXzXCXVXzXzXcXzXCXCXCXZXZXZXcXZXZX5.i ~ =.` { l.J.F.Y.@X0X1X^ l o o o . o o .         @ .         @ . +     . . @ + @ % % U i . . .   . .   o o $ o . o o O o o O o o = * O O 1 $ O * 1 e C A ' j.F.T.yXyXyX-X,XyX9X7XI.qXqXY.&.&.R } $X}.1XXXL..XD.z.h.F.XXe.-.L.Y.L.Y.>XuXuX>X1X>X}.F.h.D.D.J.t.e.1 e.uXhXuX-Xz.f.7.0.h.0.} / ^ ^ %.%.-.9.t.h.F.h.h.:.f.g.g.j.g.g.s.g.0.3 A 7.&.} } %.V V ~ _ E v f U Y Y {.l.Y.B.h.B.:.>.-.} l N 9.l.p.D.9.w.l.+XfXfXfXxXxXeX+X+X=XfXeX=X=XeX=X=X=X*X{.H.H.p.w.w.p.H.{.{.D.p.p.w.;.5.i.p.w.w.8.v % s P ( _ 2.4.4.;...%.t.t.h.t.J.>XOXOX@X$X$X$X=XtXlXtXeX0XtXlXlXkXxXHXNX1XL.J.G.D.D.D.D.D.+XrXcXNXJXUXUXUXUXUXUXUXUXUXUXJXJXJXNXxXxXtX0XOX.X.XOX.X.X.X.X.XOXOX.X.X.X.X.XQ.Q.Q.L.L.L.L.Y.Y.Q.Y.Y.Y.L.L..XOX$X$X$X>X0X0X0X0X",
"0X0X.XL.OX>X0X0XOXOXOX$XOXQ.D.N.J.L.Q..XOX$X$X$X6X6X0X0X0X0X0X0X6X6X6X0X$XeX0X<.,.iX(.(.(.J (.iX8X8XD r.E.v.,.v.r. . .b D ,.,.| a 1 2 N 5 r.0XE.W.b./.iX(.(.3XE.A.4X8X3XE.*.K.N..XD.D.D.%.i i Y ` %./ =.$XtXZXcXzXzXzXVXVXVXCXCXCX>Xe.h.>XrXOXF.@XuXrX|.Y.Y.Y..X>XZXCXuXhXcXcXzXZXbXbXCXVXZXZXZXZXZXHXZXNXNX5.g ` =.` =.l.Y.z.F.@X1X0X^ i . o o = < < @ . . .   . @ . @ @ @ 9 9 & & % & % 9 9 9 9 g f @       < $ = $ = 1 e 1 = q 1 < = 1 1 o = e 1 1 1 p e 3 l C C ' Q &.P.P.T.yXyXyX-X,XqX7X7X-XqXyXzX>Xl o &.>X}.>X@XJ.XXL.D.D.F.@Xz.;.F..XY.XX>XuXlX1X@X1X>XL.h.h.e.l.w.p.q e.hXzXhXqXI.0.-.>.e.7.^ / Z { / { -.e.0.h.F.F.j.&.:.g.g.g.s.:.:.s.:.1 A >.} ^ ^ ^ p i U ` _ f d U U U L.h.J.N.g.N.>.>.&.{ p e =.6.-.;.{ %.-.w.p.H.[.+X{.[.p.p.H.w.5.5.H.+X+X{.p.5.5.4.4.5.w.r.p.p.r.5.;.=.;.5.8.4.p.i.4.4.4.0 7 d d ( .._ ..4.=.%.O.9.9.h.t.J.XXeX>X0X0X0X=X0XeXtXeXeXtXlXxXxXxXNXJXJXgX@XL.J.F.J.D.L.$XlXJXUXUXUXUXUXUXUXUXUXUXJXUXUXUXUXUXUXUXKXHXbXrXOXY.Y.Y.L.Y..X.XOX.X.X.X.X.X.XQ.Q.Y.L.L.L.L.Y.Y.Y.L.L.L.L..XOX$X6X6X6X6X6X0X0X0X",
"0X0XOX.XOXOXXX.X.XOXOX.X.XOX$X6XXX.XY.L.Y..XOX$X>X6X0X0X0X0X0X0X6X6X4X6X6XwX4XF #.8X(.S.(.H A.(.8XiXD ,.3Xn. ...,.,. .v.4XiXwXoXv.E : $ < W 4XR.| D 3XiX(.3X3Xx.c | ,.r.,.,.K.Q.G.;./ -.;.Y < , V ~ W g 1XcXcXbXzXzXzXCXCXVXbXCXCXuX.X0X>XOX@XJ.1XzXhXXXY.@X0XrXbXZXrXY.@XtXcXZXZXCXZXHXCXZXZXZXZXZXZXbXNXNX-.i ` =.%.%.l.J.h.F.XX2XrX{ e o o O 1 1 q = @ o @ @ @ @ @ 9 9 @ d f q d w w f f d w L f @ . . . o < 1 p p i e p p p l p p a g l = p T C l j C T l W ] Q &.&.f.I.P.^.qXyX9X-X7X7X,X7X,X7XqXqXzXh.e ] 1X.X1X>XJ.XX.XD.D.l.XXD.;.z.XX.XOX>XuXzX1X.X>X>XL.z.l.l.H.6.w.q w.hXhXqX,XY.g.] S W ^ ^ ^ C ] / ] e.0.7.J.F.j.F.&.f.j.Z.Z.s.s.:.<.:.1 R >.} Q R N q q i U _ P y U Y Y {.h.F.B.N.h.<.>.;.] e 1 %.e.e.9.%.-.6.5.5.=.5.5.5.4.=.{ ` _ Y U ` w.p.5.~ Y Y ` =.5.w.w.w.5.5.5.;.;.5.w.p.p.w.4.=.i.( 0 d d d ( ) ) ..4.` %.-.q.9.h.D.Y.$XeX>X=X0X0X=X0X0XrXeXrXtXlXxXNXNXNXNXJXNX1X}.J.L.L.#XeXxXJXUXUXUXUXUXUXUXUXUXUXUXUXUXUXUXUXUXUXUXUXUXJXtX+XJ.J.L.Y.Y.Y.Y.Y.Y.Q..X.X.X.X.X.X.X.X.X.XQ.Y.Y.Y.Y.L.L.Q.XX$X6X6X0X0X0X0X0X0X0X",
"0X6XOXOXOXOXOX>X.XOX$XOXOXOX$X$XOX$XOXOXOXOX$X6X6X0X0X0X0X0X0X0X0X0X6X6X0X6XW.M c.(.(.(.(.#.#.(.4Xb.D v.K.r.E | ,. .b.4X8XwXiXiXvX.XZ < 1 : v c 5 c oXiXE.4X4X| t v c > B K.R.9.%.&.-.D..X+X` # # $ : g rXbXCXcXCXzXzXVXVXbXbXVXCXuXqXyX>X@X.X}.lXcXcX>XY.@XhXCXHXzX>X$XuXhXhXhXCXZXHXHXZXZXCXCXHXHXHXbXNXxX=.i =.=.-.` z.F.z.F.}.1XtX-.p O . = 1 1 q 1 $ @ @ & < < < w 9 @ g z U V g i f i f d 9   . . o @ 9 q e g p g g N C l C C T T Y W 1 C >.{ ^ ] &.>.^ >.>.] 0.<.P.T.Z.T.,XyX7X-X9X9X7XqX,XqXyXyXyX>X} &.1XXX0X1XL.XX@XD.F.t.}.F.;.t..XY.OX>XuXuX>XXXqX>XD.h.t.l.D.5.9.q e.hXhXuXqXT.h.7.' Q ] } Q ^ ^ Q 6.e.7.z.Y.F.h.P.>.g.Z.Z.Z.g.g.g.f.:.1 Q 7.&.' R N 9 < 0 y P v w U Y V {.l.F.B.N.M.9.;.;.%.t = T 9.D.t.9.l.l.7.5.5.5.=.5.w.5.w.w.w.5.5.5.-.=.` ~ ~ ~ ` =.5.5.4.w.w.i.w.w.w.r.p.p.p.w.4.u.4.0 , y w P ( ) _ _ ..=.%.9.D.t.t.D..X0X>X$XOX#X=X=X0X0X0XrXtXtXgXxXNXNXNXNXJXHXrX$XY.L.+XtXNXZXJXUXUXUXUXUXUXUXUXUXUXUXUXUXUXUXUXUXUXUXUXUXJXrX}.L.L.L.L.L.L.L.L.L.L.Y..X.X.X.X.X.X.X.X.X.XQ.Q..XQ.Q.L.Q.OX$X$X>X0X0X0X0X0X0X0X",
"0X0X6X6X6XOX.XOXXXOXOXOXOXOXOX.XOXOXOXOXXXOX6X0X6X0XqXeX0X0X0X0X6X6X6X6X0X4XW.F A.(.(.S.A.x.H b.E. .D n.r...| |  .#.4X4XW.4X4X(.W.K.W t u < : N B D v.5XE.iXE.E E E v c E 8.;./ D.h.t.G.t.K...2 i ..;.H.NXhXzXzXCXzXuXpXzXzXbXVXyXrXyXhXhXqX@XqXCXbXCXrX1XrXbXZXCXcXzXbXbXhXlXbXHXHXZXCXcXZXZXHXHXHXKXZXZXjX=.V ` -.;.` t.J.z.F.Y.@XhX6.i o o 1 q e e q = @ & w q 9 9 f d & Y Y U V V f q < & @ @ . @ $ @ $ i p i V C Y T W ^ ^ ] } &.-.} { q S h.>.&.h.F.h.&.h.>.:.h.g.T.-XU.T.,X7X:X^.yXyXyXyX,XyXqXuXqXuXh.] 1XXXqX0X.X@X>XF.J.h.XXY.9.e.Y.L.XX>XtXuX1X0XlX$Xt.Y.}.$X=XJ.J.e e.rXyXuX2XP.j.F.h.>.-.] W ] / ] e.>.>.F.z.h.F.I.:.f.g.g.k.s.g.g.g.f.3 Q 0.&.' R Y w < w 0 w d w f U V L.h.F.F.h.N.>.&.;.%.a < i %.p.t.l.H.t.4.-.W ~ Y Y Y N N V V V V C N N Z N i i g N Y Y ~ =.~ ~ ..5.8...~ Y _ .._ ` f % 0 d w P ) ) _ _ ..;.;.q.N.D.D.L..X.XOX$X$X=X0X0XeXeX0XgXlXlXxXbXNXNXJXUXUXJXgX=X}.+X0XNXJXJXUXUXUXUXUXUXUXUXUXUXUXUXUXUXUXUXUXUXUXUXUXUXJX0XL.L.J.J.D.D.J.L.L.L.L.L.Y.Q..X.X.X.X.X.X.X.X.X.X.X.XQ.Q.Q.OX$X$X$X0X0X0X5X5X0X0X",
"0X0X0X0X0X6XOXOX>X$XOX$X>X>X$X$XOXOXOXXXOX$X6X0X6X0XwXqX0X0X0X0X0X6X0X6X6XoXR.| v.iXA.A.,.| H H | | *.b. Xn.8.| E  .v.A.(.S.V.W.E.O.D u a t $ Z E E .. X4X XB c v t f ! ` *.r.t.t.9.0.D.9.%.v ..n.u...w.NXcXHXCXVXpXuXpXzXzXVXVXyXqXyXzXVX1X1XZXcXcXCXuXhXcXZXZXCXCXbXbXlXtXlXZXHXZXzXtXuXcXZXKXZXbXZXZXZX1X~ g ~ -.=.{ 0.}.z.z.}.}.hXe.i o $ q e e p q = @ < w i q q U g & V g Y Y e $ o @ @ . @ & o = q q g p l ~ W W T ] &.} ] &.} >.;.-.p S h.e.e.!..XL.>.z.0.g.I.h.U.-XT.T.,XqX:X!.7XyXyXyXqXqXuXyXrXuX>.&.qXXXqXqXXX@XOXD.J.t.XXY.0.e.J.J..XXXuXzXtXtXzXXXL.tX0X.XJ.H.{.e 0.uXuXqX>XU.T.XXY.F.e.&.] R ^ } } &.h.z.z.z.F.F.>.f.j.Z.Z.g.g.g.j.g.3 A >.} ' A Y i 9 y y 0 0 0 d V N L.h.F.F.h.h.>.;.>.%.N < < V 8.w.w.` N q 1 < < < $ $ < e N Y g t i l ~ ` T Y V Y g i q q w < q q i i t q 9 i y w , $ , w d w f ( ( _ ....%.;.N.F.Q.G.L.L.D.L.#X$X0XtXeXeXeXgXlXlXxXNXxXxXJXJXUXJXJXxX=X@X=XlXJXUXUXUXUXUXUXUXUXUXUXUXUXUXUXUXUXUXUXUXUXUXUXUXUXJXeXL.Y.L.L.J.J.D.J.L.L.L.L.L.Y..X.X.X.XY.Y.L..X.X.X.X.XQ.Q..XOX$X$X0X0X0X0X0X0X0X0X",
"0X0X0X6X0X0X0X$X>X$X$XOXOXOXXXXXOXOXXXOX>X6X0X6X0XwXtXqX0X0X0XqX0XqX0X0XwXQ.q.! <.W.V.R.E.4XE.,.8.K.n.r.4X4XE.D 5 M v.E.A.A.c.A.A.c.c c 5 u O u ~ E E 8.5X*.c t t v f a E r.N.G.F.<.>.q.D.E c E 8.4.4.i.lXHXZXHXzXzXuXpXpXzXzXrXyXyXuXcXzXrXzXCXcXhXlXcXcXZXZXcXZXCXCXbXjXlXbXHXZX0X>XtXhXhXhXhX0XlXZXcXZX*Xg U =.5.-.%.-.|.F.h.J..XgXJ.p . 1 a e 3 e 1 = $ q f a 2 i ^ i @ V N T q o $ $ = < & < < q p e e Z N N ] T Z Q &.7.>.%.&.&.>.0.h.j S P.j.P.>X>XXX0.z.>.B.!.j.^.-X-X,XqXyX^.^.7XyX9XqXqXyXuXuXqXuX0.' >XXX>XqXXX.XOXJ.J.h.}.Y.e.>.D.J.Y.XXlXlXlXbXtX@X0X.XH.{.H.{.}.e >.uXyXqX:X-X:X;XT.h.>.] A C Q ] ] 7.h.h.h.P.I.B.:.f.j.Z.g.k.s.s.g.g.3 A >.] R S C g q , y y w y w V V +Xh.F.g.h.h.>.&.%.` g g g < i f w & , g Z ~ Y Y ~ ` =.p.+X+Xw.-.5.w.e.w.p.p.w.p.w.5.w.=.` Y V Y ~ ~ Y Y ..4._ ~ E Y U f d f P ( ...._ ..*.t.G.G.L.G.N.D.L.{.J.+X0XeXH.K.eXgXlXxXxXxXNXNXNXUXNXUXUXjXeX=XtXNXJXJXJXJXUXUXUXUXUXUXUXUXUXUXUXUXUXUXUXUXUXUXUXUXUXJXrX}..XY..X.X.XL.L.L.L.L.Y.L.L.Q..X.XQ..X.XQ.Q.Q..X.X.X.X.X.XOX$X0X0X0XeXeX0X0X5X4X",
"0X0X0X6X6X0X6X>X>X>X$XOXOXOXOX$XOXOXOXOX>X0X0X0X0XwXrXrXeXwXrX6X0X$X0X6X6XwX6XN.,.pXpXvXiXSX#XK.r. X X#Xn.8.E 5 5 c.S.A.c.c.c./.S.W.#.m 4 N 2 2 ~ *...v ! 5 2 D v v E | | *.*.,.*.>.t.9.K.B E 8.8.2...=.gXbXHXHXKXVXyXyXuXyXqXOXyXuXuXzXcXzXCXCXhXhXjXcXcXZXZXCXZXCXZXcXtXuXbXHXZXrX0XuXuX1X@X$XtXxXNXcXNX{.f ~ 5.5.5.=.-.}.z.h.J.#XgX{.i . < a p 3 3 q $ q e g a 1 g { l = V ~ g $ = 1 < < 9 w q q t p e p T S W / S S Q :.>.>.:.:.&.:.0.g.j Q I.F.U.:X:XXXg.P.0.P.;XF.-X-X-X7XyXyX^.^.9XyX9XqXqXyXuXuXyXzX0.] qX>X1XrXOX.X>XL.J.t.Y.Y.t.>.D.J.XX0XzXlX0XlXlX.XD.t.p.+X+X$X#Xp -.uXqXqX:XT.-X-X!.F.h.>.&.Q Q Q >.>.-.&.h.P.P.P.:.g.j.j.g.g.g.s.g.g.3 A >.] A C N Y N q < y w , d V V }.e.J.g.h.h.7.-.%.^ g v U f < & 9 U w.*XeX=X{.H.H.+X*X1XgX1XeX+XH.l.J.H.p.l.e.p.H.H.{.H.w.=.=.=.=.` ` ` ` ..4.5.` ..u.2.w f U ) _ ..` =.9.D.G..XY.D.t.D.L.L.{.#X=X5XJ.{.eXlXkXkXxXNXNXNXNXUXUXUXNXkXgXfXjXNXJXJXJXJXUXUXUXUXUXUXUXUXUXUXUXUXUXUXUXUXUXUXUXUXUXJXtXXX.X.XXXXXOX.X}.Y.L.L.L.L.L.Y.Y.Y.L.Y.Q..X.X.X.X.X.X.X.XOXOX>X0X0X0X0X0X0X0X5X4X",
"0X0X0X0X0X6X6X6X6X6X$X$X$X4X6X6X$X$X$X$X6X0X0X0XeXeXqXtXeX0XwX0X0XqX0X6X0X4X6XwX>.vXHXvXSXSX#XK. X5Xn.v.n.n.b 5 H A.c.#.K H #.c.A.A.c.c 4 N g $ g ^ ! V t X $ u t c B ! D m c m m B q.t.W a ..8......._ eXbXHXKXZXHXzX>X!.P.I.>XrXuX>X>XzXZXcXuXrXhXzXcXcXCXZXCXhXcXzXuXrXuXcXJXJXbXlXhXtX1XqXhXcXcXbXNXNXn.i ~ =.=.;.%.&.}.F.z.J..XgX#Xa . O < j p p 1 = q i N l e C ;.C < N / 1 $ e 2 1 q e g a e p l p e S R / W S A Q 0.:.:.:.>.&.>.0.0.j ' T.P.T.,X:X-Xj.Y.h.T.>XP.XX;X>XyXyXqX-X-XyXyXyXyXyXuXuXuXuXVX0.} rX0X1XqX>X.X0X.XY.D..XXXD.0.J.L.qXuXzXlXOX0XlXJ.6.t.D.{.H.{.J.p &.yX:X:X-XT.:X:X;XT.h.0.0.>.] R &.&.} ] h.j.P.I.:.g.j.g.s.g.g.s.g.g.3 Q :.] A C N ` ` V 2 y y < i z N }.e.F.&.&.h.7.&.] T a g Y f y y U [.+X+X=XgXeXeXeXgXgXgXfX=XfXeX*X{.{.H.w.H.{.J.{.H.p.w.=.{ =.=.` ~ ` =._ ` 5.=._ w.n.4.y w P _ ..=...=.w.h.h..XQ.D.l.D..X.X#X=X0X0X$X=XgXxXxXxXbXNXNXNXJXUXUXUXkXfXjXxXNXJXJXJXJXJXUXUXUXUXUXUXUXUXUXUXUXUXUXUXUXUXUXUXUXUXUXKXtXOXXXXXOXOXOX@XOX.X.XL.L.L.L.L.L.L.L.L.Y..X.X.X.X.X.XOXOXOX$X0X0X0X0X0X0X5X5X=X=X",
"0X0X0X0X0X6X6X6X6X6X6X$X$X6X6X0X0X0X0X0X6X0X0X0XeXeXrXtXrXrXrXrX6XqX0X4X4X0X0X5Xr.tXvXgXbXbX#XK. X8.n.wXkX XD c H H M H H M H x.A.v.c.m t p N . 2 ..E ! a $ : ; - B ! #.,.+.| ,.F 4 u a O t ........4...5XxXwXOXqXbXCXB.:.<.g.T.>XrXOXY.yXzXqX>XrXhXjXcXcXCXcXtX>XrXqXqXhXlXlXHXHXHXcXtXrXuXcXZXcXbXNXJXHXw.i ^ ` =.-.%.] J.h.h.Y.XX0X}.i O o O e C p = 1 q i Y l e N 6.C = C / < < p 1 q q i ~ l p l z p p A Q ] S C A ] g.<.:.:.<.:.:.:.:.k ] T.P.!.,X:X-Xj.Y.j.XX,XI.-X;X>XyXyXqX-X:XyXyXyXuXyXuXpXuXuXVX>.&.tXrX1XrXqXXXqX@X.XJ.XX>XJ.t.G.Y.uXuXlXlX.XL.rXD.%.5.w.t.{.=X}.3 -.yX-XT.~.^.:X,X,X-XP.g.h.g.0.>.' Q &.0.h.g.F.P.<.j.k.g.s.g.s.s.a.f.3 Q >.] R A C ^ -.%.Y Z U U g g C @Xz.h.S S f.7.&.] T N a V i w y 4.fXeX X*X*XeXxXfXeXeXeX*X+X{.+X=X}.H.l.p.{.#X{.{.p.5.5.5.=.=.=.` ` ` =.=.4.=.` ` i.w.4.f 0 v _ ....=.9.D.D.t.D.L..XOXOX.X=X1XeXeXeXeXgXlXkXlXxXbXNXNXMXNXUXUXUXfXgXMXJXJXNXJXNXJXJXJXUXUXUXUXUXUXUXUXUXUXUXUXUXUXUXUXUXUXUXUXJXeX$XXXOXXX@XOX@X@XOX.X.XQ.Q.L.L.Y.Y.Y.Y.Y.Y.Y.Y.Q..X.XOXOX$X6X0X0X0X0X0X0X=X=X=X=X",
"0X0X0X0X0X6X6X0X6X6X6X4X6X6X6X6X6X0X0X0X0X0X0X0X0XeXrXeXrXtX0X0X0X4X6X4X0X4X XwX9.0XtXlXxXvXoXR.r.v.3XiX4X,.D H H M M x.x.#.#.#.,.v.C.| t 2 Z ; : Y ~ 8.W O $ O | v.V.V.v.<.#.c.#.#.B X $ u *...........#X#X XD.@XqXVXh.] ] &.j.7XyXOXY.uXuXXXXX1XuXtXhXzXCXuX|.Y.XX>X2XuXhXlXZXHXHXtX$X1XuXzXzXcXbXbXHXJXw.i ^ =.5.;.=.^ J.e.z..XXX0XL.i $ O O 1 C 1 = q e i W N p N 7.C = T Z 1 * e p t i g =.C p N C l j S ] &.S B A :.g.f.:.:.f.:.0.:.f.A } !.P.-X,X,X>XF.Y.z.XX,XY.-X>X;XqXqXqX;X,XyXyXyXuXuXpXpXyXrXzX>.&.uXtX0XrXtX@XrX>X.XY.XX1XL.h.L..XqXtXrXrXL.t.OXL.t.9.w.{.=X#Xl.j -.yX-XU.T.-X<X:X,X,XI.j.B.F.F.h.:.Q ] 0.0.g.B.j.g.k.j.k.s.s.s.:.:.a.3 A >.] R S ^ { -.=.=.` ` ~ C g N |.z.e.A S 0.e.>.%.^ Z g V U y f [.kXgXeXeXeXeXxXgXeXeXeX=X+X+X+X{.J.}.{.H.=X=X}.J.p.w.6.9.w.5.=.5.w.5.5.w.5.` =.4.w.8.i.P 7 d ( ` ` ;.t.L..XL.D.Y.1X0X0X0X0X0XeXeX0X0XeXtXeXgXxXxXxXxXxXxXMXNXNXxXMXUXUXJXNXJXJXJXUXJXJXUXJXJXJXUXUXUXKXJXUXUXUXUXUXUXUXUXUXUXHX1XOX@XOXXXXX@X@XXXXXXXOX.XQ.L.Y..XOXOX.XQ.Y.L.L.Y..XOXOX$X6X0X0X0X0X0X0X=X$X=X=X=X",
"0X0X0X0XeX0X0X6X6X6X6X6X6X6X6X6X6X0X0X0X0X0X0XeXeX0X0XeXeXeX0XrXwX$XwX4X4XK.*.#Xt.0X0XtXlX5Xt.v.n.wXiXiXA.D H ,.M #.x.b.c.c.b.#.,.v.v...u < v q   a ` r.E X O u v.v.v.<.#.#.x.c.#.v.V.B - v ..| | D E .. Xi. X#X$X$XzXY.' S &.B.,XqXI.F.>X@XJ.L.>XqXrXuXjXVXuXz.z.z.XX1X1XtXbXCXHXCXrX1XrXuXcXbXZXZXNXNXNXw.i ~ =.5.-.%.] Y.h.Y.Y..X0X+Xa $ O o q i $ < p e p Z C j A 7.C 1 T p * . < l g N Z =.T l C S N z R &.-.S j A g.f.f.:.:.s.:.f.f.f.C &.-XI.;X,X2X>XL.Y.F.-X>XI.;X,X>XqXqXqX,X7XuXyXyXuXuXpXpXqXrXzX&.&.uXtX0XqXuXXX0X>XXX.XOX0XL.h.L..XqXtXXX@XD.t.l.D.t.L.=X{.H.D.e.p &.yX-XU.^.<XyX<X,X-XP.P.I.I.F.h.e.] Q &.:.g.j.P.j.j.g.g.g.g.a.:.s.:.3 A -.] R A ^ 6.6./ ` ` ^ Y Y g g z.0.0.S Q >.h.>.%.^ Z N Y ~ U U 2XxXgXeXtXtX=XeXgXeX=X+X+X{.1X=XH.{.*X{.{.1X@XL.l.p.p.t.p.J.w.6.l.D.w.i.i.` _ 4.5.5.w.n.v , y v ~ ^ ;.t.D.Y..XL.OXrX0X0XeX0X0X0XrX0X0X0XeXtXxXNXxXgXfXkXMXxXMXMXMXNXUXJXMXNXUXUXUXUXJXNXJXUXJXJXJXKXKXJXJXUXUXUXUXUXUXUXUXUXUXNX=XOXOXOXXXXX@X@XXXXX@XOXXX.XQ.Q.OXOXOXXX.X.X.X.X.XOXOX$X$X6X0X0X0X0X5X=X=X$X=X=X=X",
"0X0X0X0XeX0X0X0X0X0X6X6X6X6X6X>X0X0X0X0X0X0X0X0X0X$X$XrXeX0XtX0XD.C.oXK.r.n.r.n. XeX0X5XtXL.8.*.K.0XiX4Xv.| | #.M x.c.x.#.#.x.#.D b c B v t a i O < v N < 5 B %.*.| F F H #.#.c.c.| #.,.2 c v v ! b v ..n.n. X#X#X$XuX>X] ] <.<.P.OX;XOXY.h.F.Y.>X1XqXuXhXzXyXz.f.h.Y.OX@XrXcXbXzXlXtXlXzXhXcXCXZXZXZXbXNXp.i Y %.=.=.{ &.Y.h..X.X.X0XL.i o @ & q $ = 1 a q l C C j A 7.C 1 R p e 1 O a Z N Y -.^ N S T C z R 7.0.S m F f.:.f.:.:.s.:.f.h.z.C } ;XI.;X>X>X-XL.}.L.-X>XI.-X2X,XuXyXyXqXyXpXuXyXyXuXpXzXqXrXzX%.-.hXtXqX0XuXXX>X>XXXXXXX>XJ.t.G.Y.qXeXY.}.D.l.-.9.%.9.H.p.p.p.6.e ' qX-XU.^.<XyX<X;X-XT.T.P.F.F.P.h.>.' &.:.g.j.P.g.k.g.g.s.g.s.a.g.a.3 Q :.] R A Q 6.0.} / ` / Y C g g J.e.f.' ] :.e.>.O.W C V Y 5._ _ *XgXeX=XxXgX=X*XgXtX$XH.{.#X+X+X{.+X=X{.J.=X$X{.H.p.p.H.{.{.p.w.p.w.5.8.5.=.=.=.5.w.p.H.U y v f U / 9.D.D.L.L.L.#XtXtX1X=XeXeX0XeX0XrXrXtXxXxXgXeXgXkXxXMXMXxXmXNXPXUXJXNXJXUXJXZXUXJXNXJXUXJXJXJXJXJXJXJXUXUXUXUXUXUXUXUXUXUXxX=X$X$X$XOXOXOXOX@X@XOXOXOXOX.XXXOX$XOXOXOXOXOXOXOXOXOXOX$X$X$X$X$X$X$X=X$X=X1X=X=X",
"0X0X0X0X0X0X0X0X0X0X6X6X6X6X6X6X>X0X0X0X0X0X0X0X0X0X$XeX5X0X0X>.<.W.oX,.D ..8.*. X5X#X0X5XK.8.|  X3X3Xb.b.v.| x.#.#.x.x.#.#.x. .D B E ..E f a V O O : - ~ v.v.r.*.| F c c x x M b.v.| #.D 5 u D v.n.E.8...n.n.n.{.#XrXKX0.] >.:.h..XyXzX.Xh.L.Y.|.@X,XuXyXuXuXF.0.F.F.J.@XrXhXcXlXhX0XrXrX1XrXtXbXNXZXNXJXn.i V ~ ~ { / 6.}.F.@XOXY.OXH.q . $ 9 = O 1 e p e j S C j A >.C 3 C p R Q 1 < N l W ;.{ C R R C N Q 0.z.Q C ] f.<.s.:.g.s.:.g.j.P.C &.;XI.;X;X;X@XL.Y.F.-X,X|.>XrX>XuXyXyXqXyXpXuXyXqXuXzXzXqXyXzX} -.hXuXrX0XuX@X>X>XXXXX@X1XL.h.Y.XX>XOX.X.X}.l.{ 6.9.%.;.5.p.e.;.p ] 2XT.P.^.<XyX<X:X-XP.I.j.j.F.T.I.h.:.:.:.g.g.g.g.j.k.d.a.g.g.s.g.a.3 Q >.] R S ^ &.;.;.{ ` W Y N a l |.F.h.' ] &.0.*.] Q Z Z ~ -.~ w.xXgX1X+XtXxX5X#XgXlXeX{.+XeX{.H.#X=X=X+XH.H.+X.X#X{.J.}.$X}.{.p.t.p.p.t.w.p.5.` =.w.p.+X( y U v Y ;.D.L.J.L.L.OX$X0XeX1XeXeXrX1X0X1XeXeXtXlXgXeXeXgXxXxXxXkXkXxXUXUXUXZXNXUXUXMXMXNXNXNXJXJXJXJXJXJXJXJXJXUXUXUXUXUXUXUXUXUXJXtX$X$X$XOXOXOX$XOXOXOXOXOXOXOXOXOX$X$XOXOXOXOXOXOXOXOXOXOXOX$X$X$X$X$X$X$X$X=X=X=X=X",
"0X0X0X0X0X0X0X0X6X6X6X6X6X6X6X6X$X=X1X0X0X0X1X0X0X0X0X0X0X0XL.q.W.8X8Xb.| ,.E. .9.4X$X4XwXK.| *.4X3Xb.v.E.x.M #.A.c.c.x.c.c.c.x.D 5 u D ~ E w f # O O D K.v.#.| | D ! D H F D c M #.,. .D D b.E.4Xb.W.E.D v.K.t.{.$XlXHXqX<.F %.e.OXuXyXF.0.Y.XXI.>XuXyXuXpXyXj.&.g.j.h..X1X>XhXuXtXqXqX2X>X1X0XhXcXNXbXNX{.i g Y / ` ~ l.J.h.Y.Y.J..XH.q $ < & $ < = e l p j S A A R f.C = z C ' ] A * a l T w.{ N W C T C Q f.F.' A >.g.f.g.s.g.g.<.g.j.P.C ] XXI.T.Y.T..XI.I.L.-X>X|.>XrX2XrXyXyXyXuXuXuXyXyXuXzXuXqXrXzX-.;.cXlXtXrXrX0X2X1X.X1X>XrXXXJ.XX>X>X}.@X$XL.J.e.;.w.5.-.5.=.{ -.p Q qXT.U.^.<X9X<X,X-XI.Z.P.Z.T.P.T.P.f.>.>.:.f.j.g.k.k.g.a.g.s.:.a.:.* Q :.' A A ] -.-.=.-.=.` ~ C e T @XJ.h.^ } -.7.>.] ' C S { { / H.jXgXeXfXgXgXeX{.=XgXeX0XeX+XH.+X+X1X=X+Xw.5.}.0XeX+X{.+X$X#X{.l.e.w.t.w.p.w.=.=.` i.i.&X~ < E E ^ r.9.G.L..X@XOX$X0XrXrXeX1X$XqXeX1XeXeXeX0X=X=XgXgXxXxXMXkXfXMXUXUXUXMXJXNXMXNXJXJXNXMXJXJXJXJXJXJXJXJXUXJXUXUXUXUXUXUXUXUXxX0X$X$X$X$X$XOX$XOXOXOXOXOXOX$X$X$XOXOXOXOXOXOXOXOXOXOX$X$XOX$XOXOX$X$X=X$X$X1X1X=X=X",
"0X0X0X0X0X0X0X0X6X6X6X6X6X6X6X6X0X1X0X0X0X0X0X0X0X0X$X0X0X6XOXQ.9X(.(.E. .| b.*.9.$X0XOX$X4XoX| E.E.v.b.A.x.D x.A.A.c.A.A.x.c.x.D t v f V Y , 0 # o $ E V.v.,.| | b D | #.,.,.M 5 5 D c 5  .A.E.A.E.4X8XE.r.9.r.R.$XtXbXHXpXG.<.0.F.Y.h.0.F.|.I.|.,XyXyXuXuXVX,X<.0.h.g.f.h.Y.uXuX>XXX>XqX@X@X1XtXbXZXxXxX+Xf a g Y W %.J.F.e.Y.Y.F.L.t.< @ < < $ < 1 a l N N S A C ] e.z * 3 C z ] z = C T ~ 9.%.C / Q ] R ^ h.P.Q A f.j.f.s.s.k.j.s.g.j.P.k ' T.P.T.T.T..XI.Y.F.-X>X.XOXqX>XrXuXtXqXyXuXuXuXyXyXzXuXrXrXcX-.-.cXcXhXtXrXrX0X2X@X0X>XrX@XY.$X>X$X.X.XOX}.L.J.l.` ` %./ ` ` ;.p A yX!.j.U.,X9X<X:X:XT.j.j.j.U.P.k.j.:.:.:.:.g.g.g.k.g.s.a.s.s.:.a.:.* Q :.' A A ] -.-.=.=.=.~ Y N e C Y.z.h.] } 7.0.-.' ] S S ] / W {.gXxXeX1X1XgXgX=X=XgXgX=X#X+X{.*X$X*X=X+Xp.w.}.0X=X{.}.1X#X+X$XJ.J.D.e.p.H.9.=.=.4.p.H.&X_ 0 U ~ ..;.9.N.D..X$X0XrX0X$X$X>X$XOX0XeXqX0XXX.X#X0XgXxXxXxXxXMXkXkXxXNXUXMXfXMXxXNXDXMXMXNXJXJXDXJXJXJXJXJXJXJXJXUXUXUXUXUXUXUXJXgX1XOXOX$X$X$X$X$X$XOX$XOXOXOX$X$X$X$XOXOXOXOXOX#X#XOX$X$X$X$X$XOXOX$X$X=X=X=X1X1X1X1X",
"0X0X0X0X0X0X0X0X6X6X6X6X6X6X6X6X0X0X0X0X0X0X0X0X0X$X0X0X$X0X0XG.A.V.c. .| v.oXK.v.G.>X$X6X6X0Xv.v.A.E.(.E.b.#.#.b./.c.c.c.c.c. .c v t 0 .._ 0 y #   X t v.W.E.A.v.A.x.,.| D b c b ,.B - X 5 b | c.E./.(.oX| ,.n.L.OX0XbXKXKXCXvXuXY.>.&.7.z.z.F.Y.@X>XqXuXyXuXqXP.<.>.-.>.z.>XhXrX1X>X$X2X1X@XrXrXlXbXjXxXeX~ V g ~ { e.L.h.e.Y.}.l.l.6.< $ 9 < 9 9 1 a j N C ' A C ] e.z = 1 3 C z = = i Z / 5.&.S } } &.Q ^ e.P.' F j.B.g.g.<.g.g.s.j.j.P.z ' ;XT.T.T.T.!.I.I.F.OX>XXX>XqX1XrXuXtXqXuXuXuXyXqXyXpXuXrXuXcX-.;.cXcXhXhXhXrXrX0X>XrX1XqX@X}.1X>X$X.XJ..X}.}..XL.;.` =.` 4.=.6.p A -XU.P.~.<XyX<X^.^.U.j.j.g.j.j.g.g.<.f.:.:.g.f.s.g.g.s.a.d.a.a.:.:.* A :.' Q Q ] -.=.=.=.` ~ Y C i T J.z.h.] } &.>.&.Q Q S ' >.} ^ +XeXgXeXeXgXgXxXxXgXeX+X{.+X=X+X+X=X0X0X*X}.H.l.H.=X0X$X=X$X$X1X+XJ.l.e.9.p.t.5.=.5.p.[.[.~ & f E ;.8.9.9.t.OX0XeX6XOX$XeX0X$X1X1XOXOXL.D.{.#XeXkXxXMXNXMXxXfXfXxXMX[.w.=XeXxXNXNXNXMXJXMXNXDXNXNXJXKXJXJXJXJXJXJXUXUXUXUXUXNXeX$X$XOX$X$X$X$X$X$X$X$X$X$X$X$X$X$X$XOXOXOXOXOXOXOXOX$X$X$X$X$X$X$X$X$X$X=X=X1X1X1X1X",
"0X0X0X0X0X0X0X0X0X0X0X6X0X6X6X6X0X0X0X0X0X0X0X0X0X0X$X0X0X$XeX6X| <.#.,.,.E.4X4X.X.X0X$X6XOX4XE.,.b./.A.b.b.,.c #.c.c.c.c.x.v.x.b > : t ..E 2 , : O   : ,.v.W.E.E.A.E.v.D H D D ,.D > > 5 x 5 x M c ,.4Xb.K.v.K.n.$XjXHXHXHXCXzXbXVXqXh.-.>.0.>.z.Y.T.;X;XT.T.XX0.:.>.-.0.}.cXHXrX1X1X1XrXhXrXgXjXlXlXlXbXxX5.Y ~ 5.e.D.J.e.h.}.}.t.e.=.$ o < , < $ q N N l N ' S S ] e.p 1 e . = = = g p V ` t.6.W &.-.-.^ Q 0.F.' ' j.g.g.g.s.g.g.:.g.j.P.C ] ;XU.U.T.XXOX.XT.F.OX>XXX>XyXqXqXtXtXtXuXuXyXqXqXyXpXyXqXrXzX-.>.cXlXhXhXhXuXrXrX$XrX1XrX$X.X1X0X1XL.z.}.Y.}.Y.J.l.%.5.=.w.=.5.p A T.Z.U.U.<XyX^.^.U.Z.g.Z.g.s.g.g.g.f.f.s.:.g.:.:.s.d.s.d.d.a.a.@.@.* A :.] ' ' &.-.%.{ ` ` ~ Y V p W J.z.h.] } >.0.>.' Q S ' >.%.=.*XgXgXeXeXxXxXxXeX*X+X+X+X=X+X+X+X1X=X=X*X#Xp.w.9.{.0X=X=X0X0XrX+Xl.H.H.9.w.t.=.=.4.p.[.[.U o $ < V *.8.t.D.4XeX$XQ..X0XeXOXOX{.D.t.p.D.H.+X{.=XgXxXxXxXgXxXxXMXeXH.w.w.[.fXxXxXxXMXNXNXMXNXNXNXNXJXJXJXJXJXJXJXJXUXUXUXUXUXxX=X$X$XOX$X$X$X$X$X$X$X$X$X$X$X$X$X$X$X$X$XOXOXOXOXOXOX$X$XOXOX$X$X$X$X$X$X=X=X1X1X1X1X",
"0X0X0X0X0X0X0X0X0X0X0X6X6X6X6X6X0X0X0X0X0X0X0X0X0X0X0X0X$X0XeXt.v.M.OX4X4XE.iXwXwXeX0X>X$X4XwX*.,.c.A.A.c.x.#.b H v.c. .#.,.,.| t t 2 c ..B O O X X O X c r.E.E.E.v.#.#.#.D | ,.D - - t t t 5 H ,.| M v.E.iXr.r.t.$XgXbXbXHXHXVXzXCXVXyXY.h.F.h.h.h.f.g.j.j.P.I.h.&.&.h.1XlXZXbX1X@X1X0XqXtXrXrXtXtXjXxXNXNXH.~ ~ =.t.l.D.0.h.OX.Xe.e.%.$ o $ # # $ e N N j C ' S S } w.e q g < 1 i g V f V ` t.0.^ -.7.7.} ^ 0.F.' ] g.g.g.g.s.g.g.a.g.g.z.A ] XXU.T.!.XXXX.X}.Y.@X>X}.>XyXqXqXqXqXtXuXuXyXrXrXyXuXrXqXqXzX&.>.cXlXjXhXhXhXrXrX>XtX1XtX1X.X1X0X$XF.D.}.}.Y.J.L.D.=.5.=.=.=.5.p z T.j.j.U.<X<X^.U.P.g.s.j.g.s.Z.j.g.g.s.j.:.a.:.@.a.a.s.d.a.a.a.:.@.* A :.} ' ' &.&.{ ` ` ~ ~ Y N p ^ J.z.e.R Q -.7.&.Q ' Q &.>.Q 9.=XgXgXeXgXxXxXgX+X+X+X*X*X+X+X+X=X=X$X+X*X#Xp.9.5.H.=X1X1XeX0XeXH.H.#XH.9.w.5.=.=.4.H.[.[.U @ , < t u v ..>.N.L.Q.Q.K.D.D.t.t.t.D.{..X+X+XJ.#X#X=XgXxXMXkXgXNXfXp.{.xXeX+X*XNXDXNXMXMXNXNXMXMXNXDXNXNXJXJXNXJXJXUXUXUXUXUXJXgX=X#X$XOXOX$X$XOX$X$X$X$X$X$X$X$X$X$X$X$X$XOXOX$X$X#XOXOXOXOXOXOX$X$X$X$X$X=X1X0X0X0X1X",
"0X0X0X0X0X0X0X0X0X0X0X0X6X6X6X6X0X6X>X0X0X0X0X0X0X0X>X0X0X$X$X.XOXOX6X6X4X0X5X0XeX=X0XeX$X0X4X! ,.#.#.b.c.c.#.#.M M D  . .b c > > f t u v c E | | 5 X X 2 ,.R.K.,.H D | b b E c : 2 b b t t D |  .x.H #.4X3X,.r.H.+XeXZXHXZXZXCXbXbXzXzXzXyXuX@X-XF.&.] :.P.;X7X,XT.T.2XcXcXcXcX1X1XrX0X1XrXrXrXhXxXbXNXcXNX{.Y Y ^ 6.t.z.9.F.XXY.9.w.%.= o $ # # < i g a p C Q A A { 5.e i g i i g U Y V ~ ;.9.9.^ ;.0.0.&.^ >.j.' ] g.s.s.s.f.g.g.g.k.j.P.C ] XXXX-XXX.XT.|.}.Y.$X>X}.@XrXqXqXqXqXtXuXuXyXyXuXyXuXqXrXqXzX} ;.cXlXlXhXhXjXrXhX1XtX1XtX0X@X1X>X@XF.J.@X.XL.D.}.{.;.5.{ ` { 6.e l F.f.g.Z.^.^.Z.k.Z.g.:.k.s.s.Z.j.g.j.a.k.s.a.a.@.a.s.d.k.a.a.a.@.[ * A a.[ ' ' ] } { { ` ~ ~ U N p { J.z.>.A R &.>.} Q Q S ] %.C t.=XgXeXeXgXgXgXgXH.H.+X+X=X+X+X+X0X=X=X+X+X{.t.=.5.{.0XeXrXrX=XJ.H.+XH.L.{.9.=.` =.4.H.[.{.U # , a V u v B v B D W O.;.q.D.K.L.{.oX+X+X#X=X#XK. X#X5XgXNXNXxX=X4.n.gXfXkXkX=X*XkXDXMXMXxXMXDXMXMXNXNXDXNXNXDXJXJXUXUXUXUXUXJXtX=X$X$XOXOXOX$X$X$X$X$X=X=X1X$X=X$X#X$X$X$X$XOX$X$X#XOXOXOXOX$XOXOX$X$X=X0X0X0X0X0X0X0X",
"0X0X0X0X0X0X0X0X0X0X0X0X0X0X0X0X0X0X0X0X0X0X0X0X0X>X>X$X$X0X$XL.OXqX$X6X0X#X4X5X$X1XtX0X$X0X{.D | H D H  .x.,.c.A.b - > > 2 D ....v 0 t u *.R.R.wXv.5 X   t ! c D M D D D D 5 > : t c 2 : t v D | ,.v. .E.8.u ..D.+X1XxXZXHXCXzXzXCXGXCXVXuXuXrXzXuXqX,X,XuXuXzXzXzXzXcXcXzXcXcXlXlXtX1XrXlXhX0XrXlXbXbXbXNXeX~ V ~ ;.h.h.9.F.Y.D.;.w.=.< o $ # & i g N l j S S S A { 5.w w i f g N Y ~ U Y 5.9.9.^ >.e.0.&.Q -.h.' &.g.g.s.s.g.k.g.g.P.P.U.A ' T.XX;X;XXX@XOXXXJ..X@X}.@XqX0XqXqXqXtXuXuXyXyXuXyXuX2XqXqXhX{ ;.cXlXcXlXlXzXtXhX$XrX1XrXqX$X1X$X@XL.L.$XXXL.J.}.+X-.=.=.=.{ e.e j g.g.g.k.Z.~.d.a.k.a.:.g.:.:.k.g.f.k.a.f.g.f.g.:.a.s.d.k.a.a.:.@.[ * A a.@.' ' ' ] } { ` ~ E V g i { z.h.>.S ' &.7.&.Q Q S ] ] C D.rXxXgXeX*XH.=XxX+XH.{.*X+Xp.H.*XgX$X+X$X+Xp.` 5.J.=X0XtXtX1XH.+X@XJ.+XrX@XH.5.` =.5.H.[.{.U & , y v i B ;.9.,.O.D D %.r.K.R.#X+X{.+X+X+X*X+X X+X#X5XkXDXkX*X_ {.*X*XfXfXfXMXfX5X5XkXDXNXMXMXNXMXMXNXNXMXNXJXDXJXUXUXUXUXUXNXeX=X$X$XOX$XOX$X$X=X=X=X1X1X1X=X$X#X$X$X$X$X$X$X$X$X#X$X$X$X$X$X$X$X$X$X0X0X0X0X0X0X0X0X",
"0X0X0X0X0X0X0X0X0X0X0X0X0X0X0X0X6X6X0X0X0X0X0X0X0X$X$X4X4X0X0XrXeX0X0X0X=X0X5X0X0X0X0X$X0X5X$XB D | H D | <.#.,.v.| 5 5 ..E.#X5X3X,.> 2 c ! K.E.E.oXv.u X O 2 : 5 D c 5 5 > 5 > O > : : t c b D | ,.b.b.c : 2 =.p.=XtXbXZXCXzXuXzXVXCXVXVXzXuXVXzXzXzXzXzXVXuXuXzXzXVXCXcXlXcXbXbXZXlXtXcXlXrXrXrXhXlXxXNXZXgX~ g ` ;.l.e.9.Y.Y.h.-.w.%.< o # # < i i g p j S ' A S } 6.q w v f U ~ ` ` ` ~ 5.9.t.] 7.e.7.} Q -.e.] :.g.f.g.g.g.Z.k.g.k.j.Y.A ' T.XXXXXXOX;XOX}.z.F.Y.}.$XrX1X0XqXqXtXuXuXyXtXrXuXyX>XqX1XuX] >.cXcXbXcXcXcXhXlX@XtXeXtXrX>X0X1X@X}.L.OX@X}.}.}.H.%.5.5.4.=.l.e j U.T.a.d.d.k.d.s.k.@.@.g.@.:.k.a.a.k.a.:.k.f.g.:.:.a.s.d.a.a.:.a.@.* A :.@.} &.' ] } { ` ~ E V g p %.l.0.>.S ] &.>.} Q Q S / W Z J.tXgXgXgX*Xp.{.eX+X{.+X+X{.{.=XeX=X{.+X*X+Xe.6.{.eXeXeXrX@XJ.+X$X@XrXtX=X.X{.{.w.5.p.[.+X&X( @ $ w Z Z a *.*.K.K.N.v.*.! ..9.K.{. X#X*X X{.{.+X=X5XeX5X*Xw.U +XeXMXkXfXxXMXkXfX{.w.p.[.5XfXMXMXMXMXxXxXMXDXMXNXJXUXUXUXUXUXNXeX=X$X$X$X$X$X$X0X0X0X0X0X1X1X=X#X$X$X$X$X$X$X$X$X$X#X$X$X$X$X$X>X$X>X0X0X0X0X0X0X0X0X0X",
"0X0X0X0X0X=X=X0X0X0X0X0X0X0X0X0X0X0X0X0X0X0X0X1X0X6X$X$X0X0X4X0X1X1X0X$X0X0X#X5X5X0X=X0X0X$X0X%.v | E  .K.,.! ..! c : ..wXwX3X3X3Xv.v 5 D 8.v.4XW.iX4XK.2   - - - 5 O O X : c t , ; 0 : : v D v D  .v.W. .5 ,.8.9.=XtXcXCXVXHXVXzXzXGXCXVXVXVXpXuXVXzXpXVXVXpXpXyXzXzXzXuXuXtXzXzXlXlXbXHXcXlXbXlXbXZXZXNXNXjX` Y =.-.l.7.-.F.D.9.6.w.5.9 @ # # & 9 i g p l Q ] S ' } =.< i v f V Y _ =.` ^ -.9.h.] 0.h.7.] Q &.>.&.>.g.j.j.f.g.g.Z.g.j.j.P.C ] XXOX;X;X;X>X-XL.z.J.L.L..XtX@X}.OX@X>XqXuXuXqXrXhXyX>X>X>XhX{ 7.bXcXZXcXxXbXxXxX.XrXtXrXhXrXrX1XXX}.Y.$XXX}..X}.D.;.w.5.5.4.l.p p P.j.[ @.k.Z.k.a.a.:.a.a.@.a.k.@.s.k.g.@.f.k.s.@.@.a.a.a.a.@.a.f.a.* A 0.&.] ] ] ] &.{ ^ ~ Y N N q -.t.0.&.Q &.>.7.} ' Q ] %.N Z =XxXMXkXeX+XH.p.{.+X+X+X=X=XeX=X+X{.{.=XgXeXeXeXgX=XrXrX=X{.+X@XeXlXbXrX=X$X=X=X{.H.H. X+X&X_ # & 9 E E 2 %.R.K.Q..XK.D.t.*.Z B Z ~ Y Y N f ~ w.n.w.~ n.+X4.U ..4.i.8..._ ( ( 4.n.&X*X[.n.i.p.n.[.5XkXfXfXfX=X+X+XeXMXUXDXJXNX=X=X$X$X$X$X$X=X0X0X0X0X0X0X0X$X$X#X$XOX$X$X#X$X$X#X$X$X$X$X$X$X6X0X0X0X0X0X0X0X0X0X0X0X",
"0X0X0X0X0X0X0X0X0X0X0X0X0X0X0X0X0X0X0X0X0X0X0X1X$X0X0X0X0X4X$X5X=X=X0X0X0X#X=X5X0X=X0X$X0XwX=X0Xr.8. XkX5Xv.r.r.r.E a .. X X X3X X,.E c .. Xr.v.4XiXiXwXB X O O - - - c ,.n.*.t t # # : O t D E D ,.x.,.n.*.r.;.9.oXeXlXbXVXCXVXzXzXzXCXCXVXzXuXpXzXpXuXpXyXqXyX7XyXqXqXqXuXhXhX0X1XeX0XtXlXcXlXcXbXbXjXbXZXcX5.N ` -.e.-.>.z.e.e.9.5.=.9 $ # # , w f N a C Q ] F ' } { < i V v Y ~ { 5.%.W %.0.h.&.e.e.6.] Q ] :.:.>.g.j.j.g.g.g.j.g.j.k.z.C ' -X;XXXOX>X>X>X@XD.z.J.L.}.1XJ.e.}.L.Y.>XtXyXrXyXzXuX>X>X1XhX] >.bXcXbXcXcXNXxXlX$XhXlXtXhXhXtX1X$X@X}.$X@X.X@X@XL.;.5.5.w.=.l.p p } ' @.a.Z.~.k.a.a.:.a.:.[ a.k.@.s.k.k.:.f.g.@.' [ a.a.d.d.a.a.s.:.* A 0.&.} ] ] &.} ^ ^ T V N g e ;.l.9.} R ] -.>.] Q Q ' ] l / tXxXNXxXeX+XH.H.+X*XeXgXgXeX=X+XH.{.+X*XeXgXeXrXgX0XgXtX=X{.@XeXxXNXgX=X=X0X=X=X#X{.{.+X+X*X_ # & ; i u t ~  X4X$X.X$XR.K.R. XW $ < g E ..4.p.n.8.V g fXMXNX&X4.E v y 0 i _ [.fXkXMXMXMXkXfX*X[.[.&X&X&X&X*X5X5XeX*X+X&X*XgXgX=X$X$XOX$X$X=X1X0X0X0X0X0X0X0X=X$X#X#X#X=X=X$X$X$X$X=X=X=X>X0X0X6X0X0X0X0X0X0X0X0X0X0X0X",
"0X0X0X0X0X0X0X0X0X0X0X0X0X0X0X0X0X0X0X0X0X0X0X0X0X0X0X4X$X0XeX5X#X0X=X0X5XtXwX0XwX5X0X0X=X$XeX0XiX5XvXSXK.n.K.n.i.8.=.v E 8.8.r.8.v.E D r.4XE.v ! v.oXr.2 O $ O : ; E #XwXxXn.t 0 v # : : X v | D  .b.E.E.,.D V *.r.$XtXlXzXzXpXpXyXXX7XzXzXVXpXzXuXuXpXyXXXI.-X!.>X>X.X}.0XtXtX>XXX>X.X.X>XtX0XH.J.}.{.gXNXNXw.l ^ 5.w.{ e.h.7.e.t.-.{ < $ $ & < y g l p C Q Q A ' &.{ = i V V / ^ { e.6./ &.0.h.:.h.e.>.} A ' >.:.:.g.g.g.s.g.g.g.g.j.k.P.A ] ;XOX!.OX-XOXXXXXD.z.J.J.e.p.e.9.Y.F.h.XXqXyXyXuXuXyXOX@X1XhX{ 6.CXcXbXcXcXZXcXcXrXxXcXhXlXjXhX0X1X>X.XOX@X.X@X@XJ.;.9.5.5.=.H.g l Q A :.g.~.~.d.a.:.:.:.:.[ a.g.@.a.k.k.a.f.s.:.[ [ a.a.d.a.a.a.s.@.* A :.:.} ' } &.} ^ ^ T V V g t -.D.0.&.Q ] &.>.] Q Q ' ' p =.kXNXxXeX=XeX=X*X=XeXgXgXgX=X{.+X{.{.=XeXeXgXeXeXeXeXgXtX=X{.=XNXZXbXrXeXtXtX0X0X$X{.*X=X*X*X` & , o ; r u t r.4X6XtXwX0X0XD.Y a Z w. XeXgXgXMXNX5X*X8.4.[.&Xp.....4.4.i.&XfXMXMXMXMXMXxXxXMXMXDXMXMXMXMXMXMXMXMXJXNXxXxXxXxXgX=X$XOXOX$X$X=X0X0X0X0X0X0X0X0X=X=X=X=X5X5X=X=X=X=X=X=X0X0X0X0X0X0X0X0X0X0X0X0X0X0X0X0X0X",
"0X0X0X0X0X0X0X0X0X0X0X0X0X0X0X0X0X6X6X0X0X0X0X0X0X0X0X6X0X5X0X$X0XeX=X5XoXR.K.{.oX4X0X4XeX0X$XeX=XgXlXwXr.p.n.n.{.n.n._ v v u D n.n.!  .K.4X4Xc O ; 5 : O : O # 2 4.5X5X5X5X#X*.f r.E X X O O 5 c E v.3XoX,.v ` ..W L.6XOXqXpXuXuXqXY.;XuXpXyXuXpXuXyXuXqXI.B.!.XX>X;XY.Y.>XqX0XY.Y.OXG.D.XXuXlXL.D.H.J.=XxXNXH.l ^ w.5.{ t.0.7.t.t.-.` < # & < 0 i g g p Z Q Q G ' &.} = p Z V / / { t.h.%.&.9.N.>.h.h.7.&.A ' :.:.:.s.g.s.:.g.g.s.f.j.k.P.A ] -X;XOXOX@X-XXX|.D.D.J.z.{ ` 5.e.L.l.9.}.0XqXrXyXuXyXXXOX1XhX%.0.ZXcXbXcXcXZXcXcXjXlXlXjXcXjXhXrX1X1X.X@X@X}.}.L.D.5.w.5.=.{ J.g C } ' @.a.k.Z.a.@.@.@.@.@.[ a.a.@.a.g.k.g.g.g.g.:.:.a.a.a.a.a.a.f.@.* G >.:.@.' } } } { W Y Y N g i %.D.0.&.' &.>.&.] Q S ' Q e 5.gXNXgX*XeXgX=X{.*XfXgXeXeX*XH.{.{.{.+XeXgXeX=X$X$XeXgXtX0X+X0XZXNXxXtXeXeXtXrXeX@X{.=X=X+X*X..o # i ~ E ! 2 5 *.N.v.D.*.! v a w.+XeX5XeXgXeX+X+XfX=XeX4.Y ..w.*X5XgXkXxXMXMXxXxXkXxXxXMXMXMXMXMXMXMXMXNXMXDXMXNXNXJXJXUXUXNXeX$X#XOXOX$X$X0X0X0X0X0X0X0X0X1X5X0X0X0X0X0X5X5X=X=X=X5X0X0X0X0X0X0X0X0X0X0X0X0X0X0X0X0X0X",
"0X0X0X0X0X0X0X0X0X0X0X0X0X0X0X0X6X6X0X0X0X0X1X0X0XeX0X$XrX4X$XeXt.~ ! ` E *.#XR.K.4XwX5X#XeX$X1XeXtXgX5X{.{. X Xn.n.K.4.E E c | 4Xv.| 8. XiX4XD - 2 5 - # t t X t 5XiXiXwXwXiX4X..v d X v i.8.E t > v v. X..v ! W Z L.OXI.XX7X7X>X>XXX>XqX7X;XqXyXpXyX7X,X;X-X-X!.;XXXG.F.;XqX>XXXD.N.G.J.L..XtXtX$X$X=X1XjXxXH.l ^ 5.` =.e.9.e.t.t.-.^ < o & 9 w i g a p C ' ' ' ' -.-.1 a Y C W { -.l.h.] ] 0.F.<.h.h.0.&.R ' :.:.:.s.g.g.f.k.s.:.s.j.j.P.S ] -X;XOX|.Y.>X>X@XJ.J.J.l.{ ^ -.e.J.t.6.F.>X1XrXqXuXuXXX@XqXuX} 0.ZXcXZXcXcXNXcXZXlXjXlXjXcXlXhXtX1X1XXX$X@X.XY.J.D.5.w.5.=.` l.p S >.A G :.Z.k.[ @.@.@.@.[ [ s.:.@.:.g.k.k.k.f.g.:.:.a.a.a.@.@.a.s.[ * Q :.&.} ' ' ' &.} W Y V g i p { D.>.' ' &.>.&.' Q Q ' S e 5.gXMXeX*X=X=X+X{.+XgXfXeXgXeXH.H.p.H.{.+XeX=X+X+X@XtXgXtXeX}.$XNXbXlXgXrXeX0XeX0X=X=X=X*X*X=X..$ , v ^ ` 8.E : u N D / c 2 / r.H.{.H.+X=X+X+X[.+X[.+X+Xw.H.xXxXNXxXxXxXgXgXkXxXkXkXMXMXMXMXxXkXMXxXMXMXMXMXNXNXNXNXMXJXUXUXxX=X$X$X$X$X$X1X0X0X0X0X0X0X0X=X5X5X0X0X0X5X5X=X=X=X=X5X=X0X0X0X0X6X0X6X0X0X0X0X1X1X0X0X0X0X",
"1X0X0X0X0X0X0X0X0X0X0X0X0X0X0X0X6X6X6X0X0X0X1X1X0X>X0X$X0X0XeXK.=.n.! 5 2 D *. Xr.8.4XwX0X0XrXD.eXtXeXK.K. X{.n.w.i.n.n.*.D c ,. Xv. .r.3XiXK.t u D D v t 2 N X : V n.iXiX5X X3Xv.: X t  XkX5X3X#X..: O t t y V V / .XOXQ.Y.Y.!.XX;X>X>X,X;XT.!.7XqX7X;X:X:X;X^.I.-XXXQ.!.qXrXqXY.] B ] >.q.0.L.0X0XeXtXeXxXNX{.z ^ { ^ 5.e.e.D.t.9.;.` < @ < 9 i g g p e C ] ] ' ] -.;.1 g ^ Z T %.6.z.l.&.] 0.h.<.h.z.7.&.R ] :.:.:.g.j.k.j.Z.s.:.g.Z.j.P.Q ' @X>XOX|.Y.>XXX@XY.J.J.l.} =.6.e.}.L.J.L.1X2XrXqX2XqX}.@XqXrX/ 9.ZXcXZXcXxXNXcXZXcXlXcXjXcXcXcXhX1X1X@X$X@XXX.XL.J.9.t.5.4.` p.e C f.' G :.U.g.[ @.@.@.a.[ ' s.@.[ :.g.k.g.k.f.s.@.@.:.a.a.[ [ a.a.[ * Q >.:.' ' ' } &.} ^ V g i i a W l.;./ ' ] &.] ] ' Q ] S e 5.eXxXfXeX+X{.+Xw.H.{.[.+XeXgX{.H.p.p.H.{.=X*X+X*X0XgXgXgXeX{.{.ZXbXhXlXtXrX0XrXeX=XeX1XeXeXeX` $ # v 8.8.B t t u 9.L.%.2 W 8.w.r.w.w.5XeX{.+XeX=X{.[.{.w.+XMXxXxXxXxXkXgXxXxXxXxXMXNXMXMXxXMXNXMXMXMXMXMXMXMXMXNXNXJXUXJXJXlX$X$X$X$X>X0X0X0X0X0X0X5X0X0X5X=X0X0X0X=X=X$X$X$X$X=X=X5X0X0X0X6X6X6X6X0X0X0X0X>X>X0X0X0X0X",
">X0X0X0X0X0X0X0X0X0X6X6X0X0X0X0X6X6X6X0X0X0X1X1X0XOXeX0XOX5X0X*.#X3XE 5 2 ! ..R.wXK.5X4XwX0X0X0Xl.0XtX.XD.L.H.t.n.n.n.r...v D E.E.,.,.b.3X XD 2 a E ....V 2 ~ u - 5 v  XiX5X4XR.n.v.n.8. X5X5X X XfX8., X y i E Z *.L..XXXI.I.N.%.&.:.<.N.U.I.P.!.^.^.-X;X!.I.!.;X;X-X7XuXzXOXN.S a u N Q <.%.W t..XoXOX$XtXxXH.g ~ ~ ` 6.6.9.t.9.;.6.-.< $ < 9 i g N a u S ] ] ' ] -.6.q l { ^ ] ;.e.l.J.6.] 0.h.<.f.h.7.&.' ' :.:.>.g.j.g.j.P.s.:.g.P.j.P.Q ] -X,X;XOX>XOXz.@X}.J.}.l.-.e.l.z.@X1X1X@XqXuXhXrX1X1XY.@XrXqX/ 9.ZXcXbXcXcXNXcXZXcXxXcXhXlXcXcXxX1X0X>X1X$X$X$X.XJ.t.t.5.5.=.p.e p f.j.:.a.Z.k.a.@.@.@.a.[ [ g.@.@.@.s.f.a.k.g.g.:.:.a.a.@.[ [ a.a.[ * ' f.:.' A ' ' } ] W l i i i p Z D.9.] ] Q Q ' ] ' ' Q N e 5.{.eXfXgX+XH.{.H.[.{.{.+X=XeX+Xp.p.H.H.+X=X*X=XeXrXgXtXjXeX{.J.xXcXxXgXeX0X0XgXeX1X1XeXeXgXeX~ $ , y V u t ! *.v W Y < Y L.r.=.p.w.+XxX{.H.*X=X[.+XH.H.5.$XlXgXxXxXxXxXlXgXxXNXMXxXxXxXxXMXMXxXkXMXMXMXMXMXMXMXNXJXJXJXZXNXeX$X$X$X>X0X0X0X0X=X0X5X0X0X5X4X5X0X0X5X=X$X$X$X$X$X=X=X=X0X0X0X0X0X6X0X0X0X0X0X0X0X0X0X0X0X",
">X0X6X0X0X0X0X0X0X0X6X6X0X0X0X0X6X0X0X0X0X6X6X0X>X>X>X$X0X#X0XK.3X8.! v |  X3Xb.b.5X4X5XOX$X0XeXp.OX0XtXt.K.n.H. Xn.n.r...v | 5XE.,.b.E.5Xv.: 2 a D ..,.*.2 Y Z O u 8.5XiX3X4X XK.3X5X5Xn... X X&X5X&Xf , y f U V =.D.L.OXQ.I.:.A C j m A &.N.g.B.I.!.!.!.U.U.-X;X;XOX7XuX>X*.N j 3 N S S &.*.%.-..XOX+X$X0XeX5.p ~ Y { 5.-.-.-.-.&.9.9.< $ < 0 w g l p u S ] ' ' ] &.6.q l -.%.;.9.e.l.J.0.] >.h.0.h.z.>.&.] ' :.:.:.g.g.g.k.j.g.:.j.P.j.P.Q Q >X>XT.OX1XY.>.XX|.}.@Xl.6.z.J.z.@XrXrX1X1XjXhXuXrXqX}.@XrXqX] e.ZXcXNXcXcXZXbXZXZXjXjXgXhXjXlXcX0XrX0XrX1X1X0XOXL.e.w.w.i.=.p.a p ] :.g.Z.Z.k.@.[ [ [ a.[ @.k.@.:.@.a.g.s.g.s.k.k.d.a.a.@.[ @.a.a.@.* ' f.:.G k ' ' ] } T l g i i a Z J.9.] / Q A Q ] ' Q S p q ` w.=XkXeX{.p.p.{.=X=X=XeXeXgX@XH.{.+X=X*X+X=X=XeXfXgXrXlXtX}.L.lXZXbXeXeXtXgXrXeXjXgXgXeXgXeXV $ 9 # # a *.n.*.v 1 1 Z 9.n.D.D.p.n.=XfX{.+X*X{.H.{.H.n.=.0XxXxXlXlXjXxXNXxXlXgXxXkXfXkXxXMXMXxXxXMXMXMXMXNXNXDXJXJXNXNXJXNX=X$X$X$X0X0X0X0X0X=X0X0X0X0X0X6X5X0X0X0X5X=X$X$X$X$X=X=X5X0X0X0X0X0X6X6X0X0X0X0X0X0X0X0X0X0X",
"0X0X0X0X0X0X0X0X0X0X0X0X0X0X0X0X0X0X0X6X4X0X6X6X>X0X0X#X5X5X{.8.b ..v.E E 3X5X3XE.n.4XoX$X6X6X0XeX=.0XtX0X{.K.n.K.{.n.8.E ! n.4Xn.v.8.3Xn.b > t v E | *.*.c - u t 5.wXiX4XoX4XE.E. X#X3X Xv 7 E i.[._ 7   , f f v w.{.+XL.Y.N.>.O.%.' Q ] ' ] :.&.] :.<.<.B.Y.G.F.N.OXzXXXQ S S a j N N S W *.0.t.L.OXL.+X#X{.Y g ~ R { 5.;.%.%.&.;.l.l.q $ 9 9 i g N a N Q ' ] ' &.&.>.e p =.-.9.e.h.z.Y.} N >.h.h.f.z.0.&.&.' :.:.@.g.j.j.j.j.g.f.Z.k.P.I.' S ;X@XOXXX@XF./ }.@X+X+XH.p.J.H.{.+X2XeX1XrXgXhXjXhXyXXX>XuX1X/ 9.HXZXNXNXbXNXNXNXZXlXlXhXhXrXxXbXrXrX0XtX1X0XqX$X{.t.t.p.p.5.H.p C >.' @.k.Z.d.@.[ [ [ a.@.@.a.[ @.@.g.s.a.s.s.Z.k.s.s.:.:.[ @.a.a.[ * } f.:.] A A ' ' ] C p p i p l T OX0./ N N Q ] ] Q ^ N g 9 Y 8.w.+X5XfX+X+X+X{.eXgX+X+X*X=X=X*XeXeX=X=X=X=XeXfXrXgXgX0XL.D.lXcXhX0XeXtXtXtXlXtXxXxXtXkX*Xi # < t v ..5.! # 2 N / r.t.w.r.K.r.{.gXgX{.+X+X{.J.{.H.p.=.#XgXxXxXtXlXNXkXgXxXgX#X X X+X=XxXMXkXMXMXMXMXNXNXbXxXbXZXHXZXJXbX$X=X$X$X0X0X0X0X0X0X0X0X0X0X0X0X0X0X0X0X5X$X#X$X#X$X$X$X$X0X0X5X5X0X5X5X0X0X0X0X0X0X0X0X0X0X",
"0X0X0X0X0X0X0X0X0X0X0X0X0X0X0X0X0X0X0X0X4X0X0X6X0X>X$X0X0X=XH.v E ,.b.v. .b.3X3X3XE.4X$XOX0XOX0X0XH.p.0XtXlXK.n.r.K.n.! E 5.*.*.8.8.v.E.b > 5 u D ..*.*.*.F 1 u r.5XwX XoXoXE.oX X4X3X#X X..#   , ,     + % y d f 5.p.p.H.D.6.%.&.&.] &.O.O.] B p 3 p m j B S S m ! XXuXq.j Z C a N j u S 9.J.L.OX$X$X+X*X*Xp.e i ~ T ` -.-.%.%.;.0.L.J.q $ 9 9 i f N a C ] ] &.' &.&.>.3 p -.;.e.h.F.F.F.] C e.h.f.g.F.g.&.:.' @.@.:.g.j.j.j.k.j.g.P.P.P.U.Q A >XOXOX@XOXz.^ J.$X@X@XJ.z.}.J.{.+X2XeX1X2X2XrXhXhXuX@X>XrX>X^ 6.ZXZXZXJXHXZXZXZXHXlXxXhXhXrXxXNXjXtXrXtXrX0X1X@X.XJ.p.p.p.5.l.l N 0.' ' s.k.d.@.[ G @.a.@.a.a.[ :.@.k.s.s.s.s.k.g.a.a.:.:.@.@.a.a.[ * ' f.:.@.A A A ] ] T p e p p l Y $Xe.^ N S ] &.&.] / C f w 9 ( _ 5.{.=X=X[.p.{.eXgX*X+XeXeXeXeXeXeXeX=X=X=XgXjXgXjXtX=X.X$XbXzXtXeXrXtXtXlXlXgXgXgXkXxXr.< $ w E r.8.` 2 u ;.r.%.9.n.r.p.H.K.*XgXeXH.H.{.H.{.{.n.p.=.=XxXxXxXlXlXxXlXxXgX+Xn.K.+X X{.=XxXMXMXMXMXMXNXbXbXNXbXHXHXNXHXcX$X$X=X1X0X0X0X0X0X0X=X1X0X0X0XeXeXeX0X0X4X$X$X$X#X$X$X$X$X0X0X5X5X0X0X0X0X0X0X0X0X0X0X0X0X0X",
"0X0X0X0X0X0X0X0X0X0X0X0X0X0X0X0X0X0X1X0X=X0X6X6X0X0X$X0X5X=X Xv E ,.b.v. .K.3X X3XE.K.4X$X0X0X$X0XeX;.0XwXwXiXK.t.8.E _ ..E f t | b.n.| > > v D E *.8.9.8.>.a 5 r.5XR.K.oXE.v.| n.#X5X5X5Xn., # +     + +   % &   9 i i V W / ] %.] ^ ;.;.&.' j u 3 3 p u j N S W -.0XuX0.a C N N Z N C ^ t.{..X}.$X=X}.{.{.w.w i U Y { 5.-.-.7.e.h.}.L.t $ 9 0 i g g p N Q ' %.' &.&.&.3 p -.6.t.D.F.h.F.&.^ e.h.f.g.F.f.:.>.] :.:.>.g.j.j.j.Z.j.g.k.k.Z.U.F C >X@X@X@X$Xl.^ l.$X$X=X}.{.@X}.|.@X2XgX2X2X1XrXuXyXyX@X>XqX@X^ 9.KXZXNXZXZXNXNXNXHXcXxXlXgXtXjXZXlXgXgXgXtX0X$X@X#X{.H.p.p.5.l.g N >.' G :.g.d.a.@.G a.s.@.s.:.@.a.a.k.s.g.g.s.k.s.:.a.a.a.@.@.a.:.' * ' f.:.&.A z A ] ] ^ l e a l N Z @Xe.Q C Q ' ] &.%.{ Y N g # i ~ =.5.w.H.w.{.eXfXeX+X{.=XeXeX=X*X+X+X X*XgXtXgXgXgXtXrXqXuXbXzXuXrXtXgXhXlXxXxXgXlXxXK.i # < g ` 5.v : v p.t.%.*.H.D.n.H.n.=XfXfXeXH.H.}.{. XJ.H.K.=.{.kXlXxXxXlXxXkXtX*XK.K. X+X X+XeXxXMXMXMXMXNXNXbXbXbXbXbXbXbXHXxX$X1X0X0X0X0X0X1X=X=X=X1X>X6X0X0X0XeX0X5X$X$X$X$X$X$X$X$X$X4X0X0X0X0X0X0X0X>X0X0X0X0X0X0X0X0X",
"0X0X0X0X0X0X0X0X0X0X0X0X0X0X0X0X0X0X1X0X=X0X6X6X0X0X0X0X=X5XK.V  . .8.r...E. X3X XE.K.0XOXXX0X$X0X0X$X;.eXlXgXeX..V v v v v v b t 8.| 2 5 t v E | *.8.,.,.r.W 5 u E ! B b c ; - ,.E.K. X5X#Xv # % # % X       + o X o o $ O 1 t u i p T W Z W ^ S C C Z N S S Q %.D.rXtXL.W C g Y Z N T 5.+X$X+XH.H.D.p.p.H.=.q f Y Y } 6.-.>.h.h.h.J.J.i $ < 9 i g N p l R Q &.] :.&.&.3 p -.6.t.z.F.h.F.e.-.h.L.z.f.F.g.:.>.&.:.:.>.g.g.g.j.Z.k.k.k.k.Z.U.Q A >X>X>X@X$XD.^ p.=X=X0X@X@X1X=X@X=X2XhXrXeX2XrXuXrXuXXX@X>X.XQ 6.HXNXNXJXJXJXZXNXHXcXlXlXgXtXtXNXjXgXcXxXhXeX1X1X@XJ.D.H.p.w.H.g S 0.] G :.k.a.a.@.@.g.g.:.a.:.:.a.s.k.a.s.s.s.k.s.:.a.a.a.@.@.:.:.} * ' a.:.} A C C Q ^ T z i i l C C .Xh.] C R Q ] &.] ] Y V E 0 . q ~ =.5.w.{.eXxXxXfX+X[. X*XeX+X X*X=X*X#XeXgXgXrXrXtXuXuXpXvXvXlXtXlXlXlXgXlXxXlXeX5.i $ , w Y 5...q < ` =.W / 5.H. XK.p.[.eXfXfXfX+X{.+XH.+XJ.H.n...t.kXxXxXxXxXbXlXeX#X{.{. X X X=XkXMXMXMXMXxXxXNXbXbXbXcXcXcXNXHXxX=X0X0X0X0X0X1X$X1X1X0X0X6X$X4X4X0X0X$X$X$XOX$X$X$X$X$X$X$X$X5X5X0X6X$X$X$X$X$X>X0X0X4X4X0X0X",
"0X0X0X0X0X0X0X0X0X0X0X0X0X0X0X0X0X1X1X=X0X0X0X0X0X0X0X0X5X5X*.D ..n. XE.*.K. X3X XK.#X4XOXOXOX5X$XrXtXw.#XtXiX5XE f v E v c d f 5 D B v b B E ! ..*.>.,.t.t.*.a v $ O ; 2 5 - - B K. Xn. X&X..# # # #   + X X # # $ # o $ X 2 W v i q < < 1 j S W S S ' Q ] Q / -.D.l.;./ C a e Z ` ` ~ ~ 5.w.w.5.-.5.=.~ N 9 9 g Y Y } 6.-.>.t.h.e.D.L.g $ , 9 i g N p l Q ' :.&.:.&.&.1 p -.6.D.h.z.h.F.h.>.h.I.F.h.F.f.:.:.] &.:.:.g.f.g.g.k.k.k.Z.Z.k.I.A A >X1X1X@X$XJ.{ p.0X0XeX=X=X0X1X=X1X1XrXrX0X2XtXhXuXuXXXXX@XY.T 5.ZXNXNXHXJXHXHXHXHXxXhXlXtXrXeXxXjXrXcXbXhXrXtX0X1XL.p.l.p.p.{.l C 0.&.' s.Z.g.a.@.a.g.k.g.s.:.a.a.a.k.:.a.a.s.k.s.a.a.a.a.[ [ @.:.} * ' f.:.[ A A z A R S l p i l C l Y.l.Q l A Q ' &.%./ Z V ~ y @ < < t N Y ~ =.w.+XgXfXeX*X*X*X*X=XeXtXeXeXeX0X1X$X>XOXQ.Q.XXXX6XpXlXuXtXtXlXeX5X9.g < $ $ # , f U i < Z ` ^ ;.{.p.9.n.p.n.*XfXkXfXfX*X{.{.H.{.{.{.p.=.r.xXxXgXjXxXbXlXkXtX XK. X X#XfXMXNXMXMXNXNXNXxXxXxXxXcXbXbXHXKXlX1X0X=X1X1X$X$X$X$X0X0X0X4X4X$X$X$X$X$X$XOXOX#X$X$X#X$X$X$X$X$X$X$X$X$X$XOXOX$X$X$X=X$X$X$X0X",
"$X0X0X0X0X0X0X0X0X0X0X0X0X0X0X0X0X1X0X1X0X0X0X0X0X0X0X=X=X0X..` n.3X X#XoX*. X X5X X4X#XOX#XoX$X$X#X$X0Xr.0X5X8._ u.4...v v D v v B ..8.| E | ! ..,.%.| r.>.,.! v Y # O B E c t t ..i.[. X X8., , : +   + #   o o o # o O O v 5.;.;.w.~ 1 O O O 1 * 1 u j A C Z C C 3 = * 1 1 < t V C t 1 q g g g g g g i & @ w f Y Y { 6.6.7.0.h.e.D.}.N $ < w i f g i N ^ ' &.&.:.&.&.1 p -.6.l.h.F.h.F.h.0.h.F.z.h.F.j.>.:.' :.>.<.g.g.g.g.k.k.k.Z.P.Z.U.A C >XqXqX@X1XL.;.H.eXeXrX1X1X1X1X=X1X1XeXrX2X1XrXuXyXuX}.Y.}.L.T 5.HXNXNXHXJXJXHXNXZXlXtXjXgXrXrXgXjXeXlXbXjXtXgX0X0X}.l.p.l.p.l.g N >.&.} k.U.k.s.a.f.k.k.k.k.:.a.a.a.k.:.a.:.a.g.s.a.a.a.a.[ [ @.:.' * ' f.:.@.' ' z A R C a p l N C l L.F.S a C Q ' &.&./ Y Y ( d $ i W ;.w.l.w.5.` ~ %.H.0XgXgXeXtXlXxXgX1XJ.w.^ Z C S O.<.0.<.N.F.Y.>XuXuX$XL.-.N < O i ~ E q < o o o N ;.w.p.tXxX0XH.9.w.p.n.+X*X*X*X+X X X{.H.{.{.p.w.w.tXbXgXlXxXxXlXxXkX+X{.#X5XtXkXxXMXMXNXMXxXxXxXxXxXxXcXbXbXHXKXlX$X>X$X$X$X$X$X$X$X5X0X0X4X4X$X4X$X$X$X$X$X$X#X#X$XOX$X$X$X$X$X$X$X$X$XOXOXOXOXOXOXOX$X$X$X$X",
"$X$X$X6X0X0X0X0X0X0X0X0X0X0X0X0X0X0X0X0X5X0X0X0X>X0X0X0X=X=X5.*.n. X4X5X#X#Xn.K. X#X5XOXOX#X#X#X#X#X#X4XK.#X5X8.5X X8.E D E v v D ` 8.r.*.E ! E ..*.*.,.t.,.*.| t E v O 5 | E t t f _ n.n.8.E 0 : : # # # # X X X o # o $ t Y E ^ ..8.-.Z u 3 u j u 3 * O * * * * * * 1 = * * O O = = O . o $ < i i N V i 9 i g f U V %.9.9.0.0.h.e.D.L.N $ 9 w i g l i N ' ' &.] :.&.&.1 p -.6.t.z.F.e.h.h.e.h.z.z.f.F.z.0.>.] f.<.f.g.g.j.k.k.Z.U.Z.U.P.T.S A >X1X1X@X1X}.9.{.rXrXrX1X1XeXeX=X=X=XeXrX0X>X0XrXrXrXL.D.J.J.T 6.NXNXNXNXNXZXZXNXHXxXrXhXjXtXgXrXjX2XrXNXcXhXhXrXeX+X{.{.{.p.p.a C >.:.:.U.U.k.g.s.g.k.g.g.g.:.d.s.s.k.a.a.:.a.s.a.a.a.a.a.[ @.@.@.' * ' f.:.@.' ' A A R C p p N C T l J.L.Z a C S ^ &.&./ W ~ Y w N w.@XtXlXtX+XL.L.;./ / { t..X1X1X.Xt.{ C p p j B Q S S S S S S F F S S C u 1 O . $ i ~ ;.w.5.=.i o a p.L.OXJ.lXcXbXtX#X+Xr.9.r.p.n.H. X X{.+XH.H.n.r.w...K.xXlXxXlXjXgXgXgX=X#X5XkXxXxXxXxXMXMXxXxXxXbXbXxXlXcXbXbXHXHXtX$X1X$X$X$X$X$X$X$X4X$X$X4X4X4X4X4X4X$X$X$X$XOXOXOXOXOX$X$X$XOX$X$X$X$X$XOXOXOXOXOXOXOXOX$X#X",
"OXOX$X$X$X6X0X0X0X0X0X0X0X0X0X0X0X0X0X5X5X0X0X0X0X0X$X$X$X5XK.n.4X5X#X#XOX#XoXK.K.{.$XOX#X5X X X X#XoX#Xn...5. XMXeX4.~ E E ! E E 8.,.8.9.*.W / | | %.8.,.,.8.*.` t Z B $ 1 Z a 0 , d E E f # : 8 b E ..d X X 2 v _ E w 2 0 y < q a a a j m A ' g.g.s.A 3 3 j j 3 3 j e j j m S R ] } ^ N 1 O . o = i v w % f f z V N =.e.7.7.e.q.0.h.J.N $ < < w g g i N Q Q ] ] :.&.&.1 p ;.9.z.z.F.0.h.h.0.h.F.F.h.F.j.0.>.} g.<.<.f.g.Z.k.P.U.Z.k.k.j.I.A A 1X1X2X@X1X{.w.+XrXeXeX=XeXeXrX1X@X=XrXtXrX>X1XrXyXrXF.t.D.D.T 5.HXNXxXeX#X=XlXHXHXcXrXjXlXgXjXrXjXeXeXZXNXlXjXjXhX@X+X+X{.p.H.g z ;.:.a.U.U.Z.k.a.k.j.j.g.s.a.g.s.a.g.:.a.:.a.a.@.:.a.a.a.[ [ [ [ ' * ' f.:.[ ' Q ] R S C p a C Y W l D.Y.T j N S Q ] %./ W _ Y Y {.eX0XlXlX>./ ;.D.t.D.J.%.Z N N N p p p u Z 7.J.G.Q.Y.I.G.G.B.q.N.N.&.j 1 e B W / ` / q g p.D.p.W < W +X1X$XY.>XlXlXlXlXlXtX=X#X{.p.p.H.H.H.J.H.K.p.r.i.~ ` K.gXxXlXtXgXkXeX#XeX#X#XfXMXMXxXkXMXMXNXNXbXxXxXxXbXbXcXbXbXrX$X1X$X$X$X$X$X$X$X$X$X$X$X$X4X$X$X$X$X$X$XOXOXOXOXOXOX$X$X$X$X$X$X$X$X$X$X$XOXOXOXOXOXOXOXOX",
"OXOX$X=X1X0X0X0XeXeX0X0X0X0X0XeX0X0X0X0X0X0X0X0X0X1X$X$X$X=X=X#X#X#XOXOXOX#X4X5XD.$X$XOX#X%...v.n.D t b u c B  X#Xn...8.8.w...=.p.p.t.9.r.>.%.*.*.%...9.,.*...=.t.E t ` a X r Z t 0 0 , : : : t ) ....u.4., - 8.#X[.{.n.` 0 0 y 1 e j p j u 3 3 [ Z.g.[ [ @.:.:.s.s.:.s.g.g.P.T.;X,X>X>X>Xh.%.u O o @ 9 & w f f g V l -.h.7.7.e.h.e.t.l.Y < , 9 i g g i C ' ' &.:.:.&.&.e e ;.9.0.e.h.0.h.h.h.e.P.F.0.F.z.0.&.>.g.>.:.g.j.g.Z.Z.Z.Z.Z.Z.P.T.A A 1X>X$X}.@XL.w.@XrXgX=X{.eXeX1X=X=X$XrXrX1X1X@XrXrX>Xz.9.D.h.Z 6.ZXNXcX1X#X=XtXhXHXbXrXhXhXeXhXrXgXrX1XcXNXjXjXrXrXrX=X}.{.{.p.p z >.>.g.P.U.Z.g.g.Z.k.k.g.:.s.k.s.g.a.:.s.:.a.@.@.:.@.a.a.[ [ [ ' ' * ' f.:.[ ' Q ] R T z p p Y Y Z l F.}.T e l R A ' %.^ W ~ E w.0X$XuXzX0.N &.q.h.9.;.0.h.h.] S S &.h.P.h.h.;X7X7X;XQ.!.!.I.I.I.!.Q.h.0.N.OXqXrX0X.XD.W 2 t.H.=.T O ^ J.>X>XOX.XXX@XOX>XqX0X0XrXeXeX+XH.D.D.t.8.5...;.....` ..5XlXgXgXlXxXeX#X*X X5XkXxXxXxXMXMXMXxXxXxXxXxXxXxXbXZXZXbXeX$X$X=X$X$X$X$XOX$X$X$X=X0X0X0X5X$XOXOXoXoXOXoXOXoXOXOXOXOX$XOXOX$X$X$XOXOXOXOXOXOXOXOXOX#X#X",
"OXOX$X$X=X0X0X0X0X0X0X0X0X0X0X0X0X0X0X0X0X0X5X0X0X$X$X$X$X$X#X$XOXOXOXOXOXOX#X#X0X0XXX0X*.| v.v...b b | b B t E  X XgXNXgXp.9.{.{.{.D.9.r.9.-.*.%.*.>.*.*.*.| .._ E v t Z t o , # X , , , : d .... ...8.8.c c  X XK.[. X{.) , 9 e p p A :.:.G A @.d.d.d.Z.~.Z.k.Z.Z.Z.U.U.Z.U.^.^.yX7X;X,X7X,XY.;.g $ @ @ w U U V U N ;.e.>.e.z.h.t.l.D.Y $ < w i f g e N Q Q ] :.:.&.&.e e >.e.h.z.z.e.h.h.e.0.F.F.0.z.j.0.&.>.g.>.:.g.j.k.U.U.U.U.Z.k.P.XXA A 1X>X1X@X2X.Xp.=XjXjX@Xl.eXrXeX1X=X=XeXrXqX>X2XqX1XJ.>.0.J.6.l 9.HXlXgXgXgXcXcXtXlXZXhX0XhXrXrXjXjXrX1XhXZXjXjXjXjXrX=X*X@X{.p.e C 7.0.j.U.U.k.g.g.Z.Z.k.s.:.s.k.a.a.:.:.a.:.a.@.@.:.[ s.a.[ ' [ ' } * ' f.:.@.' ' ] R R C l l C Y Y l l..XQ p l R Q / O.^ / ^ Y p.0XqXvXqX] B <.Y.N.>.>.h.G.XX.XF.F.T.T.!.;X,XzXzXpXyXqXqX7XOXXXOX;X;X;X6XqXqXqXtXeXeXD.9.N t.9.;./ 1 %.J.XX>X>X.X.XXXOX>X6XXX@X$X.X{.D.t.D.D.L.{.5.a 0 v =.i.=.5XxXgXeXgXxXgX5X#X*XtXkXxXxXxXxXxXxXxXxXNXxXxXxXxXbXZXZXbXeX=X=X=X$X$X$X#X$X$X$X$X=X4X$X$X$X#XOXoXOXOXoXoXOXoXoXOXOX$X$XOXOXOXOXOXOXOXOXOXOXOXOXOXOX#X#X",
"OXOXOX$X$X$X1X0X0X0X0X0X0X0X0X0X0X0X0X0X0X5X5X5X$X$X$XOXOXOXOX#XoXOXOX$XOXOXOX#XOX#X$Xt.E r.8.,.b b  .| D | | v 5XbXJXJXkX+X=XrX0X0XL.9.9.q.9.q.>.9.r.%.....| | .._ ..f a g O $ y y f , # : v ) ) ..,. .E > t ,.v.n.n.n.u.v # , 1 u m ' <.s.:.a.Z.~.Z.k.Z.~.^.~.Z.Z.~.~.~.U.^.<XyX9X9X7X7XyXyX;XOX}.=.i % 9 f ( Y N l ;.e.7.e.e.h.h.J.D.Y $ , 9 i g g e j R S ' :.:.&.&.e p 9.t.z.z.z.e.e.h.f.e.z.F.0.h.j.0.:.0.g.:.<.g.g.Z.U.Z.P.U.Z.Z.P.T.A S 1X>X1X1XrX@XH.1XgXgX}.w.eXgXfXeX@X}.1XrXrX>XqX1XqXJ.&.0.J.6.N 6.0X1XrXlXrXhXhXrX0XjXcXhXgXjXgXjXjXgX1X1XcXjXjXjXjXrX=X=X%Xp.w.e z 6.7.j.U.U.j.s.g.k.P.j.:.@.s.g.:.:.:.:.:.:.:.@.:.:.@.a.a.[ [ [ ' [ * ' :.:.[ G ' ' Q R z l z C T T p 0.XX} a N C Q ^ ] ! ` ^ Y J.1XrXzX!.%.:.B.XX!.I.B.N.I.!.;X!.!.!.T.-XqXyXuXzXpXzXzXzXzXpXpXpXyXyXyXuXpXuXqXtXuXrXY.D.;.t.;.9.&.e / F.XXQ.I.!.XX-X;X-X;XXXXXOX;.{ / ;.D.9.t.#X+X..f v =.K._ +XgXeXgXkXgXgXeX5XeXxXxXkXxXxXxXxXxXxXxXbXbXbXNXNXHXHXSXxX0X=X=X$X$X#X$X#X$X$X#X1X$X$X$XOXOXOX#XOXOXOXOXOXOXOXXXOXOXOXOXOXOXOXOXOXOXOXOXOXOXOXOXOXOXOXOX",
"OXOXOXOX$X$X$X$X0X0X0X0X0X0X0X0X0X0X0X0X0X5X5X$X$X$XOX@XOXOXOXOXoXOXOX$XOXOXoXoX#X#XOXOX! v | b c b D D  .! b...| lXxXJXlXrXrXgXtXrXOXq.9.h.F.Q.C.q.9.*.| D ..n.n.8...! t 2 $ w 9 y 0 X   t ..8.8.b.b.x.| x x  .,.K.8.0 , # # ; 1 3 F O.@.[ d.~.~.~.Z.d.d.~.^.~.~.~.~.^.^.^.<XyXZ.k.:XyXyX7XqXuXrXtX0X{.U @ q U Y Y W 9.0.-.e.h.h.D.L.D.~ $ < w i i g e a S S ] :.[ ] &.e p 9.0.t.h.h.0.e.h.h.h.h.F.0.h.h.0.:.g.h.<.<.g.g.j.P.j.Z.U.U.U.U.T.C A qX>X>X1XrX@XL.eXjXjX}.5.1XfXfXeX1X{.eXrXrXqX1X>X1XF.&.9.J.;.N -.$XeXlXlX2X1X1XrX1X1XcXcXgXjXjXrXjXjXrX@XjXNXcXhXjXrX1X=X[.w.p.p a 6.0.F.T.T.k.f.g.j.P.k.:.:.s.s.@.@.:.a.:.:.:.[ :.:.@.a.:.@.:.@.[ @.1 } :.@.[ G A Q Q R z l z C T T e ;.XX;.l N S Q ^ O.^ =.` Y {.0XuXpXN.>.N.I.-XXXP.h.C.;X7X>X7X-XU.T.7XyXqXyXuXpXzXzXzXVXVXzXzXpXuXpXpXpXpXuXqXuX0XXXL.L.D.;.&.>.Z / F.OXOXT.T.!.XXT.I.I.Q.OXG.W T Z { t.9.h.D.{.p.E V Z {.8.H.5X5XgXgXgXxXxXxXkXxXxXxXxXkXxXxXxXxXNXNXNXNXJXJXKXKXJXlX=X#X=X$X$X#X#XOX#X$X$X$X#XOXOX#XoXoXoXOXOXOXOXOXOXOXOXOXOXOXOXOXOXOXOXOXOXOXOXOXOXOXOXOXOXOXOX",
"OXOXOXOXOXOXOXOX$X$X>X0X0X0X0X0X0X0X0X0X5X4X4X$XOXOX@XXXXXXXXXOXOXOXOXOXOXOXOXOXoXOXOX0X,.c b b b D b E  .b r.E.t #XJXxXeXcXgXhX0XtX6XL.G.Y.F.G.F.q.*.| ! ..n. Xn.8._ ..v , f f # @ X # + : v E 8.b.v.x.| | D  ...b.8.t : , , # e j Q :.:.@.d.d.d.Z.Z.a.a.d.~.~.^.^.^.^.<X<X<X^.G G @.g.9XyXqXpXuXyXjXNX+XU 9 f ~ ~ / t.9.&.e.F.h.h.Y.D./ < < w i g g e p S Q &.:.] ' &.e p 6.6.t.h.e.7.e.h.f.0.f.F.0.z.h.f.&.0.h.<.:.f.f.j.P.j.g.k.P.P.P.XXS R qX1X1X0XrX@X.XtXjXjX}.-.=XgXgXrX1X@XeXrX2X2X1XqX@Xz.&.e.J.%.l ;.0X0XrX2X2X1X1X1XrX2XrXhXhXeXrXgXeXrX1X|.1XcXcXgXcXjXeX=X+X[.[.i p 6.7.j.T.T.j.s.g.j.P.j.:.:.g.s.@.@.:.a.a.a.:.[ :.@.@.g.a.@.a.@.[ @.* } :.@.} ' A ' ] R C z g C T Y e &..X0.S C A Q ' %.W %.` W @XrXzXpXg.s.s.B.Y.;X,X>X;X7X;X7X,X-XI.!.7X7X7XpXpXpXzXzXzXvXzXpXzXpXpXzXzXvXzXuXtXuXqX1X@X.XL.-.;.N.&.O.G.!.OXXXT.^.!.C.g.B.Y.XXh.W ^ T W t.t.L.p.w.t.8.=.V n.8.8.eXgXxXgXgXxXgXxXkXxXkXkXkXkXxXNXNXxXxXgXtXgXxXJXJXKXJXlX5X=X0X0X0X0X0X=X#X$X$XOX#X#X#XoXOXoXoXOXOXOXOXoXXXXXOXXXXXOXOXOXOXOXOXOXOXOXOXOXOXOXOXOXOXOXOX",
"OXOXOXOXOXOXOXOXOXOXOX$X$X$X>X>X6X6X6X6X4X4X$X$XOXOXXXXXOXOXOXoXOXOXOXOXOXOXOXOXOXOXOX$X,.b b b b D D D D b  .5X..^ JXNXxXNXxXlXhXuX>XG.G.Y.F.N.0.,.*.E ..K. Xn.8...E E y < f # @ X # # : : : - 8.b.b.,.| x. .| x. .,.E : # # 9 i W O.:.:.d.a.d.Z.Z.Z.a.G G d.Z.^.^.^.^.^.~.k.@.@.:.<.:.U.yXyXyXuXzXzXxXNX{.i w Y / %.9.>.&.6.e.e.h.L.D.~ $ , 9 i g g e j S Q %.:.] ] &.e p ;.6.h.h.0.>.e.h.e.>.g.z.f.F.h.e.&.>.B.g.<.s.f.j.P.Z.Z.P.P.Z.P.;XR C >X1X>X0XrX@X@XrXhXhX|.6.=XgXrX=Xp.+X1XrXrXrX2X2XXXY.h.J.Y.} l 9.0X1X2X$X2X0XrXrXtX0X@XrXrX@X1XjXgXrX2X1X1XcXcXjXcXjXeX=X+X+X[.e a -.>.h.I.P.g.s.g.Z.P.g.:.:.g.s.@.@.:.:.:.a.@.[ :.@.@.s.a.:.g.:.@.:.* } :.@.} ' A ' Q Q T C g N Y T e } Y.z.' S S Q ' ] ^ %.W ` rXhXzXqXg.g.s.P.7XuXuXyXyX7X;X-X!.-XT.-XyXyXqXVXzXlXzXvXzXyXqXyXzXvXvXvXvXzXzXuXlXlXuXtX0X$XOX9.;.t.&.^ G.Y.XXXXI.!.I.g.N.C.Q.Q.D.W Z Z %.H.D.-.=.9.n.D. X......E  XtXxXxXxXxXxXgXxXMXxXkXxXxXxXxXkXeX=X#X+X$XtXxXMXNXNXgX0XtXgXlXxXlXgXrX0X$X$X#XOXOXOX#XoXoXoXoXoXoXOXXXOXOXXXXXXXOXOXOXOXOXOXOXOXOXOXOXOXOXOXOXOXOXOX",
"$XOX$XOXOXOXOXOXOXOXOXOXOX$X$X$X$X$X$X$X$X$XOXOXOXXXXXXXOXOXOXOXOXOXOXOXOXOXOXOX#XOX4X#XE b I b b c b b b D ! #X Xi +XNXxXxXJXlXlXlX>XG.I.!.B.q.>.*.%...v.K.n.r.....U f 0 f y   # # # X , 0 : > b.b.b.x.,.b.,. .x. ...| 2 , , i i %.>.:.@.a.d.Z.Z.Z.d.a.@.a.a.d.Z.U.U.U.U.U.g.:.g.P.T.B.I.qXpXyXuXzXcXjXMXgX} q N %.;.9.;.} -.7.F.J.J.t.W < < 9 i g g e j F ' ] &.] ] &.p e -.6.0.e.e.0.0.h.e.0.f.j.h.h.h.g.>.>.B.j.g.f.g.j.Z.j.P.Z.P.P.I.;XA j @X>X$X0XrX@XXXrXhXjX=Xp.=XfXeX|.5.}.+XJ.1XrX2X@XXX@X}.}.Y.] l e.rX1XqX2X@X@X2XrXrX1X@XqX1X@X2XjXjXjXrXrX1XhXxXxXcXjXeX=X@X+X[.e l 6.>.f.P.B.g.g.g.P.Z.s.@.:.s.:.@.:.:.:.:.a.[ ' @.@.@.a.:.a.Z.a.:.:.1 ' :.:.[ G ' Q Q R C C l N Y T p / J.Y.>.S Q ' ] ] ] %.Y 5.eXcXVX-X<.s.Z.^.>XuXpXuXyXqXyXqX-X-X!.!.7XyXuXpXzXzXvXvXuX>XOXqXlXzXVXVXzXlXuXhXhXzXtXlXrXrX=XD.6.l.>.W F.F.I.Y.P.C.g.g.C.I.XXXXQ.{ Z %.H.#XK.%.t.#XL.n. X*.D ! E n.5XtXtX=XeXkXxXxXxXkXxXxXgXeX#X+X#X+X+X+X$XeXkXxXxXMXeXeXkXxXNXHXNXxXkXeX$X$XOXoXoX#XoXoXoXoXoXOXoXOXOXOXOXOXXXXXOXOXOXOXOXXXOXOXOXOXOXOXOXOXOXOXOX$X",
"$X$X$XOXOXOXOXOXOXOXOXOXOXOXOXOXOXOXOXOXOXOXOXOXOXXXXXXXOXOXOXOXoXOXOXOXOXOXOXOX$X$XoXR.v ..b b b b v ! x E ! E.5Xv _ DXxX=XeXeXtXlX0XY.Y.XXF.0.<.;./ |  X Xn.4.) E E d : 2 & X & & X # : 2 : b b.v.x. .x.b.x.E  . .,.8.0 : f y i { 9.&.' @.d.U.Z.Z.Z.Z.Z.~.Z.Z.U.^.U.U.B.B.B.P.T.XX;XXX>X7XyXuXyXGXzXrXxXJX{.i g ` %.-.&.%.&.>.Y.J.h.9.T < < 9 w i l u a S Q ] &.&.&.&.p e { -.>.e.h.0.>.e.0.f.f.h.h.>.g.e.<.>.j.B.j.f.g.B.Z.g.:.@.:.j.P.XXA j @XqX1XrXhX1X@XtXgXgX1Xz.=XgXhX1X{.@Xl.Y 6.@X>X2X@X>XXX}.Y./ a e.cX1X1XqX@X>X1X1XqXqX0X2X@X|.1XjXcXNXxXjXeXgXjXcXNXjXfXeXeX=XH.e l 6.7.g.j.j.f.f.j.P.Z.s.:.s.s.@.@.@.:.:.a.a.[ ' :.[ @.a.:.:.k.a.:.:.3 ' :.:.@.G ' A R R z z N Y Y T a ^ D..X0.S ' } ] ^ %.` g 6.rXzXzX!.s.<.B.U.uXzXuXuXpXqX7X>X!.!.!.;X7XyXpXuXzXzXzXzXzXyXqXzXVXVXzXzXuXyXuXzXzXcXlXcXjXgX1XH.6.l.>.S G.G.Y.I.F.B.g.N.I.Q.;X>X.Xt.;.+XrX0X5XoXOX$X.XoXoXr.v v U w.*X X+XH.{.+X*X5XtX5X=X*X X+X#X+X#X+X+X#X=XeXkXxXNXDXgXfXxXxXNXJXNXlXkXeXOX$XOX#XoXOXOXoXoX#XOXoXoXOXOXOXOXOXOXOXOXOXOXOXOXXXOXOXOXOXOXOXOXOXOXOX$X$X",
"$X$X$X$X$XOXOXOXOXOXOXOXOXOXOXOXOXOXOXoXOXoXoXOXoXOXOXXXXXXXOXOXOXOXOXOXOXOXOXOXOXOXOX Xu E E b t c ,. .x E |  .3X8.i fXJXxXfXeXeXrXrX0XOXY..X0.%.>.D E K.8.4...E v t 2 2 q < o @ & + , , : d 8.x.x.D b x.,. . . .| ...., , P f i V 6.;.&.f.Z.Z.U.~.^.^.^.U.U.^.U.Z.!.T.P.U.g.j.U.P.!.XX>X7XuXpXuXpXzXuXlXbXgXW i ` %.%.] } &.&.h.e.%.-.^ < < 9 i a p e j Q Q &.:.%.] >.j e ] >.>.e.e.>.>.h.f.e.h.g.F.g.f.0.g.&.g.B.j.f.g.j.g.:.@.g.Z.f.P.|.z R rX2X1XrXhX1X1XjXhXrXeXH.+XfXeXeX=X}.H.z { 1X1XqX2X>X.X}.}.{ g l.jX1XrXqX1X1X>X0XrXrX2X2X=X+X=XxXxXNXNXcXjXfXxXxXcXxXgXeX1X=X{.q z 6.0.f.j.P.f.f.g.U.P.k.:.a.:.[ [ @.:.:.a.s.[ ' a.@.[ :.[ [ s.@.[ f.3 ' :.:.' k A Q A S S C l C Y C p { h.L.z.S ] &.&./ =.W g J.lXVXqXP.g.s.<.T.qXuXtXyXpXuX7X;XXXOX!.-XqXpXuXyXuXuXzXzXvXbXCXCXbXbXbXbXuX$X>XhXZXcXZXcXcXlX0Xl.9.J.h.W t.h.h.h.h.G.Y.Y.XX$X>X>XOX.XL.OX0X0X$X0X$X.XD..X5X X..v ..f ..{.+X{.{.{.{.[.{. X+X#X+X*X*X#X+X+X=XgXNXJXUXUXUXUXMXMXxXkXxXNXxXlXtX$XOX#X#X#X#XOXOX#XOXOXOXOXOXoX#XOXOXOXOXOX$X$XOXOXXXOX.X.XOXOXOX$X$XOXOX4X4X$X",
"$X$X$XOX$XOXOXOXOXOXOXOXOXOXOXOXOXOXOXoXOXOXOXOXOXOXOXXXXXXXOXOXOXOXOXOXOXOXOXOXOXOXoXK.5 D ) E v b ,.E 5 b c D  X#X2 8.JXUXJXJXNXxX0X+X.X.X$XD.O...a V ` _ ) d v y , , , < # o # @ # 7 # : ..v.,.D > c v.v.,.D | | | E , 7 U U U Y -.9.h.U.T.^.^.^.^.:X:X;X;X;X^.!.^.!.U.!.!.-XI.P.P.g.F.!.yXyXyXyXzXzXhXbXcX-.t ^ 6.6.&.} ' ' ' &.%.9.=.< < < a l a u C ' ] &.:.&.&.>.j e / ;.7.0.0.>.>.f.0.>.>.g.j.0.h.g.h.0.g.h.g.<.f.g.g.g.P.U.T.P.!.;XA Q 2X>X>XrXhX1X2XgXjXjXgX{.+XeXeXgXeX}.H.^ -.@X>XqX,XqX>X}.}.{ l l.jX2XuXrXqXqX1X0XrXtXrX0X0X=X1XjXjXMXMXxXjXfXxXxXcXjXeXeXeX=XH.q z 6.e.h.P.P.f.<.g.P.k.f.:.a.a.@.G @.s.:.:.s.[ [ :.@.@.@.[ [ s.@.[ f.3 ' :.:.' A C A S A S l a N C Y g { t.XXF.Q &.&.&.{ =.Y l Y.lXpX7XB.s.:.g.:XrXlXzXyXqXyX>XI.I.Y.!.OX7XuXpXuXpXzXbXzXbXzXbXzXtXzXbXcXtX1XqXlXHXZXcXcXcXcXrXD.t.D.J.S 9.t.L.Q.Y.Y..X>X0X>X$XeXOXL.OXtXrX0XeX.XD.L.XXeX0X4XK.v =.8.V U w.+X{.+X{.+X+X+X+X+X#X+X+X*XeXxXNXJXJXUXJXUXUXUXUXJXNXgXgXeX5XtXtX=XOXOXOXOX#X#X#X#XOXOXOX#X#X#XOXOX#X#X#X@X@XOX$X6X6X6X$XOXOX.XQ.Q.OX$X0X6X$X$X",
"$X$XOXOXOX$X$XOXOXOXOXOXOXOXOXOXOXOXOXOXOXOXOXOXOXOXOXXXXXXXOXOXOXOXOXOXOXOXOXOX.XOX$XD.t D v v b ,.E.,.t c ,.5XiX4Xf t eXUXJXJXKXKXlXv.*.D.R.r.B 5 D *.E  X5X8.t , # : 0 q $ & o @ @ 9 % : E | b 5 - b v.v. .c E D v d 0 0 P U V N ^ 0.F.!.^.:X<X:X;X:X;X!.:X;X,X7X:X^.-X,XyX7X7X,X,XI.F.h.>XuXuXyXyXzXhXcXHXl.t T e.7.>.&.^ Q ' &.0.L.5.< < q g N N u S ] ' &.:.&.&.>.j 3 / ;.9.0.7.0.0.e.0.:.>.h.F.0.f.>.g.j.h.g.:.:.f.j.j.Z.U.U.U.T.-XXXA Q 2X>X1XrXrX1XrXhXjXrX=X{.=XjXfXgX=X{.J.{ -.>X2X2X,XqX>X@X@X` g p.xXrXuXuXuXtXuXrXtXhXtX1X=XeXfXxXxXNXNXMXxXgXxXxXxXgXrXrX0X=Xp.= g 5.0.h.P.P.g.g.g.Z.k.a.:.a.:.[ ' @.:.:.s.f.[ [ :.@.@.@.:.[ a.@.[ g.j ' :.:.' G j j A C C a p l Y Y N ^ h.OXF.] &.&.&.{ { N Y 1XzX7X!.s.<.:.B.;XuXyXuXuXuXyX>XF.N.I.OX;XOX6XyXpXuXlXvXpXzXuXlXuXtXlXbXcXhXtXhXbXbXZXZXcXxXhXrXL.t.D.L.] %.D.L.L.L.$XtX0X0XwX0X$X.X.X$XrXtXeXrX=XXXOXOX$XeX5XK.Z ..#X#Xi.~ 5.+X=X+X$X+X#X#X+X$X+X{.{.H.L.#X$X5X*XfXxXJXUXUXUXJXkXeX=X+X5X0XOX#XOXOXOXOXOX#X#XOXOXOXOX#XOXOXOXOX#X$X$X$XOXOX$XOX!.OXOXOX$X6X6X6X0X4X$X$X0X",
"OXOXOXOXOXOX$X$X$X$X$XOXOXOXOXOXOXOXOXOXOXOXOXOXOXOXOXXXXXXXOXXXOXOXOXOXOXOXOXOX>XOXOXD.u ..r.#XiXiXkXiX,. .v.E. Xn.! t V #XkXtXiX Xv.! D | D B 5 2 D c : D 3XgXI 0 # : w t $ < $     # 9 , , : : : : t ,. .0 # t , : 7 y y f U f V %.F.Y.!.:X<XZ.s.Z.;X7X7X9X:X^.-X:X:X7X,XqXyXuXuXuXuXqX!.,XuXuXyXyXzXhXzXHX@Xg Y 0.7.0.7.>.>.0.e.D.@X6.< < q p N l p Q ' ] &.:.O.&.>.j 3 / -.>.9.>.0.7.0.0.>.>.h.F.h.g.&.0.F.j.g.>.:.f.j.j.U.^.U.U.-X-X-XC R @X1XtXrXeX{.=X2X=X=X@X{.@XgXfXgX=X{.}.6.e.2XuX2X,X,X1X>X@X` a e.cXrXrXuXuXuXlXuX0XrXrX1XeXjXfXgXNXZXZXZXNXjXxXxXxXxXjXtX1X=Xw.@ z 6.e.h.P.P.g.g.j.U.Z.s.:.:.@.[ ' [ :.:.s.a.' @.@.[ [ :.a.[ a.@.' g.j @.:.:.' ' A j A C C z p l Y Z a W t..X>.&.:.&.%.{ ^ l / lXuX;XI.g.<.:.B.:XqXqXqXuXpXuX7X!.!.>XqX7X;X7XuXpXzXpXuXwXtXtXlXcXzXcXcXbXcXzXzXbXcXcXbXcXcXcXtXL.t.OX.Xt.N t.h..X@XOX0XOX$X0X}.D.$XgXlXtXgXeX0XtX0XOXt.D..X;.E ....n.5X=X+X8.~ / p.t.t.D.D.9.;.%.%.p..XeXtXtXlXgXxXNXJXUXJXJXUXxXkXgXeX0X#XOXOX#XOXOXOX#X#X#X#XOXOXOX#X#XOXOXOXOXOXOXOXOXOX$X4X6XOXOXOXOX$X$X4X0X6X0X0X0X",
"OXOX.X.XOXOXOXOX$X$XOXOXOXOXOXOXOXOXOXOXOXOXOXOXXXOXOXXXXXXXXXXXOXOXOXOXOXOXOXOX.XOX$X5Xn.kXUXSX5Xb.b.3Xb. .D ,.b.n.n.v u v v ` !  .x.,.#.,.| D u c B 5 > X D n.f 7 , , 9 9 # & w o $ # 9 # , # : : 8 # , , : 8 , : , y y d v ( U Y 5.}.>X,X:Xk.G ' j.^.;X-XT.P.U.-XyX7X7X7XqXyXuXpXyXpXuXyXuXuXyXuXuXzXzXuXZXrXN Z 6.>.0.7.h.h.h.0.h.|.6.q < q g N a N / Q ' &.:.%.&.>.l 1 W %.>.0.>.>.>.7.0.>.>.0.F.h.0.:.e.h.j.j.g.:.:.g.j.T.U.Z.U.^.T.XXj C -X2X2X2X2Xe.J.@XeXgXrX+X=XgXgXjX}.6.J.e.F.1X2XqXqXyXqX@X@X=.l e.cXtXrXrXtXrXhXrX>X0XtXrXrXhXeXgXMXNXZXZXNXjXjXcXMXNXNXjXeX=X6.@ g 5.e.h.P.P.f.g.Z.U.k.s.:.@.[ G G @.:.@.a.s.' [ [ @.[ @.a.[ s.' ' s.j @.:.:.' ' A C C A C C p g C V p { e.t.W >.:.&.&.{ ^ N -.bXuX;XU.B.<.@.s.!.6XtXuXuXuXyX7X;X;X>X7X7X>XqXpXpXqXtXqXuXuXlXuXhXzXcXcXbXbXcXzXcXcXcXcXxXbXbXlX}.t.@X$XH.l W / 9.D.H.$XeXtXtX0X0X0XeXtXtX=X=XtXgX=X.XoXK.~ W 9. XE =.{.8./ a e a N Z W W Z W %.t.0XlXbXHXbXcXHXHXKXJXJXJXNXJXJXNX5X*X#X#XOX#XOXOX#X#XoX#XoXoXoXoXOXOXOXOXXXOXOXOXOX.XL.G.F.D.F.G.I.!.!.OX0XwX6X$X0X0X0X#X",
"OX.X.XoXOXOXOXOXOXOXOXOXOXOXOXOXOXOXOXOXOXOXOXOXXXOXOXXXXXXXXXXXOXOXOXOXOXOXOXOX$X$X$X#X5XvX3XK.E...D  . .| ,.E.v.5X4X*.E V # c x.b.v.x. . .,.,.D  .,.r.D 5 - 2 t y y w # X . $ i w $ , , < , # # + : 7 , # 8 : 8 0 d P f f v ( _ ..D.OX>X;XU.[ A @.<X<X,X<X<X<X,XyXyX7X7XyXpXpXpXzXyXuXuXuXqXqXyXuXzXzXzXhXbXtXC Z -.-.0.>.0.j.e.0.h.|.6.q < q l V a Z ] Q ' :.&.O.&.>.a 1 W / >.9.7.>.&.>.0.>.&.0.F.0.&.&.g.h.j.B.j.:.:.j.P.U.k.g.T.^.T.>XC N @XrXrXrX1X6.J.hXgXhXeX}.@XgXfXrXH.{ J.J.|.2XqXuXqXqXrX1X=X6.g w.jXrXuXuXuXtXhXqX0XrXhXuXtXtXrXjXNXNXNXNXcXrXgXcXNXNXNXcXfX@Xw.$ g -.0.h.F.P.j.j.P.P.g.:.@.[ G A G [ :.@.g.s.[ [ @.:.' @.@.[ a.' ' :.j } :.:.[ ' ' A z N N N i g Y g p { l.] Q 0.&.&.-.%.~ C ;.cXzX7XP.Z.s.:.s.I.qXuXuXuXpXqX>X7X,X7XyXqX7XqXqXrXtXtX0XtXtXuXuXzXlXbXcXlXlXcXcXcXcXbXbXcXcXbXxX{.t.#XeX#X;.p Z ^ W / 5.e.H.$X0XeXtX5X5XgXeXeXgX5X5X#Xt.~ Z r. XK.` E Z ~ 9.t.D..X$X>XqX>XOX>XqXzXHXCXlXzXbXbXHXHXHXZXHXHXHXJXJXNXtX$X#X$X#XoXoXoXoXoXoXoXoXoXoXOXOXOXOXOXOXOXOXOX.XL.D.J.G.D.N.C.q.q.<.<.N.Q.OXwX0X#XOX#X",
"OXOXOXOXOXOXOXOXOXOXOXOXOXOXOXOXOXOXOXOXOXOXOXOXXXOXOXXXXXXXXXXXOXOXOXOXOXOXOXOXOX.XoX#X5X X[.vXvX5X8. .!  .E.wXb.v.E.K.r.V v c b D  .x.,.,. .b #.E.#.E.r.,.E : d U ....v t $   < f $ # , 9 X # # 7 7 , 7 , 7 y w w d P f d f ( ~ 5..X>X!.I.g.@.' s.:X:X7X9X9XyXyX7X,XyXyXuXuXpX;XP.h.P.>XqXyXzXyXpXzXzXuXhXcXuX^ S >.>.e.>.:.h.e.0.z.@Xw.e < q g V a S ' Q ] :.] ] &.>.p 1 T { &.-.>.>.&.>.>.&.&.0.F.0.} &.g.j.F.j.j.:.:.Z.U.U.k.g.U.T.U.XXC j @X2X2XrX2Xe.}.gXeXgXrX}.=XrXgXjX}.6.}.}.|.1XqXuX2X,XrXrXeXp.a w.jXrXjXhXuXuXhXtXqXrXqXtXlXhXrXtXNXNXZXcXcXrXrXcXNXNXNXcXgX@Xi.= z 5.e.h.j.I.P.P.P.P.g.@.@.' G G G [ :.a.g.:.[ [ :.:.[ :.@.[ :.[ ' :.j } :.:.[ ' ' A z l N z p l Y g i ] t.C *.<.&.&.-.%.W Z -.lXyX-XZ.U.g.s.I.7XpXyXyXpXuXqX>X,X,X7XqX7X6XOXY.G.6XtXuXuX0XtXuXbXcXbXcXlXzXbXbXcXZXbXlXxXbXNXlXt.H.eXtX=X#X/ L.eX=X{.l.5./ ~ 5.H.{.p.n.#X5X5X5X+X{.;...r.{. X*.B B %.8.D..XOX6XuXtXtXuXtXtXpXvXCXCXCXGXKXKXHXHXKXCXHXKXKXJXJXKXHXgX$X#XOXOXoXoXOXoXoXoXoXoX#XoXOXOXOX$X$X6X0X$XXXY.L.J.G.G.G.B.N.M.M.q.>.*.;.t.OXwX$XoXoX",
"OXOXOXOXOXOXOXOXOXOXOXOXOXOXOXOXOXOXOXOXOXOXOXOXXXOXOXXXXXXXXXXX.XoXOXOXOXOXOXOXOX>XOX#X5X5XxXvXkX4X3X4X,.v.3XiX4XK. X X8.t B b.,.b x b b D b b b.3Xb.b.3XK.K.t # 0 f U E ~ V <   a v o #   X v d 0 , X # 0 v I v P P s 7 w f ( V ~ -.0.g.j.:.' @.g.-X<XyXyXyXyXyXyX7XyXyXpXuX!.:.&.<.g.F.h.h.Y.qXuXuXyX@XrXlXuX} Z ;.-.h.0.&.h.0.>.e..Xe.i = < g N a S Q Q ' :.' ] &.>.u 1 Z { %.%.;.>.&.>.-.] >.0.F.j.0.>.g.g.P.B.j.:.:.k.U.P.k.g.P.U.U.|.A p |.eXgX1XJ.-.H.1XeXrXrX|.2XrXhXjX2Xz.Y.|.XXqXuXuX>XqXuXqX2XJ.l w.jXhXcXzXuXuXhXyXqXqX0X1X0X0XrXcXNXNXNXcXcXrXrXNXcXNXNXcXhX1X[.= z 4.e.F.P.XXT.I.P.P.f.[ ' A G ' G @.:.:.g.f.@.' :.s.@.:.[ [ @.' ' :.j } :.:.' A ' R C j C l g N N N q { %.a 0.<.:.&.-.%.W Z %.qX7XP.B.U.Z.B.;X7XyXqXuXuXyXqX7X;X-X-XXX;XqX6XQ.F.Q.qXlXqXXXOXtXCXbXcXcXbXHXZXbXcXcXcXcXbXcXvXtX;.p.lX=XgX=X/ ;.;.~ V a i q t W 5./ a i V ~ ^ .._ Y q ..R.n.! a D D.H.p.{.0XrXwXuXuXqXqXzXGXGXGXCXHXHXHXGXCXHXCXCXZXKXKXKXHXKXUXJXbX0X$XOXOXOXoXOXoXoXoXOXOXOXoXOXOXOX$X0XeXeX$X.XL.L.G.F.B.B.N.C.G.G.C.C.N.<.>.q.oXOXOXOX",
"OXOXOXOXOXOXOXOXOXOXOXOXOXOXoX.XOXOXOX.X.X.X.X.XXXOXOXOX.XXX.X.X.XoX.XOX.X.XOXOX.XOXOXOX#XxXDXDX5XE.iXiXv. XwX5XiXK.v.,.v ` # ..E.E.v.D c 5 c v.b.E.E. .K.wXv.> : ; 0 0 : : 2 : X X t t X   0 E t O O 0 X 0 d P P P f s y f ( ) ~ ` t.0.>.@.A G :.B.P.-XyXyX7X,X7XyXyXuXVXyXI.g.j.P.P.;X,XL.&.' &.j.yXuXT.qXzXuX;.C -.&.h.F.g.0.g.h.h.Y.z.p $ q p l l Q S F ] :.] &.&.>.e 1 W ` %.&.&.%.&.<.>.&.h.Y.P.F.Y.0.0.>.P.I.P.>.:.P.P.P.k.k.U.T.T.T.A p @XrX=X}.H.w.H.eX1XrXeX+X1XrXhXhX2X|.@X|.-XrXuXyX-X>XuXhX2X+XR 7.cXjXuXrXyXuXrXyXqXrXOXY.XXrXjXjXcXbXcXZXcXrXrXZXcXZXcXjXgX1X{.9 f 6.e.F.I.>XXXY.P.Z.g.' A A ' [ ' @.:.s.g.:.[ [ :.f.s.:.@.[ @.' [ 0.e ' :.@.[ A ' A A z l z p l l g q { C R h.>.&.>.>.] Z Z &.yX:Xs.s.U.U.^.9XyXuXpXpXyXyXyX;X!.I.!.,X7X>X>X;XQ.XXqXtX>X>XtXlXlXlXbXbXZXZXlX0XlXCXbXcXbXcXlXtXY Z 9.n.;.` ~ Z g i N / 5.w.5.+XtX0XH.~ i ~ {.*X XK...i v u t %.t.t.K..X0XrXeXwXqXuXpXvXCXGXGXGXCXCXCXHXHXHXGXCXHXHXHXHXHXKXKXJXJXZXgXOXOXoXoXOXOXoXoXoXoXoXoXOXOXOXOXOX>X0X6XOX.XQ.L.G.F.F.C.C.C.C.N.C.C.N.M.<.O.G..XL.R.",
"OXOXOXOXOXOX.X!..XoXOXOXoX.X.X.X!..X.X.X.X.X.X.X.XXXOXXXXXXXOXOX.XoXoXoX.X.XOXOXOX$XOX4XL.gXDXkX5X5XkXkXE.4XkX3XiXK.v v ~ #Xc t D ,.E.W.b.,.x.b.v.E.E.,.| n.E : ; - : : 2 : 2 c B b t t 5 - b u X 5 ! n.*.0 E ..) v f v U P P U =.p.OXOX;X;XU.U.Z.U.g.g.!.^.-XyXyXyXqXpX7X!.T.;X>XqXT.h.>.&.0.P.>.' &.h..XuXCXrX7.C &.>.h.h.g.g.h.h.h.}.H.a $ q g l N Q S F &.&.] %.O.*.1 q ^ %.&.>.%.Q ] >.-.' f.P.P.j.I.h.>.f.P.T.I.:.:.P.P.k.k.k.U.T.T.T.S e 1X=X|.+X}.p.J.1X1XrX2X|.1XrXhXuX2XXX@X@X>XuXuXqX>X2X2XrX@X@X^ e.cXjXhXuXrXqX1X1X1XqXOXY.Y.1XhXhXZXZXNXZXNXrX2XcXcXNXcXxXrX1X{.q g 7.h.F.I.;XXXP.I.P.j.@.[ [ @.@.} :.:.f.g.:.@.[ s.g.>.s.@.@.@.' ] :.3 ' &.&.' A ' A A N l l p l N l e T N %.t.0.>.>.&.^ Z Z O.7X7Xk.s.Z.^.7X9XyXuXpXzXyXqXqX>X;X!.!.>X7X>X>X>X6X0XtXtXqXuXzXzXlXlXhXlXbXlXL.D.0XlXtXeXgXlXlXeXZ N V W Y Y 5.#X#X#X1XeX$X=X$X+XtXgXxXtXp.E =.+XeX=X5X8.u V *.K.;.{.=XeXtXtXwXwX6XpXvXCXCXGXGXGXCXCXCXZXZXHXZXCXHXCXGXHXKXKXKXJXKXHXxX$XOXOXOXOXOXoXoXoXoXOXOXOXOXOXXXOXOX$X$XOX.XQ.Q.Q.G.F.C.C.C.C.N.C.C.N.F.M.;.C.oXQ.Q.",
"OXOXoXoX.X.X!.Q.!.!.!.!.!.!.!..X!.Q.Q.Q..X.X.X.X.XXXXX.X.XOXOXOX.X.XoXoXoXoXOXOXOXXXXX$XL. XfXeXwXkXkXvX4X XkXwXwXt.t D wXHXn.u - 5 D  .v.v.,.V.v.4XwXK.c 0 , 2 : : , 2 2 c ,.4X4Xv.#.D b 2 t 5 | r.v.K. XD v ~ U U ( _ ) U U _ 5.J.OXXX;X,X;X:X:X7X-XI.I.Z.Z.-X-X:X;X-X!.;X,X-XP.j.>.7.h.h.F.F.g.h.P.g.Y.rXzXrXt.C &.0.h.h.f.g.h.F.F.XXH.g $ q g l C ^ B F &.] ] &.&.&.1 1 W ` -.>.] ' &.&.&.' e.Y.Y.h.j.j.>.h.P.U.I.f.:.P.P.P.g.Z.T.T.U.|.S e .X@X+X=X{.p.H.@X2XeX1X|.1XhXhXhX2X@X1X>X2XuXuXqX>XqX1XrX1X1X{ 6.cXhXhXuXrXqX1X>X>XqX@X.XJ.@XuXrXbXZXZXcXcXrX2XzXcXcXjXhXrX2X%Xq i 6.e.Y.Y.>X>XY.I.I.I.g.:.:.s.f.>.f.<.f.j.f.:.:.g.g.:.s.@.@.@.F G ] 3 ' ] ' G A ' S S C l a p l l g e a a 7.;.>.&.&.] W S Z ! >XyXB.s.T.T.;X;X;XpXuXyXqXqXqX,X>X;X;X7X7XqXqXyXzXtXuXuXlXzXzXlXzXhXtXtXhX0Xt.e.L.L.Q.OXeXtXtX5XZ / ` ~ ` H.$XeXtXeX$X+X@X0X0X0X0XrXgX5X$Xp.N V {.&X4.V v 8.n..X$XtXlXuXtXtXqXqXqXpXVXCXCXCXCXCXCXZXHXHXHXHXCXCXCXHXHXKXKXKXKXKXKXKXNXeXOXOXOX.XoXOXoXOXOX.X.XOX.XOXOX.XOXOXOXOX.X.X.XQ.L.G.C.C.C.C.N.C.N.N.F.N.<.q.R.R.R.",
"OXOXOXoX.X!.!.Q.!.!.!.!.!.!..X.X.XQ.Q.Q..XXXXX.XXXXXXX.X.X.X.X.X.XOX.XOXoXoXoXXXQ.Q.OXeXwXK.i. XkXkXwXkX5X XkXkXlXn.c R.SXvXiX,.u u 2 5 | E.(.v. .v.3Xv.c 0 t ; : : : t E n.3XoXE.v.v.,.H t > 5  .,.,.v.E.,.i U U ..y.8._ ) _ ..8.L.XXXX;X;X;X,X<X-X;X7X:X!.^.-X-X;X-X-X7X7X;XU.h.L.j.Y.uXzX,XF.f.B.XXY.Y.>XzXuXh.N >.>.e.F.h.g.h.F.z.Y.e.g = 1 g N S Q C Q &.' ' &.&.;.1 e W / { &.] ' &.] &.&.h.T..Xh.g.j.<.f.j.P.P.f.:.P.U.U.f.U.T.U.P.|.S 1 p.@X=X=XH.p.H.J.{.}.}.|.rXjXjXhX1X1XrX1X2XuXuXqX;X-X@X2X@X2X} 6.cXhXhXuXrXrXqXqX>XqX>X>XY.@XhXrXcXZXZXcXjX2X>XhXjXcXhXtXgXeX{.i i w.e.}..X>X>XY.I.I.Y.j.g.g.h.h.g.j.g.g.j.f.:.:.g.f.:.:.@.@.:.A m Q 3 S ' ' G A ' S S C l l p l l a q 1 a >.W ' &.&.%./ W Z S XX7Xg.k.~.U.T.!.OX6XqXuXyX7X7X>X,XXX;X7X7XqXyXqXuXqXtXuXzXzXhXhXcXtXhXlXlX0XD.p.J..X$XeXlXlXlX$XY ~ ~ ;.H.=XeXeX.X$X0X=XOX.X0X1X}..XOXJ.H.+X5.i f U f f ~ r.#XwXtXtXrX0X0XqXqXrXtXzXVXCXCXGXCXCXHXCXHXHXHXHXHXCXCXGXHXHXHXHXJXKXKXJXHXgXOXOXOXOXoX.XOX.X.X.X.XOXOXOXOX.X.X.XoXOX.X.X.XQ.L.F.C.N.N.C.C.C.C.N.B.N.0.,.R.R.G.",
"OXOXOXoX!.!.!.!.Q.Q.Q.Q.!.!..XoXXX.XQ..XXXOXXX.XOXXXXX.XQ..X.X.X.X.X.X.XoXoX.X.XQ.OX!.OX4X5Xr.wXkXgXgXSXvX4XkXwX5Xt.r.0XR.K.r.O.5 b c D x.(.b.c - 5 c : 0 0 t 0 2 : : ! 3X5XoXE.E.A.b.v.#.| 5 D c b B | 8.! t v ..w.n.i..._ ..;.t..XXX>X7X;X:X,X;X;X7X,X^.-X7X7X,XyXyXuXqXI.XXXX|.yX2X>XrX2X@XI.h.P.g.F.>XOXzXlXt.a >.>.h.F.j.e.h.I.h.e.-.l = 1 g N Z R S ] &.' ] &.&.;.1 e W ` ] -.&.] ] &.>.0.I.OXY.h.0.F.h.>.h.P.P.g.:.P.P.k.g.T.T.P.P..XS 1 e.@X1X=XH.{.l.6.5.6.l.|.rXjXhXuXqXrXuXqX2XuXuX2X>XT.Y.>X}.=X-.6.cXhXhXuXqXrXqX2X>XqX>XqXXX>XhXrXcXcXcXjXrX@Xz.}.1XhXhXtX0X@XH.p f w.t.}..X>X-XY.Y.Y.I.j.j.F.F.F.h.F.h.h.F.g.:.:.h.g.:.s.:.:.a.G k ' 3 C A ' ' ' ' S Q A N l i g N p 1 = N } N S &.>.&./ W S S I.;XB.Z.Z.Z.B.C.!.>XqXqX7X>X7XqX7X!.;X7XqXqXqXqXqXtXqXtXlXlXhXlXzXxXlXtXtXeX0X=X$XtXtXtXtXrXgXJ.V ~ ~ p.0X0X$XL.^ 9.1X0X0X>X0X>.t..XXXXX}.$X{.W , f f E n.oX5XtXtXrX>XXXXX>X0XqXpXvXVXVXCXGXCXCXHXCXHXHXHXHXCXCXCXGXHXKXKXKXKXJXKXJXJXcXOXOXOXOX.X.XOXOXOXOXOXOXOXOXoXOXOX.XoXoX.X.X.X.XQ.Q.G.F.C.C.N.V.C.N.N.B.N.q.Q.R.G.",
"OXOXOX!.Q.Q.Q.Q.Q.Q.Q.Q.Q.!.!..XOX.X.X.XOXOXOXXXXXXX.X.X.X.X.X.X.X.X.X.X.X.X!.!.OX!.Q.G.K.#XK.SXxXwXkXSXvX XK.r.B K.tXQ.R.oXE.b 5 c D ,.v.x.#.,.b.b - : : 0 0 t t , # t ! r. X3X4X(.A.#.,.#.H v.#.#.| : 5 2 v U _ i.[.n...` 4.8.{.1XOX;X7X7X9X<X7X7X7X-X;XqXqX:XuXyX,XqX-XP.qXXX;X2X>XXXOXF.F.T.I.F.h.F.Y.>XzXuX;.e ;.>.h.F.h.<.h.T.Y.0.{ a = 1 a N Z S S ] &.' %.:.&.-.1 e T / &.>.9.>.&.&.0.F.XX>XI.j.g.j.j.0.f.P.U.g.:.P.P.g.g.^.^.P.P..XS e }.1XeX1X{.J.5.` 6.6.z.@XrXhXhXhXuXuXhXqXqXuXyX>XL.g.F.>X|.@X-.-.jXhXuXrXqXrXrXqXqXqX>XqX>X>XhXrXcXcXcXcXcXrXz.z.J.}.qX0X{.J.{.z g p.p.}..X>XOXY.L.Y.Y.j.j.P.I.I.j.F.h.h.F.h.>.:.h.g.>.g.>.s.:.G k ] e m C ' ] ' ' Q ' A N a e g g p < $ T ^ N S &.&.&.! S W S h.7XT.U.U.U.$.:.G.6X6XXXXX7XyXyX7X!.!.;X>X>X>X>X0XtXqXtXuXlXlXcXzXlX0X$XrXgXlX0XeXtXrXrXeXeXlXp.V ~ 9.#X#XD.t.D.9.L.$X.XQ.OX>.^ Y.Y.OX.XY..XK.=.< v U .. XtXeXrXrXtXqX>X.XXX1XqXuXzXzXzXVXGXCXbXCXHXKXHXHXHXCXCXCXKXKXKXKXKXKXJXKXKXJXZX$XOXOXOX.XoXoXOXoXoXOX.X.XOXoXOXOX.XOXOX.XOXOXOXOXOX!.I.G.M.v.M.N.N.N.F.R.F.oXG.K.",
"OXOXOX!.Q.Q.Q.Q.Q.Q.Q.Q.Q.Q.Q..X.XQ.Q.XXOXOXOXOXXXXXXX.X.X.X.X.X.X.X.X.X.X.X!.!.!.Q.OX.X.X{.{.iXvXkXiX#Xv.D v v E  X4XoXiXpXW.| v.x.|  .,. .b.3XiXE.E c t 0 t , y t 2 : X ; c c F v.c.c.E. .x.v.v.A.3XD O 2 U U ( u.[.i.=.w.w.8.+XOX.X.X7XqXyX9X:X-X:X,XqXyXyXuX:X-X:XyXP.g.>X@XL.XX-XI.Y.Y.Y.L.j.g.e.h.F.>XyXuXS 3 &.>.h.F.h.>.e..X>Xe.{ p = 1 l C R S Q %.:.] ] &.&.&.1 e ~ { ;.>.e.t.>.&.e.F.XX;XL.h.g.0.0.g.f.j.T.j.f.P.P.j.:.U.U.P.I.Y.Z l eX1XeXfX{.p.` =.}.J.+X=XrXhXhXjXuXuXuXqXqXuXyX>X>.' h.@X}.=X-.} hXtXuXrXuXuXuXqXuXqX>XqXqX@XrX@XcXcXcXcXcXrXz.F.F.D..XXXH.J.{.V V l.H..X.X>XY.Y.F.Y.Y.F.j.F.I.Y.F.F.h.h.F.h.0.>.>.0.>.<.@.:.@.A A >.u j A ' } G ' Q ' S N p e g i g < = ^ } Q S &.&.&.^ Z ^ S <.;XT.U.~.T.<.<.!.XXOXXX>XqXyXyX;X-X;X;X>X>XOX6X6XqX0XtXuXlXlXzXlXeX$XeXlXxX0X+X0X>X0XtXeXeXtX5.Z / 9.J.p.-.%.t.9.0.G.J.t.t.C ] Y.Y.h.0.L.D.t.9.a y E i.K.=X0X0X$X0X0X0X>X1X0X>X6XpXpXzXCXGXGXGXCXCXGXGXGXHXHXHXHXHXHXHXHXHXKXKXUXKXKXHXrXOXOXOXOXoXoXoXOXOXoX.X.X.XOXOX.X.XOXOXOX.X.X.X.X.X!.Q.G.C.N.N.C.F.G.G.Q.R.R.D.K.",
"OXOXOX!.Q.Q.Q.Q.Q.Q.Q.Q.Q.Q.Q..XQ.Y.Q..XXXXXXXXXOXOXOXXX.X.X.X.XQ..X.X.X.X.X!.!.!.!.Q..XL.OX0XgXiX X,.E ..,.=.! K.tX0X8XwX8XA.E.(.4Xv. .#. .#.b.E.iX3Xv t d t t d t ; ; - X - X c A.(./.b.,.E.W.E.oXE.*.O t f f v 4.&Xn.4.w.w.t.@XOX.X;XqXyXyX7X<X;X7X7X,XyX7XT.j.j.!.>Xj.P.F.h.F.F.@X|.OX>X@XF.Y.!.h.F.I..XzXY.e 1 / >.e.F.F.e.0.I.>X7.{ g = q l N R S S ] :.' ' >.&.&.= i ^ %.>.e.h.h.0.>.F.L.XXXXz.e.f.>.&.g.f.j.U.P.g.P.k.Z.@.P.P.P.T.T.R W gX=X1XgX}.l.=.l.@X@X1X2XrXhXjXhXrXuXuXuXqXyXuX2X0.] z.@XJ.|.-.{ hXjXjXtXuXhXrXqXuX>X>X1XqXXX>XY.cXcXcXcXrX1Xh.Y.$XY.Y.}.}.+X{.V z l.J.XX.X>XY.Y.Y.Y.Y.F.F.F.Y.Y.F.F.h.h.F.j.e.>.&.:.0.:.[ ] ' ' S g.j m F ] ] A ' Q ' A N j e g q g 1 < } 6.&.Q &.&.>.] C Q S >.7XT.T.T.T.!.;X7XOXXXY.XX7XqXqX>X6XqX6X>XXXXX6XOX>X>X0XtXuXlXlXtXrXgXcX0XgXbXgXeX1X0XlXrXtXlX;.W %.t.H.t.;.%.%.^ / >.0.9.9.>.>.h.h.t.t.D.t.9.t.=.f U i.K.#X=X$X=X$XOX@X>X0X0XOX>X6XyXzXvXVXGXGXCXGXHXGXGXCXCXCXGXKXKXKXKXKXKXJXJXJXUXJXgXOXOXOXOX.XOXOXOXOXOXOX.X.XOXOX.X.XOXXXXXOXOX.X.X!.!.!.!.Q.Q.Q.!.!.!.!.Q.G.G.v.K.",
"4XOXQ.Q.Q.Q.Q.Q.Q.Q.Q.Q.Q.Q.Q.Q.Q.Q.Q.Q.Q..XXXXXOXOXOXXXXX.X.X!.Q.Q.Q..X.X.X.XQ.Q.!.Q.Q.Q..X0XL.$XwXoXE.vXJXlXwXtXvXwX8X8X(.S.(.(.8XA.| x.b.b.v.#.(.iX! > 8 t 0 t t : X + # ; O | 3XoXE.,.E.E.E.,.,. XD ; t y f f 4.&XH.w.w.w.H.>X>X;X;XqXyX9X7X:X<X<XyX9X:XP.j.U.I.B.j.B.;XY.I.>XL.Y.>XqX.XF.h.I.-XU.!.!.>XzX9.1 a T t.h.F.g.0.:.!.@X0./ N $ 1 g T Q Q ] :.:.' &.:.>./ o g ^ -.7.e.h.F.h.h.|.T.T.XXF.h.g.>.} 7.P.P.j.T.j.j.k.j.:.U.P.T.!.F.S -.rX2XgXhX+XH.l..XrXqX2X2XhXuXuXhXuXuXhX2XqXuXuX>XY.F.F.L.z.@X-.-.cXjXcXjXjXzXhXqXqX>X|.>XqXY..XY.uXNXNXcXcX1XJ.}.2X1X1X1X.X{.{.Y N p.J.@XXX>XXXY.Y.Y.Y.D.F..XF.F.J.Y.F.h.F.j.g.:.&.0.:.:.[ @.&.' ' h.C j Q ' ' A ' A S S l p e p i p < u / >.>.>.&.:.>.] Z ' ] &.;X^.^.^.^.;X7XqX6XL.L.6XlXqXqXrX>X>X>X>XXXOX>XXX0X>XOX$X1X$XeXlXlXlXOXH.L.xXcXlXeXrXhXrXgXjX;.W =.e.D.D.9.-.-./ / >.t.h.<.<.0.h.h.0.F.J.0.w.t.=.i g p.p.n.+XJ.+Xt.Z ~ 5.9.}.0X>XqXuXbXGXGXGXGXHXGXGXHXGXCXCXHXHXKXKXKXHXHXHXHXKXUXUXJXlXOXOXOXOX.XOXOXOXOXOXOXOXOXOXXXXXOXOXOXOXOXOXOX.X!.!.Q.Q.!.OXOXoX.XOX.XQ.K.R.R.R.",
"OXoXQ.R.R.Q.Q.R.Q.Q.Q.Q.Q.Q.Q.Q.Q.Q.Q.Q.Q.Q..X.X.X.XXX.X.X.X!.!.W.Q.Q.Q..X.X.X!.!.Q.Q.OX!.L.eXtXSXtXwXvXSXSXbXbXSXwX8X8X4XE.V.(.(.(./.#.x./././.c.v.(.E.b t 8 t v d d : X X + + v r.8.E c E.E.b.5 : v 2 O 0 f v v 4.*X[.p.p.e.}.1X7X>X;X7XqX7X7X^.:X<X<X^.P.j.!.7XI.>.h.B.Y.F.P.qXL.L.OXXXz.h.F.I.!.^.!.>XqX>XN e V Y 9.e.F.h.0.g.;X>X9.{ Y $ q l T Q Q ' :.@.' &.&.0.W O g ` { 7.e.h.D.J.Y..X|.Y.XXF.h.h.0.] } j.P.j.P.j.j.P.k.:.T.U.T.I.F.C -.2XrXgXgX1X|.L.1XtXtXrXqXhXhXuXuXrXyXhXqXqXyXuX>XOXh.z.Y.h.|.-.-.jXjXcXhXhXjXhX2XrXqX>XuXrXY.Y.J.rXZXNXjXjXrX@XrX0X1X0X=X}.{.{.V g p.J..XXX>X}.Y.Y.Y.Y.z.D.Y.F.Y.L.Y.F.h.F.h.g.:.>.0.0.:.@.@.@.] ' h.C j A ' ] A ' A S C j p q e i i < j ] >.>.>.>.>.<.' B ] %.] ^.;X;X;X-X;X;X>X6X>XqXqXrXrXyXqXrXqX>XOXXX1XqX1XtX0X>X>X6X0XeXtXcXtX{.L.+XgXlXxXlXhXgXrXgXrX` C ` w.p.t.9.%.t.t.;.t.D.9.>.q.F.F.F.G.Y.D.9.9.w.t.f i p.p.=.p.n. XH.;.;.=.w.#X=XgXrXuXvXCXGXGXGXGXHXGXCXCXGXKXKXHXKXHXHXHXHXHXHXKXJXKXKXxXOXOXOXOXOX$X$XOXOXOXOXOXOXOXXXXXOXOXoXoXoXOXoX.XQ.Q.R.G.G.Q.!.!..X.XQ.R.R.R.R.R.",
"!.Q.R.R.R.Q.Q.Q.Q.Q.Q.Q.Q.Q.Q.Q.Q.Q.Q.Q.Q.Q.Q..XQ..X.X.X.XQ.Q.!.Q.Q.Q.Q.Q..XOXOX!.Q.!.Q.Q..X0XOX0X.X5XSXbXbXJXJXvX0X8XwX(.b.A.(.E.3X/./.b.b.3X(.3XE.3XA.b c E | | D v : O O O X X 2 #   X r.oXv.; X X O ; 9 v v f 4.&X[.p.p.p.@X>X>X>X;X7XqX:X:X:X7X;XU.P.B.P.;X;Xj.f.T.I.T.j.F.OXF.F.|.z.:.:.f.B.T.;X;XqXrXN.1 p Z V -.t.z.h.g.h.OXOX7.5.~ = q l T Q Q ] :.@.' &.&.0.W O p { -.e.z.F.F.L..XI.XXI.XXY.h.h.e.&.] 0.j.f.j.j.j.P.j.s.^.!.T.I.F.N &.@X2XeXhXrX$X1XhXuXhXrXqXhXzXhXuXqXyXzXqXqXyXuX,X-XF.h.z.0.XX-.-.hXhXjXjXzXhXuXrXhXqX1XuXrXJ.z.l.1XcXNXcXcXzX1XrXqXqX0X@XJ.J.{.V a p.J..X@X>XY.}.Y.F.Y.F.J.Y.J.Y.Y..XF.j.F.h.g.g.0.>.:.:.&.@.:.[ Q h.C j Q ' ] G ' F S N l p q e e e 1 Z &.>.0.<.:.>.q.] B ] %.' !.;X;X^.^.-X;X>XqXqXyXqX6XqXuXqX>XOXOX>X0X0X0XeXrX$X0X0X0XrXtXlXlXtXOX+X$XlXbXbXbXcXxXhXgXgX^ T { p.H.w.9.;.D.D.t.q.N.N.F.F.G.!.XXOX>X.X0.t.D.p.v < 4.w.=.w.H.H.+XJ.+X$X+X#X=X1X0XtXuXzXCXCXCXbXGXCXCXGXGXHXHXHXKXHXHXKXKXHXHXKXJXKXJXxX$X$XOXOXOX$X$XOXOXOXOXOXOXOXoXOXoXoXOXOXOXOX.XQ.Q.L.G.G.G.F.G.Q.!..XQ.Q.oXW.R.R.",
"R.R.R.R.R.Q.R.R.R.R.Q.Q.R.R.R.Q.Q.Q.Q.Q.Q..X.X.X.X.X.X.XQ.Q.Q.Q.Q.W.Q.Q.Q..XOXOX!.!.!.Q.Q.XXeXqXtXvXvXtXvXvXlXtXtXoX8X4XE.A.b.b./.E.A.A.A.x.b.3XE.4X3X .b D ,...| | v 2 2 : ; O O X   X X V  X5.: : X # $ , v f f ..&X[.H.p.H.$XOX>XqX;X>XqX;X:X;X;X!.j.U.T.I.P.g.j.-XI.g.>XOXh.F.F.I.T.g.>.>.f.B.^.,X7XyXyX>.1 N T Z %.z.z.0.0.g.Y.Y.0.e.~ $ q l R Q Q ] :.@.' &.:.>.^ O g } e.z.J.F.J.Y..Xh.F.I.OX!.h.J.h.>.Q >.P.f.j.j.j.P.g.s.^.^.T.I.F.z ^ J.@X2XjX0X1XuXzXhXhXtXrXhXzXhXhXqXyXzXqXqXqXyXqX;XF.h.f.7.XX-.-.hXhXcXcXCXzXhXuXhXuXyXzXuXF.7.z.1XNXcXjXcXzX1XqXrXqX1X.XJ.J.{.Z i p.J..XXXOXY.}.Y.F.J.F.F..XF.L.J.Y.h.h.F.g.g.h.g.>.:.&.&.:.<.@.S g.A j Q ' } F ' S C l p e 1 e q e 1 / &.>.0.>.&.>.g.] B ] O.] -X7X;X^.-X;X>XqX6XqXqXqXqX0XqXqXqXXXY.OXqX0X1XqX>XXX0X0XeXtXtXgXlXxXlXeXtXbXbXlXxXbXbXxXlXjX` ~ ` 6.{.D.e.D.L.OXL.D.G.Y..X>XXX>XXXY.F.D.t.t.D.$X~ , Y H.w.{.+X5X=X=X=X=X$X$XeXtXtXuXtXlXCXHXHXHXCXGXGXGXGXGXGXHXKXHXHXKXKXKXKXKXUXUXJXlX$X$XOXOXOXOXOXOXOXOXOXOXOXOXOXOXOXoXOXOXOXoX.XQ.R.L.G.G.G.F.C.G.Q..X.XoXoXW.R.R.",
"R.R.R.R.R.Q.R.R.R.R.R.R.R.Q.Q.Q.Q.Q.Q.Q..X.XXXXX.X.X.X.XQ.Q.Q.!.!.W.Q.!.!.!.OXOXOXQ.!.!.OX6XlXHXbXbXHXGXbXbXcX0X0XR.R.E.v.v.b.b.3X(.8XA.(.x.D b.| | c 2 5 u u t 2 t 5 2 2 # , 0 : X   # X   Z y X : X o @ @ f f U 4.+X+XK.p.J.>X>XqXqX!.!.>X-X;X,X!.U.j.g.j.Z.B.j.j.7X;Xg.F.XXj.F.L.F.e.&.>.h.B.U.-X7XqXqXuXq.3 u Z T W h.F.0.<.h.Y.J.t.H.^ $ q l T Q Q &.:.&.' :.>.>./ $ N -.e.h.z.D.J.Y.Y.7.h.XX;X.Xh.D.h.e.} f.T.z.P.P.P.P.g.g.^.!.T.I.F.j S e.}.=XhXrX1XuXhXhXhXrXrXhXhXuXuXuXyXuX2XqXqXyXqX>Xh.h.z.7.|.6.;.CXcXcXhXcXcXjXhXhXzXzXzXzXF.] l.@XZXCXjXjXhX>XuXuXqX1X@X{.{.{.Z i e.J.@X}.@XY.Y.Y.F.F.h.J..XL.Y.J.Y.h.h.F.h.g.h.0.:.:.' ' @.:.] A f.C 3 S ' @.' ' S C N p e 1 e e p 3 ;.;.0.>.&.>.>.0.Q m O.O.' -X7X7X-X-X;X;X6X7XqXqX6X6X.XOXuXzX0XXX>XtXrX1X1XeX$XeX0XeXtXtXtXlXcXbXbXbXxXtX1X$XeXhXxXxXxX` ~ W Y e.J.p.D.L.OX$XL.J..XXXXXQ.;XY.F.D.Y.J.>.D.xX{.f < w.{.+XH.p.p.n.0X=X+X0X=X0XrXuXtXlXCXCXCXHXHXHXGXGXHXHXHXGXHXHXHXHXHXKXKXKXKXUXJXjXOXOXOX>X$XOXOXoXOXOXOXOXOXoXOXOXOXOXXXXXoXOX.XQ.R.G.G.G.G.G.C.G.Q.oXoXoXQ.R.R.R.",
"R.R.R.Q.R.R.R.R.R.R.R.R.R.R.Q.Q.Q.Q..X.X.XXXXXXX.X.X.X.XQ.Q.Q.!.!.W.Q.!.!.!.!.!.!.!.!.!.6XlXHXbXHXGXbXGXCXGXbXSXlXR.r.C.v.#.x.v.E.E.(.E.b.,.x c > t 5 c *.8.8.*.u X O : : # : 0 , # # o #   o   X : @ # @ @ d U f _  X+XH.p.@XrXqXqXOXF.F.Y.!.;X;X-X:XT.g.<.g.j.P.U.qX7Xj.&.P.h.g.g.0.:.&.0.h.f.U.U.,X7X7XuX>XC e Z ~ W J.J.e.h.j.Q.F.z.H.` $ q l T Q ' :.:.@.] :.0.0./ $ N 5.e.6.h.F.F.J.h.>.h.P.Y.OXF.F.h.e.:.F.XXP.P.U.P.U.j.f.-X-XT.I.F.j C 6.J.|.rXrXqXqXqXhXuXrXrXhXhXuXhXuXuXyX>XuXyXuXyX>XY.F.f.7.@X6.-.cXhXjXhXcXzXuXrXzXcXhXuXzXF.T 9.Y.cXZXcXcXzX-XqXuXqX0X1X+X}.{.C p e.{.@X}.XXY.Y.Y.F.Y.D.J.}.L..XJ.Y.t.z.F.h.h.h.0.:.:.' ' @.>.] A >.j 3 A ' @.G A A N l p q 1 1 p p e >.>.e.>.&.>.0.h.Q m O.] ' ;X7X;X!.!.!.OX>XqX7X>X>XOXN.Y.zXlXlXhXuXtXqX1XOXrX0XqXeXrXlXlXlXcXcXcXbXcXtX=X.XL.@X0XlXxXjX=.` ~ g ` p.+X#XeXtX0X.XG.D.G.Y.!.Q.Y.F.F.0.} %.XXbXNX=.< Y p.` Z Z Y W L.5X+X.Xt.-.H.rXlXlXlXtXtXuXCXGXGXCXHXHXHXHXHXKXHXHXHXKXKXKXKXUXJXgXOX.X.XOX>X$XOXOX.X.X.X.XOXOX.X.X.X.X.X.X.X.X.XR.R.G.K.F.C.G.G.R..XoXoX.XR.R.R.R.",
"R.Q.Q.Q.R.R.R.R.R.R.R.R.R.R.Q.Q.Q..X.X.XXX.X.X.X.XQ.Q.!.Q.Q.Q..X!.Q.Q.!.OX!.W.Q.!.!.!.6XlXbXKXHXCXCXCXGXvXbXzXpXtX*.| <.v.v.V.E.E. .E.E.E.,.c t D r.3X5XvXiXiX3X,.0 - X X O X # # X #   o $ X # # # # # & % 9 ~ v E  X{.p.D.OX>X1XOXY.B.B.B.B.U.;X:X7X!.j.j.F.T.-X!.;X7XI.>.F.XX0.&.<.P.XX|.F.<.B.!.:X7XqXuXzXO.3 C W S h.h.>.g.F..Xh.F.H.~ $ e N ^ ' ' &.:.] ' :.0.e.] = l -.6.e.h.h.h.D.h.0.g.L.Y.;XF.F.g.0.h.I.T.z.P.U.P.Y.F.0.T.-XT.I.F.p C 6.J.{.1XrXrXqXqXrXrXqXtXhXjXuXhXuXuXuX>XyXhXhXyX>X;XI.>.0.1X6.-.cXjXtX>XrXhXhXrXzXcXcXuXhXJ.C ;.F.cXcXcXcXzX-X2XrXrXrX0X@X}.{.C p p.{.@X}.XXL.Y.J.F.Y.J.F.Y.J.Y.F.L.h.F.J.h.h.h.>.:.:.' F } :.] Q >.j 3 S ' } A ' S C N p e q q g e e >.0.h.0.*.*.q.h.O.N O.' *.yX7X!.!.!.OX;X6X6XXXXX>XOXh.Y.uXlXzXCXlX1X$X=X1X0X0XeXrXlXlXtX0XrXtXtXgXhXtX0X$X$X0X0XtXxXlX=.V ` ~ ` =.H.{.OX>XtXOXL.G.Y.F.Y.Y.N.*.N j ] Y.uXxXDXxX~ $ t v ~ ;.n.r.w.L.=XD./ Y 9.rXcXtX0X0XqX1XtXbXHXGXHXHXHXHXHXHXKXKXKXKXKXKXKXUXHXtXOX.XY.L.Q.XXOXOX.X.X.X.X.X.X.X.X.X.X.X.X.X.X.XQ.R.G.G.G.G.R.Q.Q.oXoX.X.XR.R.R.R.",
"Q.Q.Q.R.R.R.R.R.R.R.R.R.R.R.Q.Q.Q.Q..X.XXX.X.X.X.XQ.!.!.Q.Y.Q.!.!.Q.Q.!.!.!.W.Q.Q.!.OXuXKXHXKXbXHXGXGXCXGXGXGXpXXXO.! <.v.W.4XE.,.b v.3XE.! 5 ! wXiXiXwX4Xv.*. .E 0 : - : , t v f # #   o $ X # # @ @ @ & % & _ U V {.{.D..X0XqX>XY.B.B.P.g.g.B.U.^.;X-X!.-X!.,X:X7XqX7X7XqX:XyX>Xg.g.;XuX,X!.P.P.9X:XyXpXuXuX&.1 Z W Z t.h.h.h.F.!.e.L.D.Z O e N Q ' ] :.:.@.] :.>.>.] < l } 6.e.h.h.t.e.e.h.h.Y.|.,XY.F.0.>.B.T.I.j.z.P.P.P.j.>.I.T.T.Y.F.p N e.z.{.1X1XqXrXrXrXuXrXtXhXzXuXhXuXuXyX>XuXhXuXqXqXOXT.:.7.1Xe.-.lXrXl.N T F.rXrXhXzXcXhXzX}.N Q 0.hXZXcXcXzX-X2XqXqXrXrX@X+X}.Y p l.L..X}..XF.Y.Y.F.F.F.F.Y.D.Y.F.L.h.F.F.f.h.h.0.>.&.} ' @.:.&.] 0.N 3 Q ' [ A ' A z l p q q e N p p >.e.N.e.>.<.0.0.O.N O.] q.pX7X!.T.!.;X;XOX6XOX;XXXI.F.6XbXzXzXbXlX0X@X$X=X>XqXrXtXuXeXL.t.J..X$XeXeXeX0XeXrXqX$X0XbXNX=.< i g N i C W Z ;.OXqX>X>XXXQ.N.O.m u S Y.rXzXCXbXxXDXw.i =.5.5.5.K.t.r.K.0XL./ ~ t.gXgX.X.XrXtXOX0XcXKXKXKXHXHXHXHXHXHXKXKXJXJXKXKXKXbXeXOXOXL.N.N.G.OXOXOX.X.X.X.X.X.X.XQ.Q..X.X.X.XQ..XQ.R.K.L.Q..XoXoXOX.XQ.Q.Q.R.R.R.",
"R.R.R.R.R.R.R.R.R.R.R.R.R.R.Q.Q.!.Q.!..X.X.X.X.X.X!.!.Q.Q.Q.Q.Q.Q.Q.!.!.W.Q.Q.W.!.Y.6XbXHXKXKXHXGXGXGXCXGXGXzXqXB.q.M.N.0.q.v.,.| D b ,.,.u t E n. X5XK.r.,.,.,.| t : t v c t c U v # X X # # # + # @ # + @ & w Y f w.*X=X$XqXqX>XXXP.B.N.s.s.B.T.:X:X^.;X;X:XqX7XyXyXyXyXqXyXuXyXF.>.T.,X:X-X;X;X:X;XyXVX7Xg.C 1 C / Z 9.h.B.h.F.F.t..X6.C @ i N ^ Q &.>.:.' ' :.>.0.-.< p { 6.e.0.h.q.>.>.h.Y.;XXX;XY.F.0.&.g.P.I.j.P.T.P.Y.j.:.<.j.P.I.F.3 C z.J.|.+X@XrXtXqXhXtXuXhXhXhXuXuXuXuXuX,XuXyXuXyXyXXX;X&.0.1Xh.-.lXrX}.] S 0.tXzXhXZXHXCXcXrXl j e.jXCXcXcXzX>XqXrXrXrX0X$X}.{.T p D.J.}.}.Y.Y.J.F.F.F.h.J.Y.F.L.J.Y.z.h.L.h.F.h.g.h.0.&.] &.:.:.:.g.C 3 ' ] ' A ' S j j e q 1 q l e u 9.h.h.e.<.<.e.<.Q ] &.Q g.yX;X!.!.!.-X;X;XOXI.!.OXB.h.>XVXzXzXbXuX$X$X0X$X0XqXlXtXrXOXD.D.H.D.L.1XhXhXhXlXlXhXtX0XxXbXH.g , < a W %.-.%.%.W ] q.>.&.S ] Q a 0.6XrXhXzXlXcXxXgX~ ~ =Xp.~ 8.K.D.D..X.X;.Z ^ }.tXtXD.L.OXOX.XY.zXHXHXHXHXHXHXKXKXKXHXHXJXKXKXKXJXlX$XOX>XQ.h.<.<.0.M.G.OX.XOXQ.L.R.oXQ.Q..XQ.Q.Q.Q.Q..XQ.Q.Q.oXoXoXoXoX.X.XQ.R.R.R.R.",
"R.R.R.R.R.R.R.R.L.L.R.R.R.Q.Q.!..X.X.X.X.X.X.XQ.!.Q.!.Q.Q.Q.Q.Q.Q.Q.Q.Q.Q.Q.Q.Q.!.Q.qXCXKXHXHXZXGXGXGXGXGXGXzXqXOXQ.!.Q.M.0.9.%.D D D 5 5 c t : 2 5 D  X5X Xv. . .c t E v D t d f f t # X   @ X @   @ 9 @ % 9 & ~ U =.$X0XeXtX>X>X>XXX!.!.P.B.Z.^.:X^.^.;X:X7XqX7X7XyXyXyXyXuXuX7XP.j.j.B.,XyX7X7X9XyXyXU.&.] &.3 N W C &.e.e.0.h.h.t.D.;.N $ i l Q Q &.>.>.&.&.:.:.0.&.$ i ^ -.e.e.N.h.;.>.F.T.>XT.XX;XY.g.&.g.F.I.h.P.I.U.T.P.&.@.<.F.Y.F.3 C J.H.+X{.}.rXtXrXhXrXhXhXjXhXuXhXuXyXqX2XuXuXuXyXqX;X;X&.0.2Xz.-.hXjXhX@XJ.1XbXcXbXbXbXbXcXtXa e h.hXcXzXjXhX-XrXhXuXrX0X=X}.J.T p l.J.XX}.J.z.F.F.F.J.h.D.L.D.Y.D.J.D.h.L.h.F.J.h.h.<.:.] &.:.>.&.0.j 3 Q ] ' F ' S j l q 1 q q l p a 0.h.h.e.e.q.0.&.S ] O.S B.pX7X;X;X7X6X6XXXB.N.Q.OXh.F.yXuXVXCXCXuXOX$XeXrXeXuXqXXX$X0X0XOXL.D.H.$XjXcXbXcXzXbXcXbXxXgX5X4.q q Y H.0XOX}.qXF.Q 3 p B >.<.S 0.>X0XuXuXrXhXcXHX=Xg w.eXp.~ ..t..X#XOXt.Z W 0.@X0XeXJ.9.D.@X+XOXzXHXHXHXGXHXKXKXKXHXHXJXKXKXJXKXHXuX>XOX.XN.;.%.O.O.! O.>.0.L..XQ.R.Q.Q.R..XQ.Q.Q.Q.Q.Q.Q.Q..X.X.X.X.X.XQ.Q.R.R.R.R.R.",
"R.R.R.R.R.R.R.R.R.R.R.R.R.R.Q.Q..X.X.X.X.X.X!.Q.!.!.Q.Q.Q.Q.Q.Q.Q.Q.Q.Q.Q.Q.Q.Q.Q.XXtXHXKXKXKXHXHXHXGXGXGXVXVXpX6X!.Q.!.G.t.*.W B D E c u u 2 0 t 2 c 5XiX3Xb.b.E x E  .| b c b v t # , # X & & @   # w @ @ 9 % f ( ` +XeX0XqXqX,X7X7X;X^.U.U.^.:X:X^.^.<X9XyXyXyX7X7XqXuXVXVXuXpX7X-XP.!.yXqX:X7X9X7Xg.A A h.G.u p T Z %.z.h.h.F.h.z.9.=.g < i N ^ ' &.>.>.[ &.:.&.0.-.$ q T { 0.0.t.h.*.>.z.Y.XXI.T.>X.Xh.&.g.P.T.j.P.P.U.T.P.' ' 0.B.I.F.e R {.J.=Xe.J.rXrXrXhXrXhXhXcXhXhXhXuXqX2XqXuXuXuXyXqX,X>X&.0.1Xz.&.cXZXjX1X.XrXcXjXhXbXCXZXZXtXp p t.rXjXcXcXhX-XqXzXtXqX0X1X@X{.Y g l.H.Y.F.F.h.F.G.F.J.h.F.J.h.}.z.F.z.h.Y.F.D.J.h.g.0.:.&.>.:.:.&.0.j 3 ] &.] F ' A l l q q q q N a l h.h.D.e.e.0.&.Q N O.O.B I.yX9X7X7XyX7X>Xq.B.Q.XX!.N.Y.pXuXzXCXCXuXOX.X>XqX0XqX.X.XeXeXeXOX{..XOXrXcXNXbXlXzXzXlXbXNXxX=XV 9 w V 5.L.L.L.eXuXuX] &.F.h.a / 0XuXzXlXhXhXtXCXNXK.v 8.wXL.~ w.t.D.OX.XD.t.L.Y.@XOX0X$Xl.t.D.L.rXCXHXZXHXHXHXKXKXKXHXKXKXUXKXJXJXbXrXOXG.q.;.O.] ] O.>.;.O.! 0.G.Q.R.Q.Q.Q.Q.Q.Q.Q.R.R.R.R.Q.Q..X.X.XQ.Q.R.Q.Q.R.R.R.R.",
"R.R.R.R.R.R.R.R.Q.Q.Q.Q.R.R.R.Q.!..X.X.X.X.X.X!.XX!.Q.Q.Q.Q.Q.!.!.!.!.!.!.Q.Q.Q.Y..XrXZXKXKXKXKXKXHXGXGXVXVXVXVXVXqX!.G.M.t.>.%.! / D v E *.` a t u r.iX3X X3XE.,.D ,.,.x.| D D D v , y w X @ X % X # 9 @ . 9 w @ i ` J.$X@X1XqX>X,X;X!.!.T.^.:X^.~.Z.Z.^.<X7X9X9XyXyXuXyXpXpXpXuXuX,XU.!.;XyXBXpXU.G A ' <.T.yXZ e T W ;.J.z.F.F.h.h.-.%.i $ t C / ] >.:.:.' [ @.&.0.-.$ q Y ` e.e.h.t.>.0.j.Y.Y.I.T.>XT.j.:.>.P.!.P.P.P.P.I.F.A } j.F.I.F.p R J.J.1Xe.J.hX2XrXhXrXjXhXcXuXuXhXqXqX,XuXuXuXuXuXqXyX,X&.0.1Xz.{ jXcXxXrX1X|.=.^ z.hXbXcXZXrXa N h.rXjXcXcXhX-XqXzXtXqX2X1X@X}.C p l.J.L.F.F.e.h.F.h.J.D.F.J.h.Y.D.F.t.t.Y.F.z.F.t.t.h.<.:.>.:.:.] >.j 3 ' &.] A G C l l e e e q N a l h.h.F.0.e.>.] S N &.&.A N.P.!.7X7XyX7XOX<.:.I.!.h.<.Y.uXuXzXzXbXzXqXOXOX$XXXOXL.OX1XOX$XOXD.@XeXhXlXlXlXhXzXlXcXlXxXNXH.$ 9 v Z ~ p.OXXX>XuXzXF.h.0X/ N Q.$XtXlXlXhXrXzXbXH.Y N Y H.9.N W *.*.G.L.OXeXqXXXXX>XXX0XrXOXL.tXcXHXHXCXKXKXHXHXKXKXKXKXJXKXUXUXKXlXOXL.0.*.*.&.>.q.N.N.M.0.O.*.N.R.Q.Q..XQ.Q.Q.Q.Q.R.R.R.R.Q.Q.!..XQ.Q.R.R.R.Q.Q.R.R.R.",
"R.R.R.R.R.R.R.R.Q.Q.Q.Q.Q.Q.Q.oXQ.Q.Q.Q..X.X!.!..X!.Q.Q.Q.Q.!.!.!.!.!.!.!.W.Q.Q.Q.XXtXZXJXKXKXKXHXCXCXCXCXVXVXVXGXpXOXF.N.Q.K.r.Z D ! #XxXSXgX5X..2 n.iX5X XE.b.b.x.b.x.b.,.b > t v a i v . < @ # @ X , 9 @ % w < # g 5.{.$XtX>X>X>X;X;X;X:X;X^.^.U.B.Z.^.7X7X<XyXyXuXyXyXyXuXuXyXuXpXyXqXqXqXU.@.G A ' :.g.,XpX] 1 C Z ;.z.z.F.F.0.6.{ { i $ t C ^ %.>.>.:.' @.} &.9.-.$ q C ^ 9.0.h.;.>.0.f.XXY.T.T.>XT.F.>.&.P.T.P.j.U.P.I.P.@.@.g.j.I.Y.l R J.J.1Xl.|.jXrXhXjXhXjXhXjXuXtXuXuX>X-XuXuXuXuXuXqXuX2X7.f.2XF.&.cXxXjXjXrXJ.z T 6.uXcXzXCXhXS l z.uXjXjXzXhX>XqXzXuXrX0X1X@X{.l g l.L.z.z.e.0.t.N.h.D.h.F.F.t.L.z.J.0.t.L.D.J.F.h.h.h.0.&.>.>.<.' >.p 1 Q &.[ A ' A l l e p e q l p a h.h.Y.e.f.:.] C C &.] A >.' <.-X,X7X7X>XQ.<.:.:.*.0.!.qXzXzXzXlXzXzXuXqX0XY.L.L.L.OXrXrX.X@XrXlXlXlXcXcXcXzXlXZXxXgXxXw.< i Y Y / D.OX.XXX0XrXL.q.>.N ;.0XrXtXtX0XOX@XzXZXl.i a V Y V Y v e N Z %.$X>X>X0X6X.XOXqXtXlXcXbXbXHXHXHXKXHXHXKXHXHXKXKXJXJXUXUXNXrX.Xv.O.! <.N.h.N.N.q.0.<.O.*.C.W.W.Q.!.Q.Q.Q.Q.Q.R.R.R.R.R.R.Q.!.oXQ.Q.R.R.Q.Q.Q.R.R.",
"R.R.R.R.R.R.R.R.R.R.Q.Q.Q.Q.Q..XQ.Q.Q.Q.Q.Q.Q.Q.Q.Q.Q.Q.!.!.!.Q.Q.Q.!.!.!.W.Q.!..XOXtXZXUXUXKXKXHXZXCXHXGXCXVXzXzXyX6XoXR..X8.E u Z v 5.5XvXgXvX#Xt K.4XiX3Xn.b.b.b.E.v.v.,. .E b 5 2 2 Z o < $ X @ @ , w $ . 9 9 # o i ` t..XOXqX7X,X;X-X;X:X:X:X;X!.!.<XyXyXyX9XyXyXuXyX7X7XyXqXyXVXVXVXuXj.F O.G O.s.Z.U.,XzX>.1 a N -.t.l.J.F.0.-.%.=.i $ i C / &.>.:.:.' :.} &.9.-.$ q C ^ 9.0.t.&.0.e.j.,X|.|.Y.;XXXI.h.>.P.U.j.j.U.P.T.P.j.:.:.F.I.I.C R J.H.=X}.1XjXrXjXjXhXjXhXhXrXuXuXuX-XY.qXuXuXyXuXyXuXyXf.f.1Xz.{ ZXcXhXrXeX{.W e.@XcXcXzXCXCX>.p J.hXcXjXcXzXqXrXhXrXrXqX1X@X{.l z z.J.e.0.-.0.F.F.F.J.t.h.h.0.J.h.J.0.t.F.h.J.Y.t.h.h.e.:.>.0.0.' 0.l 3 ' :.&.F ' A j j e p e q N a N l.h.F.0.h.:.' N S &.' S :.A F I.,X7X>X>X6X;Xg.>.q.OXqX>XuXzXuXuXzXzXzXzXlX0XD.9.J.OXeX1XeXlXcXlXjXlXlXlXhXlXzXcXbXbXxXi., y V V %..XOXQ.0XqXzXe.C C L.D.9.L.L.OXY..X}.1XcXcX=.g ;.p.t.8.W Z S N ! Q.>XOX>X6XOX6XqXuXlXlXzXCXHXCXHXKXHXKXKXKXKXKXJXJXJXUXKXlXL.9.*.+.<.M.B.B.g.h.N.M.<.O.<.C.oXoXW.oXoX!.Q.Q.Q.Q.R.R.R.R.R.Q.Q.!.Q.Q.R.Q.Q.Q.Q.Q.Q.",
"R.Q.R.R.R.R.R.R.Q.R.R.R.R.R.Q.Q.Q.Q.Q.Q.Q.Q.Q.Q.Q.!.!.!.!.!.!.Q.Q.Q.!.!.W.W.!.XXXX$XtXNXJXKXJXKXHXZXHXHXCXVXVXzXzXW.,.W c B v D K.#X| u ..3X5X#Xr.5 v.4X4X5X X Xv. .b.b.b.,.r.b.,.t 5 t B O O O o o # % 9 % . & $ < X . $ < e T &.>.h.F.F.N.s.:.g.B.Z.P.U.!.^.,X9X7XT.g.@.G ' :.g.!.yXuXyX^.<.:.s.@.<.g.P.!.qXzXe.1 e a -.e.h.F.h.>.&.%.;.q $ q Z ] &.>.:.:.' @.} &.>.%.$ q Y { 6.e.0.&.0.e.F.;XT.T.P.XXXXI.F.f.P.T.j.j.U.U.-XT.T.j.f.P.I.I.A S J.{.@X1XgXjXgXgXhXhXhXhXhXtXtXhXuX@XY.uXpXuXyXpXyXyXuXF.h.>Xe.] jXcXcXrXrXeXH.=XcXCXzXzXcXcXJ.Z }.jXcXcXcXcXqXyXhXrXrXrX1X@X{.z z J.J.h.e.7.h.F.Y.Y.Y.e.0.h.0.D.t.J.t.h.z.h.J.L.e.h.h.h.0.0.g.0.] e.N 3 &.:.] F ' S j j p j i e N g C D.h.J.>.e.&.' j S &.] F <.A A <.!.;X-XOX>X;X6X6X;XqXqXXX;X>XyXuXuXhXlXlXuX0X@XD.t.D..X.XrXcXlXgXhXcXcXcXlXbXbXcXlXlXxXp., w V Y =.OXOX.X0X0XyXt.1 / tXL.^ t.L.D.L..XF.XXuXcX{.Z ;.K.D.;.>.;.%.-.;.N..XQ.XX6X>X6XqXtXtXlXzXHXHXCXHXKXKXHXHXKXKXJXJXJXUXKXHXOX>.O.+.>.M.N.N.h.h.M.h.q.<.*.<.C.W.oX!.oX!.Q.Q.Q.Q.Q.Q.R.Q.R.R.Q.Q.Q.Q.W.R.R.R.R.Q.Q.Q.",
"Q.Q.Q.Q.R.R.R.R.Q.Q.R.R.R.Q.Q.Q.Q.Q.Q.Q.Q.Q.Q.Q.!.XX!.!.!.!.!.!.Q.!.!.!.!.!.!.XX>X0XjXNXJXUXKXKXHXZXZXCXCXVXVXGXiX,.B D v E ,.4XkXK.E E r.3X5X XE : u v E 3X4Xn.8.> b b. Xn.n.K.r.B | u a O e a , o # X # # o $ & o o $ 2 i e 1 * * 3 B Q ] A m 3 3 j k A A A A @.[ G G :.:.:.<.f.g.<.s.:.:.:.:.:.M.U.^.^.U.F.>X0.= 1 p =.e.l.D.0.>.%.-.5.t < i C ^ &.:.:.:.' :.] ] >.%.$ e T { 6.h.t.0.e.0.F.-XT.T.Y.T.I.P.P.f.j.-XP.j.P.U.-X-X-XP.g.U.I.|.R l z.}.+XfXxXjXjXrXjXhXjXjXhXuXtXhXuX@X|.uXzXyXuXVXyXqXuXY.h.>X0.^ cXZXcXgXgXgXeXxXcXCXzXzXzXzX>X6.1XCXCXjXcXhXqXyXhXrXrXrX$X|.J.z z J.h.0.7.e.F.F.G.Y.Y.e.0.h.0.D.0.h.t.h.D.D.J.F.h.F.e.h.e.e.h.e.] e.l 3 &.:.] ] ' A N l p z p i N a C D.D.F.>.0.&.' C C O.%.S <.A A @.C.Y.!.;X>XXXOX7XqX;X!.OXOXQ.qXpXzXzXcXuX0X0XrXXXJ.L.D.t.=XlXlXtXlXcXcXcXbXbXzXcXhXeXgXp.< w N N ^ H..X.X0XqXqX>.1 >.G.G.t.W t.D.Y.$X}.l.1XbX=XY / t.t.t.*.%.;.<.t.h.t.G.Q.XX6X0X>X6XuXlXvXCXHXHXKXHXZXHXKXHXHXJXJXJXUXKXZXD./ O.,.<.C.B.B.B.h.h.M.q.<.*.<.G.oX!.W.W.R.Q.Q.Q.Q.Q.Q.Q.Q.Q.R.R.Q.Q.Q.W.Q.R.R.R.R.R.Q.",
"Q.R.R.R.R.R.R.Q.R.R.R.Q.Q.Q.R.R.Q.Q.R.Q.Q.Q.!.!.OXOXOX!.!.!.!.!.!.!.Q.!.OXQ.Q.>XuXcXNXNXJXUXUXKXKXCXCXGXCXGXbXzX6XO.| D ! E D E | ..n.b.r.5XkXiX5Xv -   : t.#XE...X X f ! 8.n.| 2 u <.m 4 3 F S g 9 , $ & $ X @ $ q Y =.8.;.=./ ] S e 3 j ^ %.] S C W S A A ' ' s.a.:.a.k.P.g.@.B.Z.g.a.[ @.s.k.U.Z.B.B.g.&.] &./ = 1 a { e.z.F.>.>./ 9.=.i = i C ^ >.:.>.>.] &.' ] >.%.= i W { e.z.F.e.h.h.I.>XT.P.T.I.T.z.j.h.j.T.P.g.T.^.-X-XU.T.P.P.-XXXR l F.|.=XgXjXxXjXgXhXrXcXuXrXrXqXhXhX|.|.uXuXuXuXuXqXyXyX.XL.1Xz.^ cXcXcXjXlXjXgXjXcXzXjXuXCXbXrX@XtXcXCXcXcXhXuXqXuXuXqX1X2X}.H.C C J.f.:.:.j.h.B.I.Y.Y.F.0.0.0.t.9.h.0.e.h.h.D.F.e.h.t.h.h.h.h.7.] f.N e &.@.@.' ] ' C j l l e t g p C J.D.Y.>.>.-.' j 3 ' ] F f.A A ' g.!.OXQ.Q.6XqXqX7X7XOXXX6X0.h.pXvXbXuXOX$XrXeXrXeX0X$XY.@XuXtXlXhXcXcXhXbXzXuX0XeXeXxXH., y v v ^ 9.J.@X>XyXqX] 4 S h.D.t.Z Z 9.t.H.@XH.{.NXtXC g ;.p.D.;.] %.0.v.C.N.t.0..XOX$X$X6XuXuXzXCXHXHXHXZXZXKXHXHXJXJXKXUXUXUXxXt.&.O.>.N.M.M.C.C.B.h.q.N.0.+.<.W.!.!.!.W.Q.W.W.Q.Q.Q.Q.Q.Q.R.R.R.Q.Q.Q.Q.Q.R.G.Q.R.R.R.",
"R.R.R.R.R.R.R.R.R.R.R.Q.Q.R.R.R.R.Q.R.R.Q.Q.!.!.OXOXOXOX!.!.!.!.!.!.!.!.OX!.XX0XlXlXxXHXHXxXgXbXHXKXKXbXbXGXvXvXR.| | D 8...t t b E.iX X3Xn.iXiXkX! f v # Z L. XE # # + X : 2 - O - D D u m ! N Z v f 0 9 # X & i ~ r.{.J.{.+XD.0.0.&.^ j p N T ^ S Q &.&.>.<.f.s.:.k.U.Z.j.g.:.k.s.:.@.@.a.s.s.@.X.G A A A S W Z < 1 l -.e.J.F.e.;./ t.=.q $ i C ^ :.&.:.>.] &.' ] -.%.= i ^ =.9.l.F.h.h.7.z.XXI.P.T.I.I.j.g.g.g.F.j.P.!.-X:X-XU.^.U.U.XXXXR j F.|.1XhXjXjXjXjXgXrXhXhXuXqXrXhXuX>XuXzXuXyXuXzXqXqXuXOXXXzX}.{ cXNXcXcXcXxXtXhXcXcXhXuXcXcXuXrXzXCXCXCXCXuXqX>X>XrX1X>X1X{.J.Y N J.e.:.>.B.g.N.I.h.Y.Y.h.0.9.0.0.h.e.h.h.h.h.h.0.e.e.D.h.0.0.6.Q z.C p &.&.@.' ] ' C l N l t i N a C J.h.F.>.0.&.' j e ] ] A g.' A A @.I.I.N.Q.6X6X!.!.;X;XOX!.&.&.7XzXuXqX6XqXrX$XrXlXrX0X0XqXtXhXzXlXlXuX0XqXuX6X$X@X=XxX+Xw w V U ^ w.}.$X1X7XF.' ] / S a S N e l { %.e.}.}.rXxX-.a ~ t.9.-.! ;.q.q.q.9.D.D.t.L.$X0XtXwX0XlXZXNXbXHXJXHXHXHXJXKXUXJXUXUXJXrX;.] F +.C.N.<.g.N.N.q.q.N.<.;.0.!.!.W.!.!.oXoXoXQ.Q.Q.Q.Q.R.R.R.L.R.R.R.Q.Q.Q.R.R.R.R.L.",
"R.R.R.R.R.R.R.R.R.R.Q.Q.Q.Q.R.R.Q.R.Q.R.Q.Q.Q.!..XOXOXOXXX!.!.Q.!.!.XXOXOX!.XX6XtXlXlXtXrXgXlXbXbXKXKXHXKXHXbXHXR.E B | 3XK.b b b.iX5Xn.3Xr.v.kXkXE - ..2 : N V ; # : X O O O X O O 2 B u a F ! V t 0 , 9 # @ , g ` n.{.H.$XtX0XOXL.e.0.>.] S j j u N ] O.>.>.0.>.@.:.g.f.' A m m k k m A G A j h m A m j C S C a < 2 N -.e.F.h.e.&.] l.=.i $ i C ^ &.] :.:.' &.' ] -.{ = i ^ =.6.l.h.j.h.>.F.XXT.Y.XXI.I.F.0.g.:.g.h.T.T.:X,X-XT.-XU.T.T.@X^ z F.|.2XhXxXhXjXjXhXhXhXtXrX1XuXuXtXuXuXuXuXhXhXuXuXuXqXqXyXHXL.{ ZXZXZXcXcXxXrXrXcXcXzXcXCXCXhXlXcXCXVXcXCXuX2X@X>XqX-X@X1X{.H.C z J.e.:.0.C.g.g.B.g.I.I.B.q.>.>.0.t.0.0.9.9.h.h.e.e.e.h.l.e.e.-.^ z.C j -.:.:.' ' ' C l N N i g N a Z D.h.F.0.>.&.&.S j %.] A B.:.A ' :.C.I.C.Q.!.XXY.!.!.!.W.I.O.] ;XzXqX6XqXtX6XqXrXqXrXtXqXqXrXuXrX1X1XqXqXrXXXQ.OX.X=XxX=Xi & f V ` w.l.@X>X>X<.g.Y.G.q.>.%.j 1 1 p j { e.D.@XgXw.= q V ~ ~ N / ;./ / ` Z / 6.L.0XOX$X0XtXzXbXbXbXbXHXJXHXKXKXKXJXKXUXJXNX0X>.<.*.$.g.M.<.<.M.N.M.M.M.>.;.M.OXoX!.Q.!.oXoXQ.R.Q.Q.Q.R.R.R.R.R.R.R.R.R.Q.Q.Q.Q.Q.R.G.",
"R.R.R.R.R.R.R.R.R.R.Q.Q.Q.Q.R.R.Q.R.R.R.R.Q.Q.Q.!.OXOXOX!.!.Q.Q.!.OXOXOXOX.X.XOXXX$XeXrXrXrXtXlXlXlXNXKXHXHXSXSXn.E | n.iX3XE c  XkXn.3XkXr.t 8.8.a O E ! o O     : : # - X ; u ! | B 4 5 u B t : O : # # , , , ~ w.{.#X+X0XjXqXqXqX>XOXF.h.0.&.N 1 1 3 a S S S 3 3 1 3 3 3 3 j A G @.s.Z.k.@.j * 3 e l l l N Y i $ q N -.e.h.h.e.} %.D.` p < p C ^ &.] &.:.' &.' ] -.=.< q ~ =.9.l.z.z.F.h.L.OX|.I.!.I.P.P.0.j.>.0.P.-XP.-X:XT.^.^.P.U.P.T.^ l J.@XrXhXjXgXjXjXjXlXjXtXrX1XrXuXhXqXuXzXVXzXhXuXyXXXF.uXcXCXD.` cXbXcXxXxXjXrXtXcXZXcXcXcXcXuXzXCXcXcXzXzXuXqX@XrXrX>X>X@XJ.z.z S Y.g.<.j.I.g.g.N.g.<.g.B.0.&.>.0.9.>.9.>.>.h.h.h.9.9.t.t.-.{ ^ ^ l.C A 0.>.&.' ] ' C l C C a N C p Z h.h.F.e.:.&.&.Q l %.%.A g.:.A ' :.B.!.!.W.-X!.I.^.!.U.P.g.' F !.pX7X>XqX7XqXuXqXtXuXqX0XqXuXqXXX@X1XrX1X@XQ..XOXeXxXNX#X9 , f f ~ =.-.J.F.' >.F.0.G.Y.;XXXe.&.Q u 1 p p R =.H.l.Y g 1 g 1 < 1 < < 2 i q 1 e l %.D.>XqXuXzXlXNXKXJXJXUXKXUXJXUXUXJXKXHXcX>Xq.0.>.+.O.<.h.h.N.C.C.M.<.+.;.C.4XOXoXoXoXoXoXQ.R.Q.Q.Q.R.R.R.R.Q.Q.R.R.R.Q.Q.Q.Q.Q.R.G.",
"Q.Q.R.R.R.R.R.R.R.Q.Q.Q.Q.Q.R.R.R.Q.R.R.Q.Q.Q.Q.!.!.!.!.!.!.!.!.!.!.!.OXOXOXOXOX$XXXOX>X$XXX$XrXeX0XgXtX1XeX0XR.n.8.,. X5XE.| | E.iX XiXkX..- v v u 2 < ..i $ O X # O X u ..v.E.4XoX,.u 2 5 c 2 2 : : # # , , f =.H.@X$X0XtXhXqXrXuXzXuX>XOXT.h.h.Q 3 . O 3 1 * u u 1 3 ' I.;X;X,X9X9X!.Z.g.k.g.A 3 . * p l l Y 9 : q Z 9.h.h.g.e.] &.D.^ g 9 i N ^ &.] :.&.' &.Q ^ -.;.1 q / 5.e.h.F.F.Y.F.F.XXT.P.P.I.j.I.g.j.g.g.-XXXP.-X-XT.^.T.P.T.P.T.^ z F.@XrXgXjXjXjXhXhXhXjXrXrX1XrXjXhXqXuXuXrXuXzX2XI.f.h.hXzXHXt.T tXjXjXgXjXjXrXhXcXZXcXcXlXcXrXuXCXCXCXzXzXuXqX>XyXqX1XqX.Xp.e.l R Y.0.g.P.I.g.g.B.:.' s.N.] %.h.e.>.>.0.0.t.D.t.9.6.9.9.w.w.e.6.-.J.A Q 0.:.&.' &.] C l C Z l C C p T h.h.F.g.&.:.&.F m ] O.A s.s.' ' O.Z.U.B.B.:.&.' @.<.g.B.<.A ' I.7X7X7XyX7XyXyXuXyX6X>XtXyXtX1XXX1X0X1X@X@X>XrXlXNXNXxXp.9 9 , 9 V N { 9.C ' g.>.*.I.yXqX>X>XY.<.Q B j u 3 p C T { ^ Y T p t p t 2 ~ H.H.5.< 1 1 u C Q &.t.L..XtXhXjXNXHXJXJXJXxX0X@X+XOXXX0.q.N.C.h.g.h.N.h.M.q.#.O.! +.N.oXoXoXoXoXoX.X.XQ.Q.Q.Q.R.R.R.R.Q.Q.Q.Q.Q.Q.R.R.Q.R.L.G.",
"Q.Q.Q.Q.R.R.Q.Q.R.R.Q.Q.Q.Q.R.R.R.R.R.R.R.Q.Q.Q.W.!.!.!.Q.!.!.!.!.!.!.!.XXOXOXOXOXOXOXOXXXXXOXOXrXeX0X{.H.{.{.D.K.8.b.4Xb. .| 8.8.3XiXiXK.c c c t c ; O v / $ o O   X D #XiX4X4XE.| 5 2 2 O : v E E t : ; , , Y 5.J.@X@XrXhXjXjXuXrXrXqXqX7X7X!.P.g.Q 1 O 3 3 j 7.R Q Y.VXVXpXVXpXyX:X!.P.Z.U.T.-Xf.j . . $ = $ $ 9 i ~ t.h.h.0.h.' %.D.^ g 9 i z ^ &.%.:.&.Q } S Q -.5.q q ` 5.e.t.F.Y.Y.F.F.OXT.P.I.T.F.T.j.F.j.j.;XT.T.:X-XT.^.U.U.-XI.|.] N F.@XeXrXjXxXcXgXrXrXrX@X@X1XrXjXhXqX>X-XuXyX>XF.h.>.j.hXCXzXW C 0XeXeXeXtXrX0XrXjXNXcXbXbXbXqXqXzXCXcXzXzXyX>X2XyX>X1XrX.Xl.e.p S F.<.j.I.U.g.B.Z.[ A A ' m <.Y.h.>.>.0.D.J.D.e.t.;.9.l.e.-.5.5.{ Y.S Q 7.&.&.' &.] N a C Z l C N a W h.F.F.g.&.>.] F A %.&.A <.P.@.@.@.g.g.<.a.O.' A A A @.s.<.@.s.;X7X7XyXyX9X7X7X6XOXXX6XrXqX@X$X1X1X1X0XtXzXlXtXhXeX}.w.f & i v 9 9 ^ -.N N h.h.>.B.XXuXyX>X7X;X0.] >.>.:.Q R N l N N l T W W %.=.%.^ ` {.` a 9.h.9.0.q.>.>.>.;.0.w.-.{ / / 5.5.t.{.$X.X.XG.N.G.C.B.B.M.0.q.<.>.O.! F F O.M.oXoXoXOXoXoX.X.XQ.Q.Q.Q.Q.R.R.R.R.R.Q.R.Q.Q.R.R.Q.Q.R.L.",
"Q.Q.Q.Q.R.R.Q.Q.Q.Q.Q.Q.Q.Q.Q.Q.R.R.R.R.R.Q.Q.Q.W.!.!.!.Q.!.!.!.OX!.!.!.XXOX;X;XOXOXOXOXOXOXOXOX$X*X+X{.+X+X#XwX3Xr.,.,. .D D  .E ..5X5X .x b 5 t ! v 2 t Y i O o o O ..wXR.,. .,.v. .c > 2 5 5 D ....v : : , Y 8.{.$X1XhXhXtXuXyX>XqXyXyX7X,XT.Z.j.&.u * * = R %.{ Y.zXzXzXVXuXuXyXyX7X:X<X:X:X:XqXXXR o   & & , y g Y 9.h.h.0.F.' { J.` g q i l ^ &.&.>.&.^ ] C R -.6.q q ` 5.w.t.F.F.Y.h.F..XT.P.T.U.P.P.F.j.h.P.T.P.>X:X-XT.^.U.T.-XP.T.^ z F.@XeXrXhXcXxXgXeX=X@X|.@X@XqXuXuX@X|.uXCX|.0.0.g.:.>.uXzXY.e T rXrXeXeXtXtXeXrXlXcXxXcXcXbXrXrXlXcXzXzXhXuXOXqXyX>X>X1XXXJ.6.e Q Y.g.P.U.I.g.B.@.[ A A A A g.B.0.>.>.e.D.J.D.9.6.0.D.H.w.5.{ Y T z.C ^ 7.} ] A &.' l p C Z l N N a ^ h.J.F.g.:.>.] Q F %.O.A O.P.@.@.:.<.a.a.a.@.@.@.@.@.@.@.<.Z.U.^.7X;X:X6X!.W.W.!.!.>X>XOX1X$X$X2X1X0XrX0X1XL.9.9.w.=.g $ < d ..E q i 1 p e.F.B.f.B.;X,X;X>X;XqX!.>.B.Y.j.j.P.>.>.] &.%.;.>.;.O.>.D.9.Z a t >.Y.OXOX7XqXyXyXzXzXzXlX0XY.D.l.OXOXOXOX.XD.Y.G.G.G.N.M.G.I.N.<.<.+.] ! ! Q O.v.$X$X$X$X$XOXoXoXQ.Q.Q.Q.Q.Q.R.R.R.R.R.R.R.R.R.R.Q.R.R.R.",
"Q.Q.Q.R.R.R.R.Q.Q.Q.Q.Q.Q.Q.Q.Q.R.R.R.R.Q.Q.Q.Q.W.!.!.!.!.!.!.!.Q.Q.!.XXXXOXOX;XOXOXOX;XOXXXXX.X#X*XeXtXxXxXxXSX X,. .! ..! |  Xn.| D ,.E b c u | K.*.B 2 $ W v O $ o < 5 : c b.4X(.E.E. .D  .| 5 v ..E 0 : t _ t.#X1XtXzXzXuXrXyXqXuXyX7X:X,X^.^.g.' k C 3 = C { .XzXzXzXuXuXpXqXyX9X7X:X9X<X-X,X-XqX}.T $ < y y f f a ^ 0.f.j.F.} } J.` z 9 w l ^ &.%.>.>.] ] C S %.5.e q ` 5.9.l.F.F.Y.h.F.F.T.B.T.P.j.h.j.0.g.I.P.P.>X-X-XT.:XU.-X!.P.|.] z F.@X2XgXhXlXjXtX1XL.J.1XrX}.>XuX1XY.uXCXqX>.>.h.>.>.>.,X.Xe.C T cXxXjXjXNXZXNXZXgXlXlXbXZXcXrXrXcXCXzXcXzXyX@XrXqXqX>X@X}.D.=.1 R Y.g.P.U.P.g.g.[ :.G G A :.B.B.%.&.e.h.J.D.t.9.;.e.D.e.{ =.{ W ^ z.z ] 0.} } ' &.' j p Z T l N N a W e.F.F.g.>.>.:.&.] %.&.A A U.s.@.[ @.@.@.:.@.@.Z.~.Z.<.@.M.^.T.T.!.U.I.I.M.C.G.OX!.!.>X0XrXrX1XrX1X.Xp.-.%.%./ %.w.` & , f v E ~ i $ = -.F.h.g.B.P.I.;X;X,X;X;X!.N.P.-X^.!.;XC.B.h.h.F.!..XY.h.<.t.>.9.Z %.0.>.h.OX6X-XyXpXzXCXzXzXzXzXCXHXlX.XD.Q.XXG.Q.G.G.N.C.C.N.B.G.B.<.O.! ] O.F | q.$XOXoXoXoXOXOX.X.XQ.R.R.Q.Q.R.R.R.R.R.R.R.R.R.R.R.R.L.G.",
"Q.R.R.R.R.R.R.Q.Q.Q.Q.Q.Q.Q.R.Q.R.R.R.R.W.W.Q.Q.W.Q.!.!.!.!.!.OXXXXXXXOXXX!.OX7XOXOXOXOXXX!.Q.Q.J.#XxXNXgX5XfX#X8... .,.!  .3X X3XK.D v.v.| | B r. Xr.E Z a : ` V o   O O X <.4X(.A.E.E.E.v. .b. .; t v t # v *.t.$XqXtXzXuXyXqXuXrXyXyX7X,X:X,X:XZ.} A &.^ = e h.uXzXVXzXuXpXpXyXyX9X7X9XyX9X^.^.,XP.@XL.i w y y d U g Y z.h.Y.F.^ -.J.=.V = p l ^ >.&.>.&.] ] l S -.5.p q ~ ;.w.l.z.Y.L.h.F.Y.T.P.T.h.P.0.h.>.j.I.F.F.-X-X-XZ.T.T.-X^.I.I.R N J.@XeXgXrXjXjXtX@XL.1XZX@Xz.1XrXJ.>XzXVXOX7.h.>.&.g.>.g.>.F.T T rX1X+X{.=XeXgXZXbXgX@X0XrX1XtXbXHXcXzXhXyXqX>XyXyX>XOX@X.XJ.;.1 S F.<.P.P.g.B.s.a.a.[ G @.Z.U.f.] <.B.F.h.h.t.>.>.D.l.-.{ 5.5.` ^ l.C ^ e.-.} ' } Q l p C R l C C p R 0.Y..X0.>.>.:.&.&.] :.F j U.^.s.@.@.@.[ @.d.Z.U.^.^.Z.k.M.^.T.^.^.U.T.!.T.!.!.!.OX6X0X0XhXrX@X{.w.{ %.;.6.t.t.D.t.i $ f i < 9 , < = / F.0.:.f.B.j.-X,X7X;XP.T.;XU.!.:XU.U.;X^.P.!.!.XX7X;XI.Q.Q.G.N.t.Z W >.:.I.!.I.;XyXpXpXpXpXpXzXVXVXCXlXOXt.M.M.q.N.N.C.G.W.W.C.M.D.Y.G.q.+.! ! O.0.R.oXOX$X$X$XOXoX.X!.!.oX!.Q.Q.R.R.R.R.R.R.Q.Q.R.R.R.R.L.G.",
"Q.Q.Q.Q.Q.Q.Q.Q.Q.Q.Q.Q.R.R.R.R.R.R.R.R.Q.Q.Q.Q.W.Q.!..X!.!.!.OXOXXXXXOXOXOXOXOXXX!.Q..XOXOXXXQ.=XeXxXgX5XMXxX=.E | 8.,. . X5XE.E.iXr.,.v. .! c b.5XK.v.8.v : ; ~ Y O O X u 4XW.E.E.4X4X/.E.v.v.E.v X : O ; Y %.D.OX0XtXyXrXyXrXqXqXyXyXyX7X<X9X<XU.} F &.-.e C qXzXpXuXuXpXVXyXuXyX9X<X9X9X<X!.<X^.F.@XXX=.9 0 w f ( Y V l.z.Y.z.] 6.}.-.V = i z ^ ;.&.>.&.] R a Z -.5.i t %.=.9.t.z.Y.Y.F.F.F.T.P.I.g.F.<.F.g.j.I.h.U.T.-XU.j.U.U.T.U.P.L.R N J.@XrXtXrXjXhXrX}.$XgX0XJ.@XqXXX|.uXVXzXY.h.h.>.>.0.&.Q -.h.Z T =XH.w.5.p.L.1XxXNXNXxXrXrXqXcXcXCXcXcXzXuXqXqXzXqX>X>X>XXXL.9.e S P.<.P.B.g.B.s.Z.Z.@.[ s.U.P.@.&.N.F.h.h.N.h.;.t.9.;.%.{ 9.w.{ ~ l.Z { h.-.' R ] ' l p C R Y Y l a W 9.Y.Q.0.<.>.&.>.<.] *.] u :.U.U.U.Z.Z.Z.Z.U.^.:X:X:X^.^.:X^.9X9X;X:X7X;X;XW.I.XXqXtXqX1X+XD.-.=.-.w.t.p.J..XL.9.i o & 9 , # $ i ~ i 9.z.0.B.P.N.T.;XqX,XP.B.T.;X;X^.^.U.U.U.U.:X;X;X>XqX7X7X6XqXqX6X.X] N F &.P.;X;X9XyXBXVXVXpXuXpXpXVXVXlXOXq.9.<.<.<.<.g.N.C.G.F.G.G.F.C.q.*.X.Q Q *.v.Q.OXoX.X.X.X.XQ.!.Q.R.G.G.R.R.R.R.R.R.R.R.R.R.R.R.R.L.G.",
"Q.Q.Q.Q.Q.Q.R.R.Q.Q.R.R.R.R.R.R.R.R.Q.Q.Q.Q.Q.Q.Q.!.OXOXoXoXXXOXOXOXOXOXOXOXOXXX6X>XOXQ.Y.XX>XrXlXbXJXNXxXNXgXi...E ! | !  XiXkXiXE.B D v.8.D v v.E.n.n.8.i ; X , ~ v O X B 4XE.W.W.4X(.4XE.E.v.n.| X X X t / %.OX>X0XrXqXqXrXrXrXyXuXyXqX,X:X,X:Xg.F Q :.] 3 ' zXyX7XuXuXuXuXqXyXyXyXyX9X<X:X:X:XZ.I.>X1XJ.i 0 w f ` _ V e.J.|.h.] e..X5.Y = i z ` >.>.:.%.] j p a ` 9.i q =.=.9.t.h.L.T.P.F.Y.I.F.I.g.h.>.h.0.j.F.g.XXT.T.U.j.U.U.T.P.j.I.Q N J.@XeXtXtXhXhX0XJ.1XlX|.e.XX@XY.-XhXVXhXL.L.P.h.h.h.' j &.9.Z ^ NXlXgX0XrXcXZXNXJXJXKXHXKXZXHXzXCXCXcXzXuXqXqXuX,XOX>X@XY.J.e.e R Y.f.P.B.g.g.g.Z.U.:.@.U.^.s.' s.U.C.N.B.g.<.&.0.;.-.;.;.;.=.` ^ H.C } 0.-.] ' &.] l j C R Z l a a R >..X.X<.>.<.%.>.*.] >.>.j S j.!.:X^.^.^.^.^.^.^.^.7XyXyXyXyXyXyXyXyXyX7X;X;XXXY.L.D.6.{ ^ Y T { w.l.H.H.J.D.*.u O < & # # , v n.$XW S >.h.h.B.F.!.7X7XB.B.U.-X;X:X^.U.^.^.;X:X7X,X,XyX>XqXF.B.F..XqXqXJ.^ Q :.I.7X7X9XyXBXBXBXpXpXVXVXGXGXbX$Xq.>.>.<.<.<.<.q.q.0.q.N.F.C.I.M.+.X.Q F O.;.C.Q.OXOXoXoXOXQ.!.!.W.R.G.R.W.R.Q.R.R.R.R.R.R.R.R.R.R.G.",
"Q.Q.Q.Q.Q.Q.R.R.Q.R.R.R.R.R.R.R.Q.R.Q.Q.Q.Q.Q.Q.!.oXOXOXOXOXOXOXOXOXOXOXOXOXOXOXOXOX$X1XeXtXlXlXHXNXxXMXNXeX+X5X5Xr.v t 5 8.wX5Xn.! 8...v | E | oX X X#Xr.v 0 # o , f q X 2 K.4XiX8X,.u v.4Xb.v.n.E O O ; Z %.t.0X>X>XqXqX>XqXqXqXyXyXqXqX,X:X7X-Xg.G ' :.B * ] ,XOX>XuXuXuXuXpXpXpXyXyXyX<X7X<X^.j.^.qXqX|.~ w y v 4.` T e.Y.|.e.] t..X5.T < p z { >.*.:.%.S 3 p e C 5.i q =.{ 6.t.h.Y..XP.F.Y.P.h.I.0.:.:.>.>.0.0.j.I.U.T.U.j.U.U.U.P.j.I.Q z Y.$XeXrXtXjXhX0X}.1XrXL.J.XX|.Y.>XuXzXuXY.@X|.I.j.<.C j >.h./ / KXJXKXUXUXUXKXKXKXJXHXZXZXcXcXuXrXzXzXuXyX>XqXyXqXXXOX.XJ.J.t.a R Y.f.P.g.g.g.g.Z.U.:.:.^.U.@.O.g.B.g.C.B.>.:.>.;.;.;.t.J.t.` ~ ~ H.T -.e.>.] Q &.Q j l C T C l g p R 7.Y.Q.<.&.<.:.&.O.%.9.*.N 3 %.B.P.U.^.^.U.^.7X9X9X9XyXpXpXyXpXpXuXyXyX;Xg.&.&.] ^ ^ S S ^ =.` ^ ` 9.t.6.%.a < ; N N o @ w 9 ~ {.{.W C e.T.F.B.!.,XyX;Xj.!.;X7X-X^.!.;X7XT.U.f.g.T.qXuXuX;X&.>.&.&.9.Y.J.] Q >.!.:X7XyX9X9XyXpXpXBXVXVXVXVXvX$X<.>.>.<.<.<.q.0.<.>.<.0.v.N.C.0.O.X.X.! | O.O.q.G.OXOX.XoX.XQ.W.W.G.G.G.G.G.Q.Q.R.R.R.R.Q.Q.R.R.R.R.",
"Q.Q.Q.Q.Q.Q.R.R.R.R.R.R.R.R.R.R.Q.Q.Q.Q.Q.Q.Q.!..XOXOXOXOXOXOXOXOXOXOXOX$XOXOXOXOX$XtXbXHXHXNXxXgXxXNXNX=Xi.w.n. X Xi.8...K.gX#X~ ;.kXtX8.v B ! wX3X XK.~ i 2 O o X O i : X v r. Xr.c   c E.oXR.n.u X O i / %.L.0X0X>X0XrXqXqXtXrXrXqXqXqX7X7XqX:XU.:.' :.j 3 <.XX>X7XqXyXpXpXBXpXpXpXyX7X7X7XyX;XP.-X,X>X.Xw.q 0 V 4.` / e.Y.L.>.] h..X5.^ q i V ] >.&.>.%.l e l e i ^ e i =.{ 6.t.z.Y..XF.h.F.P.f.P.>.:.>.>.<.>.>.P.P.P.T.U.k.P.Z.Z.j.j.T.^ C }.1XeXrXrXhXjX0XL.rXrXl.Y.@X-XY.>XrXzXuX-X,X>X-XF.:.j A e.F.6./ HXJXJXJXJXHXZXJXZXZXcXzXjXCXCXhX|.uXzXhXrX@XqXyX,X.X.X}.J.J.l.l S F.f.P.g.B.g.g.Z.U.s.s.~.s.' @.g.g.g.g.<.&.<.h.O.0.h.J.{.H.5./ Y H.T %.>.&.R Q ] S p p l C l l p e ^ t.Y.Y.0.>.0.<.&.%.;.t.9.Q * p O.] @.:.s.<.:.s.B.U.^.^.I.N.F.B.0.0.>.Q S N C j C S W / %.%.;.{ W Z Z N e 1 $ $ B ;.U $ , ~ _ f =.J.T 9.Y.F.P.I.-XyX-Xj.!.:X,X,X;X^.;X9X^.s.:.<.>.>.L.qX>Xf.<.>.>.&.&.;.0.h.' ] Y.yXVXyX9X7XyXyXyXpXVXVXVXzXpXOX<.<.<.<.$.+.>.>.;.>.0.q.q.N.C.q.+.! ! Q | O.Q O.;.N..XOXOXQ.G.G.G.G.G.F.G.G.G.G.R.R.R.R.R.R.R.R.R.L.",
"R.R.R.R.R.R.R.R.R.R.R.R.Q.R.R.R.Q.R.Q.Q.Q.Q.Q..XXXOXOXXXXXOXOXOXOXOXOXOXOXXX$XeXlXNXJXKXJXJXNXNXNXbXbXkX+Xn.i.i.n.n.n.#XkXDXJXNXlX5X=X#XlXD.u E #X X Xi.U f , $ O $ o $ 0 :   : t - 2 O X D K.r.v #   # Z =.5.@X1X0X0XqXtXqXqXuXrXyXyXyXyXqXqX,X!.T.<.] ] 3 A T.;XqX7X,X7XuXuXpXpXpXuXyXqXqXyXuX;XI.>X,X@X@XJ.i < U w.=.{ 9.J.F.>.&.F..X6.` q i N / 0.:.:.] j S C q q ^ i i 4.{ 6.t.h.F.I.F.h.P.B.f.j.0.>.&.:.:.:.g.T.P.Z.^.P.j.U.j.g.j.j.|.] R XX1XrXeXtXhXhX1XJ.tXrXe.z.Y.-XY.@X2XzXqX>XyXqX-XF.:.A &.h.F.l.^ ZXUXKXJXJXHXNXcXcXZXcXcXhXHXZXcX@XuXcXhXuX-X1X-XOXY..X}.Y.L.D.l S F.0.C.g.P.B.B.P.I.g.P.U.@.[ <.s.g.<.@.O.<.h.<.:.0.N.D.J.}.p.~ N p.W -.>.&.S S ] C p p a C g p p q ^ z.J.Y.h.>.<.>.>.*.;.h.h.%.u O j S m u j m A ' $.s.<.+.' F ! S N u 3 3 u u p p p a j j j a a e 1 1 1 < $ O 1 t W =.v # w w.n.^ 2 Y { .XY.h.I.-X,XqXU.P.:XqX7X-X,XyX9X!.g.<.q.N.F.<.Q e.h.>.q.h.G.0.>.&.-.0.} ] F.7XpXpXyX:X^.:XqXpXzXzXpXpXwXG.+.>.+.O.! X.O.*.;.*.;.<.<.q.G.M.+.! Q F | O.O.O.| ;.q.N.G.G.G.G.G.I.Q.G.G.G.G.G.G.L.L.L.L.L.Q.Q.Q.Q.",
"R.R.R.R.R.R.R.R.Q.Q.Q.Q.Q.Q.R.R.Q.Q.Q.Q.Q.Q.!.OXXXOXOXXXXXOXOXOX>XOXOXOXOX$XtXNXKXUXUXUXUXUXUXNXDXxXxXxXxXfX&X&X[.[. X*XxXNXNXJXNXKXlXoX#X#X*.! #XK.r...E v < < $   $ o < t , X   0 v O X X 1 $     o # ~ 5.p.1X1XqXrXrXqXqX0X0X>XrXyXuXyXyXyX;X-XI.&.] S 3 :.;X;X,X>X,XqXpXpXzXVXyX7XyXpXpXuXyX,X-XqXqX>X1X@XV < Y w.;.{ t.F.F.&.&.F..X6.=.e i z ] <.:.&.Q N R N 1 p =.i i 4.=.w.t.h.F.I.F.h.I.j.0.F.g.:.} &.} &.h.I.B.j.T.j.g.P.g.:.j.j.|.] R XX1XrX0XtXuXuX$X}.tX1Xe.h.F.Y.Y.T.>XuXqX:XuXqXXXj.&.S 7.F.XX.XW NXJXJXUXJXNXNXcXlXcXzXuX1XqXrXzXqXuXzXuXuX2X1XY.XXXX>X.X.X.XL.N S F.0.B.g.Z.B.Z.P.U.g.Z.Z.@.<.g.<.@.G A @.g.g.:.:.g.G.N.9.t.p.=.~ H.~ =.7.&.Q ' ^ C e p l N g l p e ^ J.J..Xh.:.>.>.>.;.-.9.9.C 3   O j A m A G :.<.s.g.g.<.&.] j a N C p < < e j S Q ' ;.0.q.D.h.q.&.^ Z C C p $ $ 1 V g $ f [.[...< ~ l.h.h.T.,XqXqX;X;XyXqXyXqX:X,XqX:XP.s.N.M.q.M.*.! S Q N.OXQ.OXI.0.^ S / t.>.l.qXpXuXyX7X,X7XyXuXuXiXqX>XG.>.! O.| F F Q O.<.>.O.! O.O.+.>.+.X.| ! Q F ! | O.O.O.! ! ;.q.N.F.G.G.G.I.Q.G.G.L.L.L.L.L.L.L.R.R.Q.Q.",
"Q.Q.R.R.R.R.Q.Q.Q.Q.Q.Q.Q.Q.R.R.Q.Q.Q.Q.Q.Q..XOXOXOXOXXXXXOX>X>X6XOXOX$X0XtXbXKXKXUXUXUXUXUXUXKXHXNXNXNXMXNXfX5X*X5XfXkXMXDXJXxXxXbXNXlX#XR.oXr.K. X=.U v 2 2 O 2 E 5...E t 2 #   0 f X # O     X # o o =.p.l.=X2X1XrXrXqXqXqXOX>XqXuXuXyXuXuX-X^.B.A F B m I.!.!.7X,X>X>XyXuXqXuXyXyXpXpXyXyXyXuXyXuXqXqX2XrX` $ V ;.-.^ 0.D.e.&.&.L.Y.;.=.i p N ] *.&.O.O.S l p 1 C 5.q i 5.=.e.t.h.F.T.P.h.F.j.>.P.g.>.] &.&.' j.P.j.B.T.P.g.Z.s.:.j.P.@X] ^ }.$XqX0XrXtXrXXXL.0X$Xt.7.0.h.L.|.,XuXqX,XuXqXT.j.:.' h.F.qX$XW ZXJXHXxX0XgXNXcXhXjXhXqXqXqXrXhXhXhXzXuXtX2X>Xz.OX>X>XY.}.@X}.C C h.<.g.s.P.B.Z.I.U.s.B.s.@.g.k.:.G A A :.s.@.' <.h.B.e.%./ =.9.` H.T %.9.&.S R Q C p p p e p Y p p %.L.F.Y.0.&.>.>.>.] ;.9.>.j N e . O 3 C O.:.<.s.s.s.g.:.F B ] N.>XqXOX9.} F.>X1XyXuXyXuXzXuXuX7XI.g.<.h.F.0.&.u $ $ q $ < =.r.v q 9.Y.F.F.,X;X7XqXT.I.T.,X,X,X7X-XI.I.!.U.I.G.N.;.F B B S *.OXY.Q.!.<.S S ] h.h.0..X>XrXpX7XyX>XQ.F.G.Y.D.0.>.>.;.+.O.+.+.] O.>.;.O.O.O.| F ! X.! F F F F | | O.X.| ! ! O.O.<.N.I.G.G.W.!.W.Q.Q.Q.Q.L.L.Q.Q.R.R.Q.Q.",
"Q.R.R.Q.Q.R.R.Q.Q.Q.Q.Q.Q.Q.Q.Q.Q.Q.Q.Q.Q..X.XOXOXOXOXOXOX>X>XOXOXOX$XOX0XbXJXJXUXUXUXUXKXKXKXKXHXHXHXNXNXNXxXxXxXgXgXNXNXHXNXcXNXNXbXDXvX Xn.n.8.r...E t 2 ; v r. X#XE.8.E 2 : X 0 y X o o   X   X X $ =.p.}.1XrXqXrXqX>XtXtXOX>XqXzXhXuXuXqXT.-X' j ' j ] OX!.7X^.7X-X7X7X>XuXrXpXuXyXyXyXuXyXyXyX:X7XqXqXrXw.< Y -.{ >.J.F.f.] >.Y.J.6.5.q N N W ;.&.&.%.:.N 1 1 W 6.= e =.-.0.e.h.j.Y.F.h.z.j.>.h.e.0.] Q ' ] F.P.j.P.P.Z.g.j.:.g.P.j.T.' Q }.@XrXqX0XrXqX.X.X1X1XL.J.}.OX.X>X.XqXqX,XuX7X-XB.>.:.h.Y.lX0XC }.gXjXL.%.5.@XtXzXuXqXqXrXuXuXcXrXzXzXcX1X>X>X}.>X1X>X.X|.@XJ.N N h.e.g.g.B.B.Z.U.Z.g.s.<.s.Z.d.J G G @.:.G [ :.U.s.O.! / ^ W =.;.{.T -.6.^ T R W z 3 1 j j * p g l =.}.D.}.<.&.>.:.<.&.>.t.9.W ^ N < o   O a ^ >.<.g.&.B m ] F.,XyXuXqXyXqX-XI.T.-X,X7X:X,X,X,X:X-XT.^.;X;X^.I.B.F.^ * 1 O o E ~ : Y t.N.F.XX;X-X;Xg.S ' j.-X-XT.C.I.T.I.Y.P.<.>.<.*.F O.] F Q Q.>X6XXXN.g.G.G.L.XXh.D.9.Y.L.qX7XG.C.N.N.F.N.M.M.N.q.v.N.N.C.M.<.M.q.q.N.M.C.C.G.M.<.+.! F F F | X.X.X.X.X.X.O.O.+.<.<.q.M.N.I.Q.W.Q.Q.Q.Q.Q.Y.Q.Q.Q.Q.",
"G.G.R.Q.Q.L.G.G.G.R.R.R.R.Q.R.L.R..X.XQ.Q.OX$X$XOXXX.XOXOX>X>X>XOXOXOX.XeXHXKXKXUXUXUXKXKXKXKXKXKXHXbXcXbXbXbXxXxXlXxXNXNXbXxXxXZXJXJXSXDXSXn...8.....! 0 f v 2 t v D v c 5 2 t t 0 ,   X o   X   +   @ ` l..X1XrXrXrX1X0X0X0X6XqXqXyXyXyXyX7X-XP.&.A ] l *.6X8X:X,X7XqXyX7XuXY.Y.yXpXuXuXuXyXyXpX<X^.;XqXqXgXH.< T 6.-.6.z.F.h.&.g.Y.F.6.;.1 p V W ;.&.] ' >.S 1 p / 9.1 p 6.6.0.e.h.j.Y.F.h.F.j.:.h.e.0.&.^ ] ] j.B.g.Z.P.j.f.g.s.Z.Z.j.XX&.^ XX$XqX0X1X0X0XXX.XtXtX=X0XhXuX>XOXXX>XyXqXyX7XT.B.f.0.F.Y.hX2XC }.rXgX@Xe.-.e.}.uXuXuXrXyXzXzXbXrXuXhXzX>X@X@X}.>X@XXXXX@X@X}.C C D.h.g.N.B.B.B.U.Z.s.s.s.Z.U.a.G A G a.[ G @.d.s.' A F ] %.~ N ~ {.^ 5.=.R T Q T e = 3 A Q 1 = p l -..Xl.}.0.:.&.&.0.;.>.h.9.W ` T g $ o . O $ 4 u u 3 m >.XXqXuXuXuXyXyX:X:XT.^.;X,X,X:X:X:X:X:X:X:X<X<X^.^.^.I.I.>.Z Z u $ ~ v 2 8.D.h.!.;X-X-Xj.' ' g.;X,X-XT.g.>.>.:.<.0.<.M.*.F Q O.<.&.0.OX6X>X>X>XqXuXqX>XqX}..XuXOXt.XXOXN.M.M.M.C.N.N.N.N.M.v.M.M.N.M.q.N.h.q.M.M.N.B.N.C.C.q.+.! F F F ! ! X.X.O.O.O.| O.O.O.*.*.*.;.q.F.G.C.F.Q.Q.L.L.L.Y..X",
"R.R.R.L.R.Q.Q.Q.R.Q.Q.R.R.Q.Q.Q.Q.Q.Q.Q.Q.Y.G.N.D.N.N.F.Y.XXOXOXG.D.N.q.$XSXKXKXKXKXKXKXKXKXKXKXKXHXbXcXbXbXbXNXNXxXxXbXbXxXxXcXcXbXbXvXiX Xn.8.| ! _ ~ y E t X X 5 E D t 5 c t 2 0 : # 0 ;   X   + X # ` H.+X1X2XrXrXqX0X>X0XuXpXuXqXqXuX,X,X,X@.' ' ' l h.6X;X;X7X9XuXyXqX6Xe.XXyXuXyXyXyXyXpXyX^.T.XXqX1XrXH.q ~ 6.-.-.h.h.e.&.h.Y.D.6.=.< i N Z &.&.] Q &.S 1 N %.6.< i ;.>.0.0.h.j.Y.F.f.h.h.>.e.e.0.&.^ ] &.j.j.g.j.B.j.g.g.k.P.g.g.XX} R J..X@X>X1X>X0X>X$XhXhXeXrXtXtXlX>X>X,XyX,XyXqXT.B.j.j.Y.Y.tX2XZ rXNXbXhX0X.XY.XX>XyXyXqXyXCXVXzXtXtXlXzX>X>X@XXX>X>XXXXX$X@XJ.l S F.h.g.B.B.Z.Z.U.Z.s.s.g.U.Z.@.G J :.@.G [ a.a.@.G G ] / / W i W {.W 5.%.W S R C < j j u 3 1 = p l ;.@Xl.Y.7.>.&.>.0.&.&.7.6.^ { ` ~ g o $ $ . O O 1 F C.7XyXVXuXBXyXyXpX9X9X<X7X9X<X,X<X<X,X<X:X<X<X:X^.T.T.T.!.Q.N.%./ Z < N 2 i D.L.D.OX>XXXI.&.] f.P.!.!.B.g.g.<.<.&.&.<.q.B.X.F F >.F.N.F.Y.OXqXqXqXuXzXpXrXrXXXF.zXbXlXL.Q.N.N.M.N.C.N.N.N.N.M.M.M.M.N.M.q.N.M.q.N.M.N.N.N.F.F.M.>.+.! F F F F F F ! X.O.X.O.X.X.O.X.! ! *.<.q.0.t.G.!..XL.G.G.L.",
"v.D.G.G.K.Q.Q.G.R.Q.Q.G.G.R.Q.Q.Q.L.G.N.>.%.&.>.>.<.>.>.9.h.N.t.<.>.>.;.0XHXKXKXKXKXKXKXKXKXKXKXKXHXHXHXHXbXbXbXSXbXxXlXbXxXbXZXbXbXiXv...b c D ! ! ! i i ..o O 0 ,.E.8.E c c t 5 t X t r.4.t X X + X # ~ H.@X1X1X1XrXtX0X0XtXuXuXyXqX1X2X-X-XI.' ' ' A u q.wX6X;X7XyXyXqXyXh.I.yXyXqXqXyXyX9X9X^.T.T.!.qXqXrXw.q W 5.=.%.h.h.0.&.j.Y.l.6.=.1 a N C -.>.&.' >.Q 3 S ;.6.< i -.>.e.e.h.F.Y.F.f.h.B.0.e.h.e.&.Q ' >.P.j.g.j.P.P.j.g.g.Z.B.F.@XS 1 R / { -.-.%.6.6.e.l.J.@XqXqX>XqXqX7XqX7X:XqXyXT.j.B.F.T.Y.rX2XY rXNXxXgXlXuX0X>X.X,XqXqXyXVXcXzXrXrXzXuXXX>X@XXXOX>XOX@X@X}.z.p C h.e.0.N.B.P.Z.U.Z.s.g.Z.Z.a.@.a.a.@.G G @.@.G G @.>.>.&.^ T Y W +XW 6.{ Z C T l = &.>.A e 3 3 p p -..Xt.L.>.&.&.>.<.&.%.>.6.^ ` ~ ^ ~ < 1 1 < u Q g.Y.9XpXpXpXBX9XZ.B.B.g.B.^.:X7X7X:X<X<X:X<X9X<X:X^.^.7X:X^.!.!.Q.L.D.;.2 g Z ..D.D.G.XXXX!.h.g.B.P.B.j.j.g.B.P.B.I.B.F.g.] F M Q ! M.OX6XXXXX>XtXlXzXpXuXyXcX1XtXl.1XrX9.Q.N.M.N.M.M.N.M.N.M.N.N.M.M.M.M.M.q.M.M.M.N.M.M.M.q.M.h.<.>.>.+.+.O.X.F F F ! ! ! ! O.O.+.+.O.O.O.| O.*.*.;.>.q.D.F.N.t.N.",
"q.q.q.M.N.F.K.R.Q.Q.R.R.R.Q.R.C.q.>.;.;.;.-.%.&.-.;.;.&.*.<.0.<.-.-.>.9.lXKXKXKXHXKXHXKXKXKXHXHXHXHXKXKXKXCXbXcXcXxXlXlXcXlXlXcXbXiXr.*.b.x.c 5 c | E , t f # O t v.b.v.v. .b 5 x t : v 8.n.*.O X + + @ Y H.OX1XqX1X1XqX0XtXuXqX0XqXrXqX2X,XU.[ ' ' A z 3 &.OX7X7X7XyXqXyX-X0.qXyX,XqXBXBXyX<X^.^.;X^.-XrXrXtX5.< ~ -.{ / e.z.g.&.F.Y.h.9.=.q g N C %.;.&.' >.Q 3 ^ 6.9.1 e -.6.0.h.h.h.F.h.e.h.j.>.7.h.e.&.Q ] :.P.P.B.Z.T.I.j.k.k.P.j.g.Y.Q C z.J.|.@XY.l.}.XX.X1XqX0XhXHXCXzXyX>XuX>X;X7X7XU.j.B.F.Y.Y.rX0XT rXcXcXcXbXzXuXrXOX;X>XqXuXzXzXzXqXqXzXqXY.@XXXXX>XOXXX@XY.h.9.p N h.0.>.g.B.Z.U.U.k.g.Z.Z.g.@.@.U.@.A G [ @.A A [ :.:.-.>.{ W Z ` @XW 6.^ C N C a 3 h.XXj.@.A j p p { L.t.L.7.&.%.&.>.>.;.7.9.{ { ~ ` ` p 1 a / q.B.!.;X7XyXyXBX^.@.A h 4 3 h G g.U.^.^.:X:X^.^.U.Z.Z.^.7X7X^.T.I.!.;X6X6XL.a v p.H.J.D.Y.OX;X-X!.>X,XI.B.P.I.!.-X-XXX!.I.;X>X0.S Q Q O.h.OX6XXXOXqXyXuXuXlXuXuXcXZXhX@XT T D.J.q.h.M.M.N.N.N.B.N.N.M.M.M.M.M.M.N.N.M.M.M.M.M.M.N.N.N.q.<.>.<.<.<.>.*.O.! ! F S F ! X.O.O.O.O.O.+.*.;.,.*.O.O.*.9.>.0.t.",
",.*.;.0.q.q.q.N.C.C.D.C.G.G.v.<.%.O./ ! ! O.O.&.&.-.;.*.;.>.<.0.>.9.q.N.lXHXHXHXHXHXHXHXKXKXKXHXHXGXGXHXHXGXbXzXlXlXcXxXlXlXlXlXSXoX*.r.A.b.,.D - 5 E a , q X X D n.b.,.v.v. .b | | 5 c | ,.r.> X X @ $ V H.$X1XrX$X}.XX0XtXrX>X>X>XrXqX2XqXP.A ' A C j e ] <.7XyXuX7XyX7Xg.!.yXyX7XyXyX:X^.^.Z.:X<X!.!.>XqXeX/ q Y ` ^ ^ e.h.7.>.F.L.e.w.5.q p N V { -.&.Q &.Q u ^ 6.e.1 e { 6.0.e.h.f.j.h.e.h.h.0.>.e.0.&.Q &.:.P.P.j.j.U.I.j.Z.k.Z.j.j.;X7.&.}.XX1X1X}.z.XX1X1XlX0X%.] .XbXCXzX>XyX>X-X:X:XU.B.P.B.Y.Y.rXrXR gXcXcXcXCXcXzXuX,X-X,XrXzXzXzXzXqXqXhXqX}.XX}.XXOXXX.XL.h.9.>.p l h.0.>.g.g.Z.Z.~.g.g.Z.Z.a.@.a.k.G A @.[ G A [ @.' C j C ^ ^ g ` {.T 6.^ Z N a 1 p |.qXP.:.' A 3 3 ] J.l.D.>.&.] O.*.;.;.7.e.=.{ ^ ^ ^ e a %.J.Q.;X7X,X7X9XyXBXZ.J J h h M F X.s.Z.T.U.U.U.Z.Z.Z.B.k.k.Z.Z.Z.Z.U.7X7X6X0X4X^ Y H.D.L.F.F.>X;X-X7XXX-X-X!.T.T.-X,X,X7X;XI.Y.OXN.O.+.O.] <.G.XXF.OXtXzXhXuXlXzXbXZXlXlX}.N J.tX}.t.M.M.N.N.N.N.B.N.M.M.M.M.N.M.M.N.N.M.N.M.N.N.D.M.M.M.M.M.M.M.N.h.M.q.<.;.*.*.*.O.O.! F F ! ! ! O.*.*.+.O.| ! ! %.-.<.t.",
"c m D %.<.<.<.<.q.q.r.r.q.<.;.%.%.%.O.*.>.q.q.9.t.N.N.N.q.q.t.N.D.L.D.L.vXHXKXKXGXHXHXHXKXKXKXKXHXGXGXCXCXCXbXvXbXbXbXbXcXcXcXbXiXr.V.v.#.,.,.H c c c D 2 i o   b  XE.v.E.E.b.x.v.,.b D |  .8.v X + # $ V H.$X1X1XY.J.@X0XqX0XOX>X>XqXqX2XyXj.G @.m j p 3 } Q Q.qXyX7XqXI.g.qXqXyXyXqXU.g.k.Z.Z.U.^.^.!.;XqX1XY i Y W ^ { z.z.>.>.F.J.e.w.5.q i N N { ;.>.Q &.] j } 7.e.e e { >.e.h.z.j.P.z.h.z.h.0.>.0.>.&.^ >.>.P.j.j.g.P.P.j.j.Z.U.Z.g.@X7.} }.Y.>X$XJ.D.OXrXuXbX1XC a >.qXbXVX>X>X,XXX;X-XI.P.P.j.Y.Y.qX2XT gXcXcXlXbXCXzXyXqX,XyXrXuXzXzXzXuXrXhX>XY.}.Y..XY.F.F.q.0.t.9.j l e.>.:.<.g.k.Z.U.s.Z.Z.s.a.@.d.G A [ [ G G ' @.' A j 3 3 C ^ Z W e.C 6.W N C N < a ;XyXg.@.' A 3 3 / l.l.l.-.%.] &.;.&.%.;.9.{ { ^ T ^ N 9.D.L.7X,X;X7XyXyXyX<Xd.d.Z.M G d.s.M.s.M.Z.M.d.Z.U.U.U.~.^.~.Z.Z.d.g.!.;X7X7X0X$X%.~ t.t.L.D.h.XX-XXX7X;X,XyXpXqX-XyXqX;X7XyXuX7XOXh.O.O.0.h.Q.Q.rX>X>XqXuXtXlXbXzXcXbXcXJXl.=.HXHX0XD.N.q.M.M.M.M.M.N.h.M.M.M.M.q.M.q.t.J..XQ.Q.D.N.N.M.M.M.N.N.N.M.M.N.M.q.0.q.q.h.q.<.*.| F F ! Q F Q ! Q Q Q Q F F F Q / ",
"F S B B F O.;.,.q.v.N.q.<.,.<.q.0.0.0.t.M.t.v.M.N.Y.!.G.N.N.F.G.L..XL..XGXHXKXGXHXHXHXHXHXHXHXGXGXGXGXVXvXvXCXCXbXzXlXbXcXCXHXSXv.H ,.x.H H F M c D 5 u 5 u : # - 8. X Xb.x.E.E.b.x.H  .v.,.r.,.# # # # g H.$X0XXXh.J.qX0X0XqX>XOXOX>XqX2XqXj.[ @.A j C 3 } ] *.6X>XyX;X>.I.qXyXyXpXyXU.k.Z.g.k.Z.^.7X>XOXtX$Xl q V Y ^ } z.F.0.0.z.Y.e.w.5.q i N l ^ -.>.R ] &.l &.9.t.e e -.9.0.h.j.F.I.z.e.h.f.0.&.>.&.&.] 0.0.P.B.B.j.P.Z.g.s.Z.T.P.h.>X0.Q XXY.>XOXF.F.>XhX$XrX$X^ C ^ D.yXzX;XT.yX;X-XT.Z.U.I.j.I.F.1X1XT hXZXZXcXCXzXuXuXqXqXuXqXuXzXVXuXuXuXhX@XY.XX}..XY.h.q.9.0.t.6.j l e.&.&.:.g.g.Z.k.s.Z.Z.a.a.@.k.A G [ A k ' G A ' ' ' C u l Q ] W { e =.W N N N 1 C XX,Xg.[ A j 3 1 ^ t.D.l.-./ ^ &.>.&.{ &.6.^ ~ ~ ^ / %.}..XOX;X;XU.:XyXyX9XZ.a.m.~.@.@.~.d.M.Z.Z.Z.Z.d.M.U.~.~.U.~.~.Z.d.s.B.^.7XyX6XOX0Xt./ t.D.D.h.h.T.7XqX,X7XpXpXuXVXVXVXpXuXVXpXpX;X!.Y.q.X.0.OX6XOX6X0X0X1XqXtXcXCXcXZXlXNXxXt.{.HXHXrXL.N.q.M.N.M.N.M.M.q.M.M.M.M.q.q.t.D.OXhXtXqXY.D.N.N.N.M.M.N.N.M.N.N.N.M.M.N.N.h.N.M.q.<.O.Q F F Q O.*.*.*.O.O.O.! Q W F ",
"G.N.<.O.O.-.;.-.-.q.q.<.,.q.M.N.N.M.t.M.D.G.G.R.Q.Q.Q.Q.!.OXOX.XQ..XL.Q.GXKXGXHXKXKXGXGXCXVXCXGXGXGXCXVXzXvXvXzXbXzXOXOXOX$X.X9.F D F H M M F H c m 4 2 2 t a O   2 | ,.c - b.3XE.x.,.#.E.v.n.v.# X o $ i p.1X0X$XF.1XrX0X>XqX>XQ.Y.>XqX,X:Xg.:.:.A C Q 3 l t.Q Y.;X;XY.g.>XpXyXqXyX;XB.k.Z.k.Z.!.:X:XXX>XrXH.t < g W { ] h.h.&.0.F.L.-.e.=.q i g p ^ 9.>.Q &.&.Z &.9.t.e e =.6.0.f.h.h.F.h.7.h.f.>.>.>.>.>.&.0.0.I.Z.B.j.P.Z.g.g.Z.U.P.h.;X0.Q Y.XX>X1X}.Y.qXzX0XtXqX0.] &.>.qXCXY.%.:X-Xj.j.f.!.P.B.I.h.XX2XW gXZXZXCXcXzXzXuX7X-XyXqXyXzXhXhXrXuXuX@XXXXXOXY.h.q.q.h.h.t.0.C p 0.] %.>.s.k.k.s.a.U.~.a.a.d.a.G @.@.A A G k h A ' ' ' A Z / } %.{ e =.Y l C l 3 N yX-X:.G A A 3 3 W e.l.l.` / W &.&.R ^ ;.;.{ ` ` { ^ t.L.OXqX7X^.@.M.7X^.~.d.Z.~.9X~.a.Z.7X7Xd.Z.<X^.Z.Z.d.~.Z.d.d.Z.d.a.:.Z.:X7X7X7XqXwXt.` t.D.D.F.Y.XX,X,XqXuXpXVXVXVXVXVXzXpXVXpXQ.O.0.F.0.F B q.6XXXOXqX0X0X1X1XrXlXcXbXbXHXZX5.=XJXHXbXOXN.M.N.M.N.M.M.M.M.M.q.M.N.M.h.h.OXrXlXxXtXOXJ.M.M.M.M.N.N.N.N.N.N.N.N.N.N.M.M.M.N.N.q.<.;.*.*.>.M.F.C.N.N.M.q.q.N.N.N.",
"G.Q.G.q.*.*.,.>.>.<.<.0.q.C.C.F.F.C.D.F.G.L.Q.Q.Q.Q.Q.Q.Q.Q.Q.Q.Q..XQ..XbXHXGXKXHXHXCXGXKXKXKXHXVXzXVXVXCXzXlXzXOX;.S S %.;.;.| D c M #.c.#.x.b.| 5 - 5 5 - v $ X X   X   - c.(.A.b.b.D ,.R. X..X X # # t t.1X0XqX@XrX1X0X>X>X6X.X>X>X>X,X-Xs.:.:.A A S p 3 ;.;.<.7XXXY.>XuXyX,X7X9X;XU.g.g.B.U.7X^.!.>X0X1Xp.q q l ^ T >.F.h.&.0.j.z.} w.=.q i l p T -.&.Q %.&.S &.7.t.p e -.6.7.h.h.h.F.h.0.h.0.>.>.>.>.>.-.e.f.I.j.g.g.Z.j.g.g.Z.U.P.:.T.7.Q Y.|.$X>X}.}.qXcXqXrX0Xl.S S 7.qXuX;X>.P.;XP.f.g.P.P.I.F.h.@X1X^ rXcXCXCXcXzXzXuX,X!.qXqXyXzXhXzXrXrXuXXX>X>X>XN.B.h.h.N.D.h.t.C j 0.&.] :.>.g.g.s.a.Z.Z.a.d.k.@.[ :.G A A k k G ' ' A A F ' ] W e.e.e ^ C N N p 1 C yX-X:.' G A 3 3 W 9.t.l.%./ ^ -.&.W R ;.9.=.{ ` { { h.L.>X>X7X~.d.Z.Z.a.d.d.~.Z.^.<X^.^.:XU.G a.^.<X^.~.Z.Z.Z.k.d.d.@.J @.k.^.7XyX7X6XwXJ.%.t.D.D.F.Y.>XyX7XuXpXpXpXpXpXVXVXVXzXpX;XO.q.!.!.M.O.m ! XXqX>X>XtXrXqX1X0XtXcXCXNXbXbX6.0XJXJXHX0XL.M.N.N.N.N.M.M.M.V.N.M.M.N.D.D.1XtXlXxXgX@XG.N.M.M.M.M.N.N.M.N.N.N.M.M.M.M.M.q.M.N.N.M.N.C.G.Q.Q.Q.G.C.N.N.M.N.N.N.N.",
"G.R.G.N.N.C.C.v.G.N.0.N.N.G.C.F.G.G.R.R.Q.Q.Q.Q.G.Q.G.G.G.G.L.L.L.Q.Q.OXGXKXHXKXHXKXHXKXKXHXHXCXVXVXVXzXzXlXuXOX%.%.9.%.%.r.n.! M ,.c.A.A.A.S.A.c.H |  .u X 2 t # X O O X - ,.(.b.b.v.- - E =.;   X # O q 9.1X0XrXqX1X>XrXqXOXY.N.OXqX2X>XT.:.:.@.' A A C e ^ t.O.Y.0XXXuXuX7X,X>X>X;XT.I.!.^.^.,X,X>X>X>X{.=.q q N W C h.L.h.&.>.h.F.-.w.=.q e l g W -.-.Q ] >.^ >.7.t.p e %.6.7.h.f.f.F.z.e.f.e.>.>.>.6.7.>.0.g.I.Z.g.s.Z.j.g.s.Z.P.j.' P.0.Q Y.}.@X$X}.Y.0XzXtX>X@XY.{ Z >.>X>X!.I.P.T.P.g.B.U.U.P.f.>.Y.1X^ rXcXZXCXzXzXpXyX7X-XqX7XqXuXuXuXrXyXuXXX>XOXOXN.B.h.B.F.N.h.z.C p >.] ' %.:.<.s.s.s.~.Z.s.Z.k.@.G @.A k G A G @.:.@.' A A O.] ^ t.p.q T W Y l p 1 l >X!.:.G G A p 1 W w.t.9./ / / T C Z T ;.9.{ ` { %.-.F.Y.>X7X^.Z.U.U.Z.m.Z.~.Z.Z.^.7X<X9X9X<.m J U.<X<X^.Z.Z.d.d.a.G m h [ Z.;X7XqX7XqXtX.X%.9.t.t.F.|.>XqXyXpXVXVXpXpXzXVXVXzXpXVXqXB.W.6XXXF.N.q.q.XX0X0X>XqXrXrXqX1XrXcXJXHXbXxX6.eXJXJXJXlXOXG.N.N.M.N.N.N.N.N.N.N.M.N.D.D.$XtX1X}.0X=XD.N.N.M.M.M.N.M.M.N.N.N.N.N.M.M.M.v.v.M.M.M.N.G.Q.Q.I.Q.W.!.Q.F.M.F.G.G.C.",
"G.G.G.G.Q.Q.Q.G.F.N.q.C.F.R.G.Q.G.Q.Q.Q.Q.Q.Q.Q.G.G.G.G.G.Q.W.Q.Q.Q.Q.oXbXKXHXHXGXHXHXHXHXCXCXCXvXCXzXzXzXzXOX^ %.t.t.9.>.r.9.E D E.4X(.A.A.(.S.A.b.A.b.D - O c 2   < B 1 X D 4X4XE. .- X O ; X   + # O 1 ;.1XqX1XqX>X1XqXOXQ.B.F.!.>X>X-XT.:.[ A @.Q C R e p t.>.' <.h.h.F.Y.OX!.;X7X>X;X,X:X^.;X7XqXY.9.9.=.q q N Y { F.L.j.:.>.j.L.>.e.5.q i V N R %.&.S ' >.] >.7.t.p 1 } ;.0.h.0.f.F.z.h.0.e.>.>.-.;.7.>.0.0.I.Z.g.s.j.j.g.s.Z.U.j.Q F.0.Q Y.}.@X$X}.Y.>XhX0X$X@X1X}.9.h.OX.XB.;XI.g.Z.g.g.P.B.g.&.&.7.1X^ gXcXCXcXzXuXuXqX9X^.:X-X:XyXuXuXrXuXyX>XOXOX.XF.B.N.G.F.e.h.z.C e %.Q S ' &.>.:.<.Z.^.Z.k.k.s.[ G G A A G A ' ' ' @.' A m Q ^ ^ 6.e.1 Y ~ Y g p < N >XT.f.:.} A p 1 ^ t.t.5.W ^ Z l N C W -.-.~ ^ -.{ >.}.OX7XqXZ.Z.^.~.Z.Z.Z.~.U.^.<X9X7XyX9XZ.G [ a.Z.Z.d.d.d.d.d.d.J m k @.U.9X7X7X6XqXqXOX=.-.w.h.J.@X>XqXpXpXVXVXVXVXVXVXVXzXuXzXuXQ.*.<.>.0.N.Q.XXqXqX0XqXrXuXtX0X1X1XtXZXHXbXhX9.eXJXUXJXlX0XL.v.M.N.N.B.N.N.C.R.oXOX.X.X.X$XeX#Xl.#XOXD.D.N.N.N.N.N.N.N.M.M.N.N.N.N.N.N.M.v.M.N.M.M.N.C.G.G.G.R.Q.W.G.F.C.C.G.F.",
"Q.G.G.Q.Q.G.G.Q.Q.Q.!.!.!.G.G.G.R.Q.R.Q.Q.Q.Q.G.G.R.Q.Q.Q.W.!.oXOXOXoX.XuXHXHXKXKXHXHXHXHXKXCXCXzXvXzXlXlXtX>.j 9.K.8.t.L.D.| D r.v.E.E.S.A.W.W.E.b.v.v...2 ; < Y = . N N O 5 4X4Xv.c - 2 t #     X @ o $ %.>XOX>X>X>X>XqXOXY.Y.OX;X;X;X:X,Xk.:.G :.S A R p 1 ^ L.;.S %.&.e.e.0.e.h.I.XXXX;X,X,X;XXXh.9.t.H...q y N ` l.F.L.j.&.f.j.L.-.e.w.q i N N Z ] &.Q ^ >.] >.>.h.p 1 { >.0.h.h.j.F.z.f.0.>.>.>.&.} >.>.g.h.I.B.f.:.g.g.g.g.P.^.U.:.P.e.R Y.|.>X>X.X}.$XuXrXrX$X}.L.h.h.J.F.h.-Xj.:.j.:.g.P.g.:.:.7.Q 7.C rXcXZXcXzXuXuXyX,XU.U.T.;XyXuXyXyXuXrX>X>X>X.XF.C.F.G.N.0.t.h.j p } Q l A &.:.@.:.B.U.M.g.s.a.A G A A G G A A j k A A S B ^ W R -.e.q l N l p i 1 l ,X-Xf.' C j 3 1 ^ w.t.9.^ Z a W 9./ ^ -.%.W W { } e.XX>XqXqX^.U.~.U.U.^.~.^.^.^.9XyX9XyXyX7X@.a.a.d.d.Z.Z.d.Z.Z.Z.Z.a.@.d.U.7X7X7X6X0X>XOX9.%.t.J.}.>XqXuXVXpXpXVXVXCXVXVXVXzXyXuXVX!.*.! B ! h.Q.Q.qXtXqXuXuXhX0X@X$X$X0XxXHXNXtXt.=XMXJXJXNXgXOXN.q.N.N.G.OXeXlXcXGXHXHXbXgXxXxXeX#XOXD.D.N.N.N.N.N.N.N.N.N.N.N.N.N.M.M.M.M.M.N.N.N.M.M.N.G.Q.Q.G.G.Q.Q.W.N.C.F.G.",
"!.G.F.G.Q.G.G.R.G.G.!.Q.!.G.R.G.G.G.R.Q.!.!.Q.G.G.Q.Q.Q.Q.W.W.W.!.OX.XoXtXbXZXZXKXHXZXCXHXHXVXzXzXlXlXzXzXXXS ^ 9.L.L.K. XK.| D r.r.v.V.W.4XW.v.v.E.b.v.| : ; X g Y $ O v 1 O ! | 5 - 5 t f +     + # o o ^ XXJ.OX>X1X>XqXF.>.F.;X>X;X-X,X-Xk.s.a.:.' Q R p 1 e h.Y.D.h.>X>XF.Y.Y.L.Y.!.!.;X;X;XQ.F.D.L.D.8.Y w w g 5.J.z.L.j.} :.h.L.6.e.w.e i g C T %.-.Q Q &.' -.>.z.a q { 7.0.h.f.h.F.z.e.7.7.>.>.} ] >.>.0.g.P.j.:.:.j.g.g.g.Z.^.T.f.I.0.R Y.}.>X>XXX.X@XrXuXqX>XJ.h.h.h.h.&.h.;Xf.[ j.>.B.U.g.] >.f.j q l rXcXZXcXzXzXpXuX7XP.P.U.>XyXuXyXuXyXqX.X>X>XXXF.I.I.B.h.e.h.e.j p { Z p B :.:.] @.g.g.s.s.@.@.A A k m A A A j 3 1 3 j C C S Z Z %.6.q g p i e i 1 p ;XI.&.' C p 3 = W 6.p.9.W j l } t.{ { 6.%.T ^ ^ -.J.OX,XuX;X^.^.:X~.^.:X:X9X^.7X<X<X9XGXyXT.:.s.a.d.Z.Z.Z.Z.Z.Z.~.^.^.d.d.Z.:X7X7X6X>X0X1Xp.%.e.L.OX>XqXuXpXVXVXVXVXVXVXVXVXzXpXpXzXOX<.B u S G.qXOXOX0XrXrXrX0XXX.X$X1X0XrXbXHXtXH.+XgXMXJXNXjX5XL.9.q.F.0XvXSXKXKXKXKXKXJXJXJXHXlXOXK.v.D.N.N.N.N.N.N.N.M.M.M.N.N.N.N.M.M.M.M.M.N.M.M.N.N.N.L.Q.L.G.Q.Q.R.G.G.G.G.",
"!.Q.Q.Q.G.G.G.Q.W.W.!.G.Q.G.Q.Q.G.G.G.W.!.!.Q.G.Q.Q.R.Q.Q.Q.Q.G.!.!.Q.Q.$XrXrXtXlXlXcXlXlXlXtXrXuXzXzXbXCXJ.T ^ 5.H.#X+X Xn.E t  .b.b.v.C.W.<.4 c r.b.,.v 2 2 < $ T N O $ 1 O O X : t a r ,   + # + # $ . Z Y.F.Y.2XuX>XP.Q S h.;XXXT.XX-XZ.:.@.k.:.' Q j 1 < $ l l.1Xh.@X@XY.Y..XOX>X.XY.XXXX!..XQ.L.L.t.E 9 9 w y -.l.z.F.j.&.@.f.T.7.e.w.q i N Y W { %.Q Q >.] -.>.z.l e { 7.0.f.h.h.F.F.0.>.e.-.-.} ] 7.>.0.>.j.g.:.:.j.g.g.g.Z.U.T.j.I.0.R Y.}.@X@X@XXXOXqXhXrXrXOXL.t.>.' ] B.;Xg.] j.f.Z.Z.g.] 0.f.p $ l gXcXZXcXzXVXpXyX,XB.j.I.>XyXuXuXuXuX>X.X>XOX.XI.I.I.B.B.h.h.0.N e ^ l e N &.Q F O.<.:.@.@.' ' m k k A A A k j 3 3 3 p C S S T W ^ { < i i e < e e e z.j.A e 3 3 1 = ^ 6.l.5.Z u C W / / -.9.%.Z / W -.XX>XyXpX-XT.:X:X<XyXyXpXyXyXyXyX9X9X9XU.g.Z.M.s.k.Z.Z.Z.^.^.~.~.^.^.k.s.U.;X7X7X7X0XrX=Xe.-.e.L.OX>X>XyXVXVXVXVXVXVXzXpXpXpXzXpX>XF.O.S O.Q h.>X>X>X0XuX1X0XOX@X$X>X0X0X$XeXbX=Xp.H.=XkXxXkXeX+X#Xt.t..XcXKXKXKXJXKXKXKXJXUXJXJXbX.XN.N.N.N.N.N.N.N.N.M.M.M.M.M.N.N.N.N.N.M.M.M.M.N.F.G.G.G.Q.Q.G.F.G.G.G.L.L.G.G.",
"G.G.G.G.G.G.G.G.Q.Q.Q.R.R.R.R.Q.Q.G.G.Q.Q.W.Q.W.W.Q.W.Q.!.!.W.Q.Q.Q.Q.Q.Q.OX0XlXhXlXcXlXtXqXOXXXOXCXHXZXtX;.{ ~ 5. XD.L.#Xn.Z a B n.K.R.oXoX<.t O u | c : t t 2 $ $ ^ i . 1 5 O : t t 2 X   + + , X # < o V }.Y.Y.qX>XXXg.C :.;X;XY.!.-XP.:.a.g.Z.:.C j 1 < $ O O p %.}..XJ.XX>X>X@XOXOXOXOXY.F.Q..XL.D.5.Z w y w i ` e.F.z.j.&.:.j.T.7.w.w.e i g V Z / %.^ Q &.&.>.7.F.l e { >.7.e.h.h.h.z.e.7.0.-.-.{ ] >.>.e.>.g.f.:.:.g.g.g.g.U.T.!.j.Y.>.A Y.}.@X@X@XOXOX0X0XtXuXqXOXY.D.>.:.I.!.>.&.g.<.j.P.B.:.g.h.p 1 l rXcXCXzXzXzXuXqX^.s.s.B.-XqXuXuXyXrX>XOX>X;XY.F.I.!.F.F.F.h.7.Z 1 W p 3 l ] C m %.&.G A A ' ' m k j A A z j z j 3 1 1 l S C Z T T ^ $ 1 e e = 1 3 = -.>.j * * = $ 1 =.6.l.9.S e a C S -.;.6.%.T ^ W -.@X1XuXpX;XU.-X-X9X<X^.:X:X9XpXpX7X!.s.g.Z.Z.U.Z.Z.U.U.U.^.<X^.^.<X^.k.a.^.^.;X7XqXqX0X}.;.;.D.@X>XOX:XpXVXpXVXVXVXVXzXuXyXzXVXzXpXI.O.F S &.*.;.G.tXqXqXqX1XXX1XrX$X1XrXOXOXxX{.=.=.p.{.H.w.=.Y t.t.t.$XHXKXKXJXKXKXKXKXKXUXKXJXKXtXR.N.N.N.N.N.N.N.N.M.M.M.M.M.M.M.M.M.M.M.N.M.M.N.G.Q.Q.Q.Q.R.L.L.R.R.L.L.L.L.Q.",
"G.G.C.G.G.G.G.G.Q.G.G.G.I.G.G.G.G.I.G.I.Q.Q.Q.G.G.!.Q.Q.OXOXQ.Q.I.Q.Q.Q..X.X.XXXeXtXuXuXlXhXlXHXcXKXHX{.=.5.%.=.;.w.n.w.5.4.{.eXiXwX8...8.K.#Xu 2 - : # : t : 2 : o q ` = . 1 5 ; X X     # + # % , 0 # o g L.Y.h.;X,XU.S ] I.T.I.;X,X-XU.:.k.k.j.:.k 1 3 1 < $ 1 1 $ W J.@XXXL.L..X.XY.Q.XXY.Q.Y.L.D.9.v q V V d w ` -.e.h.j.] &.f.}.e.6.w.i i p l N ^ / S F &.&.>.0.z.l 3 ] >.>.h.0.h.F.F.e.7.6.-.-.%.Q -.>.0.0.j.:.@.:.:.f.j.g.~.^.U.U.XX>.A Y.}.$X.X@X1X1X1XqX1X0XrXqXOXOXY.I.!.j.' :.g.j.I.N.f.' B.>.S } l tXzXzXzXzXzXpXyX!.s.g.j.;XyXyXuXrXqXXXOXOXXXT.I.!.I.I.N.h.l.e.^ 1 l e j j S C j ' ] S A A A A z k z C j z z p q e e 1 p R R C a N S < a e 1 = 1 1 = S -.p p q 1 q < ` e.J.6./ a j S ;.9.-.;.%.T Y Y 6.>X0XyXpX!.!.;X^.yXg.m A A O.:.g.g.:.s.I.P.N.f.I.T.T.;X7X:X:XyX<X^.<XZ.:.Z.:X,X7X>X>X0X9.~ 9.L.OX>X;X7XuXBXVXVXVXVXzXuXyXzXVXzXqX6X<.B B ] 0.!.%.;.OX0XqX0X1X1X1XrXhXuX0XOX0XcXt.L.@X=XgXeX{.W >.F.q.q.0XKXKXKXKXHXJXKXKXJXJXJXUXUXHXtXR.N.C.N.M.N.N.M.M.M.M.M.M.q.h.M.N.N.M.N.N.F.G.G.Q.!.!.W.G.G.R.G.G.G.G.G.G.G.",
"G.I.G.G.R.R.W.W.G.Q.R.G.W.G.G.G.R.I.I.Q.G.Q.G.G.Q.!.Q.!.OXOX!.Q.I.Q.Q.Q.!.Q.Q.OX.XL.Q.6XwX0X0XwXSXJXJX5Xw.=...5.w.w.w...p.gXUXJXDX{._ =.=.V V 0 0 : 2 2 2 0 t t , o $ g ^ < . N t   O   O : X # # % , % # y l.J.h.h.B.:.A :.I.P.T.-X,X:Xg.s.s.k.k.@.A e 1 t 1 < l ^ C 1 N W W a u Q 9.e.>.O./ %.W N i e $ 1 g V f w Y =.6.7.h.&.&.f.|.e.-.6.i i g e l R %.&.%.&.] &.>.h.l 1 ] >.>.9.>.0.h.F.e.>.6.=.-.{ ^ >.>.>.:.g.:.>.@.@.j.j.j.U.-X!.!.;X>.A Y.Y.@X$X@X$X0X0XtXqX$XqXuXtX>XqX;X-XB.:.<.g.j.B.g.0.&.B.9.L.F.R tXzXzXzXzXpXuXyX^.s.s.g.-X,X7XqXqX6XXXOXXX-X!.!.U.P.I.h.h.t.6.^ = p q p p C z p S Q C z j j j j C z z j p p p q e e e e e j N j N T $ e Z S N ^ ] } &.0.z.z.-.^ l 1 { p.}.e.>.^ W ] >.9.5.5.` T T Z l.1XtXVXuXXX,X:XpXU.m j h A A A :.<.<.<.B.T.-X!.I.!.!.-X!.!.^.;X:X:X:Xg.:.T.yX7X6X>XqX.X-.N -.J..XXX;X7XVXVXVXVXVXpXpXzXuXzXCXuXG.N.0.<.+.F <.6X9.] Y.>X0X1X1X0XrXtXlXhXrX1XeXcXD.$XcXJXUXUXeX0XF.<.<.q.eXKXHXKXKXKXKXKXKXJXKXKXKXKXKXSXwX.XD.C.D.D.N.M.M.M.q.M.M.M.M.M.N.F.N.F.F.G.G.G.Q.!.Q.Q.Q.W.W.G.G.W.Q.R.G.G.",
"G.G.G.G.G.G.W.W.G.I.Q.Q.W.G.G.Q.Q.W.W.Q.Q.Q.Q.Q.W.!.Q.!.$X4X.XQ.W.W.Q.Q.Q.Q.Q.Q.Q.M.M.L.!.OX$X$X#X+XgXxX*Xw.r.H.p.i.` p.NXUXJXNXxX8.4.w.=.V 2 # O : : 0 v d t d o o X @ %.N . t O   X 2 t ; O # # , % # o q e.l.>.S C A Q g.2X-X-X-X:XZ.s.g.d.g.g.G G B e e $ q ^ / N = O * O O 1 j / &.&.] / %.%.] / ~ p < , d v i V =.} 6.f.>.&.f.@Xh.-.5.i i i e N Z ;.&.] :.&.&.&.h.N 1 / -.;.;.>.>.9.t.9.6.6.=.-.{ ^ >.-.>.>.>.:.:.:.<.:.j.B.U.;X-X-X>X&.S Y.}.}..X.X=XeX1XtXtXrX0XOX>XOX!.!.B.f.g.B.j.U.T.j.0.>.h.F.tXY.R tXzXzXzXzXuXuXqXU.s.:.g.-X;X>X>XqX>XXX>XXXY.P.I.C.B.I.B.D.6.` T O q 1 i e z l e S C j j z j l j j j p j p e j p p g C C N S Q ] e.>.N / L.OXF.F.Y.h.S Q j.-.z p 1 1 -.l.}.t.9./ / %.%.-.;.-.T C Z C }.1X0XzXqX7X-X:XpX:.m A A A G :.C.I.C.B.P.^.;X6X!.I.B.B.T.7X9X:X^.U.U.g.B.^.7X-X;X0X0X;.` N 9..XXXOXOX,XVXpXpXVXVXzXVXCXVXzXVXVXOXF.OX6X0.m F F.h.9.XX>X>X>XtXtXtXtXhXhXrX1XjXNXt..XcXbXxX[.H.$Xq.<.<.0.eXHXKXKXKXKXKXKXKXKXHXKXKXJXKXJXvXrXoXQ.G.D.N.N.N.N.M.M.N.C.C.C.G.G.G.G.Y.Q.G.G.G.I.W.G.F.G.Q.G.F.G.W.G.G.G.",
"G.G.G.G.G.I.G.G.G.G.Q.Q.W.I.I.W.Q.W.W.W.W.W.W.W.Q.W.Q.!.OX4XOX!.Q.Q.Q.Q.Q.Q.Q.F.Q.G.Q.Q.Q.!.OXOXgX{.p.w.5.~ ` ` Y Y p.xXJXUXNXkXeXn.8.5...V f 2 t a t v v t y , @ X   @ g ` p ; O   0 8.8...f : : : # : $ < W R C j e j A :.|.T.T.:XU.:.g.a.d.d.d.A ' F j e O p T e 3 W ;.>.%.] h.F.XX>XqXrXqXtX0X1X>X@X9.C < $ f g z { ^ 7.f.>.&.f.|.z.-.;.i i i g N C &.Q Q &.&.' ] 0.l 1 ^ ] %.;.9.9.;.6.6.9.6.=.-.{ ^ -.-.>.:.0.g.&.&.0.0.j.B.U.:X-X-X>X&.C Y.@X}.L.+X=XeXrXrXuXrX1XqXY.F.Y.B.B.I.Y.I.-X7XI.F.q.<.F.>XuXY.W uXzXzXzXpXuXuXqXT.k.s.Z.T.^.!.;XqX>X!.OX!.I.I.I.I.F.Y.Y.D.W N p < e = < 1 e e 1 j j e j N N N N A S ^ >.6.6.7.e..XqX1XF.e.0.>.>.t.t.0.h.F.Y.z.<.h.:.j 3 ] ' j p 1 e 6.p.J.l.t.%.] ] ] %.5.-.Y N C Y @X1XqXzXOX-X;XpX7Xg.:.[ :.:.<.I.7X!.M.B.Z.!.!.g.B.h.!.I.;XyX7X:X^.U.!.^.^.;X,XOX>XwXY.Z ~ l 9.Q.OXOXOX7XzXzXVXzXpXuXuXVXCXKXCXCXqXN.q.F.>.c u B ] >.G.OX1XlXhXhXtXtXhXhXqX=XgXNXD.Y.HXNX+X4.gX0XF.N.v.M.tXZXKXKXHXHXHXKXKXKXHXKXKXKXJXNXxXlXcXlXrX0XOXL.t.0.N.M.M.C.I.I.Y.I.Q.G.F.F.C.G.Q.OXOXQ.G.G.W.G.F.C.G.G.G.G.",
"Q.G.R.G.G.W.Q.G.G.R.Q.Q.Q.I.I.I.Q.Q.W.!.!.Q.Q.Q.G.Q.Q.W.OXOXOX!.Q.I.I.I.I.I.G.C.I.!.!.Q.Q.!.!.oXeXgXeX{.5.~ ~ ~ ` H.MXUXJXNXeX5XeXp.4.E U Y y : 0 t ; t f d t : X + + & < ..W ; : 2 v v.,.,.B - O X : 2 ; O a N S k j h k Q :.P.^.~.a.:.d.a.d.Z.~.G @.@.C e 1 z 1 S e.XXqX>XqXqXOX>XrXtXqX>X@X1XtXtXqXtX0XJ.~ w 9 f g ~ R 6.e.-.&.h.|.F.-.-.q i i l Z T ^ A A ] ] Q ' >.l 1 ^ ^ %.;.;.;.{ w.e.5.-.%.>.{ ^ -.>.7.7.>.&.-.] &.f.g.j.U.,X^.!.>X>.C Y.XX@X{.$X=XeXrX1XhXrX0XuX>X6X>X.XT.-XXX-X;X;XI.F.<.e.F.>XrXY.R lXzXzXzXpXuXuXyX!.Z.<.Z.Z.T.I.-X;XXXY.!.Y..X.XI.P.F.F.L.w.N g i $ e q p l W -.>.h.F.h.e.h.h.h.h.F.F.Y..X|.L.h.F.@XOXJ.h.7.&.&.>.>.7.f.h.0.f.g.0.:.' h h A A j j 1 3 -.l.}.t.0.] O.] %.>.9.-.Y N l W @X1XuXVX7X7XpXyXZ.U.Z.:.s.U.U.7XqX!.:.g.Z.I.h.>.Y.XX7XI.>XyX;X;X-X-X7X7X:X;X7X;X>X>X;.a W t 5.L.0X>X>XuXVXVXzXzXVXVXVXCXzXzXCXHXvXF.*.>.0.O.M m m S >.OX0XhXtXtXtXhXjXtX2X1XgXNXJ.t.bXxXw.*XgXeXOXG.F.G.tXbXHXHXKXKXHXKXHXHXKXKXHXJXHXbXlXhXcXbXbXcXrX6XG.M.N.q.0.q.N.F.G.F.N.M.q.<.<.<.<.<.<.q.N.G.Q.W.I.G.G.W.Q.I.",
"Q.G.Q.L.G.Q.G.G.Q.G.I.I.I.Q.Q.Q.Q.W.!.!.!.Q.Q.Q.Q.Q.Q.Q.W.!.!.W.W.W.Q.I.G.G.C.W.W.I.C.G.!.!.!.$XeX+Xp.p.H.[.*XfXeXNXJXUXUXNX*X+X{.n.=.` E U 0 # 2 r   O 0 f , X X @ + @ 9 N a ; O - D E. .D  . .,.! B 5 O O u N ' A A A ' ' ' g.Z.k.a.d.d.d.d.Z.Z.[ [ @.A 3 1 q C Y.tX0X>XOX>X>XqXrXtX0X>XOXY.D.J.Y.OXrXhX1XH.5.9 9 d Y ^ -.h.>.&.g.}.J.-.=.q i q g C Z ] R e A Q S Q >.N 1 W / ` =.=./ l ` w.-.6.-.6.{ ^ ;.>.7.-.>.&.' R R ' e.j.T.,X!.T.>X>.Z Y.}.@XL.@X0X$X}.0XrXrXuXtXrXuX>XY.XX;X!.XX!.T.I.Y.0.F.XX@XuX}.W hXzXzXhXuXuXyXqX^.Z.<.k.k.^.U.-X-XT.I.F.e.0.h.F.F.L.J.l.{ g g i q l C -.J.1XrX>XOX>XOXY.J.F.F.L.h.F.Y.T.Y.z.-.7.h.B.0.&.&.-.0.-.] z A &.} } :.:.@.G j k A k h j p p 6.z.}.l.e.-.%.] &.9.6.%.Z l g { @X>XyXpXqXyX;Xs.s.^.~.s.:.^.pXpXpXyXN.N.I.U.T.I.>XyX7X!.7X;X;X7X7X;X7X;X>X>X6X>X>XJ.Z g Y i t.OXqXXX.XuXpXyXuXuXuXqX@XOXXX.X.X>XuXOXG.N.N.F m F ! B O.OX>XtXtXhXhXhXgXrX0XrXxXNX1Xw.lX1Xl.jXhXeXoXC.N.D.tXlXHXKXKXKXKXKXKXHXHXKXHXHXHXNXlXtXgXgXgXeX$XeX.XD.N.h.0.<.<.q.h.N.M.M.N.N.N.V.N.<.<.<.<.<.q.N.G.G.G.Q.Q.G.",
"L.G.Q.Q.G.Q.L.Q.Q.Q.G.G.I.Q.Q.Q.Q.W.!.!.Q.Q.Q.Q.I.I.Q.Q.I.Q.W.Q.Q.W.Q.W.I.G.I.!.C.V.M.I.OXXXOX0X$XH.p.+XgXkXgXgXeX=XgXgXgXeXH.H.p.{.p.;.` i t | v.8.| E t c 2 - : X X # a 1 : 5 2 X  .,.D #.b.b.v.b.v.E - O u j m G G A A A ' @.[ @.k.Z.Z.k.Z.k.Z.a.@.<.' p 1 p h.>XqX>XOX>X>XrXyXyXuXqX0X>X}.h.j.g.j..XqX}.H.+X` w w Y ^ -.z.>.] g.|.J.-.=.q i g V l p ] ] j F ] ' Q &.N 1 Z ~ W ` ~ g = < ^ 6.6.-.6.{ ^ -.-.>.-.0.} N ] } p S <.U.;X!.!.>X0.S L.XX}.J.#X@Xw.9.D.0XhX0XrXlXyX.X.XXX>XXXg.:.&.Q 0.e.D.OXXXqX}.R uXlXzXzXuXyXqX,X!.N.g.B.j.T.P.T.,XY.h.>.Q R } 7.e.t.6./ z i i i C -.e.J.|.@X>X}.Y.;XOXP.h.h.B.OXG.Y.F.g.g.f.f.h.g.0.:.:.@.@.} ] z * * j ' &.@.' G A k j k k j j 1 e 6.z.}.p.e.{ &.&.;.9.6.{ C N N ;.@X>XpXuX;X!.B.<.Z.^.^.<.k.yXVXBXVXVX;XZ.^.^.-X7XqXqX!.!.7XXXY.6XqX>X>X>X7XOX>XXX.Xq.p N V N ;.D.OXY.OXpXVXuXyXY.e.>.t.L..X.XJ.J..Xq.Q ] N.O.! F S j O.>XtXlXtXhXhXgXrXrXhXxXNXxXgX;..XY.hXlXrX.XF.C.C.G.0X1XbXHXKXKXHXKXKXKXGXKXKXZXbXbXxXlXeX*X@X$X@XtX$XL.N.N.M.q.<.<.q.q.N.M.M.<.<.M.V.q.<.q.M.M.N.N.N.q.q.M.M.q.",
"N.N.Q.!.Q.!.!.!.Q.Q.G.G.I.Q.Q.I.R.Q.W.Q.G.R.Q.W.I.I.Q.Q.I.Q.W.Q.G.W.W.W.Q.C.G.!.C.M.V.Q.!.!.$XeXH.[.eXMXxXeX1X=X=X0XgXxXgX=X#X+XH.{.H.8.Y t K.4XoXb.,.,.D b c E 5 X   X 2 2 5 c 5 - c b | c. .,.v.8.| u O O N u m A @.' G G [ @.G G [ d.Z.Z.Z.Z.d.Z.@.:.&.j 1 ^ }.F.>X>X>X>X6XrXqXqXyXqXQ.N.F..XY.h.j.F.1XJ.p.=XeXY i T ^ >.h.&.] g..XY.-.%.q i q p 1 . = 3 j :.g.:.] >.C < Z ~ ` W q $ = O V 5.-.} 6.} ^ &.-.;.-.>.Q R h.-.* 1 :.P.^.!.!.>X0.C J.OXL.L.OXl.C 6.` ;.1XqXuXhXuXOXY.>XqXP.] 0.I.C Q F.F.XXOX>XY.C uXzXzXzXpXyX7X;X0.:.<.g.g.P.h.j.XXF.>.] R ^ ] Q ] Q N q < e q l { 6.7.0.z.P.T.z.z.P.j.<.>.:.<.I.g.j.h.:.>.:.:.&.:.:.} ' ' :.' A 3 A k 1 A Q Q A A k j j j 3 j j 3 e 6.e.J.l.e.{ &.;.;.6.;.` V V g ;.@X>XuXyX-X!.!.7XU.^.Z.@.T.BXVXpXVXVX9XZ.:X7X7XqXyXqXI.G.Y.!.OX6XqXOXXXOX6XY.F.q.h.;.a V i N =.t.D.J.Y..XY.f./ ^ -.D.Y..XXX>X.XOX>.j N N O.<.F m ] *.F.>X0XqXqXtXgXhXjXcXcXNXZXNXlX6.>.D.tX0X.XG.F.C.N.F.Q.0XhXbXKXKXHXKXKXKXKXKXHXbXcXcXcXcXgX=X$X=X#XeXOXG.N.C.C.M.M.q.q.<.<.<.<.>.>.q.M.<.<.M.C.N.M.<.,.+.+.O.+.$.",
"<.0..X$X!.OX!.OXQ.Q.I.I.G.G.C.N.G.G.G.Q.I.G.G.I.I.Q.W.W.Q.Q.Q.Q.W.W.I.W.Q.Q.C.G.C.N.F.Q.OX$XrX}.p.eXlXeX=X0X=X=XrXlXcXxXlXhXuXuX0X@X{.t.*.E r.r.E.E.,.#. .D D | t t ; O t m #.v.,.D x M #.H D  .! t : 2 < = C 1 S Q Q ' @.@.:.g.d.d.@.[ @.d.Z.~.Z.k.G @.:.j = 6.OX>X6X>XOX;X7XqX7XyXuX>XY.G.h.XXP.h.F.F.OXD.9.{.=X5.q N ^ 0.h.] &.>..XY.-.~ q w e i 1 o = p ' f.U.g.] &.C 1 W W ~ ^ q $ $ $ Y 4.=.{ -.{ ^ ;.-.&.-.;.&.N p = . * &.Z.T.T.!.;Xe.N J.L.L.L..X{ q W g W L.qXrXuXyX>X.X>X>Xg.] T.h.u l e.F.OXL.OXF.S uXzXzXhXyX>XqX:.u u :.>.&.g.>.&.z.h.-.Q T C g e 1 < 1 p V =.4.W -.e.6.:.f.f.f.g.f.:.:.@.@.' &.XXj.P.<.g.a.:.@.@.' j A @.:.' A Q k z.R * j A A A A A k j j 3 1 e 3 p -.t.J.t.0./ &.%.-.>.6.` N l g e..XqXuX7X-X!.7X^.Z.U.Z.@.7XBXVXVXBXVX7XZ.^.;X-X7XuX7XXXXXOX.X>XtXOXJ.XX>Xt.^ B ^ 9.9.Z g 2 q ^ / %./ >.-.] R Z %.t.L.OX#X$X.X.X$X;.Z S m N N B S F !.qX>XqXqXuXhXgXjXNXNXcXNXNXZXNX9.! L.OX.XK.F.C.G.C.F.G.$XOXrXHXKXKXHXHXHXHXKXbXcXZXbXcXxXxXgX0X$X$XtX.XG.C.C.C.N.M.M.M.<.<.<.<.<.>.<.<.q.M.M.N.N.M.>.O.X.O.! ! O.",
";.>.Q.OXOX!.I.Q.Q.I.I.G.C.N.M.M.M.C.G.W.Q.I.G.G.Q.W.W.W.Q.Q.Q.Q.G.W.W.!.!.G.M.G.F.N.L.OX0XeXeXH.+X0X=X=X$X0X0X0XtXcXbXcXlXlXlXzXlXrXL.t.9.*.E 5 B v.x.#.D D  . .E | - 2 #.<.c.(.A.#.c b c M x c t # : ; $ o l p j S A A [ s.Z.Z.Z.k.d.@.a.d.@.d.~.Z.[ @.&.j 3 |.0XOX!.;XqXqXyX6X6XyXyX>XI.B.h.Y.f.<.<.B.>XJ.;.{.gX5.q a W t.h.&.&.>..XF.;.~ q < i N p 1 p ] :.:.<.:.&.:.N 1 ^ ` ^ ~ g i e z 4.5.-.{ { { { -.-.-.>.>.} p . . o 3 :.U.U.P.I.;Xh.N D.L.D.L..X~ $ $ 1 N t.@X0XyXyX>XOXOXT.F.' e * O 1 0.J..XD.@XF.R uXzXhXuXqX;XqXj.j S h.g.&.>.&.R } C p e 1 1 p a Z / 9.-.w.6.5.Y 1 C } } :.@.:.:.:.@.' ' } ' Q F.I.>.A :.f.:.[ ' j * A :.&.' } :.:.&.z z ' R A k A R k j e 1 = 3 1 e -.t.D.9.9.%.] ] &.;.6.` N N Z D.@X>XuX>X-XI.^.^.U.U.U.s.9XBXVXBXpXVXyXI.!.!.;X7X7X7X7X6XOX0X0XJ.D.L.D.;.Z a N ] t.w.Z g q $ q W / W %.-.&.{ / ;.t.D.L.L..XL.L.}.t.Z S m B O.S m N N.6XXXG.OXlXcXlXxXcXcXcXZXZXcXbX%.N.Q.G.D.F.G.G.C.C.G.G.OX.X0XbXKXKXKXGXKXKXKXCXbXHXcXxXcXlXgXlXbXHXbX.XF.C.C.C.C.B.C.C.C.M.M.M.q.<.<.<.q.N.M.M.N.M.<.<.<.<.<.*.O.",
"*.&.N.!.!.Q.G.I.I.I.I.G.N.h.M.N.q.M.C.C.I.Q.I.G.W.Q.Q.Q.Q.Q.Q.Q.Q.G.Q.oXQ.N.t.G.L.Q.$XeX0X=X+Xp.=X$X+X=X=X0X0XOXqXlXlXzXbXbXuXtXuXuXOXD.9.%.m u <.V.,.,.H #.x.,.v.*.O 5 v.A.V.A.A.x.H | M M M c t < , t = $ e R S S S Q ' @.s.Z.Z.d.k.k.d.[ h m s.Z.:.] ] p p >X>XY.g.XXqX7X7X6XpXqXG.q.0.q.<.0.B.I.I.XXY.h.6.J.n.E q i ^ h.<.&.&.g.OXe.5.W q < i C C j S } f.:.[ &.] >.l 1 / ` ` ~ N N N ` w.=.=.{ { &.} ^ ] >.0.0.&.p . = 1 A >.U.P.f.h.XXh.l e.L.l.L.$X%.q . $ l e..XqXuXyXXX-X;XT.F.&.j * . j h.F.Y.J.qXY.R uXzXuXuX,X-XqX>XXXF.Y.>.R ] Q j 1 1 i C ^ =.e.l.e.9.9.5.6.~ C z z 1 C ' ' ' [ &.} ' ' ' } C j ] I.:.A f.[ A A A 3 C } ' A ' &.&.6.] R ] R z k k j j e = = * = = O 1 -.p.D.9.9.%.] ] &.-.6.^ V N V D.XX>XuX7X;X!.;X7X:X^.:XU.;XBXBXBXpXBX9XP.T.!.:X7X7XqX7XqXOX@XD.>.t.9./ N N / %.5.t.9.Y g a i 2 1 q N C ^ / Z ^ %.6.t.l.J.L.J..X@X$X9.>.>.] Q Q S B S <.F.>.t.uXcXNXNXcXxXNXJXNXxXxX;.OXQ.G.L.G.G.G.G.C.C.G.OXOX@XtXHXHXKXbXKXKXKXHXHXZXlXlXbXcXcXHXUXKXbXQ.G.C.C.C.C.N.C.C.I.G.G.G.C.N.M.M.g.M.M.N.N.N.N.B.N.B.B.q.>.",
">.O.<.N.G.Q.Q.Q.W.W.I.C.N.M.N.B.M.M.M.N.G.I.W.I.Q.Q.Q.!.!.Q.Q.Q.W.W.!..XL.D.N.Y.OXOXrXtX=XeX*X+X0X$X$X0XeX$XOXOX>XuXzXzXzXlXrXqXqXrXOXt.;.W D ,.E.,.x.v.x.E.v.v.K.c O | v.c.S.S.(.b.c.c.#.D H #.t ; g ~ e o 1 ^ 9.;.0.:.] @.[ a.Z.Z.k.k.G h 3 h :.U.:.F Q u e e.OX>XG.OXqX;X7XyX7Xh.! ] <.F.B.B.Y.Y.P.F.t.>.%.=.` U q t -.h.&.&.&.j.@X>.5.T q < i g N C Q ' :.[ @.@.' &.a 1 / ~ ` ` N V Y ` 4.{ { { -.&.{ C S 6.6.0.&.z p C z } f.T.P.<.f.XXg.l 0.Y.l.L.$X9.{ a l -.L.}.>XyXqXXXT.I.T.P.F.0.' j ' F.Y..XY.>XL.R uXuXuXuX,X;XqXuXyXG.Y.e.} R e 1 Y / 5.l.H.t.6.-.>.;.{ { W Y l z { p z Q Q ' ' ' ' A A ' ' C z S F.] C ' A j k j j } ' A A ' ' z z z p p e e 3 * * O . . . . o o . 1 ;.p.D.9.9.%.] &.&.%.;.W N N V D..X6XyX7X-X!.8X7X9X7X^.T.U.yXVXVXBXVX9XZ.^.;X7X;X>X7XqXqXOXJ.9.>.-.W W W W ../ 9.w.~ q $ q ` E < 1 ~ -./ N p Y W ` 5.9.D.L.{.L.L.XXXXD.J.N.0.O.S N j %.>X1X0XlXlXcXcXlXxXcXcXxXJXxXrX0XOX.XL.L.G.G.G.G.G.G.W.0X.XOXlXCXKXHXHXHXKXHXKXHXhXgXNXHXHXKXKXHXlXQ.G.C.C.C.C.C.C.C.C.G.G.I.G.C.N.M.M.<.M.B.B.N.G.I.B.G.Q.B.0.",
"q.+.*.<.N.Q.W.Q.Q.W.I.C.M.M.M.N.C.M.M.M.C.G.Q.Q.Q.Q.Q.Q.Q.Q.Q.Q.Q.OX0XwXeX>X$XeXtXlXcXgX=XeX{.{.eX0X0X0XrXOX>X1X0XhXzXuXyXtXqXqXOXrXqXD.;.! ! K.R.v.W.E.b.3XE.E.*.; - *.V.A.(.(./.A.c.c.b.,.D  .D 5 C N l o o j &.%.<.*.' @.A A d.U.a.G h 3 3 * ' I.] a j p 1 e e.qX6XqXrX7XqXqXG.>.*.q.B.Y.B.h.B.h.>.0.t.6./ ~ ` U q g 9.h.&.>.&.z.J.&.6.Y w & q g S S S ' @.[ :.@.' ] a 3 ` ~ ` ~ g V T ~ 5.=.-.%.6.{ -.R C >.7.7.-.S Q } R &.f.U.P.f.g.!.g.j t.XXD.J.@Xl.{.6.6.@X0X}.OXqX7XT.P.j.T.-XT.T.F.g.>.F.F..XP.;XF.S qXuXyXyX,X;X,XuX>XI.F.0.] p p ` { ^ =.w.;.-.-.-.-./ T l N N g < 1 p z C A Q A A Q A C C C C z j &.A j C N j j p S S l j e 1 1 = o . . o o . $ o .   o . . o o O o 1 -.t.D.9.0.%.%.&.%.{ ;.T g a Z L.OX0XqX>X!.!.7X9XpX7XB.s.g.7XVXVXpXBX9XZ.U.T.!.-X;X>XqXOXF.h.l.9./ ~ %.` / ` 9.H.p.V < $ y ..y q ` t.w.p.e.{ Z Z T { ;.t.D.J.}.OXOX@X9.t.F.h.W Z %.>.h.>XtXtXlXcXbXcXxXcXNXNXNXNX{.=X=XOXD.L.L.$X$XQ.G.F.G.G.$X.XL.$XcXHXKXHXKXHXHXKXHXlXlXHXKXHXKXHXHXlXQ.G.G.C.C.C.C.C.C.C.C.G.I.C.C.N.N.N.q.q.N.G.F.G.G.G.G.Q.G.N.",
"M.<.+.+.<.G.I.G.I.C.C.N.M.M.N.N.M.M.M.M.N.C.G.Q.I.I.I.Q.Q.Q.Q.Q.Q.0XbXHXHXZXbXcXtXgXlXeX+X=Xw.p.OXOX1X1XrX$X0X0X>XqXtXrXrXqX>XXXXXrXqX.X9.%.W ,.R.oXE.! b b.5XK.c # O c R.4XS.c.A.A.c.x.A.E.,.u ! u ! S N * . * u 3 u B A A j h @.@.k 3 3 3 3 1 C 0.S 1 1 e < O &.0X0XqXqXrXqX6XY.N.Y.Y.h.h.0.g.F.h.7.h.6.9.=.` ` i < Y e.0.&.&.>.F.h.&.w.Y w $ = g Q S A ' @.[ @.&.F ' a e ` W ~ Y a C T W 6.-.;.-.6.%.7.} S -.f.>.-.R ] } ] -.s.P.P.g.j.T.<.p h.XXJ.J.@XL.0X}.l.qXtX@X>XrX,XI.P.I.I.;XT.;XXXF.0.F.F..XP.;Xj.A ,XyXqXqXqX-X-X,X,XF.e.&.j 1 C R e i N T W ^ Q S j p l p p q 1 =   * * = * 1 * * 3 1 = = 3 3 3 3 j C C l e * = = 1 * O . . o = a e o   9 i 9 q e = . 1 1 = = * = $ q -.e.D.e.0.] } &.%.%.5.~ g i V D.XX6XyX>X-X!.8X6XyX:Xg.g.B.7XVXBXpXpX^.g.Z.Z.B.C.-XqX7XF.0.9.9.%.{ =.~ W 5.H.{.n.=.i < 9 < i : Y w.5.w.{.{.z.9.=.^ ^ %.9.e.D.OX$X0X0XL.>.;.J.0.W %.J.}.Y.0XlXhXlXcXcXcXNXZXNXNXw.p.gXgX$XL.-.;.L.eXeX$XG.C.G.Q.$XL.D.0XuXcXbXbXbXZXHXHXHXbXHXKXHXJXKXKXlXL.F.G.C.C.C.C.C.G.C.F.G.I.I.G.C.C.F.N.q.h.B.B.G.I.G.G.Y.G.F.",
"C.<.$.+.<.g.M.B.B.B.N.M.M.M.M.M.<.M.M.B.B.N.C.C.G.G.G.Y.Q.Q.Q.Q.OXtXKXKXKXHXZXcXJXNXlX5X$XtXw.H.{..XOX0XeX$X$X@XY.XXqXqX>XOXOXOXqX>X>XL.9.*.Y D | D 5 : : u ..E # X X 2 *.M 4 M (./.A.,.x.A.3XD m u C C R j . $ = < 1 e u j h 3 k k j 3 j 3 * 3 1 3 O . = < < e }.uX0X0X>X6XyXuXOXQ.Q.B.0.I.Y.Y.z.7.>.0.{ =.` Y Y w i ` 6.6.&.&.0.P.7.-.6.C i < q p R R ' @.@.[ [ ] S Q p 1 ^ ~ ~ V g W =.{ 6.-.-.-.6.-.e.>.Q -.0.-.&.' ] ] ] >.g.U.P.j.P.!.>.j h.}.Y.L.@XL.=X}.D.0XqXXX>XrX7XT.!.I.P.;X-X-XXXF.>.I.T.XXF.P.>.A :XqX,X,XqXT.;X-X;Xg.>.] e l C = o q e e l C l p j p e q q < w p $ .   o . . . O . . . . o . O = 1 a 1 $ .   . .   . $ 1 l l e e C 9 o i U i f i q o 1 e 3 1 1 = O q -.e.l.0.0.] %.&.%.%.6.` g t V D.XX>X>X-X!.I.B.W.7X9XB.:.B.9XVXVXVXpX^.g.Z.M.g.<.I.qXOXh.>.&.;.-.9.w.~ 5.+X*Xp.=.N 9 < # X 9 ..E / w.l.{.|.J.J.D.l.p.D.t.9.t.e.J.$X@XXX-.R ^ %.a j ;.D.9..XcXcXcXcXbXZXZXjX@X` i +XjX0X{.=X.X$X0XtXtXrXQ.G.G.G.OX.Xt.D..XOXtXtXhXlXlXbXHXbXlXNXlXlXHXHXrXL.L.G.G.C.C.F.G.G.F.G.G.G.I.G.G.I.I.N.<.0.h.N.G.Y.G.G.G.G.G.",
"I.M.<.+.+.<.<.M.B.B.B.M.<.<.<.<.<.<.M.N.C.B.M.M.N.B.G.Q.!.!.Q.L.XXtXKXKXJXJXJXJXJXxX0X#X=XxX5.w.+X{.#X0X@XOX@XOX.X}.XX@XXX>XqXqX0XOX$XN.;.>.*.W a 2 : c a : : X # o   t 5 O O | E.v.c.M 5 c D v O * N R ] z . $ $ < q e 1 e 3 j j A A j e 1 3 3 * * O O 1 q 1 1 H.}.h.t.>.t..XXX>X>X>XXXY.7X>Xh.>.] %.;.%.W ~ _ w 0 V 5.w.6.&.>.0.L.>.-.-.g i q q l ^ Q } a.:.@.[ ] A Q p 1 W Y ~ N l ~ e.5.-.-.-.-.-.-.h.7.] -.:.-.&.] >.} ' 0.j.U.P.j.F.!.>.j h.Y..X}.$X}.1X@XJ.1X1XXX>XqX,X!.!.P.!.:XU.T.|.T.g.XXT.T.P.F.&.k -XqX,X,XqXT.-X-X!.h.:.C 1 R p = @ $ $ $ = e p 3 1 1 1 = = @ w Y o 1 e < $ < < = 1 e N C C T R N l g o = q i l i t 2 t g Z a g g Y g $ i ~ g f p p $ 1 e p e e 1 * p 7.e.e.>.0.&.&.%.{ %.6.%.i q Y J.L.Q.I.!.Y.I.' O.<.-X-Xg.C.7XVXVXVXBX7XB.Z.<.<.g.Q.;Xh.&.^ ] 9.9.e.;.W t.{.w.=.` i < < # , ~  X=.^ H.p.H.=X@XJ.L.}.{.#X{.L.=X.XD.;.;.J.t.>.%.p 1 = p %.^ / / t.J..X#X+XH.;.W g ~ *X+X#X=X0X0XeXlXxXlXtXQ.G.C.G.G.$XQ.t.h.D.$X1XrXrX0XlXHXcXeXOX{.L.$XlX0XQ.R.I.I.I.I.G.G.G.G.G.C.C.C.G.G.I.I.N.;.>.N.F.B.G.F.F.G.G.G.",
"I.B.s.:.+.$.<.<.<.g.M.M.M.M.g.g.g.M.g.s.g.M.M.<.h.N.F.I.!.OX!.Y.OXtXKXKXHXHXHXHXHXbX5X=XgXeXp.w.+X$X#X.XK.H.{.OX$X{.D.=XtXuX0XwXlXwXoXt.9.>.%./ ! B a u : v w # #   o $ O 2 2 v.E.b.b.c > X - O . $ z } z e . = $ $ < = = * j A A j 3 3 1 1 e * $ O o O < q < o Y p.w.%.^ / / ^ %.>.9.0.q.0.O.N Z W %.p.-.` ~ w . f Y 6.5.;.} >.e.F.>.;.W V p < q p ^ ] :.a.s.@.[ ' S Q a 1 Z Z Y g Y ;.t.e.6.-.{ -.;.-.0.>.&.] -.>.:.@.>.&.&.f.g.U.P.j.j.T.>.u e.}..XJ.OX.X1X>XY.@X2X|.XX>XrXT.T.I.T.:XT.T.U.XXF.XXXXT.B.g.' j >X,X7XyXqXT.-X-XT.P.>.j * C < o e p 1 1 = O * = < < $ $ $ 9 i Z $ N Y a p a e < i 9.t.H.{.=.i q i g q N Y E Y V g i i V p g N N E %.q V Z Y U g i O e e j j 3 3 * j >.z.t.6.6.-.&.%.] / -...N q V w.9.D.G.Q.Q.h.] %.! q.>X;XyXBXBXBXBXpX!.g.B.<.g.I.;XY./ j W 6.t.J.H.*.` =.V E =.~ : 2 :   $ 5.K.{.5.~ ` w.{.fX5X+X{.+X*XeXrX1XeX@X+X=.N V N N 2 i 1 l 0.t.9.S / Z V W Z V i N i p.eXH.+X=XeXgXbXbXxXlX0XL.C.G.G.G.R.OXQ.t.9.v.L.{.wXtXxXHXrX#X#XL.J.D.1X.XL.G.Q.I.I.G.G.I.I.I.I.C.G.I.G.B.C.G.Q.<.*.<.N.B.B.M.B.G.G.F.",
"<.<.<.$.+.O.O.O.O.&.$.<.<.g.g.q.h.M.g.<.$.$.<.q.q.h.N.N.G.Q.!.!.$XlXHXKXHXHXHXHXJXlX5XeXgXxX{...p.i.w.5.=.` =.w.w.5.w.{.+X.XL.oXR.v.K.v.q.t.;.%./ B ! Y i g 9 o   . , : O 2 u b.E.E.v.c 2 O # X $ = = R ] R . o . = = = p j k A j e e 3 1 = * o . . . O $ O o O $ T 9.-.W &.>.] %.%.^ ^ / O.O./ t.9.9.-.` ~ w @ & g Y 5.6.&.&.>.0.e.%.-.C C g < 1 g Q ] &.:.@.@.' ' A R a 1 Z V Y V ~ ;.e.e.6.-.} -.-.&.>.>.-.' &.>.:.@.>.@.&.s.g.Z.Z.j.j.I.&.3 f.Y.}.J.@X.XqXqXY.>XyXOXOXOXrXXXP.T.-X:XU.U.T.|.j.XX-X!.B.0.' j ;X,X,XqX7XT.^.-X-XU.f.B * 1 = e ^ ^ T R z < O O $ $ $ $ 2 f V ~ $ T ;.{ W S N u u Z ..;.;.E 2 O q i t v Z V g g i a V N N N Y Y ` 5.a Z E E E N p O p j 3 k k h * j 7.F.l.w.w.-.&.%.%./ -...N i i / 5.D.L..XQ.0.! / O.>.OXyXyX7X9X7X7X-Xg.s.T.,X6X6X>X0.Z N / ;.t.l.t.%.B u ~ 4.V $ O : O   $ ..8.n.H.5.~ 4.p.eXxXeX#X=X1XxXxXgX1X}.@X1X5.q 2 v ` t.%.l >.F.;.^ / 9.8.` V Z J.{.i ` *X{.eXgXkXxXxXxXlXwX.XG.G.G.G.G.G.G.Q..XoX.XK.L.#X0XlXHXrX+X#X$X0XOX6XY.G.G.G.I.I.G.G.G.C.C.B.B.B.M.M.B.B.M.I.<.+.*.<.<.q.q.q.h.N.N.",
"g.g.g.g.<.<.>.*.O.O.O.O.O.O.O.O.O.O.$.$.$.+.$.<.<.M.h.q.N.C.C.G.Q.lXHXKXKXHXHXHXJXgXeXkXgXeX[.u.i.[.{.+X&X[.H.{.p.H.4.V g ~ ~ N u N N W %.t.;.%./ Y ` v f f $ $   . $ o : 2 5 | r.v.E : 2 : # # O o o e ] z o = O o = p C A j j j j j 3 * . . * 1 1 = $ $ O O . = $ p ^ -.9.;.;.0.t.0.q.q.t.N.D.t.%./ ~ V w o @ , f ~ w.e.-.>.>.h.9.%.{ g Y g < < g W ' ' :.[ [ ' ' N S j q V f U Y ` ;.9.e.6.-.] ;.-.>.>.>.-.Q &.0.:.@.:.:.:.g.g.Z.Z.Z.B.T.>.3 e.J.}.Y.XX.XrXrXY.@XuXOX>XOXyX-XI.;XT.;XP.P.-X-Xj.T.-XXXF.0.' e T.>X,X7X,XT.^.-X^.U.h.] 1 . = C ^ { T ^ ` T g q < q i a g V v B $ T 9.;.O.] ^ D W Z a u t q q t t g q i a t q g u u V V ~ N V Y ` 5.a Z ~ ~ E Y g = l j j A A j * j 7.F.D.e.9.%.%.%.&.%.;.%.V i $ i w.{.}.L.L.9.W / ;.O.F.pXQ.&.g.g.C.N.f.C.XX7XXXOXt.N Z W ~ W W W V 1 1 E ! a ; O O - u 5 < W *.r.{.K.p.p.p.*XeX5X0XgXrXNXZXNXxXeX1XjXJ.g g Y -.l.6.C &.] ^ ;.}.L.Z E J.kXJXeX=.i 8.+X$XeXxXNXxXkXkXwX.XF.F.G.G.C.C.G.F.C.G.L.OXOX4X0X0XwX0XeX6X0X0X.XQ.N.N.N.M.V.C.C.N.B.B.N.M.B.N.M.N.C.C.M.M.<.+.$.>.>.$.*.O.*.<.<.",
">.$.$.$.>.$.+.+.<.<.*.O.O.O.O.O.! F ! O.$.<.<.<.q.N.M.q.M.M.s.g.h.uXHXHXHXHXHXHXNXlXgXgX*X&X&X=XfXfXxXxXMXkXgXxXNXgX..q E 0X0X5.N 8.n.%.N Z Z W ^ Y E f t f , o X o o o y y t y v t : O : ; 0 9 @ $ O = z z $ o .   $ e p j e 3 * 1 1 * * 1 1 p j A A S R S p = o . = 1 j ^ ] *.*.] %.>.<.<.<.O.S S N g < o @ % w v _ w.e.&.>.-.h.-.%.^ g ~ g q < l Q ' [ :.[ [ ' ' l Z z q g q v Y %.-.6.e.e.-.} >.-.7.7.>.:.A ] f.:.:.s.g.s.g.k.U.U.P.P.XX>.3 e.J.}.}.@XXXqXqXY..XqX|.>X;XyX;XXX;XT.;XP.j.T.:XB.!.-XXXP.h.] e Y.>X,XqX7XT.^.-XU.I.j.0.A 1 a / ] %.Q ^ { W Y E Z Y E Z f a a N $ T 9.6.;.;.%.W %...W *.W g Z W u Z q q i r a a u N Z N N g N ~ ~ 5.i Z ~ ~ Y U z $ A ] j m A j * j >.h.l.9.9.%.%.%.&.%.5.=.V i 9 < _ p.+X}.L.0.Z Z %.! >.Y.0.>.%.O.:.<.h.I.!.OXqXtX9.1 l N g p i 1 1 1 Z 9.N O 2 < 5 D | | N 5 ~ 9.p.{.=X$X#XtX0X$XeXxXxXNXHXNXgXeXeX+XH.` / ^ ^ ^ ^ a S ] 9.XXeX/ Y K.gXNXxXNXtXD.=.;.=X5X*XgXNXxXxXlX0XQ.G.G.G.C.G.Q.G.N.F.G.G.F.D.G.G.D.D.C.G.G.F.M.0.<.<.>.<.<.M.M.q.q.M.M.M.g.g.M.M.M.M.q.M.<.<.<.<.>.$.+.O.O.+.>.",
"+.+.O.O.O.O.+.+.+.+.O.O.O.*.+.;.<.*.X.' X.+.$.<.<.g.<.q.M.M.<.g.0.tXHXGXHXKXKXHXlXtXeXeX&X*XfXfXaX*X*Xi..._ p.gXfX` w i n.JXxXlXr.*.K.$XL./ a 2 g V v t , 0 # X o # X & f f v v f t : , # # 0 y 9 $ $ 1 Z ^ 1 $ $ o . . . . * 3 h j h 3 3 m A ' &.>.j.U.I.h.:.} p 1 1 * * * u N F B m B N j j j u u 1 $ o @ & 7 f U 4.5.5.&.&.>.t.%.-.T a ~ g < 1 l Q ' &.:.[ [ &.] C T l < i < y V ` { -.e.h.-.&.>.&.7.>.:.>.A ' f.f.:.f.j.g.Z.k.U.^.U.I.XX>.3 e.}.Y.Y.>X@X1XqX.X.X2XY.OXXXyX;X!.;X;X,XU.P.T.:Xj.!.-X!.P.P.&.e I.>X,XqX7XT.^.^.^.T.j.h.>.Q %.&.&.>.^ W T V B Y Y Z V g t q u N = W e.9.;.;.-./ / *.../ u Y *.B 2 Y u t p g V a u N Z W N p v W W ;.i Y Y ~ U g g o S J.Q j j j 3 C 7.t.e.9.9.;.-.&.&.{ ;.=.Y f y o w ` +X=XD.{ Z Y ~ ^ ;.D.<.0.:.] S A S S *.D.OX1X;.q p e i e 1 e j Z q..Xt.N 1 c 4 a W ,.D 5 B 8.t.n.+X#XtXgX$X+XeXgXlXxXNXNXNXrX+X5.%.W { w.^ { ] W S J.OXrXt.t ;.5X+X+X+X=XlX5XOXOXOXH.=XeXgXxXxXlXtX8XQ.G.C.G.C.N.M.N.C.q.0.q.<.>.>.<.q.<.>.>.>.<.>.<.<.<.<.<.<.<.<.<.<.<.<.<.<.<.<.+.+.+.<.<.>.$.<.<.<.>.+.+.O.+.",
"O.+.O.O.O.O.+.+.+.+.O.O.+.;.<.<.M.g.<.O.' ' O.O.*.$.:.<.M.M.s.g.q.qXGXHXGXGXCXuXrXlXgX=X{.5X*Xi._ _ ( U U U ` 4.Z U 8.p.{.wXtX0XiX,.u N ! / Z 2 q f i 2 9 < o o # # # 9 y d P U P v , # # # , y q o o $ W / 2 $ < # $ $ o = S :.s.s.@.' @.@.s.B.Z.I.!.;X;XT.T.XXh.>.Q S S m u 1 1 j u 3 3 1 * * O * 1 a e @ w y f U 4.w.-.%.&.7.7.{ { C g / i < 1 l ^ ' ] @.[ ' ' ] A W g $ i 9 9 g ~ ` -.e.z.>.] >.&.0.7.>.:.C ' f.f.:.g.P.Z.P.Z.U.T.T.U.T.>.3 e.}.J.L.@X>X1XrXOX@X2XI.Y.T.,X>XU.:X:X:XP.P.T.:Xj.-X-X!.I.T.>.3 I.>X,XqX7XU.U.^.!.T.B.N.h.<.0.>.>.9.^ Y W ~ E Z V f g f a i a V = ^ 0.>.%.&.&.O.%.*.! c a ;...t 2 B c 1 e v N v a Z %.>.! p a Z Y %.q V Y ( V f g $ p @Xf.e 3 e 3 A 0.h.t.9.0.;.&.&.&./ ;.=.Y f f @   w ~ 5.` V N N V ^ / C u m S ' Q S N u u l S R l q q q i e a Z Q &.&.<.9./ B 4 * 4 m B m ! c ! r.n.D.L.#XJ.p.D.0X0XeXgXbXxXlX$X6.~ W T Y ^ R e.7.} S &..X$Xr...E ^ ` ` Y %.v.$XQ..XOX.X*X+XeXlXlXlXpX6XI.C.V.C.C.M.>.+.O.X.X.+.>.>.$.>.>.#.<.>.>.<.>.<.<.c.<.<.<.<.<.<.<.<.<.<.M.<.<.<.<.>.+.+.+.>.<.<.<.>.$.+.O.O.",
"*.*.*.+.+.+.*.*.*.;.+.>.>.<.q.M.M.N.h.<.:.+.+.+.O.O.+.<.<.<.<.<.M.!.zXHXVXpXqX0XlX0X#X{...Y ~ 4.[.*XfXxXgXR.! O c R.wX.XK.D.R.8XOXR./ c e t u u a f v v v f 2 o y # 9 w d f f P ( f 0 % & # % # < 1 $ $ g ~ 1   < < q 1 $ N j.B.s.<.:.s.B.B.Z.Z.!.-X-X-X-X-X>X;X;X>XXX;XqX;XY.I.P.-X!.I.I.I.g.O.A >.F..X/ $ d w d ( 8.w.-.] ] -.} ^ W N g =.g q 2 l R Q ' ' ' G F Q S R i $ d i i V ~ ` -.e.z.>.] :.&.7.>.>.:.A } g.f.a.g.P.Z.U.Z.U.U.U.I.T.>.3 0.J.z.L.XX>X2XrX-XXX,XI.I.T.,X:XU.-X-X-XP.P.T.-Xj.-X:X^.I.!.<.e P.>X,XqX7XU.U.!.U.I.F.g.g.0.<.>.0.>.W W Z v f v v i u u a a a N < ] h.0.&.&.O.Q S ..Z u ~ 9.a O t u u 2 2 u a a B *.9.%.B a Z Y Z ^ q g U Y U g z o = z.0.1 3 e * C 0.D.l.9.9.;.] &.-.{ ;.=.U f f & X # & q < 1 t i 1 i i 1 1 O 1 C ^ ^ / Q N j e i a l g C ^ -.7.h.h.B.g.F.<.O.O.u u a m c 4 4 5 u ;.D.J.L.D.9.e.t.OX$X0XgXgXeX=XJ.%.Y { { / ^ { }.|.h.-.W t.D.n.iXH.~ Y =.w.@X.XOXL.Q.OXR..X=X$X0XeXwXwXOXC.C.C.N.C.C.<.X.F O.+.+.+.+.#.$.$.<.$.$.<.<.<.<.<.$.<.<.<.<.<.<.M.M.<.<.<.<.<.<.<.>.<.<.<.<.<.<.<.<.<.>.+.+.",
"<.<.<.<.<.<.<.<.<.0.M.N.C.C.C.F.N.h.g.g.<.<.<.>.>.*.*.*.>.<.g.g.h.B.yXGXpX7X6XyX0XOX4Xn.v E +XMXxXxXlXlXiXoX9.c c E | *.! <.v.C.4XR.R.D D D u 5 t v V v E ! t < v o 0 0 f U f P P f 7 # & # # , $ q v v E Z t O t w : 1 1 / F.g.g.Z.U.^.U.Z.Z.U.:X:X;X-X;X7X7X;X7XrXuXyX>X>XqXqXyXqXqXqX;X7XqX-XU.;X;XF.^ < w s w U y.4.-.^ &.>.{ ` T l g 5.i 1 1 l S Q F F ' A A R Z Y q @ i f g Y ^ ` -.0.z.>.} >.&.:.:.:.>.' :.g.s.s.j.P.j.U.Z.U.~.P.P.T.0.3 7.z.h.}.|.@X2XqX-XXX>XI.T.XX,X:XU.^.T.-XU.P.P.T.j.^.:X^.U.!.<.e P.>X,XqX7XU.U.!.-XP.C.h.q.q.<.<.O.&.W W V a f f f t a a v g v v $ %.J.0.*.&.O.O.! S u t / Z 5 t 5 5 5 u u e i u ! -.Z a t a Z Y V E 2 i v V U g z = . ] h.j * e * C 0.z.h.>.0.>.&.>.7.-.9.5.E v U 7 # & & q < q i l a N N Z ] / ] ] ] / %.{ C S e q e N ` l.J.rXuXCXpXqXuXyX7X6X;X<.S u 4 u u 4 4 c r.K.L.L.L.t.9.D.$X0X0XeX0XeX#XH.w.W -.` ;.l.1X|.|.F.0.] Z ;.8. X5X{.=XxXgX0X.XG.G.F.G.L.N.G.G.L.R.F.F.F.F.C.C.C.M.<.<.>.$.>.#.$.$.+.+.<.<.$.<.<.<.<.<.<.<.<.<.<.<.<.<.<.<.<.<.>.<.<.<.<.<.<.>.<.<.<.<.<.>.<.<.<.<.<.",
"G.G.G.F.C.C.C.F.N.F.G.Q.!.W.G.G.C.B.M.M.q.q.q.<.<.>.*.O.O.<.>.<.<.<.G.7XQ.qXqX!.F.OXOXK.v.#XxXkXlXvXwXwXiX8XR.V.<.v.v.V.R.!.A.<.W.E.V.m  .K.,.| v 5 c v Z ~ u a a X , w f f L P P f d % X # 9 : u v.iXwX4XK...t 2 2 q 1 N q.g.P.^.^.U.U.~.Z.U.^.;X-X:X,X7XyX7XqXqXuXuXqX7X7X7X7X7XqXyXyX:X^.^.;X^.;XB.&.Z q w y d U 4.4.=./ >.&.Q / N C l 6.i < 1 a S S S ' A A S R N z 9 . f f g ~ ` { -.0.F.&.&.-.] :.:.:.f.[ f.j.s.s.j.P.U.~.U.~.U.U.T.U.0.3 7.7.z.Y.L.@X>XuX;X-X,XXXT.-XqXqXI.:XT.-XU.s.U.^.g.!.<XT.U.I.f.e I.>X,XuXqXU.T.:X!.T.N.N.g.:.>.O.Q Q S Z a v f f E Z Z W Z Z g N < &.t.<.>.&.Q S Z B e 1 c 1 1 u 5 e a p N a q e V u q a a g g V V ~ q g i g g i i = . e 7.S = 3 1 S >.h.0.>.9.0.&.h.t.6.9.8.~ U U 9 . 0 V T ~ ` { ` =.;.-.;.&.;.6.>.;.;.9.6.{ ^ a e C e..XtXbXCXCXpX,X7X!.9X7X-X7X-X<.m 4 a u u c D 8.t.{.+XOXL.p.t.{.OXoXoX+X=X#X{.{./ t.{ -.J.L.z.7.F.F.&.u S D. XiX XK.eXrXrX.XG.G.C.N.C.C.N.N.C.N.C.F.F.F.N.N.M.M.<.<.#.#.+.$.<.<.<.<.<.$.<.<.<.<.<.<.<.<.<.<.<.<.<.<.<.<.<.<.<.<.<.<.<.<.<.<.<.<.<.<.<.q.M.N.C.C.C.",
"G.G.G.G.G.G.G.G.G.Q.OX!.6XQ.!.I.I.I.C.N.M.q.q.q.9.M.h.;.O.O.<.<.<.>.0.B.N.Q.G.G.!.4XG.R.K.$XlXtXvXlXtX4X4XwX8X(.W.4X4XA.R.4X4XA.E.W.V.B u | E *.*.5 2 c c u 5 Z q $ , 9 w s f U v U f 7 # # 2 t  XiX5X3Xn.,.n.| : 2 q 1 ] N.B.!.!.!.U.^.^.^.^.;X:X7XqX7X7XqXqXqXyXuXuXyXqX7XqXqXyXyXyXyXyX:X-X:X^.Z.:.&.{ g < 9 y U 4...` / -.} T W l N V w.i 1 e l S W S S S S W T g p = . f f V ~ { { -.7.F.&.&.&.' :.:.:.f.@.g.k.s.s.k.U.U.U.U.~.~.U.U.P.0.3 7.7.h.L.F.L.>XqX>X;X,X-XU.-XqXyXU.7X-X^.P.g.U.U.s.U.;XU.U.U.f.e I.;X,XyXqXI.!.<X!.U.j.g.<.*.>.O.! B C N v B v V W Z Y ^ ! E N N 1 ;.h.<.<.*.! S Q W u < 1 1 t 5 t 1 a p p Z e i i q q i i i i g Y ~ q g w 9 w i i & . . C C 1 = = R ;.e.0.e.e.>.>.t.e.9.9.5.E U U , % v _ =.5.9.6.t.D.L.}.OXXX}.OXOX}.F.e.>.} } -.0.J.rXjXbXCXbXzXT.g.!.U.T.P.N.I.N.<.<.O.F 4 1 a c *.r.n.L.oXL.L.5.t.=X#X{.+X+X X#X0X9.H.5.W / Q ] &.e.>.&.&.S -.oX=XH.r.w.{.$XOXR.C.F.C.C.C.M.N.M.C.C.N.N.N.h.q.<.<.<.<.<.<.<.<.<.<.<.<.<.<.<.<.<.<.<.<.<.<.<.<.<.<.<.<.<.<.<.<.<.<.<.<.<.<.<.<.<.<.<.<.q.M.V.C.C.C.C.",
"G.G.G.G.G.G.G.G.G.Y.Q.F.6XOXOX!.I.W.I.C.C.N.M.M.G.G.F.q.;.;.;.*.<.>.N.G.q.<.Q.9X8X!.W.R.R.oX4XlXrXtXlX4X4X4X8X4XV.W.8XiX4X!.!.R.A.v.V.M F | D ! | c - 5 5 - O Z 2 2 9 y d f f ) E v P : O 2 # v K.v.,.,. .b D ,.0 : < 1 ;.N.F.I.;X;X;X:X;X^.-X^.-X7X7X7X>X6XqXuXyXzXpXyXqXuXuXyXyXyXyXyX7X^.T.U.s.s.:.0.0./ i 9 y ) 8._ / / { Q C Y g g Y t.t < e a Z T S S A C Z N p i & . i V Y ` { ` &.>.h.&.&.} ' @.@.:.f.:.k.Z.s.s.k.Z.U.Z.U.^.U.U.U.P.>.3 -.>.f.J.h.f.>XqX>X-X,X-XU.-XqXyXT.7X:XT.Z.g.Z.P.:.U.^.!.U.U.<.j Y.-X>XqXqXP.T.:X^.!.B.g.<.+.+.O.F B S Z a a N Z B N Z W ! E B N 1 >.F.e.>.*.] ! F Q B 3 3 a N t u p N N N Z Z a g i q q i i i w f U q i < # < w i & o   $ $ . $ = T 6.e.-.6.h.h.0.0.9.9.9.;.Y V f , f ` w.H.}.@XrXhXtXlXlXzXlXqXuXuXuXyXqX@X}..X>XrXuXhXcXCXzXzXpXg.:.g.B.I.I.P.-X:XI.!.7XG.*.%.N p 8.L.H.D.L.{.OXp.w.#X$XK.{.=X X#X=Xw.D.D.C j p Q :.B.h.0.h.Q a D.{.;.~ Y p.0X0XOXG.F.N.N.C.C.C.M.c.q.q.M.G.L.<.<.>.<.<.<.<.<.<.<.<.<.<.s.c.c.c.c.c.c.<.<.<.<.<.<.<.<.<.<.<.<.c.<.<.<.<.c.c.<.<.c.c.M.M.M.C.C.C.C.C.C.",
"G.G.G.G.G.G.G.G.G.F.!.OX.XOX6XG.Q.Q.Q.I.Q.Q.G.R.Q.9.D.h.<.<.>.<.;.<.OX7X6XOXG.C.4XR.C.R.4X4XwX#Xv.wXiX4X4XW.(.S.<.V.4X9XW.E.W.oXE.,.D m v.v.#.| H c - b D c 1 D 1 $ : 2 U E P v f d t : 2 : 2 t D b D | D c D ! 2 ; O p h.Y.OX!.7X,X,X,X;X-X-X^.-X;X;X7X7X6XqXuXpXuXuXuXuXyXyXpXyXyXyX9Xk.@.a.g.s.a.s.B.h.-.l < y ( 4._ ` ` ^ T Z N l p Y p.i = 2 i C C S S C j a i i i & o i Y U ~ ^ ^ &.>.h.&.&.} ' :.:.:.g.g.Z.Z.s.a.d.Z.Z.Z.~.~.U.U.U.P.:.1 ] :.e.F.0.&.-XyX-X-X,X-XU.-XqXyXT.7X,X~.P.g.k.U.[ Z.;X^.I.P.>.j T.-X>XqX,XP.U.^.U.U.g.<.$.X.O.! S N S N a u N B N B Y Z Y Z Z W 3 >.h.0.>.>.O.X.! ! D a u N N u a B Z S W C W l i a q i y w y i f V 2 q < $ & < w $ . o o . . O e T 9.t.%.%.t.t.>.>.>.9.t.=.Z v w U p.+XeXtXhXrXhXuXqXtXrXyXuXuXuXyXyXuXuXuXhXzXhXuXyXuXzXzXyXuXpX;XB.s.g.;XyX7X7XyX7X;X;XQ.XXY.-.W 9.{.+XK.L.{.oX+XL.t.r.n.+X=X#X#X=Xt.D.$X~ C u F &.g.q.*.O.Q ! / w./ ~ 5..XrXtXOX.XQ.D.B.M.M.s.<.<.#.<.G.$X.X0.<.<.<.<.>.<.<.<.M.M.M.M.M.M.M.M.M.q.v.<.<.c.M.M.M.v.v.<.<.<.<.M.M.M.M.M.M.M.M.M.M.M.M.M.C.C.C.G.G.G.G.",
"C.C.C.C.C.G.G.G.Q.Y.G.Q.XX6XOXQ.G.I.Q.G.Q.!.R.Q.oX>.K.D.N.q.h.q.t..X6XiX!.wX9XQ.W.v.v.R.4X XD.8.8.5X0X4X8X8X(.E.W.V.W.wXwX<.O.v.v.,.c D <.#.F  .D 4 c ,.,.*.a a 1 O < < v _ U v ..r.r.r.E 2 v v x > c E D b b t - 2 $ W D.Y.;X;X,X;X;X,X>X;X;X,X,X-X!.7XyXqXyXuXuXyXyXuXuXuXyXpXyXyX^.g.@.' :.s.Z.k.P.j.0.7.^ q w Y =.~ ` ` W C Y l l g W D.a = 1 i N C Z N l i i e i i = . i Y N W ^ ^ &.>.h.-.] @.@.a.:.s.k.Z.U.Z.a.a.a.g.k.Z.U.U.Z.U.P.Z.@.* ' :.0.F.7.Q XXqX-X-X:X:XT.-XqXuXT.,X7X^.^.U.k.U.G Z.^.^.U.P.>.j I.-X>X2X,XP.U.^.!.U.g.<.*.] O.! W B W Z N N ^ %./ %.%.! Z N W %.u 9.N.0.<.<.*.O.O.O.F B N N a N C Z ! Q ^ W C Z i a i i i w w i i g < < $ . @ & , @   # $ O o o $ Y w.t.-.%.7.>.>.0.9.9.9./ v v w 4.gXxXjXhXrXrXyXqXqXyXrXrXqXqXrXqXyXuXuXuXyXqXqX>XqXuXuXyXyXuXuXBX:Xg.Z.7XpXuXpXuXqX,X,X>X6XL.^ %.9.H.{.{.+X#X X{.#Xn.*.r.#X#X{.$XtXH.D.$X/ C m F >.g.<.&.O.*.t.N W ^ %.e.J.hXCXuXrXeXG.N.h.<.<.+.+.<.G.Q..X.Xq.<.<.<.<.<.<.<.M.M.V.M.M.M.M.M.M.M.s.<.<.c.M.M.M.M.M.M.M.M.v.<.M.V.C.C.V.V.V.M.M.V.C.C.C.C.C.C.C.C.C.C.",
"I.C.I.I.C.G.G.G.G.G.L.G.G.Q.$X6XQ.Q.OX!.Q.Q.L.Q.C.t.C.Q.F.N.N.M.R.6X6XQ.OX6XOX8X!.R.R. XK.p.` ..L. XoX4X8X8XA.E.A.E.V.4XiXv.c D ! b c #.,.H #.H n c H | | *.c u $ o < < , y t D  X XK.K.8.| D b b - > x  .b.b.| > : O ~ ;.D.>X>X;X.XOX>X>X;X;X,X,X!.I.;XqXrXrXtXrXuXuXyXyXpXpXyXuX9Xg.@.s.Z.Z.k.Z.Z.~.g.0.h.e.g q U ..~ ~ ^ W Y T z C l { H.g $ 1 q l C N p i i g i w i & . w Y Z ^ ] ] &.-.h.>.] :.:.g.f.g.U.U.~.U.a.a.s.k.k.Z.Z.U.Z.U.Z.j.@.* ' :.>.P.e.' XX:X-X!.:X:XU.^.,XyXT.,XyX:X:X<XZ.Z.G s.Z.U.U.B.:.e F.;X,X2X,XI.!.-XU.Z.g.<.*.] O.W Z B ! Z D ..9.t.9.t.t.*.^ Z ^ -.e <.F.q.<.>.+.O.! O.F S S Z N B S B / ] ] / N W N a i a g g i i i N q < $ . @ @ X X # X o $ o $ < _ 4.` / / -.>.;.0.0.9.;.Y v V y [.NXNXbXuX1X,XqX7XqXyXqXyX,X,XyX:X;X:XqXyXyXqX-XI.OX;X>X1XrXuXqXpXyX;X7XqXyXuXuXpXzXyX7X;X>XF.] ;.5.p.{.{. X XK.n.#X+XK.n.K.K.n.=XgX{.D.5X%.N N F O.*.O.$.q.>.] >.N a %.6.L.cXHXuXtXtX>XXX0.<.q.<.<.<.Q.q.] L.q.<.<.<.<.<.<.c.M.M.M.M.M.c.c.M.M.M.g.s.c.M.M.M.M.M.M.M.M.M.M.<.M.V.C.C.C.C.C.C.C.C.C.C.C.C.C.C.C.G.G.I.",
"C.C.C.C.I.I.I.I.G.Q.L.G..XQ.Q.OX6XOX$X.X.XOX.XoX.X0X6X4XQ.N.M.C.OX6XwX4XwXOX4X6X6X4X4Xn.H.=X_ ;.wXoXR.4X8XA.#.W.(.W.c.E.wXR.D ! E D b | ,.| H M c H  .F | | 5 1 2 o $ < # # O v 8.8...8.v.,.D |  Xv.t x E.E.n.n.| # O ` { e..X!..X.XOX;X>X>X;X,X;X!.T.!.>XqXqX>XyXtXuXuXpXuXyXqXyX^.g.B.U.U.Z.U.~.Z.U.j.P.L.z.N 1 Y =.~ ~ ^ ` Y T C Z l -.H.g $ 1 e g V g i e i i i y i , . i Y ~ / { } } -.h.;.' :.:.j.g.g.U.U.U.U.a.a.d.k.k.Z.Z.U.Z.Z.j.j.@.1 ' :.:.P.h.] T.-XU.I.-X:XP.U.:XuXU.:XyX:X<X<XZ.Z.' s.g.g.B.g.:.3 j.-X2X2X,XT.-X-XU.U.g.g.<.&.%.! ! Z W W -.D.K.t.N.G.D.t.9.%.%.-.u ;.q.<.<.<.+.] ! O.F S S N m B S B Q ] ! W B Z c a a a a v g g g N < o o X # @ # + + X y ..4.4.4...U V E Y { 9.*.9.q.9.%.Z V V v *XxXhXlXyXqXyXpXqX;X,X,X7X,X7X:XT.T.:XqXqX,X,X|.I.@XT.@X>XqXqXqXqX7XyXVXuXyXuXuXqXuXyX-X>X>Xh.l l N Y ^ ..r.K.5.K. XK.H.[.p.8.p.+X#XD.p.0X8.Z F F m m m O.<.<.&.J.N l ;.t.J.cXcXKX1XhXrXz.J.OXG.Y.G.F.OXD.;.v.M.<.C.<.<.<.M.M.V.M.M.M.M.M.M.M.M.M.M.M.M.M.M.M.M.M.M.M.M.M.M.M.V.V.C.C.C.C.C.C.C.C.C.C.C.C.C.C.C.C.C.C.",
"C.C.I.I.I.I.I.I.Q.G.G.Q.L.G.Q.Q.OXG.D.t.D..XoXoX$X6X6XN.OXF.C.OXQ.OX4XOXOXwX6X6X6X4Xv.p.#X*X..8. XoXK.E.4X#.M b.A.b.b.x.W.v.D u m c m m M b o.H c | #.b 5 t O $ q < < $ : : O t r.K.n.K.3Xv.b ,.3XE.| x b.E.v.n.n.# 2 9.t.F.}.>X.X.XOXOX>X7X>X7X;X:X,X-X;XqX,XOXtXuXuXuXuXuXqX,X;XU.T.^.U.T.U.Z.U.^.:XP.U.T.Y.T < ~ =.~ Y ^ =.T Z Z Z a ;.D.g < q i l V g i e q q i i i < o g ` ` ` / ] %.;.z.>.' :.:.j.g.k.U.Z.Z.U.a.:.d.Z.k.k.Z.U.Z.Z.j.B.&.1 ' :.:.P.j.] I.T.Z.P.^.-XZ.P.:XyXU.^.yX:X:X<XZ.Z.@.g.g.s.g.:.&.3 h.-X2X2X,XT.-X^.U.U.B.g.<.O.%./ | B Z / 9.N.D.L.J.Y.K.R.K.t.;.-.u ;.q.<.>.<.*.X.O.+.! ! S N B S B B ! *.F Q C B Z c N N N Y v a V V 2 # o X y U D , X : v *.n.K. X~ v ..;.Z W 6.;.>.9.9.%.Y Z g V eXNXlXzXuXqXqX;XU.B.-X,X;X>X:X-XU.!.qXqX:X:XqX:X;X>XI.T.>X>X7XyXqX,XyXzXzXuXuXuX7X7X>X;X,XrXqX^ l a v N ..n.n.8.K.n.r.w.n.n.w.w.H.n.t.t.0Xr.D ,.! a M j O.$.h.*.q.;.Z N t.9.XXcXhX0XqXuXY.Q 0.;.S >.qXqXQ.OX,.F.M.W.v.M.M.M.V.M.M.M.M.M.M.M.M.M.M.M.M.M.M.m.M.M.M.M.m.M.M.V.C.V.V.C.C.C.C.C.C.C.C.C.C.C.C.C.C.C.C.C.C.",
"G.C.I.I.I.I.I.W.C.G.F.C.F.G.G.G.R.0XK.r.*.*.Q..XOXv./ ..oX.XR.wXvX0XR.oXwXwXOX$XR.;.n.#X+Xn.=.{.#X XoXE.v.D M (.E.A.v.b.<. .D ,.R.q.#.n 4 M M | ,.*.r.v $ O $ $ g < q < ; ; 1 =.K.E.4XE.b.,.| E.E.3X Xb b.b.8. ...2 1 p.D.D.h.OX.XOX>X>X!.-X-X-XT.-X;X-X,X,X>XrXrXqXuXuXqXqX,XT.!.U.^.^.~.^.^.~.^.<X<X^.I.XX>X{ 1 Y =.~ ~ ~ ` R ^ T N a ;.D.a 1 e q i g i q i p p p p g q o N ` ` ` ` ` { ^ } e.] &.&.f.g.k.U.U.Z.Z.d.a.a.k.Z.Z.Z.~.k.U.g.j.:.3 ] &.>.I.g.@.U.U.Z.Z.T.,XZ.Z.^.yXU.^.yX^.^.:XZ.U.@.s.a.:.k.:.:.3 j.-X>X>X>XU.-X^.U.U.P.N.s.:.+.*.O.D c E 9.q.v.K.Q..XL.L.J.D.0.^ e %.;.%.>.:.O.' ! O.] Q S S m S S S S Q Q Q N p N Z N N B B u a C Y < o o q *.n.b.v.c c ..,.,.| v Z 8.;.;.~ -.w.&.&.6.5.` Y U y _ jXcXcXzXyX;XI.B.F.T.>X!.T.;X,X-X-X>X:X2XqXuXyX>XT.XXXXXXXX;X,XqX7XqXpXuXzXzXzXyXqXqXrXuXrXqXrX^ 1 D c ! r.r.n.n.{. XeX5XH.n.n.t.9.w.w.D.wXv.c ,.<.F u M $.C.<.<.R.R.| v / D.;.0XuXOXY.7X!.&.B j u h.vXvX>XN.*.C.R.G.C.M.M.V.M.M.M.M.c.M.M.M.M.M.M.M.V.M.m.M.m.m.m.m.V.V.V.V.V.C.V.C.C.V.C.C.C.C.C.C.C.C.C.C.C.C.C.C.C.",
"G.C.I.W.I.G.C.G.C.C.C.C.C.C.G.G.oX#XK.*.*.D.oXQ.oX| ..8.r.oX#XvXHXiXoXR.R.q.,.9./ r.#X=XK.Y ~ r.K.#X X Xv.| D E.(.b.E.E.b.| D E.iX8XW.J c D 4 b *.,.Y u ; o o $ q < $ $ $ $ ~ #X4X5X3X XE.v. .v.v.E.b.D 8.D > > f O < ;.F.D.0.XX>XOXOX>XY.T.!.T.!.!.-X-X;X;X>XyXyXqXyXyXqX,X-X!.T.:X:XT.T.^.^.:X<X^.^.^.!.Y.XX-.< g Y Y _ ` ` T ^ C l l 6.D.a 1 1 1 i p i t p g a a l C e o z ~ ~ ^ ` ` ~ C S &.&.&.&.j.j.k.U.~.~.~.g.a.a.k.U.~.Z.U.k.Z.g.j.:.3 ' &.>.I.g.[ U.U.j.k.T.<Xk.k.U.yXZ.^.<X^.^.<Xk.U.@.a.a.:.k.@.@.3 j.XX-X>X;XT.^.U.P.T.P.Z.g.<.$.>.,.F B D ,.9.q.G.L..X.XXXQ.L.9.Z < / -./ S F A m j m S A m A F Q m a a m a a a e N Z N m B N m Z Z T q o O / R.E.v... .E v b E ....Z 9.=.%.Y 5.5.%.-.9.;.~ ( Y d p.NXcXcXhX,XT.B.!.-X;X,X-X>X,X,X>XXX>X2X,XqXuXqX>X;XXXI.T.XX;X,X>X>X>XqXuXzXuXuXuXyXyXuXzXyXrXqX%.W B u E 8.r.K.+Xp. XDXxX+X Xn.r.9.9.w..XtXv.D <.W.<.O.X.<.V.<.V.b.*.v 8.~ 9.%.0.OXh.B.8X!.g.F u Q lXKXpX!.G.N.<.G.v.G.v.M.V.M.M.M.V.M.M.M.V.M.M.C.C.V.M.M.m.m.m.m.M.V.V.C.C.C.C.V.C.C.C.C.C.C.C.C.C.C.C.C.C.C.C.C.C.C.",
"G.I.W.W.W.I.G.C.G.G.C.G.G.G.I.!.oXq.r.v.K.OX.XR.oXR.t.v.oX4X4XtXlXiXQ.q.C.C.t.*.t.oX#Xn.E 2 E K.n.8.r.v.*.B c K.b.,.,.E.A.K. .D v.V.<.,.<.J x c F | 2 X $ $ # $ $ 2 $ < o q 5.n.n.t.n.5X XE.v.E. X X| 5 b b : - , o i e.J.J.0..X1X>X@X>XXX>X7X;X^.U.!.-X!.!.;X7XrXrXyXrXqX,X-X-X;X:X^.^.:X:X:X<X^.U.T.;X!.!.OX5.= i g Y ` { ` T R N N l >.D.g < < 1 i i i i a l V N C W g o g T ~ ~ ~ ~ ~ C C { ' } :.j.g.s.U.U.~.~.d.a.a.k.Z.k.Z.Z.g.k.g.g.:.3 ' &.<.P.g.[ U.U.g.Z.~.<Xg.s.Z.<Xk.U.:X~.~.:Xk.Z.@.:.:.:.g.' } j z.|.XX>X;XT.^.P.Z.T.Z.Z.B.g.<.<.>.W D W >.q.q.G..X.XQ.G.L.L.9.Z * W / N j B F F m j S ] Q A O.>.a N W / N e u u N W S S N m N Z C N q . g {.4X,.D | ,.c v ,.r. Xr.E p.5.=.Y =.-.-.9.t...Z Y V f *XZXcXzXyX;XI.I.!.,X7X>X;X>XqXyX,XXXOX>XyXyXuXqXqX>X>X!.>X7X7X,XXXXX>XrXyXuXqXtXyXtXqXqXyXyXlXlX;.^ v v / r.9.r.H.H.{.kXtX XK.r.r.n.t.9.K.oXr.B ,.R.!.V.$.c.<.v.V.v.t 5 r.t.a ! ^ G.h.Q.yXW.C.<.q.uXbXlXuXD.N.,.| W %.Q.V.v.M.m.M.V.M.M.M.C.M.C.C.C.V.V.V.M.m.m.V.V.V.V.V.C.I.C.C.C.C.C.C.I.C.C.V.C.C.C.C.C.C.C.C.C.C.C.",
"I.I.I.I.I.I.I.I.W.G.C.W.I.G.G.!..XQ.oXOX!.R.Q.!.oXOXq.Q.Q.Q.wX0XlXvXG.O.*.q.v.*.8.K.i.a t *.t.n.{.n...D *.E 5 b.E.| D ! E *.r.D c #.<.H V.c.+.,.u 5 $ o q 9 $ , : i 9 $ O O $ , t X ..wX3X XE  XwX#XD t b t , O O o p l.J.l.%.0.1XqXOXOX>XqX7XqX;XI.U.T.I.Y.XX;X>XqXyX7X7XqX:XqXqX,X,X7X:X-X,X:Xj.U.;X;XT.XX>X;.$ i Y _ { ` ` W T C T l ;.l.N < q q i g p p g N T C Y ^ g o f Y Y Y U Y Y Y Z { ] &.@.f.g.g.Z.k.~.U.d.a.a.k.Z.k.Z.~.k.Z.g.g.:.3 ' @.:.Z.a.[ U.Z.g.Z.U.:Xa.a.g.^.g.k.~.U.U.:Xs.k.@.a.a.:.s.[ [ j P.|.XX>X-XU.T.Z.P.U.U.U.U.U.g.h.<.Q ! *.t.N.M.q.D.L..XG.D.t.-.g $ W W a C S ] ! A S A F S B >.<.N Q Q / B u p u j Z S S m N B C N C <   =.#Xv.D ! 8...5 E v.8.K...! 9.;...Y ..5.;.e.t.` U Y f Y fXNXcXbXrXT.P.j.T.!.-X!.>X,XqXyX2X>X>X>XyXyXuXzXyX;XXXXX,XqX7X>X!.P.T.7X7XzXuXrXuXuXrXqXrXqXuXuX~ V Z N Z t.K.D.D.H.K.5X Xn.K.K.n.L.K.9.,.8.r.u | A.A.<.X.#.,.v.A.D > ! r.r.D W O.;.D.OX!.M.B.B.pXCXbXbXOX;.*.O.*.B B q.G.C.M.M.M.V.C.C.I.Q.I.W.I.W.C.M.M.M.M.A.V.V.V.V.V.C.C.V.C.C.C.M.V.C.C.C.C.C.C.C.C.C.C.C.C.C.C.C.",
"G.G.G.G.G.G.G.G.I.I.I.I.G.G.C.F.F.Y.F.F.G.Q.!.I.I.OX!.OXF.F.qXlXSXOX<.q.v.%.| >.K.n.E t ..5XwX Xn.i.r.` E | c n.n.v c D 5 2 c c 4 +.C.v.<.F m c - O u 2 : $ $ $   : y $ 9 0 , , 0 # U 5X5X..: D 8.E > v t 2 X $ o O p w.L.t./ ;.OX>XOXOX>X7X-X7X,X!.I.B.F.Y.!.XX;XqXqX>X,XqX7XyX7X,X7X7X-X-X:Xj.j.T.,X!.;XXXXXW $ V ` =.` ` ^ W R C R N -.h.N 2 t i g V N g N Z Y N N T p o g Y U U U Y V V C { &.:.} @.:.:.s.d.~.~.d.@.a.k.Z.Z.Z.U.k.Z.g.g.@.* A ' :.j.:.[ Z.k.a.Z.U.:X:.:.a.k.a.s.U.Z.Z.^.s.Z.:.d.g.:.a.@.@.h j.T.XX>X-XI.U.k.U.U.U.Z.U.U.g.h.q.O.;.N.G.F.N.O.>.G..XD.;.W ^ a O Z C j Q Q O.F F %.Q S B N O.>.S Q C Z Z N Z j j Z W Z N Z N N V / 2 o v | E *.n.v.| 5 t ..*.5.u U ..~ Y V ..=.5.9.=.U Z U i ..xXcXcXcX2XY.I.j.F.U.-XXX>X>XqXqXuX2XqXrXuXuXzXzXyX.X.XOX>XqXyX,XI.h.F.P.Y.qXuXqXrXuXtXrXuXrXuXqXt.W Y v t ..K.K.p.n.n. X X{.{.K.n.n.t.8.| ! v.|  .4XE.#.| ,.<.v.,.t D ,.,.*.*.D F B O.C.C.C.<.B.uXqX0X0Xq.F ! M D W B %.G.C.m.m.M.V.W.OXM.!.W.W.$.M.C.M.V.C.C.C.C.C.C.C.C.C.C.V.V.V.M.<.m.V.V.C.C.C.C.C.C.C.C.C.C.C.C.I.",
"G.G.G.G.G.G.G.G.G.I.I.I.G.G.G.C.B.F.B.B.G.G.C.I.I.C.I.B.C.B.!.G.q.D.G.oX4XoX,.! K.v.2 Z n. XwX+X5X3XK.r...v t E B t t ! u D D 2 - 4 m #.| u | <.a < t <   O ; # o $ q < # t t , 0 t # E E # 0 O O # : t 5 E : , o O g =.p.;.%.-..XOX0XqX0XrXqXyX;X-XT.P.T.-X!.T.OX>XqXqXqX,X>XqX,X,X:X,X7X7X;XP.!.7X-XXXqXqXl.< $ g =._ ~ ` ` W ^ N S N ;.h.l q i i l Y Y g a l N i p N e o g Y v U U U V N C / >.<.&.' ' ' @.d.U.~.k.a.a.k.Z.Z.k.Z.k.k.g.s.[ * A ' :.Z.a.@.Z.Z.a.Z.~.~.@.[ :.a.@.:.k.k.Z.^.s.U.s.g.k.@.a.@.@.3 h.T.T.-X!.P.Z.s.U.^.U.U.T.U.N.g.q.*.0.Q.Q.Y.J.Q Z ;.D.t.%.B N u O Z p j / ] &.%.&.%.] S S N N &.Q W S W S Z ^ N N W S N C B u N W C 2 o   t =.K.r.,...t X 5 t f : v ..E g i .._ .._ V f Z Y f r.NXxXcXzX>X@X@XP.B.T.;X@X@X>XqXyXyX.X>XrXyXzXVXyXyX>XqXqXrXuXuXyXOXB.j.h.F.F.>XyXlXzXyXrXuXqXqX$XeX*.u B v ..n. XD. X{.K.8.=.8.t.n.8.*.8.! u ..n. .E.E.| | ,.,.b.,. .v.r.r.v.,.*.t B *.OX<.#.+.G.4X! e / <.O.,.! S ! | ! C.N.M.m.V.C.I.OXM.!.C.C.I.I.C.C.C.C.C.C.I.C.C.V.V.C.C.C.V.M.M.c.M.M.M.V.C.C.C.C.C.C.C.C.C.C.I.I.",
"G.G.G.G.G.I.G.G.G.G.G.G.I.Q.Q.G.G.I.I.B.N.C.G.I.G.N.q.G.C.N.G.!.F.OX6XQ.G.OXR.v.| D 2 n.5XoXwX X5X X8...r.E t 2 t 5 : 5 u ` v.c - - m m 4 O m 6XoX%.1 X O # O O # $ O 2 2 t , t f y : # X X y , : , , X U  Xu O $   e T ` Z %.%.$X@XXXrXqX6XqX7X-X;X-X-X>X,X-X!.OXXX>X>XOX;X>X,X,X7XqXyXyXyX,XqX7XuX,X7XyX>X&.O $ i _ ~ ~ ` ^ ^ ^ C T l &.l.l e i p g V N i q i i t p N q @ g U f f f f V V V R &.&.} ] &.@.s.g.Z.~.U.a.a.Z.Z.Z.Z.Z.k.k.s.s.} * A ] :.U.s.a.~.Z.d.Z.U.~.[ [ @.a.[ [ s.g.k.:Xs.U.d.d.d.:.a.[ @.h f.U.U.-X!.P.j.:.Z.^.U.U.T.U.C.g.<.*.M.Q.Q.!.J.Q t c ~ W c 1 1 < $ N u N ^ ] O.] &.&.Q B S S C &.W S Z W T Z W a N Z N N N a u Z / v < O ; =.#Xn.*.E E t : : X X # i _ ~ i y E Y Y v i v U E V {.xXxXbXcXqX>X.XY.|.I.Y.XX>XuXyXqX@XXXqXuXyXuXcXuXyXyXuXrXyXyXuXyXT.>.&.e.Y.F.>XuXrX>XqXyXuX>X@X1X$Xr.v ~ / 5.H.L.{.oXtX#X~ ; 2 t v v Z ..E t v 8.*.b.,.F D | ,.,.,.8.,.,.*.*.,.*.! D | <.D | C.oX| < u -.N.G.q.M c 4 | / t.C.C.C.V.V.C.C.!.I.I.W.!.C.C.C.W.I.I.I.C.C.C.C.V.V.V.C.V.M.V.M.M.V.V.C.C.C.C.C.C.C.C.C.C.C.C.C.",
"G.G.C.G.G.G.I.I.G.G.G.G.G.G.I.I.I.Q.Q.Q.G.G.I.N.N.M.g.M.C.M.M.I.XXY.XXG.C.C.K.oX9.2 2 ! 8. XwXv...,...8.r.E b t t 5 u v E E | D c u *.9.5 O O B OX$X..5 c u # O # O ; : t , 0 t d t 0 0 ; # , , , + : : t.K.q i i $ 1 V / V ..;.$XJ.6.@X0XJ.F..X;X;X>X>X,XqX,X;X;X|.Y.F.h.Y.,XqXyXqXyX7XqXyXqXqXqXuXpXuXyX<.^ e $ , ( ~ ` ` Y T ^ W ^ l %.D.N e e i g g i q q i t i g V e $ g g f f f d V V V T R ' :.:.:.g.Z.Z.Z.^.~.a.a.k.k.k.k.Z.k.g.s.:.' * A } :.P.a.k.~.k.d.k.k.Z.[ G @.a.[ ' a.a.k.^.a.Z.s.a.a.:.a.[ [ h :.T.I.XX!.P.g.:.Z.U.Z.U.U.!.I.g.<.>.N.G.G.Q.t.W B a Z u < : < q O q u j W ^ ^ S Q &.S S S C Z ] Z S S W ^ Z Z N N N a N u 1 3 a N Y <   y n.8.E 2 2 D D 0 X 2 2 + : i U y y v U E f y v f f v #XxXbXbXhXqX>XOX>X-XF.F.>XyXuXyX>XOXqXyXuXzXzXzXzXzXuXyX>XqXqXqXyXyXI.q.Y.G.F..XY.Y.F.@XzXhXF.t.Y.L.;.B %.w.w.D.K.K.R.#XL.9.Z v t 2 2 t f t t : v *.! B 5 b *.,.,.,...r.,.| *.9.,.*.| D B | ,.r.! a ! K..Xq.q.0.v.X.B D %.q.OXW.C.C.V.M.I.W.C.C.W.I.I.G.C.I.!.OX!.C.C.C.I.C.V.V.V.C.V.C.V.M.V.V.C.C.C.C.C.C.C.C.C.C.C.C.C.",
"N.N.N.N.N.C.G.Q.G.G.I.I.G.I.Q.Q.I.Q.!.Q.W.W.G.B.M.B.<.<.M.M.M.I.;XXXOXQ.!.OXR.q.B 5 8.K.W E c B r.4XoXK.r.E c c 5 t u E ..! v u B ..a ;.%.1 O O W R.4XD t D D 2 O O X - 2 2 0 t t t 0 0 , # , $ + : 2 d ..v v =.i # w i V ^ ^ ;.#X9.e.eXD.9.XXOXOX>XyX7X,XqX,X>XT.I.@X|.0.P.qXqX>XyXyXqXqXqX,XqXyXuXuXpX0.p >.~ $ & f ~ _ T N C / T C l / l.C 2 e p p i i q q i i g g Y w @ f f f d f f V N N R Q &.:.s.<.j.Z.Z.~.^.U.k.@.a.Z.k.k.k.g.k.s.:.[ * A ' :.Z.a.a.~.~.d.d.k.k.[ G @.a.G G :.:.@.k.a.g.a.[ a.@.a.@.[ j :.I.I.!.XXB.s.' g.U.j.B.P.U.C.g.q.;.N.9.<.M.%.B Z ..*.Z $ ; i N $ 1 i N a j N j N Q Q C N N j S T Z Z W W g T Z N e a a 1 1 1 2 v g < O q v : : O t E ! 2 ; ..E ; t , y 0 0 y v v 0 , v .._ V =XlXbXbXzXuX2X1XqX>XF.F.qXuXyXrXrXyXrXyXyXzXzXzXzX>XY..X|.qXF.j.>XpXyX>XOXh.Q..XY.e.OXuXuX>XF.Y.D.t.Y W v Z 9.t.D. XK.r.%.%./ / W E E ! 8...E t v r.5 O 5 D  .*.*.,.8.8...| *.9.K.K.*.D c ! *.c B *.R.oXG.9.t.L.v.M.>.Z O.>.N.4XI.C.V.C.M.G.G.C.W.C.C.C.C.!.N.>.C.I.I.I.C.C.C.V.V.V.C.C.C.C.C.C.V.C.C.C.C.C.C.C.C.C.C.C.C.",
"M.M.M.N.N.N.G.Q.G.I.I.G.G.G.G.I.I.Q.Q.I.W.W.G.V.C.C.q.<.M.M.M.I.OX;X6X>XOX6Xq.Z t %.#X5XwXv.c ! *.8.v.b.E.b.| t u ; c ,.n.*.*.*.u Z V r ..u X O - 5 *.*.B ! | | : O - v D v > t , 2 t 2 : # : i f : t v 0 2 ..8.2 : < q V ..!  X+X%.=XD.9.L.wXOXF.>XyXuX>X;XXX|.F.h.T.qX>X>XyXqX,XqX7X,X,XqXqX7XyXqXuX7X' F D.t.$ $ f ~ ~ Y g l N j N j ^ D.N 1 e g g g g i a g N C Y ~ e @ d f f w d f V N Y ^ >.0.:.f.g.Z.g.Z.Z.~.~.Z.a.d.Z.k.g.d.d.g.s.:.] * A ' :.k.:.@.k.k.a.a.a.a.[ G [ a.G G [ @.[ a.[ @.[ [ a.@.@.[ ' 3 >.I.Y.Y.!.I.<.A s.U.B.Z.P.P.g.<.<.O.9.;.,.q.! c c D W c O $ i i O e l p p p N N S Q S C N j j N l l l Z Y V W N i e e a u u N 2 : : ; O   X : 0 i : 2 f t , _ v O y t : , # , d 0 f i.+XeX8.v +XgXbXhXhXuX1XqXrX1XXX>XhXzXyXrXuXyXyXuXyXhXzXzXuX1X.XY.>X0.>.P.g.;XyXyXqX>X0XY.F.F.qXzXuX-XY.>XOXt.N u 2 u ;.p.w.K.n.;.;.-.%.%.^ ..! *.v.8...` B n.| t c c  .| ,.,.,.*.| | ,.v.v.r... .D B r. .K.C.R.C.t.v.G.G.t.q.M.0./ O.q.OXG.C.C.C.C.C.G.G.OXC.C.C.C.!.OXC.G.I.I.I.C.C.C.V.V.C.C.C.C.C.C.C.V.V.V.V.C.C.C.C.C.C.C.N.M.",
"M.M.N.V.N.M.C.I.W.W.I.G.G.G.G.G.C.I.C.C.C.G.C.M.C.N.M.M.C.M.<.C.G.XXOXOXOX!.F u *.K.R.K.{./ / 4XE.v.*.D *.,.*.E c B B v.K.D ! R.n.E t 0 Z i ; B c 5 u | b.b > : : - v | | D 2 5 5 t | ..t : t _ t : 2 c v E ..t 2 : y Z i v ! 5Xp.w.n.-.OXrXwX9.G.>X>X>XY.XXXXU.P.P.>XyX,X>X,X,X,X,X>X,X7XyXyXyXyXqXyXB.A 0..X0XN @ f U ~ ~ i N Z N S C S D.N 1 p l l z N g g N N C C ~ i @ w f d y f v N g W -.e.g.&.>.f.j.g.k.Z.U.~.Z.a.a.k.k.g.d.d.g.s.:.] * A ' :.k.@.[ d.a.[ @.@.@.[ [ @.a.G G @.a.[ [ ' G [ G [ [ [ G G 3 :.P.Y.Y.!.I.:.j s.I.B.g.B.B.g.<.h.>.9.O.O.*.W B t u c u $ $ q i   2 i 1 a e C W W W N Z Z l N N 1 i a N N N T i q e p a a N u < a ^ =.~ i # ; t : : 2 t t 2 f 0 # t t , , t y d , ..#X Xn.v U =XeXbXlXcXhX>XuXuX0XqXuXhXuXqXrXzXuXqXrXhXzXzXuXuXyX.X.XqXF.0.0.>.F.!.uXuXuXqXOX.XqXzXVXuXY..XXXXXt.u 2 u t g ..t.9.D.9.0.;.&.&./ ! | ,.,.8.5.*.E E ,.t v c D | *...| E ..*.,.,.,.*.D ..*.B ! ,.r.,.C.K.t.D.G.F.q.! Q O.O./ 9.OXG.V.C.C.C.M.C.Q.OXG.C.G.OX6XG.OXQ.C.G.G.C.C.C.C.V.C.C.C.V.V.C.V.M.M.M.V.C.C.C.C.C.C.C.M.M.",
"N.N.N.V.N.M.C.I.W.I.I.G.G.G.G.G.G.C.G.C.V.V.M.M.M.M.M.C.C.M.<.C.Q.Q.!.OX!.Q.O.O.!.L.R.OXv.B v.oXE.E.E.V.v.D c D ! | ..D c 5 5 B =.8.v 2 t t t E.5X XD 5 D | B - 5 c ,.| E b : > 5 5 n. X=.2 a v t 2 t v 2 v E O t t v v f v t.v.! n.8.#XlXtX9.;.0X6XY.Y.I.XXY.j.XX;X,X>XXXT.>X7X7X>X>XqXqXqXyXuXqXqX7X:.:.Y.Y.tXw.$ i Y ~ _ i W / W ^ Z Z h.N 1 p g g g g g g i g g p V q @ 9 y f d f V Y N { 6.e.>.:.>.:.:.g.s.k.Z.U.U.a.a.k.d.g.a.a.g.s.@.] * k A [ k.@.[ a.[ [ [ @.[ [ [ [ @.[ G @.a.[ @.[ G G G A G G A A 3 &.F.Y..X!.I.&.j <.U.B.B.P.B.g.<.>.O.>.%.O.| B a 5 u v r < q q i   < q 1 e p N Z C N a C C l C N u a C V l V ~ g u a a a v i ; u 8.t.w.n.E , , 0 v v E v O D ~ , 0 f v d d [. X_ t y =.4.V , f {.tXNXlXcXlX1XtXuXrXhXhX$XXXXX>XqXyX0XrXzXzXzXlXzXuX>X;X7XuXXX&.B.>.F.qXuXuXuXuXyXuXpXpXrXY.>X>XOXD.u 5 a 1 : B t.9.t.0.0.>.>.&.S / %.=.*.8.r.! a : ..E - t c D | ! c B ..| ..D ! ..D B D D B *.*.*.r.D.D.Q.D.t.O.B 4 3 &.W %.6XQ.Q.!.W.V.C.G.6X6XG.G.!.8XF.M.G.!.G.C.C.C.C.C.C.V.C.C.C.V.V.C.V.M.V.M.V.C.N.C.C.N.C.N.M.M.",
"N.M.M.V.N.N.C.I.I.I.G.G.G.G.I.I.W.I.G.V.N.M.M.M.M.M.s.<.M.<.M.C.OXG.!.!.Q.OXI.Q.OXQ.6X$XoX*.oXoX4XoXE.E.,.*.,.| D b ,.,.,.B v t t v V t v v v K.5Xr.u c c c *. .5 D E.#.#.D 2 > 5 5 | K.v.v u 2 5 2 8.n.t c c v t c B D v ..n.E 8.=.K.wX#Xt./ R..XL.L.Y..XY.P.T.XXT.XXT.XXXX,XyX7X,XqXyXqXqXyXyX,XyXT.&.C.>XQ.rX#X9 9 v Y Y i ~ / W S Z C e.N 1 e i i i i i i q i i q g < @ 9 y f f f Y Y V { 6.&.' ] >.0.] @.:.:.g.Z.Z.a.:.d.d.a.@.:.s.:.@.' * j A ' g.@.[ @.G [ [ @.a.G A [ a.[ G @.a.[ a.[ G G A k k A A F 1 ] h.L..X!.T.&.j >.P.g.j.P.B.<.<.X.O.<.O.F B B D c a c u 1 < g ~ q $ 2 a < 2 l N T Z N C N a N N t e N N g a V i a N u v g : # v n.K. X*.: ; t ~ E E E t t _ v 0 t v i 0 U #X5X5Xn.i : v _ i t n.eXxXlXcXhX>X0XhXlXcX0XD.}.XXXX>XqXrXuXzXuXzXzXyXuXyX>XXX,X;XI.F.g.0.>..XuXuXyXzXVXuXuX>XY.XXOXXX-.e t u 2 < a 5.0.t.h.e.:.] ' W W Z D D v B t : # V v.t c b b D B c D D ! B t u E ! *.! v B ! ,.*.%.t.t.q.O.;.9.Q ! m S O.9.$XL.OX!.C.M.V.V.OX6XG.6X!.Q.<.<.N.C.I.I.C.C.N.N.C.C.C.C.C.C.V.C.C.V.V.M.C.C.V.C.V.M.M.M.M.M.",
"M.M.M.N.N.V.G.W.W.G.G.G.G.I.W.W.I.C.C.V.N.N.N.N.M.M.<.<.<.<.<.M.OXF.Y.Y.Q.-X!.XX>X6X0X6X6Xv.r.R.W.4XE.V.b.v.,.! v c t B ..E 8...v u t u U v t | n.v > - > - c r.c c ,.,.,.| 5 D r.D c D | c v ; > 5 D c > b b.8.t D D v E ..Z r.r.n.#X*.8...K.#X-.D.0X>XT.I.Y.;X|.-XXXT.;X>X,X7X,XyXyXyXqXyXyX,X7XyXP.:.T.7X>X1X1Xg $ d v i i ~ W S Z Z Z e.N 1 1 1 q i i t q q t i q g 9 o w f f f V ~ T N ^ } Q Q Q >.g.>.@.>.@.s.Z.Z.:.@.a.a.a.@.:.s.:.&.' * j C ' s.@.G @.G [ [ @.@.G A [ @.[ G @.a.[ a.[ G G A k A G G ' 3 ] F.F.L.Y.Y.:.j s.P.g.g.j.g.<.<.*.X.| F B B B B r u r r t Y {.eX Xp.{.+XN 1 g N Z N N l a p a N q e ~ ;.=.Z g q a Y W Z 2 X # : ..E...2 ; t _ _ E v v 0 y i 2 V i t f , t ! 8.4...E _ n. Xv 2 [.5XgXlXcXcXtXtXcXbXlX.XD.OX@XJ.OXqXyXzXzXuXzXlXuXzXyX>XP.h.>XqXF.Q 0.0.g.h.7XpXpXzXuXyX;XY.OXOX.XO.e t u u 2 a t.J.h.h.:.@.' ' S Z u 5 2 t v v v v .. X Xn.,.D 5 b ! D D ! u : 2 t u ` ! V ! E Y / B ! N j N R &.] q.G.O.S W .XOXOX4XC.C.V.C.OX$X6X6XOX0.>.<.<.q.N.G.C.C.N.M.C.C.C.C.C.C.C.C.C.V.V.M.C.C.M.M.M.M.q.q.v.M.",
"M.M.M.M.M.V.C.W.W.W.G.G.G.I.W.W.G.C.C.N.V.N.B.N.M.M.<.<.<.<.s.M.OXQ.Q.!.OX;X!.;XXX;XXX6XoX4X9.9.,.oXK.,.| | | | *.,.*.*.Z t v D D | v 2 : t t t 5 c 5 c c D t c c > c | #.D c #.oXoXE 5 c t : 5 E 5 t 5 D *.4X .t ! b E *.B *.8.r.K.` 8.r.*.wX8.u ;..X.XY.T.@X>X,X2X:X-X-X,X,X,X7XyXyXqXyXyXyX7XyX7Xj.s.!.7X>X$XeXY $ w f w g / ~ S S Z S h.N 1 q 1 q e e q q 2 t i i V i o d U U v V ~ W C R W ] ' Q &.g.j.:.@.@.:.g.Z.a.@.a.a.a.@.:.:.:.&.' * j m A :.' G [ G [ [ [ ' G A ' ' [ G [ a.@.[ [ G G A A G G G ' e Q F.F.F.Y.Y.>.m s.B.s.g.g.s.:.:.S S O.| B c u 4 u u t t a V r.=XgXgXeXp.t < i l l p a g l l V Y q q /  X#Xw.Y i Y B B E Y E a X : u 2 : : f ) v d t v 2 0 2 2 V u 2 u 2 : f *.n.8.E n.5X Xv 2 H.=X*X@XeXlXlXlXcXNX=X}.@X@XY.F.}.0XqXlXzXzXzXzXzXzXqX,XY.I.7X,X-Xh.g.<.>.' B.>XzX7X,X>X!.XXqXqXOXB t u u g i v 5.h.h.0.] F A &.] W E ! ! ....r.w.8.r.E.v. .b c x D | D | E c 5 2 1 B ` ^ ..! v a ~ W ^ N a l l C N <.6XN.9.S ` J.L.OXW.V.M.C.Q..X6XOXN.q.<.<.+.<.q.C.M.N.C.N.N.N.C.C.C.C.C.C.C.V.C.V.V.M.M.M.M.M.<.<.<.q.",
"M.M.M.M.M.V.C.C.W.W.G.C.G.G.G.G.G.C.N.V.C.C.C.N.M.<.<.<.<.s.M.M.OXOXOXOXW.-X;X7X;XQ..XOXK.oXK.,.! E c B ! | D | R. Xv.K.t...~ ! ! B c t v t c 5 5 > 5 c t > - v b x 5 > 5 c 5 5 D *.*.c c t t c v.D c b | b.b.D D D u E ....8.! n.! n.K.E n.r.B ! v.L.Q.Y.>X>X2XuX2X>X,X7X7X,XyXqXqX7X7XyXyX7X9X9X^.g.s.:X,X.XXX1XY & w f w w W W S W N C h.N 1 i q q e i i q < t i g Y f o f U U v U ~ T Z ^ ] &.S N Q >.g.&.' :.@.@.s.@.:.a.a.a.:.:.:.:.] ' * C A A @.G G [ G G ' ' ' ' A G [ [ [ [ @.[ G [ G G G G G G G ' 3 R z.D.F.XXY.e.] s.g.:.<.<.:.:.:.! ! *.| B a B Z u v v t a t 2 U =.H.=.q 1 < 2 i g p e g N g N V i < v J.eX X^ v Z u a 9.#XK.8.v : 2 E E O , f d f v 0 0 v v y V y ; : 0 0 i.3X X..t y ..[.E X V H.H.e.p.J.L.$XhXlXJ..XhX@X}.>X0X>XqXuXyXhXzXzXzXuXqX7X;XqX,X!.qXuXf.&.h.0.:.&.;XyXqXXXB.I.;XXXh.e e t 1 1 q B ;.t.>.S A A A &.] Q ..,.r.*...8.E D E  .v.- > 5 D  .D E ..E D D c E 5...V V Y B Z W *.-.N.-.N e p l Y.>XN.D.t./ 9..XOXW.V.C.N.Q.>X$XQ.N.q.Q.N.q.q.N.G.q.v.C.C.N.N.N.C.C.C.C.C.C.C.C.C.V.M.M.M.M.M.<.<.<.<.",
"M.M.M.M.M.M.N.C.C.G.I.G.G.G.G.G.A.V.V.V.V.V.N.M.M.<.<.<.s.M.M.M.OX.XQ.!.8XOX-X6X;XXXXXOX$X.XoXR.r.a !  XwXn.D *.4XR.v.8.v.8.v.=.v u t a a c t t c > 5 5 > 2 > c b c 5 - 5 c c b > 5 ! ! D | | b v.D c D D b.b.c D | D v E 9.,.*.E  .5X! *. Xc v r.wXt.D.rXrXqXyXyXyX,XqX7X7XyXqXqX,XqXyX,XU.^.:X7XU.s.s.T.,XI.}.2XY $ w V g i g T T W a S t.l 1 2 t i i i i q q a t g Y Y @ f v v U U Y V p V W ^ / ] &.&.} %.] &.' ' :.@.[ @.a.s.:.@.:.:.&.' 1 k C A A A G [ G A G ' ' G k G [ G ' [ [ G G G G A G G G G A A 3 Q h.D.F.Y.Y.h.>.g.s.:.+.<.O.+.<.Q ! ! D c 9.0XoX..t a v v i v t 2 t r < $ O ; 2 t u t a N g v Y g g q i E U Y ^ t ; $ i t.5X X..; t n.8.2 2 2 f u t 2 t ! v : t ; : : : t 8.4.v , O # , t 0 < , g =.p.l.D.6.e.@XlX1X0XuXXX>X1XrXuXrXyXyXuXuXzXuXuXyXqXyX7XI.I.!.7X7X;Xh.>.^ B >.G.qXF.F.!..XOXh.3 3 1 u t 1 *.L.9.a j j j C ' &.<.-.>.v.8...| b c t b 8.v b D | | D  .,.D v ! E E D v : $ 2 t v D D ,.v.%.O.F u >.qXyXF.] %.=.%.OX$X!.G.N.N.oX$XG.oX!.oXOXv.q.v.!.I.q.q.q.N.N.C.C.C.C.C.C.V.V.C.C.V.V.M.M.M.M.M.<.<.<.<.",
"M.M.M.M.M.M.M.N.C.C.I.W.I.G.G.C.C.V.V.V.M.M.M.M.M.<.<.<.M.M.M.M.OXOX$XOX!.!.!.!.;XXXXX.XXX6X.X*.a 2 v ! E D t D ,.,.| 8.K.r.v.,...V i v : : c u t u D t > c D D x 5 5 D v.E. .b 5 5 D  . .,.v.D b.M c  .D A.,.c *.v.v.*.E *.*.E D E.,.v 8.E t ! K.K.r.;.qXyXqXyXyXuX7X7XyXqXqXyX7X9XyX9X^.U.;X:X:XU.g.s.B.^.P.@XrXY & w f g f i T ^ Q p ^ t.a 1 2 t a a i i y q i i a Y Y $ d V V f v V g q p W ] ] { { } ;.>.' ' Q A :.@.@.@.:.a.:.@.:.:.&.Q 1 j C A A A A ' A A G ' ' G A G ' A A G G G G G A A G G G G A A 3 S t.h.h.Y.F.h.>.g.<.:.&.$.X.O.O.S F W c | oXoX#Xn.a v n.8.~ ~ f a v f i q $ $ u g u t N Z a Y H.=X#XH.i ; < i q ; 2 v t E n.*Xi.2 ; V f ; 2 ; t u v t u ....: : ; : , 2 0 f t # ; ; # + # ; , # w w.J.J.}.Y.Y.L.lXHXbXqX0X1XqXqX2XqXuXyXuXuXuX7XyXyXqXqX-XU.I.I.;XuXyX&.] h.*.O.F <.N.I..XY..XF.B u u S ! W t.*.>.u a j j S S &.Q.N.t.r.,. .D v 0 t E 8.b.b | ,. .,.x...E E ,.v v D V : O : 2 5 E ! *.,.W <.O.O.XXzXuXY.%.C p N -.q.N..XN.F.oXG.N.D.!.OXq.M.q.C.Q.G.M.M.q.q.M.M.V.C.C.V.V.V.V.M.V.V.V.M.M.M.M.M.q.<.<.<.",
"M.M.M.M.M.M.M.M.M.N.C.C.I.C.G.C.C.V.C.V.M.M.M.M.<.<.<.<.s.M.M.M.!.6X!.Q.OXOX!.!.XXOXOX!.N.%.u $ 2 u c 5 t 5 c ! ,.,.c c c t ! 8.*.v t v 0 D | D c c E | c c c c > - 5  .3XiXE.| D | ,.b.c.c.A.,.,.D c  . .3Xv.D v.,.b.R.8.*.*.B r.n.D u c > b | | 8.D.t.OXyXrXuXuXqXqXqXyXyXyX9X7XyX7X7X:X^.^.:X;XT.P.g.g.T.Y.>X2XY & 9 d g f e l Q T e %.t.a < 1 e a a i i q q t i i V ~ $ w V V V U U g q p ^ &.] &.;.&.&.} S N C A @.[ @.@.:.a.@.@.@.s.:.F 1 j k C A m A A A A G ' G G A G G A A A G G A G A A G G G G A A 3 S h.D.t.L.G.h.<.f.<.:.:.%.] O.O.F | W 5 | wXR.4Xn.2 ..iXwX#X X5.v t < u v 1 q N B W V Y V N Z p.0X$X8.2 < q i < 2 t V u i a ! U y ; ; O ; ; O 2 5 v r v n.r.V 0 : : : 2 r # : ; O ; O # # # , # f {.+X@X0X0X0XXXOXtXtX1XcXzXrX>XuXuXuXuXuXqXqXqXuXqXyXqX!.T.;X!.!.qXyXj.e.e.S S F <.>.N.Y.h.Q.Q.N.&.S W Z c *.r.q.%.Q B 4 S B O.D.N.R.K.8.| v c c v v ,.E. .,.,.v.b.8.D b v *.E t v E f 2 2 2 t D B | ! W <.q.!.;XuXwXJ.9.%.^ ! a D ,.Q.C.G.Q.v.N.G.4X!.q.<.v.W.Q.C.q.M.M.M.M.M.M.V.C.C.C.C.C.C.V.M.M.M.M.M.M.M.q.<.<.<.",
"c.c.M.M.M.M.M.v.M.M.V.C.G.C.C.C.G.C.V.M.M.M.M.<.<.<.<.s.s.M.M.M.C.6X.XOX>XXXOX>X;XQ.<.S m N B ! v 5 t 5 c | E.oXb. .E E  .v c t u t v E E | B B t > 5 c > 5 D D 5 5 5 x #.(.A.H H H ,.A.v.,.v.v.| c D |  .E.*.D *.*.,.C.0XN.W B E u v c > t v t t ..n.OXJ.>XhXuXqX,XyXyXqXyXyX<X<X,X<X<X:X<X:X:X^.^.^.U.j.P.I.>X.XN @ < f f i p e C a p 9.e.l < 1 q i i i i i q i p g Y ^ & i V g z Y Y g q i ^ &.] ] { ^ S S N j j A @.' @.@.a.:.@.@.@.s.:.S 1 j j j C k m A A A A G A A k A G k A A ' G G G A G G G G G A A e Q h.h.D.F.Y.h.0.h.>.:.:.&.O.*.O.Q W c 2 B 4X0XoXE 2 ,.wX5XK.4._ f f y v E a v N Z D.9.*.B N r u g v t 1 q ~ ..2 u ~ ..W v 2 : # 2 i : : V E t X - 2 5 u ..E 2 ; : : : , 0 ; y 0 # ; # ; # # , < =.1X$X1XrXqX0X0XOXY.Y.}.>XrXuXCXuXuXuXuXqX,XqXyXqX;X7X7X-X^.:X;X!.;XqXyXXX>.] >.<.%.m Q 0.>.0.0.h.q./ S u t u Z | v.N.<.B B B O.C.R..X4X X..v v t d d b K. Xb.r.n.b.| c b D r.E E D D D v u t v B B ! ,.>.q.G.6XqX6XqXD./ D ! Z u D ,.OX!.Q.N.C.N.OXW.4X!.v.W.N.Q.M.<.M.M.M.M.M.M.M.M.C.C.M.M.N.M.M.M.M.M.M.M.M.M.q.<.<.",
"c.M.M.M.M.M.M.M.M.M.M.M.C.C.C.C.C.C.V.V.C.M.M.g.<.<.<.s.s.s.M.M.M.!.6XwX@XOX>X.X&.' ' +.q.Q.{.K.n.v > 2 D 3XiX X .b b x c c D b c D b b E t ; c 5 > c 5 c x.(.H b v.v.H D v.x.H | | #.x.x.,.x.,.M c M D B | D u c D *.v.0X4Xq.*.c t - X t t t 2 D E ;.OXe.l.hX>X;X7XyX,X,X<X:X<X<X:X<X<X^.<X^.^.^.T.^.:X!.j.F.>X|.g $ 9 d d d g i l 1 l t.9.l < < 2 e e i g i q i i g T ` < i V N g N Y C i e R &.;.&.] Q S Q Q C A ' @.' @.:.s.@.@.@.:.:.:.A 3 j j j C j j A A j A A A k j A A j k k G A A G A A [ ' G A A A e Q h.t.D.F.L.h.0.e.>.:.>.&.] O.Q C N 3 5 2 Z 8.E 2 t c 9.8.~ V E a v 2 t v t v Z V 5.%.%.%./ B 1 < 1 2 t 1 Y ~ 1 v %.*.V u t ; 2 a E : D r.! 5 2 ; ; - 2 5 ; 2 v ; 2 , : 2 : i 0 # : , ; + ; # i +XxX0X0XhXuXqXqXuX0X>XOXF.g.I.>X>XqXuXqX7X7XyXqX7X;X7X7X;X:X;X^.;X^.;X7X7X7X!.I.<.m Q S m S <.N.h.*.O.;.D D ! %.! ,.b.*.*.! O.*.K.K.K. Xn.n.8.E v E v V n.E.n.8. .v 2 v D E K.8.v D E v a a a t u D ! *.>.q.L.6X!.wX6X;.F N B c c B | 4X8X4Xv.OXG.V.E.4X4X4XW.M.W.M.M.M.M.M.M.M.M.<.M.M.M.M.M.M.M.M.<.<.<.c.<.<.M.M.M.M.",
"M.M.M.M.M.M.M.M.c.v.v.M.M.M.M.M.C.V.M.M.M.M.M.M.s.M.M.M.s.M.M.M.M.N.OX0X1X0XXXL.h.Y.;XOX.X$X#X X3X| 5 | b.b.v.b.t 5 c c 5 x b > c v E D u > : t b t x 5 D v.x.c | 3X(.,.H #.| D x.H ,.#.H x.A.#.c c c | D 5 t c D B | N.R.iX4XR.4XK.D 5 t ; D ! E ` ..w.%./ J..X:X9X<X:X:X:X<X<X<X<X<X^.^.^.Z.^.U.U.^.;X^.P.Y.@X@Xp < 9 w y d p g p = C t.w.g = < 1 q q q i i q i q p Y ~ = e g V N N T ^ Y z T } &.} } ] Q Q ' ] ' ' } ' @.a.d.@.:.:.:.:.@.A 1 j j j j e j C j j j C j e j k C j j j A A A A A k G G A A j C 3 Q 0.t.D.Y.F.h.0.>.>.>.>.' S W Z p u B 9.=.2 u # E r.B u u a V Z Z N 2 0 : u a u t N N E 8./ ~ u 2 t 2 1 < t B a t t t : 2 2 c B v Z t E v : ; - - u 5 ; t t *.E - u 0 , 0 , r 0 # # t , # # # ~ gXxXrXrXuXrXqXqXqXyXrXqX.X%.g.!.>X,XuXyXyXyXyXyX7X7X7X;X-X:X-XT.I.T.;X;X;X!.<.!.>.j O.Q B 3 m O.S Q ,.>.D W r.t.r.,.,.*.r.,.| ! D b D ..8.8.4...8...8.i.[.n.E D E v : c E 8.n.v r 2 u u a t u V E D E W q.N.F.G.N.OXC.O.| c t b 5 u 9.iXSX4X<.C.c.8XW.4XpXW.<.W.G.v.M.q.M.M.M.M.M.v.<.<.M.G.I.C.OX!.C.M.M.M.M.M.M.M.M.M.",
"M.M.M.M.M.M.M.M.M.M.M.M.M.M.M.M.M.M.M.M.v.<.c.M.M.M.M.M.M.M.M.M.g.q.F..X0X1XXXOXOX>X>X$X4XL.D.K. Xr.| n.3Xn.3Xv.t x 5 t > > t 5 - c  .D 2 5 t c ..t t x D b H M ,.E.E.x.#. . .#.#.H #.#.M  .v.,.4 4 B v.v.F B K.iX<.*.G.v.8XwXr.4XwX4XK.*.t f v v ..E V Z Z { h.-X:X:X:X^.^.:X^.<X<X^.^.^.k.d.~.U.~.:XU.U.;XOXXX{.w 9 9 9 w w i g p 1 p ;.p.g $ 1 q q 1 q e q q e q i Y ~ < e N V Y C T ^ ^ T R ] ' Q ^ ] ^ Q ] &.] ' } ' @.a.:.:.:.@.:.s.:.Q * j e e e e 3 j p e j j p 3 3 j j j h h k k k A m k A A A A j j 3 R 0.t.D.F.D.e.>.>.&.O.Q ^ S S C N Y 9.#X Xv t v R.wXK.N 2 u V v =.E a 2 v p...t t | *.! / B V u Z ..~ u < t ! V t r u u t 0 v V E *.D D c ; 2 t B ,...; 5 ..8.t : v t 2 t ; : : ; # t , # # # i.MXxXhXhXuXqXyXzXuXzXyX7XOX%.0.uXyX7XyXuXuXyXyXyX7X7X7X;X-X:X;X!.^.U.U.;X:X<.B I.:.S <.! u j F N a / .XN.| t u D ..r.v.8.,.#.D b 5 c | 8.r.n.8.) '.u.y 0 U +X) ..v v d v E ..E 0 r O ; : t t u D ! 5 c W v.Q.G.t.%.*.%.F B 5 u 4 c *.iXSXwXV.,.,.8X8X(.4XiXV.c.W.M.<.v.<.<.M.s.s.M.M.<.q.G.OXOXI.OX!.C.q.M.M.c.M.c.<.<.<.",
"<.<.<.s.M.M.M.M.M.M.s.s.<.<.<.M.M.<.<.<.c.<.v.M.M.M.M.M.M.M.M.M.M.M.q.G.$XOXtXqXqX>XOXXXOXoX#X#X5XoXv.8.D x ! ,.t t > 5 t > > c t D t - t c : t E > 5 D D D #.x H ,.c.A.x.#.H #.#.<.(.V.D D #.! u B <.R.G.q.,.4XSXiXG.q.C.8XiXG.oXSXoXr.5Xr.; : v v i t W ` { ^ g.U.U.U.U.k.Z.^.<X^.^.^.k.@.Z.~.^.^.<XB.j.,XOXXXp.9 9 9 w w 9 f N N p = W H.N $ < q e q 9 q e q q q i N ~ < e V C W C R ^ R T Q ^ Q R Q Q ] } ' ' ' ' } [ @.s.:.:.:.[ :.:.:.' 1 j p 3 e p 3 3 e p p j p e 3 3 p 3 3 3 j j j k j j A A A C 3 j 3 Z 9.0.l.t.h.>.&.>.%.^ B S Z ^ W >.K.$X XK.=.5 v r.r.r.E t t u y V Z E g ;.D.V q Z K.n./ E =.;.9.n.oXn.u t Z v v r E 5.` t : t D r.8.8.,.b 5 B *.| v.! 5 2 *.E - u v 0 : : ; 0 2 # ; t , # % & i.MXxXjXhXhXyXzXpXyXyXuXuXuXB.] !.yX7XqXqXuXyXqX7X,X;XqXqX,X7X:X-X^.U.U.7X7XB.%.I.g.N.I.&.F ] B F Q a W u ^ / t 2 5 B ..8.,.D b c t ! ,.,.4.4...v P &Xi.v v *X8.E I d v v v v t > ; X : 2 2 t t B ! u E 9.W 9.v.N.*.| B B D u u 5 | E.W.v.#.v.c.,.(.E.S.iX8X,.,.V.v.v.C.q.<.<.<.<.M.M.q.C.OX6XQ.M.M.M.q.<.M.M.<.<.<.<.<.<.",
"M.M.M.M.s.s.<.<.<.<.<.<.<.<.<.M.c.M.c.c.<.<.s.s.<.M.M.M.M.s.M.M.M.M.M.M.G.OX6XqX>X>X.X.XeX=X5X5XkX8.D b D b - > > - b 8.,.b t b b t > 2 t b v 2 b 5 5 c M ,.c.M | c.V.S.A.v.#.#.c.iXpXwX#.D E %.v.Q.K.D.Q.oX4X6XSXpX8XC.G.G.iX!.oXiXiX8.8.n.D , 2 2 y V ~ =.%.^ &.Z.Z.k.g.s.d.k.Z.^.k.a.a.d.k.Z.^.^.:Xg.s.U.Y.@X=.= 9 & w w w U Y V p < g w.V & w q i i q q w i i i p Y Y $ 2 a N Y W ^ ^ / / ^ ^ Q Q ] ] ] ] ] ' ' ' ] :.<.f.:.@.@.[ :.:.&.A * j p e e p e 3 q 1 e j e e 1 e e 1 3 3 z C j j j u C m j j 3 p e j &.0.e.9.0.&./ ] / S j C S S / OX$XwX0X{...2 t a E ! *.E t t 2 ; ! w.V i q Y Y a ^ V 2 E n.+X X#X XY 1 Z ..8.a ; *.t.B : t X D n.n.n.B 2 5 | *.*.,.B 5 u | c t D c t - t t t t # # 0 0 , % # n.NXjXjXzXuXuXpXyXqX>XpXuX;XB.g.B.;XzXyXqXyXuXuX7X,X7XyXuXyX,X^.;X!.U.^.;X!.XXT.Y.!.qX!.N.<.N.O.F -.O.-.B / N.%.u 2 5 B *.v. .2 > b  .,.| c : , 0 , E 5Xu...sXn.y y t E I 0 v E t - - - u u D | E *...O D %.9.L.N.! B c D F ,.,.#.| #.! D <.V.M | (.E.E.iXc.,.,.R.v.W.I.N.C.<.<.<.<.<.M.!.8XOXF.0.q.q.M.M.c.<.<.<.<.<.<.<.",
"<.<.<.<.M.M.<.<.<.<.<.<.<.M.M.M.<.c.c.c.<.<.<.<.M.M.M.M.M.g.g.s.M.M.M.M.M.I.!.6XOX0X1X@X$X5XgXiXE.D | 8.b.8.b > - D v.8. .D D v c 5 2 t ! K.n.5 D v c 5 H E.v.,.$.c.W.8X(.(.V.V.9XSXSXpXR.v..XwXiXlXR.R.pXlX0X6XSXlXwXG.N.C.uX6XR.iXvXK.r.K.8.t : 0 y V E ~ / / &.g.Z.U.U.~.U.Z.~.Z.a.a.g.Z.Z.^.U.^.^.Z.U.P.h.l.T = 9 9 y y d g g g i < w ~ g < w q q q q e i i g g g ~ W $ q N Y W ^ ^ ^ ^ ^ ] ] ] ] ] ] ^ Q ' } ] ' ' &.&.:.:.[ ' ' } &.} A = p p p e e e q 1 1 1 p e q 1 1 q 1 1 1 j z j z j 3 j j e e 3 e 3 p W } -.&.;.^ Z Q Z N a Z ] ] W ! %.*...Z u D 5.N Z r.oXK.` 2 0 u V Z 2 q ^ p.Y O ; $ O 2 q U t.K.E t ` K.wX#Xv 5 r.t.c : 2 - c E.n.E t 5 t *.r.*.*.t : t u 2 v c 2 2 2 t t 2 2 ; : 0 0 X , , i.NXxXhXuXuXVXpXXXOXuXzXyX<.&.I.h.7XyX7X7XuXyXyXyX,XqXyX7X;X;X-X;X;XU.!.T.I.!.-XQ.XX>X7X!.N.G.h.<.<.>.q.>.9.9.%.N Z u u D ,. .5 c |  . .5 - : : X X t 8.U v E '.) 8 v P v : t b ..D u 2 b D ,.r.,.| ,.5 a >.G.6Xt.D u u b D <.4X4X| c b D ,.,.M v.E.#.A.(.#.A.,.W.R.G.OXG.C.<.+.<.q.N.!.OX9X6XQ.M.<.q.q.<.<.<.<.<.<.<.<.<.",
"<.<.<.<.<.M.M.s.M.M.M.M.M.M.s.M.M.<.c.c.<.s.<.<.M.M.M.M.M.M.M.M.M.M.<.<.M.M.I.OXOX.X}.1XtXxX5XiXn.c D ! b E c t > b | ,.n.r.v c 2 t ! K.wXSXK.5 v | ,.V.E.4Xv.A.c.c.(.8X9X8X!.4XSXSXbXlXlXlXcXlXlXbXQ.OXbXvXwXwXzXzXpXOXq.N.iX8XQ.pXlX$Xn.#X XV , t y U ` ` ;.6.:.f.j.P.T.^.^.<X^.Z.d.g.Z.U.~.^.:X^.Z.U.-XP.Y.Y.C < 9 9 0 < i v V g i < & i w q i i i i i i i g a i i Z C $ q N C Z Z Z Z T W Q / ] } ] ^ R S S ] Q Q >.I.XXT.j.f.>.&.&.&.] C 1 p p j p p p a p e i p i q = 1 1 1 1 1 1 3 3 3 e 3 3 3 3 3 1 3 3 1 C &.7.%.] R C ' S N m W ;.0.>.%.%.Z a N ` 5XtX5.t t B E Y a 2 v v q i v a t < ; $ : 2 i 2 2 v u : E +X5X*X;.t t ;.! 2 a t : u n...2 5 c t ,.K. .! c 5 t : 5 D c c u t u t : 2 O # 2 t # , @ w.xXjXjXhXuXuXqX.X>XhXuXyX0.&.XXF.>XpXuXqXyXqXrXyX7X7X;X!.;X:X^.T.U.!.:XI.I.-X7XyX7X;X>X!.B.OXG.F.9.O.Z N B Z W ..n.N 5 5 ! ,.x D ,.| ! b E c : : : t U v : , ..i.v ..v 8 c b v r. .| ,.v.x.v.4Xn.v.*.c 2 >.4XR.Z D u u b F | v.E.v.c c b v.| H | | #.(.,.#.v.,.4X4Xv.OXOXv.>.<.M.I.C.OX4X6XW.I.C.q.q.M.c.<.<.<.<.<.<.<.<.",
"$.$.<.<.<.<.M.N.M.M.M.M.M.s.<.<.M.M.M.M.M.M.M.M.M.N.V.M.M.M.M.M.V.M.<.<.<.M.M.C.OXOXY..XOXtX0XwX8.t b D 2 5 t 2 t D v.3XK.| ,.| c K.vXSXvXxXr.u B *.4XpX8XV.<.4XV.W.4X8XpXiX8XwXGXvXlXlXcXHXbXrXvXuXOX6XvXzXuXwXuXvXpX8Xv.N.8X8X!.iXtX$X8.8.3Xn.0 0 t Y ..=.;.6.-.:.j.I.!.T.^.<X^.U.U.U.U.~.^.<X9X^.g.T.T.I.@X@XN < < , & $ y V g i q < < q < < q e q q i i i a a a a Z Z a N T ^ / { %.-.;.>.>.;.>.0.e.h.F.Y.@X>X@X>XrXzXVXVXzXuXyX>X.XL.f.&.C N z z C C C T C a z C R ^ ^ { -.6.9.0.6.&.R e 3 3 1 = * * = 1 3 1 e C ^ / ] S a N C Z S / ] O.-.%.%.Z N v B K.oXW t < 1 : ; u v N a 2 a i t q i q : $ t a q 1 u 2 < ..=X X=.q $ 2 ~ N a N 2 - 2 c 5 2 5 5 5 E v.*.B 5 5 2 2 c D v B v u u t 5 t ; < 2 , # : # w.xXjXxXcXyXqXqXqXqXqXuXzX>X<.g.h.N.zXuXqXXXrXuXqXqX>X-X!.!.!.I.!.P.!.7XI.Y.7X!.qXqXqXqXN.h.XXG.6Xq.| W c a u B W *./ 5 : c | D D  .D b  .v.| E b > : b v : f v n.u.) : :  .c E v.,.H D |  .| b.,.,.9.%.t c *.D 5 B u c m m H E.4XA.D c 5 | | m m c b.4Xc #. .v.SXv.v.W.G.q.q.I.C.OX!.6XQ.M.v.<.<.<.<.c.c.<.<.<.<.<.<.<.<.",
"$.<.<.$.$.$.<.M.M.M.M.M.M.<.<.<.s.s.s.s.M.M.M.M.M.M.M.M.M.M.M.M.M.M.<.<.M.M.M.M.B.G.Q.OX6X0XlXR.D x c t t > 5 > > ,.5XK. .,.vXR.K.lXvXxXbXvXK.n.oXW W.8XW.<.A.(.(.iX4X9XpXiXwXwXHXvXlXlXcXbXbXvXlX0X6X0XvXlXuXtXuXGXuX8XM.C.8X8X!.wXpXwXv.n.5X5Xy , t E =.=.=.{ 0.>.h.F.I.T.;X<X<X^.^.~.U.~.^.^.<XU.Z.^.I.XX}.z.i # < & , < < w < q q g Y ~ Y T T ^ ^ / ;.e.e.t.h.t.D.J..X.X}..X1XrXuXhXhXlXzXcXzXzXzXcXcXbXCXCXHXKXHXCXzXzXbXVXVXCXCXCXCXVXzXrX2X@X@X2X1X1X2X2X2XrXhXzXcXbXCXCXCXbXCXZXzXY.C p 1 C W S C l j p l a a a a C Q Q C S ^ ] >.&.] Q ! W N Z W Z Z a 2 u E ~ B ~ ;.8.B < B t.N.9.-.%.l q 1 e a N W { ` N t v 2 : a a < u u a u v c < t 5 m B D B m q.*./ %.9.r.>.%.| N c B c u v c u ; $ 2 y < 9 , 4.MXxXcXhXrXyXuXuXlXuXCXCXuXD.<.h.&.G.vXQ.XXzXqXuXyX7XXX!.T.I.I.!.7X-X;XOX>XqX>XqXyXqX!.O.>.F.q.N.OX| c E D 2 1 t a ..E 5 u b E  .| c 5 E | | b.8.c > b 8.v : , E #X) : c | 5 D ,.v.D b  .,. . .D v c *.! 2 a 2 t 2 u u M  .,.A.,.H 5 5 c b | D c D 4X#.D ,.| 4X4X#.v.,.R.C.W.v.6XOXC.C.q.<.<.<.M.<.<.c.<.<.<.<.<.<.$.$.$.",
"$.$.$.$.$.$.<.<.M.M.M.M.M.M.M.M.s.s.s.s.M.M.M.M.N.N.N.M.M.M.M.M.s.s.<.<.<.M.M.M.M.M.B.M.N.OXr.B D | ! E  . .D > b  XoXD | 4XiX8XwXSXbXvXvXtXoXiXwXq.OX8XC.<.W.wX4XpXOX9XwXiXlX0XvXlXcXlXcXbXbXcX6X0XuXwXvXpXqXpXpXGXiX8XM.V.!.4X!.wXvX0XL.5X5X8.0 , i _ 5.9.5.-.6.9.h.h.B.!.;X;X:X^.^.^.^.:X<X:X<XU.Z.^.U.>X}.{.N $ & @ @ < 9 g ~ =.=.;.w.e.w.e.l.J.J.L.@X1X1X>XrX>XrXuXzXzXuXhXCXCXHXHXZXZXHXHXHXHXHXHXHXCXcXzXcXCXCXCXCXCXCXcXzXvXVXVXCXZXHXHXHXHXHXHXZXZXZXZXZXHXZXCXbXCXbXbXCXbXcXCXCXqXQ 3 u J.qXqX>X@X}.J.z.e.9.9.0.L.>XrXY..X0XtXuXtX>XN.^ ! ^ / %...v 1 a v Z / W *.n.*.a 5 9.tXtX0XY.D.0.] N C %.@XhXlXgX.X-.W T 5.@XL.N a ^ q.9.%.W Z W W *.>.v.L.t.F.6XwXtXwX$XwXwXlXR.r.*.B B | D c t 2 2 y , 9 $ 5.MXNXcXhXrXlXvXzXCXZXCXzXuXtXG.t.q.q.OXN.tXzXpXlXyX7X;X!.!.XXXX-XyX-XXX;XN.0.6XwXwXqXD.;.*.q.%.W R.9.t D B 2 2 D v v ! 5 t t b | b > - | ,.,.b. .D b c | v > v ..5X Xv b.b - D v.v.,.#. .x.b. . .,.c B D D 5 5 : c c u M #.#.A.E.D 5 5 t D ! D 5 b.(.x D #.x.(.#.| #.R.R.<.G.8XOX!.<.<.>.<.<.<.s.M.<.c.c.c.<.<.<.$.$.$.$.",
"$.$.$.$.$.$.<.<.s.M.M.M.M.M.M.M.c.M.s.M.M.M.M.M.M.M.M.M.M.M.M.N.I.I.N.<.<.<.M.M.M.<.s.s.M.Q.S ! r.E.,.,.v.8.D c E.E. .| r.vXiXpXlXbXbXSXbXtXwXvX6X4XwXOX<.G.iX4X4XpXOXwXiXtXvX5XlXbXvXlXlXbXlXtX0XpXlXqXCXzXtXuXpXvXiXiXN.M.R.!.W.wXlX4X#X4X5.t ; 0 V =.;.5.t.p.9.e.>.&.>.P.;X,X:X:X:X:X:X:X:X<XyXU.j.!.T.>X>XJ.Y $ # X @ w U 4.6.e.p.p.p.l.J.J.D.J..XOXqXrXyXyXzXuXlXzXzXzXzXcXCXVXcXcXCXCXVXzXbXbXbXbXbXCXHXHXcXCXCXCXbXbXCXCXHXCXVXcXzXzXcXCXzXcXcXzXlXzXzXzXbXbXzXcXzXVXbXvXlXvXzXzXzXqXQ 1 Z 0XlXtXqXqXrXrXlXlXzXbXbXbXVXzXbXbXbXzXlXlXlXOX/ N N N N a e N v.W 1 t v a N Z D B K.tX6X6XtXuXbXqXY..X>XuXuXqX>X1XtXuXtXhXtX0XeX>XtXuXlXtX.Xh.D.N.XX0XqXuXbXbXuXbXGXbXuXbXbXlXbXvX6X%.B ! B ! #X#X8.Z $ $ $ p.NXNXcXjXuXuXzXzXcXZXbXbXzXbXXX0.>.0.L.Q.6XzX6XzXyXyXyX>X!.XX;X7X7X>X>XOX/ B $X6X6X.X| ,.<.<.O.u E r.c c E D v v D c t 5 5 5 c c > > 5 E  . .| b b E 5 | E t r. X8. X Xb.b | b ,.b.,.x. .H #.,.,.D D O.D E u 2 t c B | v.<.,.v. .c u 5 5 D B > F (.| x x c #.H n | v.v.<.R.W.R.4X<.>.<.$.<.$.<.<.<.<.<.<.<.<.<.$.$.$.$.$.",
"$.$.$.$.+.$.$.<.s.M.M.M.<.<.<.s.c.c.c.s.M.M.M.M.N.B.C.Q.OX;X7XyXpXpX6XC.q.<.<.M.<.<.m.M.M.N.>.K.E.b.,.,. .D  .oXiX .D D ,.iXiXlXbXZXbXxXSXbXbXbX6XiXpXv.v.wXwXQ.4XvX6XwXvXwXtX$XeXvXlXHXcXvX4XOXuXbXpXqXzXlXlXvXpXzXuXpXv.v.W.OXG.wXvX$Xr.Z # , ; t f ^ 5.9.D.l.e.e.&.>.0.I.-X;X:X<X<X:X:X<X7XyX9XU.U.:XXXOX@XW q X & , w V E ` %.;.t.D.D.J.}.Y.}.}..X>XqXyXyXyXyXuXuXuXqXrXzXCXzXzXzXzXVXCXCXVXzXVXCXCXVXbXcXcXbXbXCXZXCXbXbXCXVXbXvXzXzXzXlXzXhXlXlXzXcXbXcXcXzXzXzXCXCXbXzXpXzXVXVXVXuX.XA 1 &.cXzXlXzXzXzXbXcXzXzXzXlXlXzXzXzXcXzXlXcXzXzXtXY.W C p N ^ ;.L.$X9.9.9.9.>.>.D.4XL.6XtXqXuXzXzXzXzXzXCXcXVXzXhXzXzXzXcXuXlXzXzXzXuXzXCXzXbXzXzXlXzXpXuXpXpXGXCXCXvXlXzXzXvXCXlXvXlXvXOXt.N./ *.rXtXtXK.v # # i.NXNXNXzXuXuXpXuXhXcXCXCXbXuX.XQ.>.-.9.%.D.tX6XqXCXpXpX7X!.OX>X7X>XqX>X>X] / 0XXX$XL.W %.q.D | u 5 D t u E Z v t ! ,.D t 5 c > x 5 > - b  .D b x b b c  .8.......0 E 5XE 5 c 5 b./. .#.A.,.| | | D c m B 5 | v c D R.4XE.#.x. .M u 5 c D | 5 u 4Xv.x | x.M H n n #.v.v.V.E.V.W.G.G.M.<.<.<.<.<.<.<.<.<.<.$.$.$.$.+.+.+.$.",
"#.$.$.$.$.$.$.<.<.<.c.M.M.M.s.<.m.<.c.M.<.M.M.M.N.!.iXzXbXGXGXKXKXHXbX9XN.v.M.M.m.m.m.s.<.g.h.<.*.#.#.| | v.4XwXoX! D D ,.iXlXvXHXHXbXbXbXcXbXvXOXtX6Xt.iXSXbXlXuXvXwXtXvXtXwXwXOXuXKXlXtXOX>XlXuXuXtXiXuXzXpXiXpXpXwXiXN.<.OXoXD.t.%.N $ # 0 # , f E ~ %.%.;.0.<.F.F.F.!.T.;X^.:X7X<XyX<X:X9XyXyXU.U.;X;X>Xz.< $ 1 t v Z W Y W ! Q O.0.N.F.F.G.Y.Y.XX;XqXyXqX7X7X7X7XqXuXpXuXyXpXVXVXVXzXVXCXCXCXVXVXVXVXVXVXVXCXCXCXVXCXCXCXbXzXzXzXzXzXzXzXzXlXzXzXzXzXzXzXzXzXVXVXzXzXzXvXVXCXCXCXpXOXg.j 3 F.cXZXbXZXZXHXZXZXZXZXZXZXZXCXcXzXcXzXzXcXcXzXlXzXuXqXqXtXlXzXzXlXlXvXvXzXzXzXbXlXuXuXuXuXpXlXpXhXuXyXuXhXzXhXhXuXuXzXzXzXzXzXcXVXzXuXuXuXyXuXzXzXbXvXzXzXzXzXzXzXzXzXzXVXVXzXzXpXuXlXzXpXqX6X6XyXqX0XtXE o < [.JXNXlXhXuXuXqXqX0XuXzXVXVXzX0XL.L.Q.q.W Q q.OXwX8X6XwX8XuX6XQ.7XuX6X$XL.C / tXL.K.%...t.*.u ! D 5 c v v E E ) D c ,.K.v : t t - - > 8 E E b c c b  .D v n...0 0 ; 2 8.n.c v r.4X .b c v.E.#.D x M b u c 5  .v.c v.pXiXE.#.#.M c u t | *.u 4 V.(.m x v.b.H x  .#.c.c.A.V.<.<.c.G.<.q.G.G.<.$.<.<.<.<.<.<.<.$.$.$.$.$.$.$.",
"$.$.$.$.$.$.$.$.<.<.<.M.M.s.<.<.<.<.<.c.M.M.M.G.6XpXCXHXKXKXHXHXJXHXKXGXOXM.c.M.m.s.<.<.$.<.<.g.C.R.4XG.R.6X6XwX4X,.! W 9.wXlXSXbXbXbXbXbXcXbXlX$XuX.XoXlXbXHXbXlXGX$X6XuXiXuXzX$X.XOXQ.Q.0XlXtXuXuXpXlXlXpXuXiXpXlXpXiXv.*.<.%.a u p < . < , , 0 d ) n.D.9.;.<.h.F.OXY.Y.-X!.:X:X^.-XyXyXqXyXyX<XU.T.Y.@XqX^ $ < i Y ..-.9.9.0.h.q.h.F.F.B.F.I.I.Y.XXXX;X,X7X7X;X7X7X7XqXqXqXyXyXyXyXyXuXpXpXuXpXuXuXpXVXVXVXVXVXzXpXpXzXbXbXbXVXVXbXzXzXzXvXvXbXzXzXzXzXzXzXzXzXzXzXpXpXzXzXzXpXqX;Xg.g.e.u l 1XCXZXcXZXZXHXHXZXHXHXHXHXHXZXCXZXHXZXCXCXCXbXbXCXbXcXcXcXcXCXCXbXbXVXbXzXzXcXcXzXlXuXuXzXzXzXzXzXzXzXzXzXzXuXuXzXzXzXVXVXVXzXhXuXzXuXuXzXzXzXzXzXzXzXuXuXuXzXzXbXzXzXzXzXzXzXuXzXlXlXzXzXzXuXzXzXyXtXhX` $ < +XJXcXhXrXyXuXqX;XqXyXhXzXVXzX>Xt.%.N.N.R.q.%.Q.Q.,.N.v.M.9XOX<..XtX0XeXL.W / =XOXD.| D *.*.B E D 2 t v v t f ) ..v D ,.E t 2 t : > : t b b 0 > b b | D b E r.E ; : v v  Xn...r.E 5 x 5 b E.(. .H c b t c D ,.iXE.8XAX4Xo.| M M c 5 c ! B 2 | 4Xc.4 n x. .4 H A.#.x.A.c.X.M #.v.*.N.G.F.N.q.<.$.<.$.$.$.$.<.$.$.$.+.+.$.$.",
"$.$.$.+.$.$.$.$.$.<.<.M.M.s.<.<.<.<.M.s.M.N.!.uXbXHXHXHXHXHXHXKXJXKXKXzX6XI.<.<.<.m.m.s.<.<.<.$.! +.OX6XwXwX6XwXlXwX0X4XtXvXvXvXcXbXbXbXbXbXbXlX6XwX.XtXbXvXbXHXbXvX$XOX0XlXpXuXpXOXOXwXuXlXzXbXvXlXlXlXlXlXvXvXzXlXiX!./ m m B W ^ 9.W $ $ & w U ..4.+XwXL.9.h.F.G.F.F.B.I.U.;X^.U.-X7XyXyXyXqX<XU.T.T.>X}.1 $ g ~ 9.D.l.L..X0XtXqXqXyXqX>XXX!.!.I.B.j.F.I.!.!.!.-X-X-X-X;X;X,X7X7X,X,X,X,X7X7X7XqXyXyXyXuXuXVXzXVXzXVXCXCXCXbXCXVXVXVXVXVXVXVXzXzXzXzXzXzXzXzXuXuXuXuXpXpXuXrXXX<.:.:.h.&.3 &.zXZXHXZXZXbXcXbXHXHXZXZXZXZXZXZXCXZXCXCXbXbXbXbXZXCXCXCXCXCXCXcXcXbXbXbXcXcXcXVXVXzXzXzXcXzXzXcXCXCXCXbXcXzXzXzXVXcXzXzXzXVXcXzXzXzXzXzXVXVXzXzXzXzXzXlXhXzXzXzXzXzXhXhXhXhXuXlXzXzXuXuXuXuXuXuXrXrXqX#XY $ : i.NXcXcXhXuXuXyX>X>X>XqXzXVXbXlXqX<./ D <.N.O.*.M.N.4XR.,.C.!.q.G..XwXeXL.W Y oX0XD.| E B B c t b t c t v f U v v v c t 0 8 : t t t 0 c t 8 : : v b c v | : 2 ....; : v *.3X#XE b b c 5 b v.8Xb.x  .D 5 5 c D x.(.A.8XA.#.#.m D x 4 b c 5 D E.E.M 4 M D H #.v.c.A.c.#.n H #.V.+.O.O.*.>.>.$.<.<.<.$.$.$.$.$.$.$.+.$.$.$.+.",
"$.$.+.$.$.$.+.+.$.$.<.<.<.<.<.s.s.<.s.<.h.XXlXHXHXJXKXKXKXKXKXKXKXHXuXOXQ.G.M.<.$.<.s.<.s.<.o.J X.>.OXwXqX6XtXwXwXtXlXlXcXcXlXcXcXcXbXCXbXbXbXuX0XOX6XvXGXlXlXbXHXcXGXcXbXpXM.>.G.wXpXpXvXbXvXGXzXzXlXuXuXtX6XOXG.N.>.W 4 a O.M.q.q.L.t.g , 0 0 U u.i.#XeXL.D.Y.Q.0.B F O.:.U.^.T.:X9X<XyXyX7XqX7X!.-XqX>X;.$ i g Z / ` %.t.D.D.XX>XqXqXuXpXqXXXY.I.Y.XXXXT.Y.!.!.!.!.!.-X-X-X;X;X;X,X;X,X,X7XqXqXyXyXyXuXuXuXzXVXVXVXbXbXbXVXCXCXCXCXCXCXVXzXzXzXlXzXzXzXzXuXuXzXzXzXpXpXzXzXzX7X>.] e.F.j j P.zXcXZXHXHXZXbXHXKXHXHXZXZXHXHXHXZXZXZXCXCXCXCXCXCXCXbXCXCXCXCXcXcXbXbXCXVXbXVXVXCXVXVXCXVXbXbXbXbXcXcXcXzXcXcXbXcXcXcXbXcXzXzXzXzXhXhXzXVXzXhXhXlXzXcXzXzXzXzXzXzXzXzXzXzXhXhXzXzXlXuXuXhXhXuXuXqX@XJ.t.` < $ w.NXcXlXtXrXuXuX>X>XOX>XuXzXuXlXbXlXR.,.N.G.W / M.v.v.OXR.<.q.v.v.v.wXwXK./ ~ r.4X8.c | v 5 E | ! t t u v E v t 2 : 2 2 > 8 : t b 2 t t c t : : 0 X b E ! B : : a ..v 2 : v #X#X*.b c x 5 c E.b.x D c 5 5 M | H  .x.A.A.A.x.| b x 5 b 5 5 <.4X#.4 4 c  .A.v.x.x.x.M M J #.X.A.,.O.O.+.+.$.<.<.<.<.<.<.<.<.<.$.$.+.$.$.$.$.",
"$.$.+.+.+.$.+.+.$.$.$.<.<.<.<.<.M.<.<.<.I.pXKXKXJXJXJXKXKXKXHXcXuXeXOXD.XXq.$.O.F F F F J F F J $.<.OX6XqXtXlXtXqXqXlXlXlXlXuXuXcXbXHXHXGXCXvX0X0X$XuXbXCXcXcXZXHXCXKXHXHXOX*.M.0.q.N.G.N.h.0.q.>.>.<.q.N.F.N.0.>.;.Q B a S q.Y.G.L.$X$X=.$ , w U 8.4.[.0X}.L.Q.G.O.S ] <.g.!.^.;X<XyX<XyXyX,X,X;X-X>X>XXXY < g g < i 5.OX1X.X.XQ.XX;XOX>X7X;XG.h.0.<.N.Y.>XqXyX7X7X7X7X7X7X;X;X;X;X7X7XqX,XqXqXuXuXuXzXzXzXzXVXzXVXCXCXCXVXVXVXbXbXVXCXCXCXbXzXCXbXbXVXVXbXbXCXVXCXCXCXVXVXzXzXpXF.Q 0.&.p ] ,XzXhXcXcXCXHXZXKXHXHXHXHXHXZXZXZXZXZXZXCXZXZXCXCXzXcXcXcXcXzXcXcXVXVXcXcXcXzXzXzXzXzXzXVXVXbXcXbXCXbXbXbXZXZXZXZXbXbXZXZXCXbXcXcXCXCXZXHXZXZXZXZXCXCXCXCXcXCXCXZXZXCXCXZXCXbXcXcXbXCXCXCXCXCXCXVXzXzXz.w.J.a o ;.bXNXxXlXzXzXtXXXh.h.L.>XqXtXtXtXvXlXvXvXwXq.9.<.*.,.v.v.*.| | K.,.oXvX,.E *.v r.v.c D v ..K.8...c 2 t t t : : O : : t t 2 , t t 0 t : : : : 0 0 t v f t 2 > : : ; v c - : D  XiX .c b b x x.8X#.x c c x (.AX(.H #.#.c.8X8X(.c.M x 4 x #.E.b.m > 4 ,./.A.x.x.#.x n #.c.K M.(.V.v.<.$.#.<.<.$.<.$.$.<.<.<.<.$.$.$.#.#.$.$.",
"#.#.+.+.$.$.$.$.$.$.$.$.$.$.$.$.$.<.$.<.Q.vXKXKXKXJXUXJXxXrX$XOXQ.OXXXG.;.F F F F F M M F M F J O.*.Y.6XuXuXqXlXuXrXuXtXrXlXvXCXbXbXCXHXbXGXbX0XwXtXlXGXcXbXbXZXHXHXHXKXvXh.0.G.Q.G.G.N.>.*.] Q Q ] >.N.G.G.F.N.F.q.O.%.Q ] G.OX.XQ.OX5XJ.w o 9 v _ f E r.#XL.Y.h.O.<.<.g.j.!.:X7X<X9XyX7X9X7X:X;XqXOXJ.J.l < e ` 5.l.@X$XXXOXrXqXqXyXuXyXyXqX7X>X;XY.h.<.0.h.B.!.;X6XqXqXqX7XqXqX7XyXqXyX,X>X;XyXuXzXzXzXzXzXCXCXVXVXVXCXCXCXZXHXZXCXHXHXHXHXHXHXZXCXHXHXHXHXKXHXCXbXzXcXbXbXzXVXXX] >.l p >.qXcXzXcXzXcXCXbXHXZXZXZXZXZXCXCXCXCXZXCXbXZXZXZXZXCXCXZXZXZXZXCXCXZXZXCXCXCXZXZXZXVXCXZXHXHXHXHXKXKXJXHXJXKXKXKXKXKXKXKXKXKXKXKXKXKXKXCXhXuXuXhXhXcXCXZXZXZXHXHXHXKXHXZXHXHXHXZXCXHXKXKXHXHXHXZXZXVXzX9.W w.a $ E eXcXcXcXbXqXY.h.>.>.h.Y.>XrXuXuX0XlXlXvXHXvXvX0XC.*.,.,.D  .,.K.*.*.4X| D ,.B | ,.x c r.wXb.b c b b c t > 5 t c E v v E ..v - 0 E v t 8 , t 0 , t 0 : 2 5 5 D D 4 - - - X 5 B K.iXn...D D D E.(.M D #.| 8XFXiX(.#.#.#./.8X8X8XH x H b.W.b.H 5 > | W.A.#.#.M 4 x H A.o.#.(.8X8XM.M.C.M.<.<.<.$.<.$.$.<.$.$.#.$.$.$.$.+.+.",
"#.#.+.$.$.$.$.$.+.$.<.<.$.$.$.$.$.<.<.<.G.qXzXZXZXKXJXbX0XOXL.D..XY.>.&.S F F F F F F M M M F F X.O.h.>XuXqXqXlXrXtXhXuXtXuXuXzXlXlXzXcXlXvXvX0X0XlXzXbXzXcXbXbXHXbXCXHXtX9.L.D.0.N.L.Y.G.Y.Q.OXQ.Q..X.XY.F.N.N.I.F.q.h.] ] Y.6XQ.L..X0X{.i O < , 0 , 2 t H.$XOXF.<.N.N.g.B.;X7X9X<X9XyX,X:X7X;X;X!.>.e.p.p < < ` J.$X0XOX.X>XrXyXqXuXuXyXqXqXqXqXuXuXqX;XQ.N.q.Y.XX>X>X>X;XOX>XqX7XyXrXuXyXuXyXqX>X;X>XrXhXzXzXzXzXzXVXCXCXHXHXKXHXHXCXCXCXCXCXCXZXZXHXHXHXHXHXzXzXcXCXZXHXCXVXVX>X&.] u R Y.zXuXzXzXzXVXCXCXHXHXZXCXCXZXZXZXZXHXHXHXZXHXHXHXHXZXCXVXCXCXZXCXVXCXVXVXVXVXCXVXcXzXcXCXVXVXCXCXZXZXZXNXZXHXHXHXKXHXHXKXKXHXcXcXHXHXVXuX2X-X>XqXrXhXzXcXVXCXCXCXCXCXbXbXZXHXHXZXZXbXbXbXbXbXbXCXCXCXlX}.9.D.a O 2 w.lXZXhX$XD.z.Y.L.L.}.@X>X1XqXtXqXtXtXlXlXvXtXvXwX,.*.| c D *.,.,.D ,.| ! | | D E t b E.E.b t D b E v c | ,.8.8.v.8.E b 8...t : d t , : : 0 , 0 , t t >  .4XiX8Xv.c v.E.| c - | n. X5X,.| 5 H E.| F #.| x.4XiXiXH M H b.b.c.c.H x.A.A.A.#.4 - c 4Xc.,.#.x - n #.A.c.J J m.9X8XiXW.C.A.V.<.<.$.$.$.<.<.$.$.$.$.+.+.+.$.+.",
"#.$.$.$.$.+.$.$.+.$.<.<.$.$.$.<.<.$.$.<.<.B.Q.XXXX>XqXeX>X$X$X.Xh.O.S F S F F F F F F F F S F ! ] O.g.6XqXqXuX$XrXtXtXuXlXuXtXuXuXlXbXbXzXcXzX6X$XtXzXcXcXbXbXHXHXbXHXKXuX9.G.h.G.q.0.N.Y.!.G.F.Y.Q.XXQ.Y.Y.Y.Y.G.Y.F.q.S ] .X>XG.G..X0Xt.< $ < # 9 v t i {.rXlX>X0.h.B.I.-X7X7X7XyX7X,X;X^.^.Y.Y.&.1 ;.w.1 < $ Y {.=XOXOXqXlXyXyXqXuXuXuXuXuXuXuXqXqXuXqX6X>XqX>X>XqXrXrXqXqXrXrX>X>XF.F.0.e.e.-.] ' &.>.h.Y..X>X>X>XOXOX0XuXCXbXcXzXzXzXcXcXbXCXCXCXCXZXHXZXCXbXbXbXCXCXbXcXzXcXqX&.l u -.qXuXrXyXyXuXVXCXCXCXCXCXCXCXZXZXZXZXZXHXZXCXCXbXcXcXCXVXVXVXVXVXCXVXZXCXCXCXVXcXzXuXuXzXzXhXhXzXzXcXhXhXlXcXbXbXbXcXcXlXzXzX>Xh.F.qXuXqXyXhXzXzXzXzXhXzXzXhXzXzXzXhXhXlXzXbXcXcXcXcXcXcXcXcXcXzXzXzXbXlXtXL.+XN O < v H.+XH.{..X.X@X}.OX0X1XqXuXtX>X$X$Xn.0X#X#XlXvX8.D *.| B c | *.| D ! ,...B | |  .b ,.5X! c E E x b c c b b E E c b D c 2 : , : ; : : : : : , t : : 2 | iXAX(.W.8X<.E.SXiX4X| D ,.E ,.E.iXE.,.F #.| o.x x W.pXx.x x b  .M x M H b.A.c.#.M - 4 A.A.#.F > - 4 H m.c.m.K n c.S.9XAXW.o.#.C.c.$.<.$.$.<.<.$.$.,.$.+.$.$.$.#.",
"$.$.+.+.+.$.$.$.$.$.<.<.$.$.$.<.$.$.<.<.<.$.*.+.+.O.;.<.0.G.G.0.S M F F F F F F F F ! F F ^ / %.] ' >.OXqXyXuX0XtXeX0XrXuXlXtXeXlXtXY.D.qXbXuXOXtXlXcXcXcXbXHXZXbXHXHXtXt.O.] &.q.O.>.q.N.G.D.G.F.Y.L.D.N.F.G.N.F.h.0.t./ / J.Q.t.N..XoXt.2 $ # y 8.u.t i H.#XeXuXQ.N.!.8X7X;X8X7XyX-X!.U.P.T.F.] e e -.Y q 1 2 E $XOX$XwXuXuXuXyXuXqXqXuXuXuXuXqXqXqXqX6X6X>XqX>XqXqXrXqX0XuXhXyXuXqX>X>XY.e.&.] -.0.h.h.t.h.z.J.h.h.J.Y.0XuXzXlXlXzXzXcXbXCXCXZXCXCXCXbXCXHXCXCXHXbXbXzXlXVXVXCXrX' j j h.rXuXuXzXuXzXbXzXbXCXCXHXCXVXHXKXHXHXZXCXCXCXCXCXCXzXVXCXHXCXCXVXCXCXrXP.0.F.>XuXVXCXCXCXCXCXCXCXVXzXzXCXZXZXCXZXHXCXVXzXqXI.g.T.7X,XqXyXuXuXuXuXzXzXpXzXzXzXzXzXzXzXOXt.h..XqXcXCXcXNXbXNXNXcXbXbXvXlXtXcXL.OX` O 2 q V ;.D.$X$X=X$XtXqX>XqXuXrXrX0X=X0Xp.8.;.n.0XiXn.| *.| | ,.v.,.D  . . .| D | E D t r.n.t D ..b c b x 5 5 5 x c c 5 v b 2 : : 0 # , O ; : 0 t : - > c b.E.(.(.8X).(.(.8XiXiXv.D ,.D x x ,.E.E.4XE.A.#.M F c ,.c b n b D D M b #./.A.c.H 4 x v.E.#.m - x K H M c.A./.m.K m.A.).8X(.+.#.M.$.+.#.$.$.<.<.<.<.$.$.$.+.+.$.$.",
"#.+.+.+.$.$.$.<.<.<.<.<.<.<.<.<.$.$.$.<.$.+.X.X.X.F ! ! F ! Q M F F F F F F F F F | O.%.=.t.p.l.*.' F <.Q.6XwXtXtXqXOXOX.XR..XG.L.9.W Z W t.eX$X0XtXtXtXbXbXbXHXKXtXh.^ Z / %.>.F.L.N.>.;.q.h.Y.D.D.G.t.F.t.q.0.q.t.>.h.] ^ e..X%.;.K.L.n.u # 2 U n.n.v v 5.4X0XwX6X!.8X9X!.N.C.8XOXI.B.g.g.g.:.3 e C -.a < q g N L.OXqXuXlXuXuXyXqXqXuXpXuXuXtX6XwXuXqX0XqX6X>X0XqXqXqXrXtXhXuXhXuXlXhXtXhXqXJ.Y.>XqXqX@XY.Y.@X.XY.Y.OX0XuXzXzXlXcXbXzXzXcXbXCXbXbXCXHXCXHXHXCXHXCXcXbXbXVXCXzXHX>X] e l J.qXOXOXuXzXVXVXCXCXCXVXVXVXCXVXuXyXzXVXZXZXZXKXHXCXCXVXuX,XqXuXyX;Xj.:.:.>.>.>.h.I.;XqXrXuXzXzXVXHXKXKXKXZXHXCXCXCXuXqX>XT.;X,XyXqXyX7XyXuXyXyXuXuXuXuXuXpXpXpXpXpXuXyXOXh.-.&.>.Y.lXbXxXlXrX4XoXK..X0XlXlXD.L.9.< < < q ` D.{.gX=X$X0X0X0XqXrXqXqX1X0X=Xt.Z W K.5X5XwXK.*.D  .b.3Xb.v.,.,.D D | D E D t E b t b b b b  .b - > > 5 b ..E | ....D 0 : , 2 # 2 2 : 2 ; > x t c m v.8X8XAX8XAX8X(.AX(.M ,.b 5 c H c D 4XV.4X8XH x x D 5 > x M D c c 5 | A.x.#.n 4 c.A.x.c 4 4 #.).).m.S.(.).S.m.c.m.(./.).S.W.+.X.+.+.#.$.$.<.<.$.<.$.$.+.+.$.$.",
"#.#.#.+.$.$.<.<.<.<.<.<.<.<.$.$.<.+.X.X.X.J J J J F F F F S S S S F F F J J X.X.O.*.9.J.{.p.u.w.F.J F ! X.<.Q.Q.G.t.;.9.%.Z ! W -.-.9.t.9.%.W ] D.XXtXuXcXbXbXlXL.%.W -.>.t.N.R.Q.OXQ.L.D.q.9.q.D.9.D.L.F.N.0.;.t.h.>.q.W N &.D./ *.v.K.K.V $ 0 E i.n.v v *.#X4XwXOX!.6X!.C.M.I.OXQ.B.N.N.N.] j N a Z ~ q : a W ~ L.OXtXqXqXtXuXtXtXuXuXqXqXuXqXuXpXpXqX0X0X6X6X>X0XqXqXtXuXuXtXhXzXzXhXuXhXzXlXhXlXlXlXuX1XXXXX@X$XqXuXlXzXzXzXcXbXbXzXzXcXbXcXCXCXCXCXbXCXCXbXcXcXcXbXbXVXCXzXzXY.^ 1 C OXqX.Xh.T.>XyXzXzXzXVXHXKXHXuX.Xh.h.z.;X>X2XrXuXyXyXyX,X;X!.T.P.P.P.P.!.,XyX7XXX!.;X;X;XT.Y.!.OX>XuXzXpXuXuXyX>X,XuXuXqXyXyXuXyXuXyXyXyXuXuXyXyXyXuXpXyXuXuXyXuXpXuXyXyXzXzXzXuXJ.-.%.+XbXlX%.~ *.%.,.wXlXwXD..X5.2 O q < ` p.H.#X{.$X0XtXtXtXqXqXrX0X=XJ.8...K.iX5X#X XiXr.b E  .*.,.,. .,.,.! *.c B b v b t x c 5 b  . .b 5 > > 5 E |  . .8.v.E : O : 0 : 0 t t 2 2 c b b 5 | 8X8X(.).8XAXiX(.8XA.b D E c b D > | b.c D v.$.x F #.c x n M c c c b H #.#.M - J A.c.F 4 x n H S.8X).).).).S.S.S.S.S.m.).(.S.<.O.O.+.$.+.$.$.$.$.$.<.<.#.$.$.$.",
"$.$.$.$.$.$.<.<.<.<.<.<.<.<.<.$.$.o.J F J J J J F F F F A M A F F F J X.X.X.+.<.q.K.9.w.[.*X%XH.G.O.F F F F O.;.t.-.S W Z a N B ^ -.;.D.J.t.;.C N Z / / >.t.t.&.^ ;.0.t.N.N.9.9.G.Q.9.-.>.v.q.-.;.N.q.9.v.M.,.q.q.9.9.9.D u ..9.B >.L.n.8.v $ i v ) ..v D | ,.r.W.W.!.W.N.M.C.G.G.G.I.G.h.&.B S S Z Z g t q Y ^ W K.qXwX0XtXpXqXtXtXuXuXtXuXuXqX0XqXqX>X0X6X6X6X0XqXtXqXqXtXtXtXuXhXuXuXlXlXhXzXuXlXlXlXuXqX1X>X0XqXtXuXhXlXzXcXbXcXcXcXbXbXbXcXCXCXbXbXbXbXbXbXzXbXHXCXlXlXzXVXrXY.&.3 ' yXtXrXyXyX7X>X>X>XqXrXyXuXuX,XT.T.>X;X;XT.;X,X>X,XqX>X:X,XqX7X,X;X,XqXyXqXqXyXuXuXuXyXyX7X,X,X,X,XqXqX,X,X,XrXqXyXuXyXyXuXzXVXuXyXyXyXyXyXyXyXyXyXuXpXuXuXyXyXyXyXyXqXyXuXrXrXuXzXrXz.T 5.=X;.B %.*.*.6XpXQ.D..X9.C < $ f i.{.{.H.p.t.$XtXhXrXqXrXrXrX=XD.v.#X5X3X,.t B v.r.| | | D b 5 5 c 5 5 c > 5 D ,.b.E.b.8.| D  . .| E b x b c b b c 5 5 > : 2 2 : t v : : : t b 5 | D E.iX9XiX(.S.8X8X(./.#.| D H b c b 5 B  .x M x.#.m #.c.H x n M M H c F H #.K x M A.v.F 4 x H M M #./.9XAXAX).A.).).).m.c././.c.v.O.O.+.O.+.$.$.$.$.<.<.<.<.$.$.$.",
"$.$.$.$.<.<.<.<.<.<.<.<.<.<.<.$.o.X.J J J J J J J J F F F F F X.X.X.X.+.>.0.N.L.oXJ.i. X*X*X&X+XI.O.F F F F F O.*.0.0.O.B 5 2 N B -.5.D.t.p.D.^ Z W / ^ -.;.0.t.t.N.L.D.t.t.G.!.Q.;.Q -.>.;.*.9.-.%.*.>.;.%.q.r.<.r.D.v.Z 2 ..K.v ..K.n.9.E , y t t t v | | | ! | r.R.R.C.V.v.E.W.4X6XG.O.! &.9.%.W Z u i i ~ ;.Z ;.0XuXtX6XqXpXpX0XQ.G.J.J.Q.0X0XqXwXqXtXqX6X6X0XqXqX>X0XyXlXlXrXqXyXuXtXlXzXtXlXzXlXuXtXuXlXlXlXtXtXuXlXlXzXCXcXzXzXbXCXbXbXCXCXbXcXcXbXbXbXbXCXcXcXvXVXVXzXuXqXOXe.j } uXtXuXyXuXyXqXyXuXuXqXqX>X>X,X:X7XqX,X-XU.-X,X,XyXuXyXuXyX7X9XyXyX9X7XyX7X7XyXyXyXyXyXqXyXuXyXqX7X7X7XqXqXyXuX,XY.g.] &.g.F.>XuXpXyXyXyX<X<XyXyXyXyXyXyXyXyXyXyXyXyXqXyX7XqXzXzXuXlXqX.X~ |  X..B | B 4X8Xv.Q.L.t.` g , f ;.{.{.OXD.e.@XtXhXrXrXqX>X0XeX#X#XwXE.! : - c t c  .,.v. .D b  .c > 5 5 | v.n. X4Xb.v.b.b. .b b ,.x. .b b  .! D D c t D D v : : v v 2 t c n.,.5 c c <.A.A.A.H 4 #.8XiXx.M M D c 5 c D b b M x A.iX8Xc.c.8XA.#.m.S.).c.H | #.H n x #.b.#.4 > D H n b M #.8XAXAX9Xc.(.9X).K K c.c.#.<.O.X.! O.O.O.o.+.$.<.<.<.<.<.<.$.",
"$.$.$.$.<.<.<.<.<.<.<.<.<.<.$.+.J J J X.X.X.J J J J J J X.X.X.o.X.o.+.M.Q.OX$X=XeX=X5XfX*X*X=X+XC.J F F F F X.X.+.;.<.q.v.t.9.t.D.;.%.t.w.t.t.W Z S W ^ ;.9.q.q.q.N.N.;.q.N.G.Q.<.S >.L.t.9.9.8.t.*.! *.*...*.*.....! Z u t v B u E *.9.5.V 2 , # - c b v c D | | ,.V.V.v.,.,.V.iX4Xv.D B -.N.D.L.*.v u i q u Z W -.$XOX6X6X6XXX<.%.! W ! W N N ;.q.D.Q.6XwXwX>X6X6X>X>X6XqXqXqXqXqXtXyXqXqXtXuXvXvXuXtXuXvXcXzXzXlXlXzXbXzXzXCXbXcXVXCXbXzXzXCXbXcXlXlXbXbXbXbXzXlXzXbXVXzXyXqXrXXXh.S ] qXyXtXuXuXuXyXyXyXqX,XyX7X7XqX7X,X,X-X-X-X-X:X,X,X,XqX9X9XyXpXyX9X,X:X,X7XyXyXyXyXyXyXyXyXyXqX7XqXyXyX7XqX>XT.h.>.&.' &./ S ] g.;XqXyXyXyX9XyXyXyXyXyXyX9X7XyXyXyXyXyXqXuXpXuXrXuXzXhXgXoXD ! r.v D O.W.v.,.v.q.9.V q q y r.kXtXxXrX$X0XhXhXrXrXqX$X0XeXtXiXK.r.| t 2 t t | v.E b c b D D x b b 5 ,.K.8.,.8.,.| !  .| b  .b.b.x.D D E b D D b b B v f u t c t > 5 b E.| 5 D c > 4 > c x 4 4 H V.H F x 5 b D c t b m u H iX(.8X/.S.FX).(.).).FXiX(.x.#.H M b c H b x D D D D H M #.8XpXpXAX#.c.)./.K #.#.J H c.X.F ! X.X.X.X.o.+.+.+.+.$.<.<.$.",
"<.<.$.$.$.<.<.<.<.<.<.<.<.$.+.O.J J J J J J ' ' ! ! ' X.X.o.o.o.o.O.<.Q.0XtXgXfXfX5XfX5X#X5X5XK.O.F F F F J O.<.<.<.<.9.9.e.L.eXgXrX;./ 9.r.t./ Z Z ! O.%.;.9.;.>.<.q.q.N.N.N.t.| D N.OXK.L.0XoXn.K.9.r.<.,.B 5 : 2 t 2 t u v v t V W *.8.v 0 # d 0 t v D b b ..*.,.v.,.| O.<.v.v.*.E B ,.K.D.K.#X8.2 $ : 2 1 t %.>.0X6XwXL.&.S B ! %.%./ W C N a j m Q ;.D..XOX6X6X6XqXqX6X6XXXqX>X>X6XqX>XOXqXuXuXuXuXlXlXlXlXlXcXbXbXbXzXzXbXbXVXVXVXzXzXzXcXzXzXzXzXCXCXbXbXlXzXCXzX6XXX.X>X>XY.0.S S G.qXqX7X>X,XrXyXqX,X7X>X,X7X,X:X,X7X;X-X:X:X,XyXyXyXyXyXyXyXyX9X9XyX9XyXyXyXyX7X,X<X7XqXqXqX7X7X9X9X7X7X;XF.<.>.9.0.0.;.%.&.>.Q ] 0.!.7X9XyXyXyXyXyXyX9X9XyXyXyXyXyXyXyXyXyXyXuXzXzXzXL.n.D.v D D u D v.#.,.,.t.w.C w f U fXDXxXNXHXbXgXtXrXrXrXrXqXhXlXlX X8.n.8.t : t |  .D b 5 5 b b > D | b t b r.| 8. .D D ,.b.b.,.x.v. .b 5 c x.| D c x 5 2 5 B *.D c D r ; t c c 5 c D c c 4 H D c m #.(.v.| | c c D c 5 D b x o.)././.$.S.9X).).m.S.).9XAX8Xc.A.c.#.H x b  .,.M b x M M m.iXiXAXAX<.#.S.A.m.S.S.$.o.$.F F X.F X.X.J X.o.X.X.X.+.$.$.$.",
"<.<.$.$.$.<.<.<.<.$.$.$.$.$.+.o.X.J J F F F ! F ! F F X.X.+.$.$.+.$.<.Q.6XwXeXgXeXeXeX#XoXK.9.,.J F F F F <.I.!.Q.R.L.L.L.{.$X$X+XtXD.V Y -.%.W Z Z Z ` ;.%.W W W / ;.q.N.q.0.G.t.v..XOXoXt.*.%./ E ! | | | | c t 5 B u 2 2 V ! t a ` U v 0 , v &Xn.d v ..,.| ,.,.8.<.O.O. . .*.B u D B *.R.R.G.v...e 1 u u p Z %.q.tXQ.9.Q W >.;.%.%.*.-.>.-.O.&.O.! %.%.%.&.O.9.t.t.F.G.G.Q.L.XXQ.Q.Y.F.G.OXqX0X0XwXuXlXlXlXlXzXcXlXuXlXzXcXbXzXzXzXzXzXcXcXzXzXzXzXbXCXlXqX>XqXY.h.0.>.<.<.0.h.h.] u 3 / J.OXrX>X>X>X>XqX,X,X7X7X7X7X7X9X7X:X-X-X-X,XqXyXyXyXuXuXuXuXyXyXyXyXqX,X:X,X;X-X-X-X;X;X;X;X!.T.T.T.Y.Y.h.<.0.0.>.&.%.;.>.;.Q Q Q &.f.U.<X9XyXyXyXyXyXyXuXyXuXuXuXuXpXyXuXuXuXuXhXcX.XY 9.! v | c B | F O.q.D.t.Y V ` =.kXDXDXHXKXZXbXtXuXuXrXtXtXlXbXvXK.r.r.,.v c n.v.t > b t x b > c E b 5 x t E v b D b ,.E.E.E.v.,.c 5 5 c c ,.v.D  .v.,.E t c v c 2 *.8.c r 5 5 t t v.| u ,.8X(.,.| S.(.V.<.A.| 5 b D c 5 5 c <.9X).S.m.S.).AX).S.m.S.).AXAXA.x.#.H #.c M c D D b 4 4 M S.iXAXpXAXc.#.8X/.(.)./.#.<.F F M F F F J X.o.X.X.X.O.O.+.$.#.",
"<.<.<.<.<.<.<.<.$.$.+.+.$.+.+.+.O.X.J F F ' F F F X.X.O.+.$.$.<.<.$.<.<.M.C.I.Q.Q.I.N.<.<.$.+.O.F M M F X.OX6X0X#X=X#X*X5X#X#XH._ 5.p.i 1 ! ;.^ N p g N ` =.Y Z Z a *.q.9.K.C.G.oXoXv.W B c B ! | ! | D D c b r.| u B E u i V a t c V t # : 0 f  X Xt v ! ,.v.E | ....r.oX..u v v B E v | ;..XQ.!.0.] Q N 3 %.D.-.9.h./ / ;.;./ D %.;.-.*.t.D.t.9.9.>.;.<.<.>.>.*.O.] Q S Q &.%.<.h.L.G.D.t.N..X$XQ.$XtXtXlXlXlXtXtXuXtXlXlXcXcXbXzXzXbXCXbXzXbXbXlXzXGXwXq.&.<.t.9.0.h.F.N.q.q.h.>.W 1 N Y Y { h.Y.XX>XyXyXqXuXqXyX7X7X7X7X;X7X-X-X>X,X,XyXuX>X,X2X,X;X@X>X2X2XXXY.OXOXOX>X>X>X@X.XJ.z.e.e.F.F.L.D.9.;.>.&.%.6.6.%.Z W S N / >.%.&.<.g.!.!.,X7X7XqXyXuXuXyXqX,XrX>X@X>X0X0XeXwXlXn.t E | ..B v !  .! v.K.9.` / ^ 4.DXDXJXHXHXNXbXvXtX0XtXlXlXvXxX4XK. Xn...r.n.E.v u t D D > c c c t t 5 t 5 t > > b c  . XE.,.b D 5 F *.r.D  .E.,.oXvXiX4X..c t 5 5 u v.,.c c u c c K.*.u ,.wXwXv.<.4X8Xv.c.W.D c u b u c D c c.FX).S.9X).9XAX).m.S.m.).AXAXc.#.M M c > 2 5 2 2 5 c m c #.v.A.A.A.F F ).S.(./.C.<.$.M F M M F F F J X.X.X.X.X.O.O.+.+.",
"+.+.$.$.$.+.$.$.$.+.O.O.O.X.X.X.J F F F F F F F X.O.$.$.$.$.$.$.$.$.$.+.$.$.<.<.<.<.$.+.+.$.+.o.J M M F O.6XtXwXgXfXeX5X&Xi.8...` =.p.9.;.%.*.-.N t q t N W N a N W O...%.t.K.R.q.D m W *.,.N.v.v.#.D b D | D | ,.*.v | ;.E B V v u c O : y t # 0 f , : v E  ...E 8.*...! B Z ~ E E v...*.N.OXyXuXqXN.] a 1 q.0XN./ W W W V V / ` ../ W ^ *.t.v.D.N.9.q.>.&.0.t.Q ^ ^ W ! %.%.! S Z ! >.t.t.q.9.N.G.OXOXOX0XrX0XeXrXuXuXlXtXuXlXlXlXGXvXlXlXlXbXcXlXhX$XD.h.L.OXQ.Y.Y.Y.N.0.0.N.t.D.>.u Z %.~ i l W ] ;.0.t.D.Y.XX6X6X;X;X;XXX!.B.j.F.I.Y.Y.Y.F.F.L.Y.Y.}.-X1X2XXX.X0X0X>X1X@X@X@X@X}.z.t.e.e.z.e.;.{ ;.%./ 6.&.S Z N C W / >.0.>.:.*.O.:.>.g.N.-X>X>X;XXX!.XXXX.X.XXXXXOX$X$XOX5XoX..u D | u u c D | v.N.r.*.9.9.%.r.tXlXL.$XL.N.OX0XtXvXvXlXSXn...v.K.,.8.n.5X,.u u 5 5 t 5 5 t > 5 > 5 b D D  . . .| E E | b B b m V.E.E.K.E.oXR.iXvX5XSXr.5 5 2 > 5 | F 4 5 c m m O.*.F F G.OXv.#.V.8XX.+.8X! B c 5 4 <.v.4 o.8X/.8XiX(.S./.m.c.S.m.S.9X).J V.+.D c 5 - O 2 5 5 4 c M #.#.X.M M M F S.AX8XS.| +.<.F M M M F F F J X.X.X.X.X.o.O.+.+.",
"O.O.+.$.$.+.+.$.+.O.X.X.X.F F F M M F F F F J X.+.$.<.<.$.+.+.$.+.+.+.+.$.$.<.<.$.$.+.+.+.$.+.o.J F M F X.!.0XeXeX5X*X%Xi.2.4.i.r.t.v.*.X.O.$.<.0.&./ S N B Z Z S Q -.q.<.C.G.! D | <.N.q.*.%.D E ! ,.D D | | D c ! r.*.8.r.8.5./ B - < : y i v 0 , 0 c E 8.K.n.K.8.D v W ;.n.r.D v E ..v.%.OXyXzXpXG.] B 4 Z q.W ~ =./ Y Z Y E ` Y Y / / W / -.n.9.;.9.;.%.9.-.Z W W W W / W Z W ^ O.^ Z ^ 9.t.-.-.t.L.OX.X.X.X0X0X0X0XrX0X0X0XtXuXrXuXlXcXHXlXlXtX.XJ..X$X0X0XOXXXQ.N.O.F ! >.0.h.M.;.%.O.^ S N N N Z T W ^ ] ^ &.-.&.>.7.>.-.e.e.h.F.J.F.F.D.F.J.Y.Y.}.XX@X@X@X@X0X1X1X1X=X1X@X+X}.J.}.J.9.e.9./ { %.-.-.W Z Z W %.;.q.G.F.F.F.B.C.B.I.F.I.I.!.;X>XOX!.XXOXXX>X>X>X6X6X0X0X0XOX4XR.9.c c u B | #.#.V.G.M.>.%.| >.D q.L.<.W.<.<.<.N.OX6X8XpXwX*.,.v.,.*.v.b.E.K.| E D v t t v b t 5 t D  .r...*.v.v.v.r.,.*.#.F m #.v.R.W.G.R.E.W.4Xr.E.4Xv.D c u m F F | M | O.| m <.v.M m +.M.<.$.$.V.O.$.C.! D u 1 D #.m - | W.9XAX9X<.x F m.S.S.m.A./.A.c.(.W.$.c 4 4 2 4 c F #.<.+.+.+.$.<.<.#.M $.8XA.c.C.<.+.M M M F M M F F J X.X.X.X.X.X.X.X.",
"J J X.+.+.O.O.+.O.X.X.J J F F F M M F F J J J X.$.$.$.$.$.$.$.+.+.+.+.$.$.<.<.<.<.$.+.+.$.+.o.+.J F M F F <.G.OX+X[.n.[.[.'.i.[.L.F.0.O.X.o.o.X.X.O.+.<.<.<.q.<.q.M.M.N.G.%.a S ,.N.C.C.q.| ,.q.v.*.O.D B c u c B %.K.R./ L.p.../ / t u c u t : 2 v V 8.n.r.| v ..D ..! v.K.,.K.n.! ! ! v.W +.I.6X!.N.0.F a Z %.*.W ~ E E Y Y V Y Z Y W Y Z Z Z ^ W W %.8.;.%.Z N N N N N N Y ^ / ;.;.-.^ N N Z / %.%.W ^ -.9.t.Q.OXL.q.9.9.t.D.D.$X$X$X0XrXrXOXt.9.t.L.@X0X0XOXXXI.h.+.X.O.O.X.O.+.<.<.0.0.<.-./ Z N a N T { ;.>.6.-.{ } -.7.e.t.h.F.J.L.L.J.L.J.L.Y.Y..X$X1X$X1X=X=X@X=X=X+X=X+X}.J.J..XJ.>.;.%.9.%.-.<.*.<.q.D.F.Y.F.F.G.B.G.N.M.h.g.g.q.q.g.N.C.G.G.F.F.F.B.G.B.B.F.F.F.G.Q.OXQ.C.G.C.| B r.,.V.C.C.q.+.+.X.! ,.<.v.M.<.$.O.O.X.X.+.>.<.N.G.G.C.q.C.V.<.V.E.K.v.v.,.D c D c c 5 E ,.D ,.b.,.| c <.v.v.<.,.<.,.<.#.#.M.v.V.v.<.#.v.u c D K.K.F | #.,.O.#.<.v.v.#.<.$.+.c.<.<.$.$.$.$.$.+.$.$.<.<.v.<.+.F c M M V.(.8XM.m 4 H S.(.).S.S.m.$.S.c.<.c.c.<.<.<.<.<.,.+.O.X.J J X.X.o.c.F +.S.J F <.F F F F M F F M F F F F J X.X.' X.X.X.",
"J J J X.X.X.X.X.J F F J F F M M M M M F J X.o.+.+.+.+.+.$.+.+.o.o.o.o.+.$.$.+.o.+.+.o.+.+.o.o.o.J F M F F O.<.N.Q.{.+X+X X{.[.#XOXN.O.o.o.J J o.X.X.X.X.O.O.+.X.+.+.O.q.<.+.q.N.N.>.;.C.v.;.q.v.C.| <.<.,.D B %.q.9.N.D.D.oXK./ v.v.q.F F D c 2 ; 2 ! 8.B D E | | K.oX..iX4Xr.8.....*.*.9.%.! X.O.X.X.X.*.q.0.L.n.Y a N Y V Y E Y Z V v V Z W W Z B N B ~ ..Y a i g g V W ` ;.t.D.9.;.>.%...%.B N a a N S ! ! O.9.q.9.O.O.| | / %.-.w.t.J.t.^ / G..XOX.XOX.XQ.!.C.<.O.+.+.o.X.+.+.o.X.X.F M F +.q.q.0.O.N a S ] 0.l.H.H.l.t.t.h.h.G.L.G.L.L.G.L.Q.OXOXOXOX6X0X$XOX$XOX@XOXXXY.Y..XXXY.Y.Y.F.N.M.N.N.B.M.g.g.<.<.<.<.<.M.M.M.<.<.s.<.$.+.X.O.O.+.O.O.X.X.X.! F F F F F ' X.X.+.+.+.<.<.N.q.,.M.+.#.M.G.M.+.+.X.O.J F X.$.o.o.+.o.o.o.O.X.X.O.+.0.N.G.N.v.v.<.#.+.v.| B v c c v c E E r.n.....E b D D F v.#.<.+.X.O.X.+.+.$.$.+.O.X.#.c.m 4 F R.V.#.#.<.#.#.<.<.<.v.v.<.+.$.+.X.J o.+.o.+.o.+.o.+.o.+.+.+.+.$.$.<.$.c.M.<.J M o.m.S.(.).W.S.W.V.<.o.J +.$.X.o.+.O.O.O.X.X.o.X.X.o.X.o.X.<.F M.+.M <.O.F | F F F M F F F F F F F F F F X.X.",
"J F F J | J F ! F F F F F M M M M M M J o.o.+.+.o.+.+.$.+.+.o.o.o.o.o.+.+.$.+.o.+.+.+.+.+.o.J J J J M M F X.+.$.>.>.t.K.L.{.L..XM.$.X.X.J J o.o.J +.o.X.o.X.o.o.O.X.<.M.q.>.O.+.+.X.$.C.N.G.W.V.M.N.,.O.v.F <.,.*.v.O.9.G.G.G.9.q.,.<.q.q.<.*.F <.D | *.*.v.v.K.E R.R.F R.oXK...v.K.r.*.<.,.+.O.X.X.| X.X.O.q.>.! Z Z ~ ~ Y E E W Z Z W ` ..%.*.^ ~ Y N V Z N Z Z / %.;.w.p.l.D.9.q.9.*.*.q.t.>.<.;.O.! W ! ! %.! ! / &.<.<.;.%.{ ~ ~ / %.S Z <.Q.I.!.!.C.C.M.<.$.$.$.+.+.+.o.X.J F M m M F X.<.<.<.M.M.0.;.O.Q O.>.h.L.}.L.D.t.t.D.F.N.F.G.G.G.G.Q..X!.XX$X$XXX.XXXXXXXXXY.F.G.F.G.N.g.<.O.$.+.+.+.$.$.X.o.+.X.+.+.+.$.$.$.$.<.<.<.<.<.$.$.$.$.$.o.J F F F F F F F F F F F ' ! O.+.+.V.<.V.o.O.+.C.W.B.+.X.X.X.J M X.+.o.+.+.o.+.J X.O.O.+.O.+.+.+.#.+.+.+.+.$.,.,.,.,.,.*.D D D ,. .| 9.*.D D M #.<.#.$.+.O.o.O.J X.o.X.O.O.+.+.+.+.c.<.M.v.C.C.M.<.c.<.+.O.$.V.<.$.+.X.J J J J o.o.J J +.o.o.+.o.+.+.+.+.o.J +.X.o.+.+.+.+.o.o.$.$.<.$.o.o.o.o.J X.X.X.X.X.o.o.o.o.o.o.X.X.o.+.+.o.X.<.M.M.M.X.+.X.X.X.F F F F F M M F F F F F F F F ",
"F F F F F F F F F F F F F F M M M F F J o.J o.o.+.+.+.+.+.o.o.o.o.o.o.o.+.+.o.o.o.o.+.o.+.o.o.o.J J M M F o.+.o.o.X.O.O.#.$.$.$.+.O.o.o.o.J o.+.+.+.o.X.o.o.o.o.X.<.M.$.J X.X.X.X.+.M.C.C.C.<.+.<.+.O.O.<.<.$.O.+.<.,.M.N.C.v.N.q.<.$.$.+.O.<.<.#.<.<.<.<.<.q.V.<.V.N.,.O.C.q.v.r.v.q.,.V.#.+.+.o.o.O.X.O.X.<.<.9...W W Z N g N g V Y ~ / ` / W ` =.=.=.=.` ~ %.8.t.t.r.r.q.9.9.9.t.D.N.N.M.q.M.q.0.0.q.M.M.q.q.0.<.<.;.O.F F B B S B W *.>.q.N.M.<.<.$.$.+.o.+.+.o.O.o.+.o.H F M M M F +.<.<.<.<.<.<.$.$.<.M.N.<.<.<.0.M.G.I.G.N.F.F.F.G.I.I.I.Q.!.Q.I.G.G.F.N.M.M.g.g.<.<.$.$.<.<.<.<.$.$.$.$.$.<.$.$.$.+.o.o.J o.o.J J o.o.o.$.$.$.$.$.$.$.$.$.o.+.o.o.J J J J J J F F F F F X.o.+.C.M.<.o.o.+.C.C.I.<.X.O.J F J F $.+.X.+.o.o.+.O.X.O.O.+.q.B.N.<.+.+.X.O.<.v.<.,.#.O.<.<.<. .*.,.| | | D | v.<.$.+.+.o.o.J X.+.o.o.o.o.o.o.o.O.+.$.$.+.O.+.+.+.$.+.X.o.o.+.+.$.$.+.o.o.J J $.J K o.o.J o.J o.$.o.J J J J o.J +.J X.o.J o.X.J o.J X.o.X.X.o.J o.X.J o.+.o.+.o.o.o.o.X.o.X.X.o.o.X.$.+.$.<.+.<.s.X.X.O.X.J J F F F F F F F F F F F F ",
"F F F F F F F F S F F F F F F F F F F J o.J o.+.+.+.o.o.+.+.+.o.J J o.o.o.o.o.+.+.+.o.o.o.o.o.o.J J M M F J o.+.o.J o.o.o.J o.o.+.J o.o.o.o.+.o.$.+.o.X.X.o.o.X.$.<.o.J o.X.X.X.O.O.<.<.+.<.o.o.+.+.+.o.<.<.$.+.M.M.C.M.v.<.q.F <.M.<.X.o.+.J o.o.$.X.F F O.<.v.N.N.<.<.<.<.*.O.O.,.v.M.<.+.+.o.o.o.o.+.O.O.+.+.+.<.0.9.>.;.;.*.*.>.9.9.9.>.9.9.9.9.9.9.9.5.9.9.r.r.q.q.t.q.q.q.<.<.<.<.<.<.>.<.<.$.<.$.$.+.>.<.<.<.M.M.M.M.C.M.M.M.M.q.<.$.$.$.$.+.+.+.+.+.+.o.o.o.+.o.J M M M F F +.<.<.M.<.<.<.<.<.<.<.<.<.<.<.<.<.M.M.<.M.M.M.M.M.M.M.M.<.<.<.<.<.<.<.<.<.<.<.$.$.$.$.$.$.$.$.$.<.<.<.$.o.$.<.<.$.$.$.$.$.$.$.o.o.o.o.o.J K o.o.+.o.o.o.o.o.+.o.$.o.+.+.+.o.J J J J F F F F F J o.<.M.<.o.O.X.<.B.B.s.o.X.J J F J +.O.+.+.o.+.o.o.+.X.O.g.N.<.X.q.M.+.+.o.O.O.+.X.H F X.X.#.<.#.,.<.<.v.<.<.+.O.X.o.o.o.o.o.o.J o.o.o.o.o.o.o.o.+.+.O.X.o.o.o.X.X.o.X.o.+.o.+.$.+.$.$.$.o.$.K K o.o.o.o.J o.$.K K J J o.J o.o.J o.o.o.o.X.o.o.o.o.o.X.o.o.J o.o.+.+.+.+.o.o.o.+.o.+.J o.X.J X.X.+.X.o.<.$.X.X.<.O.X.J J X.X.J F F F F F F F F F F F ",
"F F F F F F F F S F F F F F F F F F J J o.+.o.+.+.+.+.o.o.+.+.o.o.o.o.o.o.o.+.o.+.+.o.o.o.o.o.o.X.F M M M J X.o.o.o.o.J J J J o.o.o.o.o.J o.o.+.+.+.o.X.X.X.o.o.+.o.J J J X.X.J J o.o.o.o.o.o.o.o.+.o.o.+.+.$.<.m.<.m.M.$.+.<.o.J $.<.+.J o.o.J J J J F F X.+.<.v.<.$.+.$.+.O.O.X.O.O.O.O.+.+.o.o.o.o.+.+.+.+.+.+.o.O.O.X.O.+.O.X.X.X.X.X.X.X.X.O.O.X.O.O.O.O.X.] ! Q ! X.O.X.X.X.O.+.+.$.$.<.$.$.$.$.+.+.+.$.$.$.$.$.$.$.<.<.$.$.$.+.o.o.o.o.o.o.o.o.o.+.+.o.X.X.F F M M M F X.$.$.<.$.$.<.<.<.<.$.<.$.<.<.<.<.<.<.<.<.<.<.<.<.<.<.<.<.<.<.<.<.<.<.<.<.<.$.$.<.<.<.$.$.<.$.$.$.$.$.<.s.s.<.$.$.$.$.$.$.<.<.$.$.<.<.$.o.o.o.o.o.$.+.+.o.o.o.o.o.+.+.+.+.+.$.$.+.o.J J J F F F F F F J o.o.o.o.O.O.O.+.+.o.X.X.X.X.F F +.+.+.+.+.+.+.+.+.o.+.<.g.M.q.<.+.o.o.o.o.o.o.o.J J o.X.o.o.O.O.O.$.$.$.O.O.o.o.o.o.o.o.J J J J o.o.J o.o.o.o.o.o.o.X.o.o.o.X.X.X.o.o.o.o.X.X.o.o.+.o.o.o.K K o.o.J o.o.o.+.o.o.o.o.X.X.X.X.O.o.o.o.o.o.o.+.o.o.o.o.o.o.o.X.J o.+.+.+.o.o.o.o.+.+.o.o.J o.X.X.X.o.X.X.X.X.X.+.+.X.F J J J J J J J J J J J F F F F ",
"J X.| F F F F F F F F J J J F F J J J +.o.J J +.o.o.+.+.+.+.+.o.o.+.+.o.o.+.+.o.o.o.o.o.o.o.o.X.J F F F F F J J o.+.o.J J J o.o.o.o.o.o.o.o.o.o.+.o.o.o.o.o.o.o.o.o.o.o.o.J o.o.X.o.o.o.o.+.o.o.o.o.o.o.+.+.o.<.$.$.<.$.+.o.$.<.<.$.o.o.o.o.J J J K J J F F J o.+.o.o.+.$.+.o.o.o.o.o.o.o.o.o.J J J J J J o.o.J o.X.o.o.X.X.X.J J J J J J J J H J X.X.X.X.X.X.X.X.' F F F F F J X.X.X.X.o.o.$.$.$.+.+.+.$.$.$.+.$.$.$.+.+.+.o.o.o.o.o.o.o.o.o.o.o.o.o.o.X.F F F M M M F F F F X.+.+.+.+.$.<.<.<.$.$.<.<.<.<.$.$.<.<.<.m.<.<.<.<.<.$.$.<.<.<.$.$.<.<.<.<.<.<.<.$.$.$.$.$.<.<.<.s.$.$.$.<.<.<.<.s.<.<.<.$.$.$.$.$.$.$.+.J o.o.+.$.+.+.+.o.+.+.+.o.+.$.$.$.$.$.$.$.+.+.o.J J F F F F F J X.o.o.o.+.+.O.o.X.X.J X.X.X.F F O.+.#.+.+.$.o.+.o.+.+.$.$.+.+.o.O.o.o.o.o.J J o.J J o.o.o.o.o.o.o.o.+.o.X.X.X.o.o.o.o.o.J o.J J J J J o.o.+.+.o.o.J X.o.o.o.o.X.X.o.o.o.o.X.X.o.o.o.o.J J J J o.o.o.o.+.+.o.o.o.o.o.o.X.X.X.o.O.o.o.o.+.+.o.o.o.o.o.o.o.o.o.o.o.o.o.o.o.o.+.+.+.+.o.o.o.J J J J J J J J J J X.X.J F F J J H J X.X.X.X.X.X.X.J J J ",
"X.X.X.X.X.| F F J X.X.J J J J J F F J o.+.o.+.+.+.o.+.+.o.o.o.o.o.o.o.O.O.o.o.o.X.o.o.X.J J H F F F F F M M F G J X.+.o.o.o.o.X.o.J J J J o.+.+.o.o.o.o.o.o.o.J o.o.o.o.o.J J o.o.o.X.X.o.o.o.o.J o.o.o.o.o.+.$.+.$.o.J o.o.J +.$.o.J o.o.K J K J J J J J J J o.o.+.+.$.$.$.+.+.o.o.o.o.o.o.J J J J J J J J J J J J J J J J J X.J X.X.X.X.X.X.X.J J J F X.X.X.X.O.X.X.X.J J J J J F F F J o.o.$.$.$.$.$.$.$.$.$.$.$.$.$.$.+.o.X.J o.o.o.J J J J o.o.+.+.+.X.F F F F F F F F ! O.O.X.X.X.+.+.X.X.+.+.$.$.$.<.$.$.$.$.<.<.$.$.$.<.$.$.$.<.<.<.$.<.$.$.$.$.$.$.$.$.<.<.<.<.<.$.<.s.$.$.$.$.+.$.$.<.<.$.<.$.$.$.+.o.+.+.+.$.$.+.o.+.+.+.o.o.o.+.+.o.+.+.$.$.$.$.$.$.+.+.o.X.J J F F F F F J X.X.O.o.o.o.X.J J X.o.X.| F F | +.+.+.+.+.o.o.o.+.+.+.o.+.+.o.+.+.+.o.o.J J o.J o.o.o.o.J o.o.o.o.o.o.o.o.o.o.o.o.o.o.o.o.o.o.o.o.o.o.o.+.o.o.o.J X.X.o.X.X.J X.o.o.o.o.o.o.o.o.J J J J J J o.o.+.o.o.+.o.o.o.o.o.o.o.o.o.o.o.o.o.o.o.o.o.o.o.o.o.o.o.o.o.X.X.X.o.o.o.+.+.+.+.+.+.+.o.o.o.o.X.X.X.J J J X.J J J J F F F F F J X.X.X.X.X.X.X.X.X.",
"X.X.! | | | X.X.J J J X.o.o.o.o.J X.o.o.o.+.+.X.+.o.+.+.+.o.o.+.+.+.O.X.X.X.X.X.X.X.X.J F F F F M M M M m m M M F F O.O.o.o.o.o.J J o.o.o.o.o.o.o.o.o.o.+.+.o.o.+.o.o.o.o.o.o.o.o.o.X.X.X.o.o.o.o.+.o.o.o.o.o.o.o.o.o.+.o.o.o.o.J o.o.+.o.K K o.o.J J J J J J X.+.+.+.+.+.+.+.+.o.o.o.o.o.o.o.J J J J J J J J J J J J J J J J J J J J J J J J J X.X.X.X.X.X.X.X.O.X.X.o.+.o.o.o.o.o.o.J J F J o.+.$.$.<.$.$.+.+.+.+.$.$.+.o.X.J F F F F F M M M M M F F F F F F F F F S F F M F F S M M F F F F F F F J O.$.<.$.+.+.$.+.o.o.+.$.$.$.+.$.<.<.$.<.<.<.<.<.s.s.s.s.s.s.<.<.<.$.$.<.$.<.s.M.s.<.<.s.<.<.$.$.$.$.+.+.$.$.+.+.$.+.$.$.<.$.+.o.+.+.+.+.+.+.+.+.+.+.+.+.o.o.+.O.X.X.F F F F F F X.O.O.o.o.o.o.o.o.o.X.X.J F F F O.O.+.+.o.o.o.o.o.o.o.o.+.+.o.+.+.o.o.o.J J o.o.o.o.o.o.o.o.+.+.+.+.+.o.o.o.o.o.o.o.o.o.o.o.o.o.o.o.o.+.o.o.o.o.o.o.o.X.o.X.J J o.o.J J o.o.o.o.J J o.o.o.o.J J J X.+.$.+.o.o.o.o.o.o.o.o.o.o.o.o.+.+.o.o.o.o.J o.o.X.X.o.o.o.o.o.o.o.+.+.+.+.+.+.+.o.o.o.o.X.X.X.X.X.X.X.X.X.X.X.X.X.X.J J J J X.X.X.X.X.X.X.X.",
"X.F F F F F F J F J J X.X.X.o.+.+.o.+.+.o.o.+.$.+.o.o.+.o.o.+.+.o.X.X.X.J X.X.X.X.X.X.X.F F M m m m M M F F F M m F F X.X.o.o.o.o.o.+.+.o.o.o.o.o.o.o.o.o.o.o.o.o.o.X.X.X.X.J J J J X.X.X.X.X.X.+.+.+.o.o.o.o.o.o.o.o.+.o.o.+.+.o.+.o.o.o.o.o.o.o.o.o.o.J J J X.+.+.+.o.+.+.+.+.+.+.o.o.+.o.o.J o.o.J J J J J J J J o.o.o.o.J J J X.X.X.X.X.X.X.J X.X.X.X.X.X.F F F F F J J X.o.o.o.o.X.X.o.X.J J J J J J J o.o.X.X.J J J F F F F F F F F F M m M M M m m m M F M M B F S S M B B F F F F M M F M B A F S F X.X.X.+.$.<.+.+.+.$.$.$.+.+.$.$.$.$.$.$.<.<.s.s.s.s.s.<.<.<.<.$.$.$.<.s.m.m.<.<.<.<.<.<.$.$.$.+.+.+.$.+.o.o.o.$.$.<.$.$.+.+.+.+.o.o.o.o.+.o.+.+.+.+.$.$.$.+.O.X.! F F F A F F X.O.X.o.o.J X.J J J J F F F F | X.X.o.o.o.+.o.+.+.o.o.o.o.o.o.o.o.+.o.+.o.+.o.o.+.o.+.+.+.+.+.+.+.o.o.O.o.o.o.o.o.o.o.+.+.+.+.+.+.+.+.o.o.X.X.X.o.o.X.+.o.o.o.o.o.X.J o.o.o.J X.X.X.X.X.J J X.X.X.o.+.o.o.o.o.o.o.o.o.o.+.+.o.o.o.o.+.o.o.o.o.+.o.o.o.X.o.o.o.o.+.+.+.+.+.+.+.+.o.o.o.o.X.X.X.X.X.X.X.X.X.X.X.X.X.X.X.X.X.X.X.X.X.X.X.X.X.X.X.",
"F F F F F F F F F F J X.X.J J X.o.o.o.+.o.o.+.$.+.o.o.o.O.X.X.X.X.X.X.X.X.X.X.X.X.F F M m F F F J J J X.X.X.F M m m F F X.X.o.o.o.o.o.o.X.X.O.+.$.+.+.+.o.O.+.+.+.+.+.O.X.X.X.O.X.X.O.O.O.O.O.+.o.o.X.X.O.o.o.o.+.o.o.o.o.o.o.o.+.+.+.+.+.+.+.o.o.o.+.o.J H H X.o.o.+.+.$.$.$.$.+.+.o.o.o.o.J J J o.o.o.o.o.J J o.o.o.o.+.+.o.o.X.X.X.X.X.J F F F F F F F F F M M M M M M F F F J o.+.o.X.X.o.+.$.$.$.$.o.H F F F F F M M M M F F B B F S F S S m B m m m m M M F M M M B M B S F F F F F F M F F F F F M M F S M F +.$.$.+.+.+.$.$.$.+.$.$.$.$.$.<.<.<.s.s.s.s.$.<.$.<.<.$.$.<.<.<.$.$.+.o.o.+.$.$.$.$.$.$.+.+.o.+.$.$.$.$.$.$.+.+.+.$.$.+.o.o.o.+.+.+.+.+.o.o.$.$.+.O.O.X.! F F M m M F J X.X.X.J X.X.X.J F F F F D M M F F J J J J o.o.+.o.o.o.+.+.+.+.+.+.+.o.o.+.o.+.+.o.+.+.+.+.+.+.+.o.o.+.+.+.+.+.+.+.+.o.o.o.o.+.o.o.X.X.X.X.J X.X.X.X.o.o.o.o.o.o.o.o.o.o.J J J J J J J J X.o.o.o.o.+.+.+.+.+.+.o.O.X.F F F M M F J J X.X.O.O.o.o.O.O.+.+.O.O.+.+.$.+.+.+.+.+.+.+.O.O.+.X.X.X.X.X.X.X.X.X.] F F X.X.X.X.X.X.X.X.X.X.X.X.X.X.X.",
"F F F F F M M M M M F F J F F F F J X.X.+.<.M.M.$.+.+.+.X.J J F X.X.X.X.X.F F F m m m F F F O.X.o.X.X.X.X.O.! F M m m M F F H J o.O.o.O.| | F F F F F F F F F F F F F F F F | X.F F F F F F F X.J F F F F J X.X.J X.X.X.o.X.J o.o.+.+.+.+.+.+.o.o.+.+.+.o.H F F J X.o.+.$.$.+.$.+.+.o.o.o.o.o.o.o.o.+.+.+.+.+.+.+.+.o.o.+.+.+.+.$.+.o.X.J F F F F F M M M M M M M F F F F F F F F F X.X.O.+.+.O.X.X.X.X.J F F F F F F F F F F F F F B B S S S S B S B M M M M m m m m m M B B B S F F F F F F F F F F F M M F F m F X.o.+.$.$.$.+.+.+.+.$.$.$.$.<.<.<.<.<.<.<.<.$.$.+.J F F M M F F J J J F F F F F J X.X.X.X.X.J J X.X.J J X.J J J J X.X.J J J +.+.o.o.X.X.X.X.F F F S A A M M A M m m F F X.J F X.X.F F F F S B B B B m m F F F F F J X.o.o.o.o.o.o.+.+.+.+.+.O.O.+.o.o.+.o.+.+.o.o.o.o.o.o.O.+.+.+.+.+.+.+.+.+.+.$.+.+.+.O.X.F F F F J X.X.X.J J J X.o.o.o.o.o.J J J J J J J J F F F F F F X.O.O.O.+.O.X.F F F M m m m F X.O.O.O.+.+.+.+.+.+.+.O.X.X.X.X.X.F J J F F F F F F F B m m m m m m m m m m m M F F F F F F F F X.X.X.X.X.X.",
"Q F F F M m m M M M M M M M M M M M m m m M X.$.<.$.$.$.O.X.J F S F F F F m m m a m F F F X.O.X.X.X.X.O.X.X.] ! B m m m M M M m m m m m c c m m m m m m m m m m m m M F F F F F F F F F F F F F F F F F F F M F F F F F F M F F F F J F X.$.<.$.$.$.$.$.$.o.H F F J X.+.+.+.+.$.+.+.+.+.o.o.+.+.+.+.+.+.$.$.$.$.$.<.$.$.#.O.X.X.X.F F F F F F F F F M M F F F F F F F F F X.X.' F F F X.X.X.| | F F F F F F F F F F F F F F F F ! F F F S B N m B S S B B B F F S F ! X.O.+.O.O.+.+.+.+.$.<.+.O.F F F F F M F F M F F F F X.+.+.X.X.X.+.+.#.$.<.<.<.$.X.F F F F F F F A M M F F F F F F F F F F F F F F F F X.X.X.X.X.X.F J X.X.X.X.X.X.F J X.o.X.X.J F F F F F ! F F S A M S F m m m m M F F F F ! F M m M B m m m m B m m F F ! ! F F F J o.+.+.+.o.o.O.O.O.O.+.O.+.o.o.+.+.+.o.o.O.X.X.X.X.X.X.X.O.O.O.O.O.O.o.X.F F F F F F F F F X.X.X.X.J J J J J X.X.X.X.J J J J J J J X.J J F F F F F J X.X.| ! Q S M B B B m B S F ! ! ' X.O.+.O.O.X.X.X.X.X.' X.X.X.X.J F F F F F F S m m a j m m m m m m j j m m m B B B m m m m F ] O.X.! F ",
"F S B m m m m m M M M M M M m m M M M M m m M F A M M A F A M m m m m m m a a a m m F ! F F X.X.X.X.| ! Q Q Q F B m F F F M F M m u c c a a c m B B B B B B B m m m m M F F F F F F F F F F F S F F F F F M M M F F M M m m M M F M B F F F F F X.O.<.<.<.<.X.F F J X.J J X.+.$.+.o.o.o.o.+.o.o.o.X.o.X.X.O.O.X.X.X.X.X.| F F F F F M M F F S S F B M M m m M A F F F F F F ! F F F F F F F F F F F F F F F F F ! ! O.X.| F F F F F S M B B B B B B B S F F ! ] O.;.<.<.<.<.>.>.$.$.$.<.<.<.<.<.<.<.<.>.O.! S B F F F F m m M F B B m m B B M B B B B B m m m m m m m m m m m m M F F M m m A F F F F X.! F F F F F X.X.X.X.X.X.F ' X.X.X.' F F F F M m m m M M F S A A B M M M B B M m m B F F F F B m a N N a c c m m m m B F F ! X.! F F X.O.O.O.O.O.O.+.+.O.O.O.O.O.O.O.O.X.X.X.X.X.X.X.O.O.] F S F F F F F F M m m m m B M M F F ! X.X.X.' ' ! F F ! X.X.X.X.X.X.X.X.F F F F F F F F F F F F F F S B B N m m B m B ! X.! ! F ! X.X.' F ! ! ! ! ! ! F S M m m m m m m m m m a a a a a a a u a a a m m m m m m m j a a m m M S S S S ",
"Z B B B m m m m M M M M M m m m j m m M M M A A M M m M M M M m m m m m m m m m a m B S F F ! F F F F F F F S B m m F ! F F F F m a c c a c c N m m m m m m m m M B M M F S S F F F F S F F F F F F M M M B B M M F F F B B F S F S S F F F F F F F F F F F F F F F F F F F J o.o.o.+.$.$.$.o.J F F F M M M F M M M M M M M B M F F F F ! ! W F F S S F F ' X.X.+.$.$.$.+.O.X.F F F F F F F F F F F F F F F X.+.,.+.>.+.+.+.X.| F F F B B B B B B B B B m m m m B B M M F F ! X.+.O.O.X.| F F F F X.X.X.O.! F B m m m B B m m m m m m m m m m m m m m B m m m m B B B B m c a c m B B m m m m m m M F F F F F F F F F F F F ! ! ! F F F F F M m m m m M B M A A B B M B M M F S S B m m m m B F S F B m a N N m m m m m c c c m B F F F F F F F F F F J ' X.O.O.X.X.X.X.X.X.X.X.X.X.X.X.X.X.X.] F S m j a a a a c m m m m m m m m m B M F F S S S F B B S S F S F F F F F F F F F F F F F F F F M B B m m m N B m B B B F ! ! X.! F F F m m m m j a u u j j m m j j j m m m m a m N N N m m m m N N N N N a a a a m N N N m m m m m m m ",
"S Z B B m m m m m m M M M M m m M m m m m m M M A M m m m m m m m a a a a a a a j j m m B S F M M M S F F S M m m B ! ! ! F Q S m c c a a c a c c c a a a c N m m m m m B B F F F F F F F F F F B M M M M M M M M M M B B B M F F S S F S M M F F F F F F F M F F F J F F F F J J J X.o.O.O.J F M M M M M F F F M m m m m m m m m m M F ! O.O.O.! Q Q ! F F F F F ' X.+.$.$.X.F S S F F F F F F F F F F F F ! X.X.! F F F F F F F M M M B B B B B B B S S M M A F F S M m m m m a a m m m m m m m M M F F F F B m m m m B N m c m m m m m m m m m N m m m c c c m m m B D F F S F F F F F F M M m m F F F F F X.! ! ! ! F ! X.X.! F F M m m m M m m B S S F S A S S A M m m B B S m m B B m m B m m a u u a a a N c a c c c c c m m B M M M M m m m M A F F F F F F F F F J F F F F F F S F M m j a u u j m m m m c a u u u a a c c c m m m m m m m j a j j m m j j j j j a m m m m m m m B B B m m m m m m N B B B B m B B m M M m m m m j m m m m m B B m m m m m m m m m m m a m j j a a a a a a c N N N j a N N m j j m N m m m m m ",
"! S B B m m m m m m m M M M M M m m m m m M M m m m m m m m m m m a a a a a a a m m m m m m m m m m m B B B m a c B ! F F F F B m c c a a m c a a a a a a a a a u a c m m m m B B S S S S S B B F F ! X.X.! ! F M M M M B B F S F F F F F M M M M M M M M F m m M M M M F M M m m m m m n n m m M M M M M F | | F M m m m m m B m m B M S F F S B m m B m m m m m M A F F F A m M F F F M F F F F F F F F F F M M F F M F F F M M M M m m m B B B N B B B m m m m m m m a a a m m m m m m m c m m m m a c c a a m c a m m a a m m m m m m m m m N N N B B B B B B B B B B B B B F F F F F F F A F F F F m m m m M M F F S F F M m m m m m m m m B M M M A B M m M A F S F ] O.+.>.O.O.*.O.F m m m m m m m N N c c a u u a c m m m m m m m m m m m m m m m M M m m m m m m m m m m m m m m M m m j j j m m j a a c c c c a a c m c c a c a m j j a j j j j a a a j j j a a a a a m m m m j m m m m m c m m N N B B B B m m m m m m m m m m m m m N B B B B m M M B B B N m B B B N N N N m m m N N N N N N N N N N m j a a j N m m m B B "
};
