/* XPM */
static char *_6d4b99382c84620d1cf0b0e3317d1f2jjcLmuDW3EOOTpLX[] = {
/* columns rows colors chars-per-pixel */
"122 136 160 2 ",
"   c None",
".  c #060504",
"X  c #090100",
"o  c #0B0903",
"O  c #0D0D0D",
"+  c #140000",
"@  c #1C0000",
"#  c #120E04",
"$  c #151105",
"%  c #1A1506",
"&  c #1E1808",
"*  c #121212",
"=  c #1B1B1B",
"-  c #240000",
";  c #2A0000",
":  c #350000",
">  c #3C0000",
",  c #231C0A",
"<  c #28200D",
"1  c #2C2313",
"2  c #2E2518",
"3  c #31261B",
"4  c #35291E",
"5  c #222222",
"6  c #2C2C2C",
"7  c #3D2D21",
"8  c #333333",
"9  c #3A3A3A",
"0  c #430000",
"q  c #4C0000",
"w  c #540201",
"e  c #5A0502",
"r  c #5E0803",
"t  c #640C05",
"y  c #691207",
"u  c #6D1509",
"i  c #721B0B",
"p  c #7A210E",
"a  c #7F2410",
"s  c #412F22",
"d  c #443123",
"f  c #4B3525",
"g  c #533927",
"h  c #563B28",
"j  c #5A3D28",
"k  c #64432B",
"l  c #69462B",
"z  c #6E492D",
"x  c #744C2E",
"c  c #794F2F",
"v  c #7D5130",
"b  c #434343",
"n  c #4C4C4C",
"m  c #535353",
"M  c #5C5C5C",
"N  c #646464",
"B  c #6C6C6C",
"V  c #737373",
"C  c #7C7C7C",
"Z  c #832611",
"A  c #862812",
"S  c #8B2913",
"D  c #942B16",
"F  c #9A2C17",
"G  c #9E2C18",
"H  c #A42D19",
"J  c #AB2D1B",
"K  c #B42F1D",
"L  c #B82F1E",
"P  c #BC301F",
"I  c #C33320",
"U  c #C93622",
"Y  c #CD3922",
"T  c #D23E22",
"R  c #835532",
"E  c #8C5A35",
"W  c #925D36",
"Q  c #966037",
"!  c #9B6239",
"~  c #A2673C",
"^  c #A6693D",
"/  c #AA6C3F",
"(  c #D64122",
")  c #D94422",
"_  c #DD4A22",
"`  c #E04E22",
"'  c #E35322",
"]  c #E65B22",
"[  c #E96223",
"{  c #ED6B2B",
"}  c #EF7131",
"|  c #F27B3D",
" . c #F17536",
".. c #AE6F41",
"X. c #B47243",
"o. c #B97647",
"O. c #BD7A4A",
"+. c #C27E4E",
"@. c #F37F43",
"#. c #C68151",
"$. c #CA8454",
"%. c #CE8858",
"&. c #D48D5D",
"*. c #F48247",
"=. c #F5874D",
"-. c #F7925C",
";. c #F68D55",
":. c #DB9363",
">. c #DF9768",
",. c #E39B6C",
"<. c #F89C6C",
"1. c #E7A071",
"2. c #E9A275",
"3. c #ECA679",
"4. c #EEA97C",
"5. c #FAA67A",
"6. c #FAA57A",
"7. c #848484",
"8. c #8A8A8A",
"9. c #929292",
"0. c #9B9B9B",
"q. c #A4A4A4",
"w. c #ABABAB",
"e. c #B5B5B5",
"r. c gray73",
"t. c #F0AD82",
"y. c #FBAC83",
"u. c #FBAF88",
"i. c #F2B086",
"p. c #F4B48B",
"a. c #FCB28C",
"s. c #F6B790",
"d. c #FCB692",
"f. c #F6B992",
"g. c #FDBD9C",
"h. c #FDB997",
"j. c #FDBFA0",
"k. c #FEC2A4",
"l. c #FEC8AD",
"z. c #FEC5A9",
"x. c #FFCCB3",
"c. c #FFD2BC",
"v. c #CBCBCB",
"b. c #C2C2C2",
"n. c gray82",
"m. c #DBDBDB",
"M. c #FFD7C3",
"N. c #FFD9C6",
"B. c #FFDAC8",
"V. c #FFDDCC",
"C. c #FFE2D4",
"Z. c #FFE7DA",
"A. c #FFE8DD",
"S. c gray89",
"D. c #EBEBEB",
"F. c white",
"G. c #FDFDFD",
"H. c #FFFBF8",
"J. c #FAF6F4",
"K. c #FFECE2",
/* pixels */
"                                                                                                                                                                                                                                                    ",
"                                                                                                                                                                                                                                                    ",
"                                                                                                                                                                                                                                                    ",
"                                                                                                                                                                                                                                                    ",
"                                                                                                                                                                                                                                                    ",
"                                                                                                          a.A                                                                                                                                       ",
"                                                                                                        J a p y                                                                                                                                     ",
"                                                                                                      J J p e J ]                                                                                                                                   ",
"                                                                                                    ] Y 0 Z q J G.Y                                                                                                                                 ",
"                                                                                                  | C.Y > Z e a.G.| {                                                                                                                               ",
"                                                                                                { x.Z._ u A p G.G.;.c.T                                                                                                                             ",
"                                                                                                M.l.B.Y Z A F G.G.| c.l.                                                                                                                            ",
"                                                                                                V.N.B._ D A P G.G.[ -.N.                                                                                                                            ",
"                                                                                                Z.c.B.` D K I G.G.] -.=.                                                                                                                            ",
"                                                                                                Z.M.M.' D P Y G.G.{ | -.                                                                                                                            ",
"                                                                                                Z.B.c._ D K T G.G.<.] <.                                                                                                                            ",
"                                                                                                B.M.x.) F J I G.G.{ g.|                                                                                                                             ",
"                                                                                                B.V.x.) S H K G.G.=.[ |                                                                                                                             ",
"                                                                                                M.B.l.I A H P G.G.g.] {                                                                                                                             ",
"                                                                                              -.c.A.k.P S H J G.G.k.( } '                                                                                                                           ",
"                                                                                              5.z.c.h.P A H L G.G.k.Y { )                                                                                                                           ",
"                                                                                              l.k.M.g.K A G L G.G.x.U { `                                                                                                                           ",
"                                                                                              x.l.c.h.L A G P G.G.z.U ] _                                                                                                                           ",
"                                                                                              x.g.c.u.J Z D J G.G.k.U ' _                                                                                                                           ",
"                                                                                              Z.g.x.g.K p S J G.G.@.U ) Y                                                                                                                           ",
"                                                                                              A.y.x.u.H p F F G.G._ I I J                                                                                                                           ",
"                                                                                              A.a.k.d.D a D F G.G.[ I Y D                                                                                                                           ",
"                                                                                              K.u.k.<.F p D F G.G.T P I D                                                                                                                           ",
"                                                                                              C.y.d.-.D a S D G.G.Y J P A                                                                                                                           ",
"                                                                                              C.5.j.=.D i S F G.G.) G J Z                                                                                                                           ",
"                                                                                              B.5.g.} A p A D H.G.[ F F p                                                                                                                           ",
"                                                                                              M.5.g.} S p A D H.G.{ D F Z                                                                                                                           ",
"                                                                                        N 7.T l.5.h.] A Z A A N.G.] D A A Y C D.                                                                                                                    ",
"                                                                                        b.C [ g.<.h.' A i A A -.G.( D A p Y B S.                                                                                                                    ",
"                                                                                        m.C  .a.y.h.] Z p Z A 5.G.] A A p T N S.                                                                                                                    ",
"                                                                                        S.V | y.u.g._ a i Z A =.G.[ A p p T B m.                                                                                                                    ",
"                                                                                        m.C -.<.6.d._ Z a A Z ] G.T S Z i U B n.                                                                                                                    ",
"                                                                                        m.V 6.-.u.d.T p i p A ] G._ A S t ( N b.                                                                                                                    ",
"                                                                                      7.n.B 6.<.y.a.( a p A A { G.' Z A u I N w.7.                                                                                                                  ",
"                                                                                      q.0.V u.<.a.d.I u u p Z _ G.( Z Z u U N w.7.                                                                                                                  ",
"                                                                                      b.7.V k.<.a.d.T i i p Z ) G.) Z i u H N v.w.                                                                                                                  ",
"                                                                                      n.7.B 5.-.u.5.T S F J J ) G.T F D S G B N n.                                                                                                                  ",
"                                                                                      n.N B 7.8.8.9.q.e.e.e.e.e.e.q.9.8.C 7.B N v.                                                                                                                  ",
"                                                                                      S.N 9.8.C N m N N N N N N N N m N C C C N 7.                                                                                                                  ",
"                                                                                      S.B C B 8.8.9.q.e.e.e.e.e.e.q.9.8.8.B C B 7.                                                                                                                  ",
"                                                                                      m.V 9.8.N m m N N N N N N N N m m N C 8.V C                                                                                                                   ",
"                                                                                    G.S.C N B 8.8.9.q.e.e.e.e.e.e.q.9.8.8.B N C 7.v.                                                                                                                ",
"                                                                                    S.v.B 0.8.N M m N N N N N N N N m M N C 8.B 8.v.                                                                                                                ",
"                                                                                    S.w.B N N 8.9.0.q.e.e.e.e.e.e.q.0.9.8.N N B 0.v.                                                                                                                ",
"                                                                                    v.8.V 0.8.N M m N N N N N N N N m M N C 8.V B q.                                                                                                                ",
"                                                                                    n.M B N B 8.9.0.q.e.e.e.e.e.e.q.0.9.8.B N B C q.                                                                                                                ",
"                                                                                    v.B V 0.8.N m m N N N N N N N N m m N C 8.V C 8.                                                                                                                ",
"                                                                                    r.m N N B B B C C 8.8.8.8.8.C C B B B B N N V 7.                                                                                                                ",
"                                                                                  q.v.9 m n 8 8 b m m m b b m J.D.M 6 6 9 8 n b N 8.8.                                                                                                              ",
"                                                                                  q.9.m n 8 > X + F D i u i i '  .u t - - q 9 M M C 8.                                                                                                              ",
"                                                                                  q.B m b 8 @ ; I ] S u i p y ( _ y i e ; : n m M C q.                                                                                                              ",
"                                                                                  q.B N B F y P T ( Z y i i t Y Y y t i t e S r.B 7.8.                                                                                                              ",
"                                                                                  9.9.0.7.*.` ' T I a y i i y I Y u t i i t H C C C B                                                                                                               ",
"                                                                                  8.8.e.7.*.[ ` T K p y i i t K K t y t u q F C 7.C C                                                                                                               ",
"                                                                                  8.0.e.T *.[ _ U J p y u u y K K u t i i q A K C C 7.                                                                                                              ",
"                                                                                  8.0.e.Y *.` ( U H p y i y y H K u t t u q i J C V C                                                                                                               ",
"                                                                                q.8.0.q.Y *.` ) _ G i u y t u G J y u e i q t H C C B 9                                                                                                             ",
"                                                                                q.0.8.q.I *.) ` } J i u y y u S F t u w u q t H C B M 9                                                                                                             ",
"                                                                                q.0.0.0.I [ ) _ ) J u y y i t p D t t q t e w H B B N M                                                                                                             ",
"                                                                                B 0.0.0.I [ Y P I J u i i u r Z F t t t q e t A M B B N                                                                                                             ",
"                                                                                B 0.0.9.I [ Y K J J i u u y t Z D t t t q w q A m B B N                                                                                                             ",
"                                                                                B e.q.0.Y [ Y J G J u t y u t D D t t q w e q A N C M M                                                                                                             ",
"                                                                                7.w.q._ ( [ Y H F F u y u t i A A t e q e w q A J V N N                                                                                                             ",
"                                                                                V e.q.) _ [ Y H F S i u i y i A S t r q r e q Z H V N m                                                                                                             ",
"                                                                              q.7.8.w.U [ [ K H F A y S I : t A I S w w t e 0 Z G B N N 9                                                                                                           ",
"                                                                              q.8.q.9.Y [ [ G G S Z i q > + w + @ q r e t w > i H B B N 9                                                                                                           ",
"                                                                              q.8.q.Y J [ Y F F D p t 0 X + : @ @ 0 e t t r 0 t F K B B 9                                                                                                           ",
"                                                                              B 9.q.' J [ ( D D A p t 0 X X @ @ @ 0 w e t t > y D P B B B                                                                                                           ",
"                                                                              q.9.8._ J [ P F F A i e + X X X X X X q q t t 0 e S K B B B                                                                                                           ",
"                                                                              8.8.8.Y H ) Y D Z Z a q + + X X X X X q q r t 0 e D J B V B                                                                                                           ",
"                                                                              7.8.8.Y J ) Y J Z Z u q + + X X X X X q q w t q w A J B B B                                                                                                           ",
"                                                                              7.8.8.U J P J D Z Z u q ; + X @ + + + > q w e q q Z J B V B                                                                                                           ",
"                                                                              8.7.7.U J P H A p p i q + + + + + + ; 0 q q w 0 q p H B V B                                                                                                           ",
"                                                                            V 8.7.7.I H P H A i i u q ; - + ; + - - > q q e q q p H B B B m i.3.,.O.                                                                                                ",
"                                                                            V 8.7.7.I H P H u u w ; X - + @ + @ ; ; - > q q q 0 i G B B B m ,.t.t.3.3.k                                                                                             ",
"                                                                            8.8.7.7.G D F i w w > - - - - - - @ - - - ; q w 0 > u F N N B B 3.i.p.i.t.1.Q                                                                                           ",
"                                                                            8.8.7.7.G S S i 0 > - @ @ - @ @ @ @ + + @ + ; q 0 0 t D N N B V :.1.i.p.f.p.,.h                                                                                         ",
"                                                                            8.7.C C D A D i ; ; - - - - ; - - + @ @ + @ @ ; > 0 e D B N B V +.:.3.t.f.f.p.+.7                                                                                       ",
"                                                                            7.7.C C S a e > ; ; - @ - - @ @ @ X @ @ - + + - : > q S N N B B X.+.1.3.t.s.s.i...f                                                                                     ",
"                                                                            7.7.C C S Z t ; @ - @ + X + + + @ + + @ @ @ @ - - > q A N B B B X.+.:.1.4.p.s.p.3.o.^                                                                                   ",
"                                                                            C 7.C C Z t > - - + - + - @ @ @ @ @ @ @ + @ @ @ @ > q a N N B V E X.$.:.1.i.f.p.i.3.R                                                                                   ",
"                                                                          V C 7.C C A w ; - @ + ; @ @ + + + @ + + + @ - - + @ ; q p N B B B M / O.$.>.t.f.p.p.3.>.j                                                                                 ",
"                                                                          V V C C C t : @ + @ - @ + @ - - - @ - - + + @ - @ @ - 0 i N B N B M / X.O.&.4.p.f.p.4.3.&.o.                                                                              ",
"                                                                          B V C C C t : - @ - @ + + - - - - @ - @ - @ + @ @ + @ > i N B B B B E / X.$.:.i.f.f.t.i.3.+.                                                                              ",
"                                                                          V B C C C t : - + - @ + + @ @ @ @ @ @ @ - + @ @ - + @ ; t N B N B B R E ..X.&.>.p.p.p.i.t.,.O.                                                                            ",
"                                                                          B V 7.C C w - + - + - @ + @ + + + - - - + + @ - @ @ - ; q N B B C B R ~ o...$.>.4.i.p.i.i.3.>.                                                                            ",
"                                                                          V C 7.7.C 0 ; ; : : : > > q : : : : : : : : : : : : : : q N B C C C E ~ ..o.%.>.t.s.p.p.s.p.p.&.                                                                          ",
"                                                                          V C 7.7.7.C N N B V V V C C C C C C C C C C C C C C C C C C C C C B W ~ ..O.#.>.,.3.i.p.p.p.p.t.,.                                                                        ",
"                                                          p.f.s.3.3.X.3.C B C 7.7.7.C C 7.7.C C C C C C C C C C C C C C C C C C C C C C 7.C C V ! ....+.$.$.&.:.>.2.2.i.i.4.>.o.                                                                    ",
"                                                          i.1.>.&.:.&.X.C V C 7.7.C C C C C C C C C C C C C C C C C C C C C C C C C C C C C C C ! ....X.+.o.O.O.+.&.&.:.,.3.2.&.E                                                                   ",
"                                                      p.s.3.,.>.:.:.&.$.C C 7.7.C C C C C C C C C C C C C C C C C C C C 7.C C C C C C C C C C C ! / ..o.o.o.o.X.X.o.+.+.%.>.>.,.+.                                                                  ",
"                                                    4.p.t.,.,.,.,.:.&.$.7.B 7.C B B N N N N N M N N N N M N M M M N N N N N M N B B B B B C C B E / ^ +.+.o.o.X.X.^ ../ o.$.&.,.:.R                                                                 ",
"                                                  3.i.4.3.,.3.4.4.,.:.&.C B m b 8 6 8 8 8 8 6 8 8 8 8 8 6 8 8 8 8 8 8 8 9 8 8 8 8 8 6 8 n M C C ! ^ ..o.&.+.O.X.X.....^ X.X.#.&.&.X.                                                                ",
"                                                p.3.4.4.t.4.3.4.4.4.,.&.C M 8 * * O * * * * * * * * * O * * * * * * * * * * = * = * * * * 8 C C ! ^ ^ ..%.$.+.O.o.X.X.......+.#.%.o.                                                                ",
"                                                2.>.3.p.i.t.3.4.4.4.,.&.C m 5 * * * * * * * * * * O O O * * * * * * * * * * * * * * = = * 5 m C ! ! ..o.#.&.#.+.O.o.o.o.o.X.o.O.#.+.x                                                               ",
"                                                :.>.,.i.t.3.2.4.4.4.4.C B 9 = * * O * * * O O * * O O O O * * * * * * * * * = * * * = = * 5 b B C ! ..o.#.#.$.+.+.+.+.O.o.o.X.O.+.+.E                                                               ",
"                                                ,.&.,.4.4.3.4.4.4.4.4.C M 6 * * * O * * * * O O O O O O O * * * * O O * * * * * * * * = = 8 6 M C ! ..o.o.$.#.%.+.+.+.+.o.X.X.o.+.o.~ f                                                             ",
"                                                :.%.,.3.4.4.4.4.4.4.4.V m 5 * * * * * * * * O O O O O O O * * * * * * * * * * * * * * * = 5 5 b B W ^ ^ o.$.%.$.$.$.$.$.+.o.X.o.O.O.X.o.7                                                           ",
"                                                #.#.:.2.3.2.1.4.4.4.2.N 9 = * O * O O O O * * O O O O O O O * * * O O * * * * * * * * * = = 8 b M R ! ^ o.+.%.$.$.#.$.#.+.+.o.o.+.o.X.+.,.$.~                                                       ",
"                                                $.X.&.1.4.2.4.4.2.4.4.M 6 * O O * O * O O O O * O * * O O * * = O O O * * * * = = * = * = = = 6 m z W ^ ^ O.#.#.#.+.#.#.#.O.o...o.O.X.X.&.:.%.W                                                     ",
"                                                :.! #.>.2.2.,.4.2.2.2.b = * O O O O O * O O O * O O O O O * * * * O O * * = * * * * = = * * = = b z W ^ o.O.+.#.#.%.%.$.+.+.+.o.+.O.X.X.+.&.:.O.                                                    ",
"                                                ~ v O.>.2.3.,.2.2.2.2.8 * * * * O O * * O * O O O O O * O O * * * * * * * * * = = * * * * * = = 6 k R W ^ o.+.+.+.$.$.+.O.+.o.o.+.+.o...O.#.&.%.x                                                   ",
"                                                  k / &.1.3.2.2.,.,.2.* O O O O O O O O O O O O O O . O . O * * * * * * * * * * * O * * * * * * * k z W ^ o.O.+.#.#.#.+.+.o.+.o.O.+.o.X.X.+.+.#.~                                                   ",
"                                                    E &.2.2.,.2.,.4.2.,.O O O O O O O O O O O O O O . O . O O O O O O O O O O O O * O * * * * * , d k R ^ ..o.o.+.+.+.+.o.O.O.o.o.+.+.....+.+.+.X.                                                  ",
"                                                    >.&.2.2.2.,.1.,.2.,.* * O O O O O O O O O O O O O O . O O O O O O O O O O O O O * * * * O * < d g z W ^ X.X.O.+.+.O.o.+.O.O.O.#.+.X.X.o.+.+.X.                                                  ",
"                                                      &.1.2.1.,.1.,.,.&.+.* O O O O O O O O O O O O O O O O O O O O O O O O O O O * O * O * * , < 7 g k R ! ..X.O.$.+.+.+.O.o.o.o.+.+.X./ X.O.o.X.                                                  ",
"                                                      :.,.,.>.,.1.,.:.&.+.* O O O O O O O O O O O O O O O O O O O O O O O O O O O O * * O O O < 4 d g z W ^ ^ o.o.O.+.+.+.O.+.O.+.+.#.X.....o.X./                                                   ",
"                                                      &.,.>.,.>.,.:.&.+.X.* O O * O O O * O O O O O O . . O O O O O O O O O * * * O * * O O * < 4 d g x E ! / X.o.O.O.+.+.+.O.O.+.+.+.O.....X.X.~                                                   ",
"                                                      &.,.,.,.:.:.&.$.+.X.^ * * O * O O O O O O O O O O . O O O . . . O O O O O O O * O * = < 4 7 f g c v W ! / X.o.o.+.+.O.+.o.+.+.#.o.../ X.X.W                                                   ",
"                                                      &.>.,.&.&.&.$.+.X.^ Q x h s 1 2 , % % 1 2 , % % $ # o o o . . . . . . . . o % % % , < 4 7 g g l x W ! ! / ..O.O.O.+.o.+.o.o.+.#.+.../ / o.E                                                   ",
"                                                      &.:.,.,.>.:.$.X.^ Q v x k k k j d 7 f d d d 7 4 , , $ $ $ . o . . . . . o $ % & , 1 7 d g j z z v E E ! / ..X.O.O.O.o.+.O.X.+.+.O.^ X.....R                                                   ",
"                                                      $.&.&.&.&.%.O.^ ! W v z v x k k k j j j g f f 7 7 < , , , % $ # # o $ % % % , 1 3 7 7 d g k z v x v Q W ! / X.o.o.o.o.+.+.o.o.#.+.../ ^ ^ x                                                   ",
"                                                      #.$.$.%.$.+.o.~ ~ W E v x v x k z k z k j j f f 7 4 1 , , , , , , , , , < < 2 3 7 7 d f j j x R R R R E ! / / X.X.o.+.+.o.X.o.o.O.X./ / ^ x                                                   ",
"                                                      X.+.+.+.O.X./ ~ ~ Q R R v x x x x x k z k j j h f d 4 < , < < < , , 1 1 < 1 7 4 7 d f j j l z x v R E ! ! ! / ..X.o.+.o.+.X.X.o.O.X...! ~ k                                                   ",
"                                                      ~ X.o.o.X...~ ~ ! Q R R R v x v x v z l k k l j g f d 3 1 2 1 2 1 4 7 3 3 7 d d d f g g k l c R v R W W W ! ! ^ / O.o.O.X.X.X.o.O.X...^ ! j                                                   ",
"                                                      R ~ / ..X.^ ! ~ W E R v R x v x v x v x z l k k k f d 7 2 3 4 4 7 d d d 7 d f f f f g j k x x v R R R W Q ~ / ^ ..X.o.o.X...X.X.X.X./ ^ ~ c                                                   ",
"                                                      E ! ~ / ! ~ ! W W E W E v v c v x v x v v c z k j j g d 7 7 4 7 7 s f f f f f f g g j l l x v R c v W ! Q ! ^ / ^ X...X.......X...X./ ~ ! z                                                   ",
"                                                      ^ R E ! ! ! W E W E E R R R x v v v v x x x x x l j k f d 7 7 7 d f d f g f j j j j h k k z x v v R W W W ! ! / ^ o.o.X./ X...X.o.O./ ^ ! l                                                   ",
"                                                      x v E E W E E E E R R R R R v v v x v v v x x l z l k j f 7 7 s d f g g j j g k j j k k v v x R R E E W ! ! ~ / ^ ..X...o.X.X.X.o.+.X.^ ^ l                                                   ",
"                                                      f x R E E E R E R E E R R v v R c v R v x c x x z x x j j f d f f f f j j l k l z k z z z R R R R Q R W W ! ^ ~ / ....X.o.X.....o.O.../ ^ x                                                   ",
"                                                        l c R R E E W W E E E E R R R R R x R R R R c v x x x k f f f f f j l x k z x k x x R v c R R R R W E W ! ~ ! ^ X.^ X.X.o.X.X.o.+.X...! j                                                   ",
"                                                        v R v E R W W Q W E E E v R v R R x x v R R x R v v x R k g f f f j k z l x x x c x R R v R E R E E Q W Q Q ^ ^ ..X.X.X./ o.X...O.X.! ! x                                                   ",
"                                                          R E E R E Q W W E R c R R E v R v R E v R v v v v c v k g h f g g k z v x v c v R v R E R R E R E W ! ! ! ~ ^ / ....X...X.o.X.o./ ^ ! R                                                   ",
"                                                                                                                                                                                                                                                    ",
"                                                                                                                                                                                                                                                    ",
"                                                                                                                                                                                                                                                    ",
"                                                                                                                                                                                                                                                    ",
"                                                                                                                                                                                                                                                    ",
"                                                                                                                                                                                                                                                    ",
"                                                                                                                                                                                                                                                    ",
"                                                                                                                                                                                                                                                    "
};
