/* XPM */
static char *_96884124df24a26b512598af65737a4jGvvTEXgrwA38TH9[] = {
/* columns rows colors chars-per-pixel */
"109 115 157 2 ",
"   c None",
".  c #010101",
"X  c #080502",
"o  c #0C0A03",
"O  c #0D0D0D",
"+  c #1D0000",
"@  c #120E04",
"#  c #151105",
"$  c #1A1506",
"%  c #1F1908",
"&  c #131313",
"*  c #1B1B1B",
"=  c #2D0000",
"-  c #250000",
";  c #340000",
":  c #3C0000",
">  c #241D0A",
",  c #29210F",
"<  c #2C2314",
"1  c #2E2518",
"2  c #31261B",
"3  c #35291E",
"4  c #242424",
"5  c #2C2C2C",
"6  c #3D2D21",
"7  c #343434",
"8  c #3A3A3A",
"9  c #430000",
"0  c #4B0000",
"q  c #540201",
"w  c #5A0502",
"e  c #5E0803",
"r  c #620B05",
"t  c #691107",
"y  c #6C1408",
"u  c #6F180A",
"i  c #731C0C",
"p  c #781F0D",
"a  c #7A210E",
"s  c #7E2410",
"d  c #412F22",
"f  c #443223",
"g  c #4C3525",
"h  c #523927",
"j  c #563B28",
"k  c #5B3E29",
"l  c #63432A",
"z  c #69462B",
"x  c #6E492D",
"c  c #744C2E",
"v  c #794F2F",
"b  c #7D5130",
"n  c #424242",
"m  c #4B4B4B",
"M  c #535353",
"N  c #5C5C5C",
"B  c #646464",
"V  c #6C6C6C",
"C  c #747474",
"Z  c #7B7B7B",
"A  c #832611",
"S  c #872812",
"D  c #8C2913",
"F  c #932B15",
"G  c #9A2C17",
"H  c #A12D19",
"J  c #AA2D1B",
"K  c #B62F1E",
"L  c #BC301F",
"P  c #C63421",
"I  c #C93622",
"U  c #CE3A22",
"Y  c #D33E22",
"T  c #845532",
"R  c #8C5A35",
"E  c #925E37",
"W  c #966037",
"Q  c #9C6339",
"!  c #A2663B",
"~  c #A6693D",
"^  c #AA6B3E",
"/  c #D64122",
"(  c #DA4522",
")  c #DE4B22",
"_  c #E15022",
"`  c #E65922",
"'  c #E85D22",
"]  c #E04E22",
"[  c #EA6425",
"{  c #ED6B2B",
"}  c #EF7131",
"|  c #F07435",
" . c #F27A3C",
".. c #F17739",
"X. c #AE6E40",
"o. c #B47344",
"O. c #B97647",
"+. c #BD7A4A",
"@. c #C37E4E",
"#. c #F37E42",
"$. c #C68151",
"%. c #CA8454",
"&. c #CE8858",
"*. c #D38C5C",
"=. c #F48247",
"-. c #F4854A",
";. c #F58B53",
":. c #F6915B",
">. c #DB9363",
",. c #DF9768",
"<. c #E39B6C",
"1. c #F89C6B",
"2. c #F79662",
"3. c #E7A071",
"4. c #EAA375",
"5. c #ECA679",
"6. c #EFAA7D",
"7. c #F9A173",
"8. c #FAA67A",
"9. c #FAA87E",
"0. c #838383",
"q. c #8B8B8B",
"w. c #929292",
"e. c #9D9D9D",
"r. c #A4A4A4",
"t. c #ACACAC",
"y. c #B5B5B5",
"u. c #B9B9B9",
"i. c #F1AD82",
"p. c #FBAB82",
"a. c #FBAF88",
"s. c #F2B086",
"d. c #F4B48B",
"f. c #FCB28C",
"g. c #FDBD9D",
"h. c #F9B792",
"j. c #FDBFA0",
"k. c #FEC2A5",
"l. c #FEC6AA",
"z. c #FFC9AE",
"x. c #FFCDB5",
"c. c #FFD3BD",
"v. c #C2C2C2",
"b. c #CBCBCB",
"n. c #D4D4D4",
"m. c #DDDDDD",
"M. c #FFDCCB",
"N. c #FFD7C4",
"B. c #FFE1D2",
"V. c #FFE3D5",
"C. c #FFE7DA",
"Z. c #FFE8DD",
"A. c #E2E2E2",
"S. c #EBEBEB",
"D. c #FFF2EB",
"F. c #F1F1F1",
"G. c #FFEFE7",
/* pixels */
"                                                                                                                                                                                                                          ",
"                                                                                                                                                                                                                          ",
"                                                                                                                                                                                                                          ",
"                                                                                                                                                                                                                          ",
"                                                                                                                                                                                                                          ",
"                                                                                                                                                                                                                          ",
"                                                                                                                                                                                                                          ",
"                                                                                                                                                                                                                          ",
"                                                                                                                                                                                                                          ",
"                                                                                                                                                                                                                          ",
"                                                      | L {                                                                                                                                                               ",
"                                                      e a H H                                                                                                                                                             ",
"                                                    i = y A q                                                                                                                                                             ",
"                                                    a . w A :                                                                                                                                                             ",
"                                                } =.| . e A H                                                                                                                                                             ",
"                                              ` z.B.M.q t D D L                                                                                                                                                           ",
"                                              ) 8.M.B.V.p L S w J                                                                                                                                                         ",
"                                            P A ( Z.B.B.G.p.=.-.K G                                                                                                                                                       ",
"                                            r u F K k.M.M.G.c.k...F G                                                                                                                                                     ",
"                                            w w i J _ x.N.C.D.V.z.../ F '                                                                                                                                                 ",
"                                              0 w i J _ N.x.Z.C.x.h. .Y A [                                                                                                                                               ",
"                                              q 0 i p F { c.x.M.C.c.h. .U i (                                                                                                                                             ",
"                                                9 0 i i S { k.x.V.M.j.p...Y i S                                                                                                                                           ",
"                                                V 9 e i i U k.k.c.N.B.k.7.} P p G 9.                                                                                                                                      ",
"                                                0.M 9 t i a _ z.j.x.r.w.w.w.q.q.q.w.w.w.w.q.w.r.                                                                                                                          ",
"                                                m.B w 0 i i p ..l.b.w.q.q.q.w.q.q.q.q.q.q.q.w.q.q.                                                                                                                        ",
"                                                b.q.B q q s a i z.V Z e.q.q.q.q.q.q.q.w.w.q.Z C 0.q.                                                                                                                      ",
"                                                y.u.Z M 0 r S y N M V B e.q.0.0.0.' l.j.:.{ U G t F C                                                                                                                     ",
"                                              r.0.F.y.C N 0 t N B N B N V V B N [ a.z.c.f.:.{ Y D t A J J     Y U )                                                                                                       ",
"                                                Z n.n.Z Z 0 q N m V M V n o + ( p.1.7.g.l.f.#.{ U D r r e U   i q D                                                                                                       ",
"                                                0.Z F.e.Z C 0 B N V M V 8 + : 1.a.p.;.2.8.x.g.:.{ Y 0 q w s J q 0 t                                                                                                       ",
"                                                0.C m.m.q.Z Z B V N V n * + q Y ;.7.7.;.=.7.g.f.;.( : 0 q u a w r 0                                                                                                       ",
"                                                C B V F.u.0.V N V m e.u.F S t r U -.1.2.-.#.2.7.p.[ y 0 q r i w w 9                                                                                                       ",
"                                                Z N C n.A.w.V V N V q.S.q.D H e e / { ;.;.;. .-.8.1.' i e q y t r 0                                                                                                       ",
"                                                w.B C Z S.r.N V m C Z t.S.0.G G r e U [ :.:.-.#.-.1.1._ i 0 w t q 0 i                                                                                                     ",
"                                                q.V V C b.B V N B C Z 0.n.m.e.F S w y I [ =.-.;. .;.;.L q 0 0 q q 9 0 A /                                                                                                 ",
"                                                  0.Z 0.Z v.m n V C Z Z q.m.n.e.A a q y L ]  .-.=.` i 0 0 q 0 q q 9 : 9 0 H                                                                                               ",
"                                                  q.0.Z C t.Z N V V Z Z Z e.A.n.q.A i w i I `  .{ i 0 q 0 0 0 0 0 9 9 9 : 9 a                                                                                             ",
"                                                  0.Z q.w.Z n.B B C Z Z C 0.v.A.b.Y i t w i P Y A 0 0 0 0 0 0 0 q 9 9 : 9 : : y                                                                                           ",
"                                                    q.q.q.0.0.4 B C C Z Z Z q.n.A.u.I i w 0 i A w 0 0 0 0 0 0 0 r 9 9 : : : : 9 y                                                                                         ",
"                                                    e.q.Z 0.Z 4 V C Z C C C 0.w.A.n.t.J y w w y 0 9 0 0 0 0 9 0 w 0 : : : : : : 9 V                                                                                       ",
"                                                    q.w.w.w.Z M V V C Z C C C 0.t.m.b.r.F t w q 0 0 0 9 0 0 0 0 q w 9 9 9 9 : : ; 0 Z                                                                                     ",
"                                                    r.e.w.w.w.V V V C C Z C C Z 0.v.A.u.e.s e q 0 0 0 0 0 0 9 0 0 r 9 9 : : : : ; : e q.                                                                                  ",
"                                                      C Z 0.q.0.Z V C C Z C C Z Z q.n.n.t.q.i q 0 9 0 9 0 0 0 0 q r 9 : 9 9 : 9 ; = 9 a C                                                                                 ",
"                                                      w.q.q.Z 0.0.C V C C Z Z C C Z w.m.b.u.0.i t t i y i y t i a D a i u i y t r 0 0 t V 0.                                                                              ",
"                                                      q.q.q.q.q.q.Z V V C C C C V Z Z u.m.v.t.0.Z Z Z Z Z Z Z Z Z Z Z Z Z C Z C Z C q.0.0.e.e.q.                                                                          ",
"                                                        q.q.q.q.0.0.C V V C C M n C C 0.v.u.0.Z C Z Z Z C Z C C C C C Z Z Z Z 0.0.q.w.r.u.b.b.n.b.                                                                        ",
"                                                        0.0.0.0.0.0.0.V C V V O M C C Z Z V M M m M M M m M m M m m n m n 8 8 8 8 8 8 n 8 8 n n M V                                                                       ",
"                                                        Z q.q.q.q.q.w.Z V V N O B C Z C B n 8 8 8 8 8 8 8 8 7 8 8 7 7 7 n 8 8 n 8 8 8 8 8 8 8 8 8 N                                                                       ",
"                                                          C C C C Z Z Z V V 5 5 V C C C N 7 8 8 8 8 8 8 8 7 7 7 7 7 7 4 8 8 n 8 8 8 8 8 8 8 8 8 8 M V                                                                     ",
"                                                          C V V V B B V V V 4 M V C C V M 8 8 7 8 8 8 8 7 8 5 7 5 7 4 5 8 8 8 n 8 8 8 8 8 8 8 7 7 7 B                                                                     ",
"                                                          V B N N V B B V V M V V C C B n 7 7 7 7 8 7 8 7 8 7 7 8 5 5 5 8 8 8 8 8 8 8 8 8 8 8 8 8 8 N                                                                     ",
"                                                            C V n V V N V C V V C Z V M 8 8 7 7 7 5 8 7 8 7 7 7 7 4 5 5 8 8 7 8 8 8 8 8 8 7 8 8 8 8 M V                                                                   ",
"                                                            C N o B V N V V C V V Z V M 8 7 8 7 7 7 7 5 7 7 5 5 7 5 7 7 n 8 8 7 8 8 8 8 8 8 8 8 8 8 8 B                                                                   ",
"                                                              N X m C N B C C V V Z N 8 8 7 8 8 5 4 7 5 5 7 5 5 5 5 5 5 8 8 8 8 8 8 8 n 8 8 8 8 8 8 8 N N                                                                 ",
"                                                              N X O B N N V V V V V M 8 5 8 5 7 5 7 5 7 5 5 5 7 7 5 7 7 8 7 8 8 8 8 8 8 8 8 8 8 8 8 7 M N                                                                 ",
"                                                              N X X n B M B V V V B 8 7 7 8 5 5 5 5 7 7 7 5 5 5 7 5 7 5 8 8 8 8 8 7 8 8 8 7 n 8 8 7 8 7 N                                                                 ",
"                                                                X X ; C V V Z Z N 7 * * 5 4 4 4 5 5 4 5 5 5 5 4 5 4 5 4 8 8 5 4 7 5 5 5 7 5 5 5 5 4 4 4 n                                                                 ",
"                                                                  * : N B N B V m & O & & & & & O O & * & & * & & * * O * * * 4 * * * * * * & * * * * * *                                                                 ",
"                                                                    y e N m m M 8 X O O & O & & & & O & & & O & & & & o * * * & & * * * * & * * * * * * 7                                                                 ",
"                                                                    H y N M 8 m 8 o O & & O O O O * & & & * & * & & o O O * & * * * * * & * * * * * * * n                                                                 ",
"                                                                    F a e M n n 8 o o O & & O & & & & & O & O O O O O O * * * * * & & * * * * * & * & * 8                                                                 ",
"                                                            T T R T l S i M M M 8 o O & & & O & * O & & * & & & O O O O * * * * & & & * & 4 * & * * * 8 k                                                                 ",
"                                                        +.X.Q R b z j a a y B V 8 o o & * O O & & O & & & & * & & & O & * & * * * * & & * & & & * * * C E g                                                               ",
"                                                    <.%.X.W T z l k g a a e N B 7 X O & & & O & & * * O & & O & & O & & * * * * & & & & * * * * * * m >.<.&.W                                                             ",
"                                                    Q Q R c k k f 3 < i i t n N 7 o & * & & & & & O & & & & & & & O & * * * * & & & & & & & * * * * V *.>.,.>.X.                                                          ",
"                                                W o.<.4.,.*.@.+.Q x 6 r t t e B 5 X & & & O & O & & & * & & O & O O O * * * * & & * & * & * * & * 5 *.,.*.*.&.*.O.                                                        ",
"                                            ~ 6.h.h.h.d.d.d.s.d.i.<.%.! l w = 5 4 X O & & & & & O O O & & & & * & O * * * * & & & & * & & * & * * B ,.,.*.&.%.&.&.R                                                       ",
"                                          &.i.d.d.d.d.d.d.d.d.i.i.4.>.@.W g - + O o & & & & O O * & & & & & * & & & * * * * * & & * * * & * & * 8 %.,.>.*.*.&.@.&.^                                                       ",
"                                        $.3.6.5.d.d.h.d.d.d.d.5.4.<.,.&.O.W g + X . O O o o o o X o X o o O O O O O & O O O & * * * 5 7 n m m B &.,.,.>.>.*.&.$.&.O.g                                                     ",
"                                        >.<.5.s.d.d.s.s.d.d.i.s.5.3.3.,.&.+.W h - . . . . . . . . . . . . . . . . . . . . . X @ , f x T ^ O.$.$.*.,.>.,.*.*.*.@.$.O.h                                                     ",
"                                      l *.3.5.s.i.i.i.i.d.d.d.s.s.d.6.3.,.&.X.R j - . . . . . . . . . . . . . . . . . . . . X @ < 6 h c R ^ O.@.*.*.*.,.*.*.&.$.$.@.T                                                     ",
"                                      %.%.*.,.<.6.i.s.s.s.d.d.d.d.d.d.s.5.*.$.~ R l 2 . . . . . . . . . . . . . . . . . . . X % < d h z E ~ o.@.$.%.*.*.*.*.&.$.$.$.O.f                                                   ",
"                                      @.+.$.&.>.<.4.i.6.s.6.d.s.d.d.s.s.5.,.&.O.W b k 6 + . . . . . . . . . . . . . . . . . X $ , 6 g l R Q X.+.@.$.&.&.*.*.&.$.$.@.+.k                                                   ",
"                                      @.~ ^ +.+.*.>.<.4.5.s.s.6.5.6.5.5.<.>.%.+.~ R v l h 1 . . . . . . . . . . . . . . . . o % 2 6 g k b W ! ^ O.@.&.&.*.*.%.%.$.@.@.W <                                                 ",
"                                      ~ E W ! O.@.*.>.<.4.i.6.i.5.4.4.<.,.*.&.$.~ W T v z k f > . . . . . . . . . . . . . o # > 3 6 g l b E ! X.O.+.@.&.%.&.*.&.@.@.+.o.<                                                 ",
"                                      E b c T ! ~ $.&.,.4.5.5.5.6.5.5.<.*.>.%.+.X.! Q R T c c k f < X . . . . . . . . X o @ > 1 f g j z T T W ! ^ O.@.@.@.&.&.%.%.%.@.+.k                                                 ",
"                                      6 c l z c W O.%.>.<.4.4.<.6.i.5.<.>.&.@.+.o.~ Q W E R T v c l g , @ X . . . X X o # > 2 6 h k k x T E W ! ~ O.O.@.@.@.%.&.&.%.@.@.W 1                                               ",
"                                      6 l j g k v X.+.&.>.>.3.4.4.5.4.,.&.%.@.@.O.o.~ ! W Q R T R b k g 6 < > > > $ % > < 3 6 h k l x c T E ! ~ ^ ^ o.+.@.@.$.%.%.$.$.@.O.f                                               ",
"                                        g f f d j ~ O.%.*.,.<.<.<.<.<.,.*.&.$.@.O.O.o.X.~ W W W W W T c j f 2 1 1 < 2 3 6 f h l l b T c T W Q Q ^ ^ o.+.O.@.%.&.%.%.$.@.@.c ,                                             ",
"                                        g 6 6 3 6 c X.%.%.&.*.*.,.,.,.*.%.$.$.@.O.O.o.o.^ ^ X.! ! Q W R c k g 3 6 6 d g g j k z c T T R W W Q ^ ~ o.O.O.@.+.@.@.*.$.$.$.$.o.f                                             ",
"                                        h 6 > % > g ~ O.+.@.@.&.*.*.*.%.%.+.@.o.+.+.o.o.^ X.o.o.^ ^ ! W E v j h g g g h j l x b T E R W W W ~ ! o.o.X.O.+.@.@.%.$.$.$.@.@.@.R                                             ",
"                                        z , % @ $ 1 T ^ o.o.@.$.%.&.&.@.@.@.+.+.+.+.+.O.+.O.o.o.O.o.^ ~ Q E b z j k j k k c T R ! W W W ~ ! Q Q X.X.o.o.O.@.O.$.@.@.%.$.@.@.X.,                                           ",
"                                        h < $ o X @ g E Q ^ o.+.+.O.@.+.@.+.@.O.@.@.O.O.+.@.+.+.o.O.o.X.X.X.R T c z k l c c R W ! ~ ^ ! ! Q W ~ X.~ X.O.+.o.+.@.$.$.%.%.@.+.+.f                                           ",
"                                        6 < $ o X . < c E W ! ^ ^ ^ o.+.+.+.+.@.@.@.+.@.+.+.+.+.+.+.O.+.o.X.^ ! R b c c x T R W ~ ^ X.^ ^ ^ X.X.X.X.o.o.O.+.+.+.@.@.@.@.@.+.+.k                                           ",
"                                          , # X X . # k T R E W ! ~ ! o.o.+.+.@.$.+.@.%.$.+.O.+.@.+.O.+.@.+.+.O.! Q T b T b W Q X.X.X.o.X.o.o.O.o.o.O.+.o.@.+.@.+.@.&.O.+.@.+.T 1                                         ",
"                                          > @ X . . . f T T T R W Q ! X.X.O.+.+.@.@.@.@.+.+.@.@.@.+.O.+.O.O.o.O.o.X.~ W E T W Q ^ o.+.o.o.O.o.O.O.O.+.+.@.@.@.%.$.@.%.@.@.@.o.X.1                                         ",
"                                          o o . X . . > k c T b W W ! ~ o.O.@.+.+.@.+.+.$.@.+.$.@.+.+.+.@.+.$.$.O.o.o.^ ^ ! ! ~ X.O.o.O.O.@.@.o.@.$.@.@.@.$.@.@.@.@.@.+.@.@.@.+.v                                         ",
"                                            . . . . . o g c v R R E ! ! ^ o.+.@.+.@.@.O.@.@.%.+.@.$.+.o.+.@.$.$.@.+.+.O.o.o.o.X.O.o.O.o.O.+.@.@.@.$.$.$.@.@.$.$.@.$.@.%.@.@.@.+.^                                         ",
"                                              . . . X . 1 k c R W W ! ^ ~ o.O.+.+.@.@.+.@.@.@.O.$.@.+.+.@.$.$.@.%.$.@.@.@.+.o.@.+.+.O.o.+.$.@.@.@.%.$.%.@.$.@.$.@.$.@.@.%.$.@.+.@.k                                       ",
"                                                . # # . $ g b R W Q ! ! ! o.O.O.+.+.+.@.$.$.@.@.%.+.+.$.$.%.%.&.&.%.@.$.@.@.+.@.@.+.O.o.O.+.@.@.@.$.$.&.$.%.@.%.$.$.@.$.$.%.@.@.+.E                                       ",
"                                                . 3 , @ o < c R W E Q ~ ^ o.o.+.+.o.+.+.@.+.@.+.@.+.+.@.O.@.@.%.%.%.&.%.&.%.@.$.@.&.@.@.@.@.$.@.$.@.%.%.*.&.%.&.@.$.$.@.$.@.$.@.+.o.                                      ",
"                                                X g 3 % o % x R R W W ~ X.o.o.o.O.O.+.+.+.+.+.+.O.@.O.+.@.@.$.$.&.&.%.&.&.%.&.$.&.@.@.$.@.%.%.$.@.%.%.$.$.&.&.%.%.$.%.$.$.$.@.@.+.O.c                                     ",
"                                                1 3 < % @ @ g T T R ! X.X.o.X.o.O.o.+.+.+.+.o.+.+.O.@.@.+.%.%.@.$.%.&.&.&.&.&.&.&.%.$.%.%.@.$.%.&.*.@.$.$.$.@.%.%.%.%.&.$.%.@.@.+.+.E                                     ",
"                                                3 > > # X X 3 l R W ^ ^ X.^ ^ o.o.O.@.O.@.+.@.+.o.O.O.O.@.@.+.@.$.%.&.%.&.&.&.%.&.&.&.$.$.$.%.$.$.&.*.%.@.%.%.%.$.$.@.$.@.$.@.@.O.O.~                                     ",
"                                                , % $ @ o . $ c R W Q ~ ~ ~ X.o.O.O.+.+.+.+.@.O.+.O.@.+.+.@.@.@.$.$.$.%.%.%.%.%.*.%.&.%.%.$.@.@.%.$.*.%.&.&.&.%.&.%.%.%.$.$.@.@.@.+.o.l                                   ",
"                                                % % o o X . o k T W W ! ! ~ ^ ^ X.o.o.+.O.O.+.+.+.+.o.o.o.o.O.+.@.@.@.$.%.%.$.%.@.%.&.%.@.%.%.@.$.$.&.*.*.*.&.*.&.*.%.%.$.@.@.@.@.+.+.W                                   ",
"                                                @ # o X X . X 6 c R E Q Q ! ^ X.^ o.O.+.+.O.O.+.O.o.o.o.o.o.+.+.+.O.@.+.@.O.+.$.$.$.%.%.%.%.$.@.@.@.%.&.*.>.>.*.*.&.$.%.%.@.@.+.+.+.+.X.                                  ",
"                                                  o o X X . . , z T R E Q ~ ^ o.o.o.O.O.@.@.+.O.o.o.O.X.X.O.o.O.+.+.+.@.+.+.@.@.@.$.$.%.%.$.@.@.@.@.@.$.%.*.>.>.,.*.*.&.@.&.@.+.O.o.+.o.k                                 ",
"                                                    X X X . . % k v T E W ! ~ ^ ^ o.X.O.O.o.o.X.X.X.^ ^ o.o.o.O.o.o.O.+.@.@.+.+.+.@.$.@.@.%.$.@.@.@.@.@.&.*.>.>.*.*.*.&.*.&.%.+.+.O.o.X.W                                 ",
"                                                    . X o X . @ g z T R T E W W ! ^ ^ X.X.^ X.^ X.^ X.X.X.X.o.X.o.+.+.O.+.O.+.O.+.@.$.$.@.$.@.@.@.@.@.@.$.*.*.*.*.>.*.*.&.*.$.+.@.+.@.o.Q                                 ",
"                                                    . j 6 < > > f j z v R E R E W ! Q ~ ~ ^ o.^ ^ ^ ~ ^ ~ ~ ^ ! ~ ^ o.o.o.o.+.O.+.+.@.@.$.$.@.+.+.+.$.$.@.%.&.*.>.*.*.*.*.*.*.@.@.@.+.o.o.c                               ",
"                                                  . b z g g 6 > 2 k l x b T R W E W W Q Q Q ~ ! ~ ~ ^ ~ ! Q ^ Q ~ ^ ^ X.o.o.o.O.O.O.+.@.+.@.@.@.@.@.$.$.@.$.%.&.*.*.*.>.,.*.*.*.@.+.o.^ o.E                               ",
"                                                  X v h g g 1 % > g k c T T W Q E E R W Q W Q ! Q ~ W ^ Q W ! W ^ ~ ~ ~ X.X.X.X.O.+.+.+.@.@.@.@.@.@.$.@.@.%.*.&.*.&.*.*.>.*.,.&.$.+.o.Q X.Q 6                             ",
"                                                  > l c 6 < % @ @ 6 k x b T R E E R R E E W Q W ! W Q W Q Q Q W ! Q Q ~ ^ ^ o.X.o.o.o.@.+.@.@.@.@.@.@.$.$.&.*.*.*.*.,.*.*.*.>.*.*.@.O.X.! Q c                             ",
"                                                  6 l f , > # o X > h k l v c T T T b T R E W R R Q W W W W R W W W ! ~ Q Q Q ^ ! ! X.O.+.+.@.@.@.$.$.%.%.&.&.*.*.*.>.,.*.>.*.*.>.&.@.@.o.X.W 2                           ",
"                                                                                                                                                                                                                          ",
"                                                                                                                                                                                                                          ",
"                                                                                                                                                                                                                          ",
"                                                                                                                                                                                                                          ",
"                                                                                                                                                                                                                          ",
"                                                                                                                                                                                                                          ",
"                                                                                                                                                                                                                          ",
"                                                                                                                                                                                                                          ",
"                                                                                                                                                                                                                          "
};
