/* XPM */
static char *_fd34d4796634acde08df163d6d413ec4xFeT4vR9UlTVaf1[] = {
/* columns rows colors chars-per-pixel */
"97 148 151 2 ",
"   c None",
".  c #020101",
"X  c #0B0100",
"o  c #0D0A03",
"O  c #0C0C0C",
"+  c #130000",
"@  c #1B0000",
"#  c #110E04",
"$  c #151105",
"%  c #1B1506",
"&  c #1E1808",
"*  c #141414",
"=  c #1B1B1B",
"-  c #240000",
";  c #2C0000",
":  c #340000",
">  c #3B0000",
",  c #231C0A",
"<  c #28200E",
"1  c #2C2313",
"2  c #2E2518",
"3  c #30261A",
"4  c #35281E",
"5  c #222222",
"6  c #2B2B2B",
"7  c #3D2D21",
"8  c #343434",
"9  c #3B3B3B",
"0  c #430000",
"q  c #4C0000",
"w  c #540201",
"e  c #5B0603",
"r  c #5E0803",
"t  c #630C05",
"y  c #691207",
"u  c #6D1509",
"i  c #721B0B",
"p  c #7A220E",
"a  c #7F2410",
"s  c #412F22",
"d  c #443224",
"f  c #4C3525",
"g  c #523927",
"h  c #563B28",
"j  c #5B3E29",
"k  c #63432A",
"l  c #6A462C",
"z  c #6E492D",
"x  c #734C2E",
"c  c #794F2F",
"v  c #7C5130",
"b  c #434343",
"n  c #4B4B4B",
"m  c #535353",
"M  c #5B5B5B",
"N  c #646464",
"B  c #6B6B6B",
"V  c #737373",
"C  c #7B7B7B",
"Z  c #832611",
"A  c #862812",
"S  c #8B2913",
"D  c #932B15",
"F  c #9A2C17",
"G  c #9E2C18",
"H  c #A32D19",
"J  c #AB2D1B",
"K  c #B32E1D",
"L  c #B82F1E",
"P  c #BB301F",
"I  c #C43321",
"U  c #C93622",
"Y  c #CD3922",
"T  c #D23E22",
"R  c #845532",
"E  c #8D5A35",
"W  c #925D36",
"Q  c #966037",
"!  c #9B6339",
"~  c #A2663B",
"^  c #A6693C",
"/  c #AA6C3F",
"(  c #D64122",
")  c #DA4522",
"_  c #DD4A22",
"`  c #E04E22",
"'  c #E35322",
"]  c #E85D22",
"[  c #EA6324",
"{  c #EE6C2B",
"}  c #EF7131",
"|  c #F27A3C",
" . c #F17637",
".. c #AE6F41",
"X. c #B47243",
"o. c #B97647",
"O. c #BD7A4A",
"+. c #C27E4E",
"@. c #F37E41",
"#. c #C68151",
"$. c #CA8554",
"%. c #CE8858",
"&. c #D38C5C",
"*. c #F48449",
"=. c #F68B53",
"-. c #F6905A",
";. c #DB9363",
":. c #DF9768",
">. c #E39B6C",
",. c #F89B6A",
"<. c #E7A071",
"1. c #E9A275",
"2. c #ECA679",
"3. c #EFAA7D",
"4. c #FAA67A",
"5. c #F9A071",
"6. c #838383",
"7. c #8C8C8C",
"8. c #939393",
"9. c #9C9C9C",
"0. c #A4A4A4",
"q. c #ADADAD",
"w. c #B4B4B4",
"e. c #BCBCBC",
"r. c #F1AD82",
"t. c #FBAD84",
"y. c #F2B086",
"u. c #F4B38A",
"i. c #FCB28C",
"p. c #FAB995",
"a. c #FFC9AE",
"s. c #FEC4A8",
"d. c #FFCBB2",
"f. c #FFD3BD",
"g. c #C2C2C2",
"h. c #CBCBCB",
"j. c #D4D4D4",
"k. c gray86",
"l. c #FFD7C3",
"z. c #FFDCCA",
"x. c #FFE3D4",
"c. c #FFE6D9",
"v. c #FFE9DE",
"b. c #E4E4E4",
"n. c #EBEBEB",
"m. c #FFEDE4",
"M. c #FFF2EC",
"N. c #FFF6F1",
"B. c white",
"V. c #FFFFFE",
"C. c gray95",
/* pixels */
"                                                                                                                                                                                                  ",
"                                                                                                                                                                                                  ",
"                                                                                                                                                                                                  ",
"                                                                                                                                                                                                  ",
"                                                                                                                                                                                                  ",
"                                  i.{ i.                                                                                                                                                          ",
"                                ) H Z D T                                                                                                                                                         ",
"                                p q a i i                                                                                                                                                         ",
"                              a.r > i p e                                                                                                                                                         ",
"                            f.=.e - u i u                                                                                                                                                         ",
"                        s. .4.p.D > t i A K                                                                                                                                                       ",
"                      d.( _ } 4.) t u i A F T                                                                                                                                                     ",
"                      | U Y ) ,.*.H i i a S G                                                                                                                                                     ",
"                      { U I Y { 5.T A A p S G K                                                                                                                                                   ",
"                      { U I I _ -.' I H S Z D G                                                                                                                                                   ",
"                      ' Y P P I [ } L H D p A F S                                                                                                                                                 ",
"                      _ ` P K K ) { I F D A Z S F                                                                                                                                                 ",
"                        T I H H K ' ` H A A p S K p                                                                                                                                               ",
"                        P U G H J ) _ F D Z i p H L                                                                                                                                               ",
"                        G U H F F L T P D S Z p S Y G                                                                                                                                             ",
"                        A L J F D G U I F S Z u i L U                                                                                                                                             ",
"                          H P D D D J U F D A p i S Y F                                                                                                                                           ",
"                          G J D a S G P J S S a i Z P Y                                                                                                                                           ",
"                          w D G i Z D J J S S Z p i J ( G                                                                                                                                         ",
"                            S G p D p D K D A S p i S ' '                                                                                                                                         ",
"                            u S p i F S J D S a i i i U =.U                                                                                                                                       ",
"                            0 p S t F Z S G S p i u i F z.=.                                                                                                                                      ",
"                            @ u S u D D Z D S p y t u i i.l.'                                                                                                                                     ",
"                              y u i i L i Z S p u e y i L m.,.                                                                                                                                    ",
"                              w r Z r H S S A A y e r y S t.p.|                                                                                                                                   ",
"                              q y i t F _ i Z a t e r e p _ l.a.                                                                                                                                  ",
"                              = i t t D d.D Z Z i r w t i S a.z.-.                                                                                                                                ",
"                            M m S i i t x._ i i i t t w u Z { c.c.`                                                                                                                               ",
"                            6.C N S u t G f.u i p r e w r i F m.c.d.                                                                                                                              ",
"                            C C N D i e u Y Z t i u t y e u Z t.m.m.U                                                                                                                             ",
"                            C 6.B D Z t t ` U t i i t t t t i U M.c.d.                                                                                                                            ",
"                            6.6.V M S y t A [ i y i t t u y u D f.v.M._                                                                                                                           ",
"                            C 6.C N D i t t H S u u t t t t r i ' M.m.z.                                                                                                                          ",
"                            B 6.C N D p e e y D u u i t u u t i J z.c.N.)                                                                                                                         ",
"                            N 6.7.B M p t t e p A t u e e e e e p  .N.m.x.                                                                                                                        ",
"                            M m 9.B N D t t w t a u u i u u i i Z L x.N.M.[                                                                                                                       ",
"                            M m 7.V N m a e t e p a N B N N M M M B B g.e.q.N                                                                                                                     ",
"                            m m C C N M Z r t w i M C C C C C V C C C C C C C C V V C                                                                                                             ",
"                            V m B 6.B N a r e w 9 B 6.N N N M M B N B B C C C C V V V N                                                                                                           ",
"                            C m B 7.B N m p w t m N M B B M M M M M M M M M M M M M M B B                                                                                                         ",
"                            7.m m C C B M a t b N m m C V C C C C C C C C V V V C V V V M                                                                                                         ",
"                            8.m m V C B M A b M m 9 M N M m m m m m m m M M M M M M M M M B                                                                                                       ",
"                              m M M 6.B N m M M b m m n C C C V V V V C C C V V C C V V V M                                                                                                       ",
"                              M M N C V B N M b b n 9 M V m 9 9 M M m m m M M M M m m M m m 9                                                                                                     ",
"                              N N N V C B N m 9 m 9 n m n M C C C C V C V V V C C V V V V V N                                                                                                     ",
"                              B N B B C V M b m b 9 M 9 m V 9 9 9 9 9 m m 9 m M M m m m m 9 9 M                                                                                                   ",
"                              6.B B B C N 9 m m 9 M n 9 M M V V B B B B B B B B N B V B B B V N                                                                                                   ",
"                              7.B B B B m b m 9 m m 9 m n 9 M m b n b m m H D A A J x.C.7.N N M 9                                                                                                 ",
"                                B B B B B M b n m 9 n m 9 b = . . . . q i u i u u S i.B.B.=.n b 8                                                                                                 ",
"                                B B B V V m 9 M n 9 M b b 6 . . . . 0 e r u u u i i U B.B.v.*.G V                                                                                                 ",
"                                B V V V V m m n b M m b M = . . - w t t t u u u y u S s.B.B.d.U 7.7.                                                                                              ",
"                                m V V V V V m 9 m m m C N m 6 : w t t t r e u u i u i Y B.B.z.| { h.                                                                                              ",
"                                6.B V B N B b m m n M C V N A r e y t t r t t i u i u S a.B.B.p.' l.e.                                                                                            ",
"                                  B B B B V N M m m B C C N S e w e t t t t e u u i u i _ B.B.z.{ @.b.                                                                                            ",
"                                  B B B B V B m m N N B C B a w q w t u t r t t i u i i S f.B.B.5._ b.j.                                                                                          ",
"                                  6.B B B B B m N N N B C V m e q q r y t t e t u y i i i [ B.B.x.{ { b.0.                                                                                        ",
"                                  7.B B B M V N N N N B V C N u q q e u t y e t i i i i i G a.B.V.=.( j.e.                                                                                        ",
"                                    M B B M m 6 n B N N V C V S w q q t t t t t u u t i i p ] B.B.,._ ' b.7.                                                                                      ",
"                                    C B B m 8 * m N N N B C C M t q q e t t r t y i u i i i G l.B.N.{ U j.j.                                                                                      ",
"                                    V V B n 5 5 M B B B B C C B p e q w r w t e y t u u t u S { B.B.,.) _ n.8.                                                                                    ",
"                                    V V B m 8 9 B N N N B V C V n w q e r t r t t t t y u i y P M.B.x.] L h.j.                                                                                    ",
"                                      B B B m m B N N N N B C C M u q q e e r r t r t t t t i S =.B.B.=.U U b.0.                                                                                  ",
"                                      6.6.B B N B N N B B B V C B Z w q q w w w e e t y y u u p J z.B.z.Y J =.b.C                                                                                 ",
"                                      V V V C B B B B N N B B C V M u q q e w e e e t y t r e w t S t.*.S p I n.h.                                                                                ",
"                                      C V B B B B B B N B B B C C N i q q w w e e w r t t w 0 > > > > : : ; 0 { n.8.                                                                              ",
"                                        B V B B B B B B B B B V C V S e q t e w e e e t t q 0 > 0 : ; + + ; : D n.h.                                                                              ",
"                                        V B B B B B B N B B B B C C M t q w e w q w w q e q q > > : X . . . ; q } n.8.                                                                            ",
"                                        V V V B B B B B B B V V C C B A e w e w w q q w e w q 0 : : @ . . . X > S b.k.q.                                                                          ",
"                                        B 6.C C B B V V B V C C C C V M t w t t r q w q w e e 0 > ; - . . . X : w ] n.0.                                                                          ",
"                                          V V V V V C C C C 6.6.C C C M y e e u t q w w w q w q 0 : ; X . . X : e D 4.k.9.                                                                        ",
"                                          B B V V V V V C 6.C C C 6.6.B Z e t u i e q q e q w e > ; - @ . . X : t u T b.e.                                                                        ",
"                                          C M C 6.C B V C C 6.6.C C C V M t q t u t w q q q q e q : ; ; - - - ; e u a =.k.8.                                                                      ",
"                                          B 9 B 6.6.C V V C C 6.C C C C N u w t t r w q q w w w 0 : ; ; @ + X + > e e P b.h.                                                                      ",
"                                            5 m V C C V V V C C C C C C B D t e t t t q q q w 0 ; ; @ @ @ X X + + ; q i g.b.8.                                                                    ",
"                                            * 8 6.6.C V B V C 6.C V C C V M y q y y t w q 0 0 ; - X @ @ + + X X + X @ q K k.h.                                                                    ",
"                                            m * V 7.6.C B V C C C C V C C N a e t t t e q 0 : - + - @ + @ X X . X . . - t [ k.6.                                                                  ",
"                                            y.O.B V C C V B C C C V V C 6.B m e w t t u w > X + X + + + X @ X X X . . @ ; D j.h.                                                                  ",
"                                        ;.X.! R ..6.6.C V B B V V V V C C V M i w r p u q : - @ + @ - @ - X X X X X . X X q _ j.7.                                                                ",
"                                  &.o.! R v v j x C 6.C V V N B B V B V C C N S r e p A w @ @ X X @ + + X + X . X . . X X X S w.q.                                                                ",
"                                +.~ R x j j f d d B C 6.V V V N B B B V C C B M r e i p q X @ - X X @ @ X + . X X X . X . . > U h.8.                                                              ",
"                              X.W z k f f d 3 1 < M 6.C C B V V N N N B V C V N p e u t : - @ + + + X @ + X X . . X . . X X . i 0.0.                                                              ",
"                              Q k g d 7 4 2 , $ $ 8 B B V V V C N N B B V C C B A w Z a ; X + + + + @ @ X @ . X . . X X X . X > I e.7.                                                            ",
"                              k f 7 1 < < , % # o 6 M M B B B V V m n N B C C B M u t t ; X X + X X @ @ + + + . . X X X X . + @ S q.g.                                                            ",
"                              f 3 , & & & % $ o o w M m M B N B m O O M B V C C B S q : @ X + + X @ + + X . . X . X X X X X X X e ` h.0.                                                          ",
"                              7 < & % $ $ # # o o u M M N B B M 6 . O M N V C C B M w ; @ - @ @ @ @ X @ @ X + X X X X X X X X X : P h.h.                                                          ",
"                              d , $ # # # # o o o t M M M B B m * . = N N B C C C N i : @ + @ @ X @ - - ; @ @ ; - - @ - @ @ @ - ; i [ k.q.                                                        ",
"                                % # # # o # # o o t m N N B N 9 O . b B B B V C 6.C J w q w i i p p S A S D H B B N V V C 6.7.0.0.0.j.n.b.                                                        ",
"                                  % o o o o o o o y A M N B B 9 O * m B B B V C 6.C C V V V V V V V V C V V C 7.9.9.0.0.g.h.h.j.k.b.b.C.n.w.                                                      ",
"                                                j i u m M N B m 5 9 M N V B V C 6.C C C V C C V V V V C V V C 6.w.w.q.0.0.q.w.h.g.h.j.b.n.h.C                                                     ",
"                                                  H p M B N B N m M N N N B V C 6.6.C C C V C C C V C V V C V C 0.e.w.q.0.q.q.w.e.g.h.h.j.h.0.                                                    ",
"                                  O.X.+.          D p p M N C V N N N N N N B V 6.C C C C V V V C V V V V V V V V 6.6.6.6.6.6.6.6.6.6.6.6.6.6.C                                                   ",
"                              +.&.;.&.#.X.!     H S a Z m M B V B N M N N N N B 7.6.M M M M M M M M M m m M m M m M m m m M m M M M M m m M M B #.O.                                              ",
"                          :.u.p.p.u.1.>.;.$.X.R F S S Z m N B V B N N N M N N M n 8 6 6 6 6 6 6 6 6 6 8 6 6 6 6 5 8 8 8 8 8 9 9 9 9 8 8 9 9 b m V &.E                                             ",
"                        1.u.u.r.3.r.2.>.<.>.&.+.Q S Z a b M N V V B N N N N N m 8 = = * = = * 5 = = = = 5 = * * * = = 5 = = = 5 5 5 = 5 5 5 5 5 m +.+.                                            ",
"                    +.3.y.u.y.u.3.r.1.<.2.1.>.&.O.E S u q m N B V N M N M N N b 5 8 = * = = = = = = = = * = * * O = = = = * 5 = = = = = = 5 = 5 9 ! #.W                                           ",
"                  ~ 1.u.u.r.3.r.3.2.3.2.2.<.;.;.#./ z 0 - b N N V N N N N N m 8 = * = = * = = = = = * = * = * * * * * = = * * = = = = = 5 = 5 = 9 N +.!                                           ",
"                  $.>.r.u.u.u.3.r.3.3.1.2.2.>.;.$.O.Q b : 6 M M B V N N N M n = = = * * = * = = = * * = * * * = O * = = * * = = = = = = 5 = = = 6 m O.X.                                          ",
"                  &.:.2.r.u.y.u.y.u.r.2.2.>.;.;.#.o./ R u * m M B B N N N M 8 = * = = = * * * * * * * = * * * * * * = = = 5 * * * = * * = * = = 5 n ..X.                                          ",
"                  &.;.>.2.r.u.y.r.y.3.3.1.<.&.;.$.#./ Q l e m M B B B N N b 6 * = * = = * * = = * * * = = * * * * * * = = * * * = * * = = = = = = 9 Q ~ R                                         ",
"                  o.#.&.>.2.y.3.3.3.2.r.1.<.;.;.$.+.o.^ E j m m N B B B M 9 = * = * = * = * * = = = * * = * * * O * * * O * = = = * * = = * = * = 9 N / R                                         ",
"                  / o.+.&.>.3.3.y.2.3.2.2.>.<.;.&.#.+.X.Q c M M M B B N n 6 * = * = * = = * = = * * * * * * * * * * = = = = = = * = * * * = * = = 6 M ..E                                         ",
"                  Q / o.+.&.>.2.r.r.r.2.>.<.<.>.&.&.$.#./ Q M N M B N M 9 * * * = * = * * * * * * * * * * = * * O = = * * = * * * * * = * * * = = 5 m / W                                         ",
"                  R E ~ o.#.&.>.2.3.y.3.<.1.<.:.;.;.%.$.o.Q N N N B M 8 = * * * * * = * * * = * = * * = * * * O * * * = = * * * * = * * O * * * O * n ~ Q 3                                       ",
"                  x k E ! X.$.;.>.2.3.3.3.2.1.>.:.>.;.;.$.X.! N B B m = O O O O O O O O O O O * * * O * O * O O * * * * * * * * * * * * * = * * * 6 E ....d                                       ",
"                  k j j R / O.&.;.>.1.2.r.2.1.1.>.1.>.;.$.#.^ N B B 9 O O O O O O O O O O O O O O O O O O O O O O * O * * * * * * * O * * * * * 8 R / ^ ..~ g                                     ",
"                  x g j l Q / $.;.:.1.2.3.2.<.1.1.<.:.;.$.O...N B N 8 O O O O O O O O O O O O O O O O O . O O O O O * O O * * * O * * * * * = 8 E / X.....X.x                                     ",
"                  v d d f R Q +.%.;.>.<.1.1.>.2.>.1.>.&.$.+.X.R B N = O O O O O O O O O O O O O O O O O O O O O * O * * O O O * * * * * = * 8 E X.o.X.X.X./ ^                                     ",
"                    7 2 7 g E X.$.;.>.<.1.1.1.>.1.<.>.&.#.X.! E N m O O O O O O O O O O O O O O O O O O O O O O O O O O * O * * * * * * * 9 E O.+.o.o.X.X.X./                                     ",
"                    2 , < 7 c X.+.&.;.;.1.>.1.>.>.;.:.%.#.O.! R M 9 O O O O O O O O O O O O O O O O O O O O * * * * O * O * * * * * * * 9 W o.o.X.O.O.X.X.../ f                                   ",
"                    3 % % , f ! +.%.&.;.>.>.>.;.>.;.&.#.O.X.Q x j 5 O O O O O O O O O O O O O O O O O O O O * O * O * * * * * O * * 5 s E X.O.O.O.+.o.X.+.O.~ f                                   ",
"                    1 % o o % R o.$.&.;.;.;.<.1.>.&.&.#.O...W x j 7 , % % $ % % $ % O O O O O O O O O O O O O * * * = = 3 7 d h k v W ~ ~ X.o.+.o.O.O.O.O.O.~ 4                                   ",
"                    f $ X X X k O.+.%.&.&.;.>.>.>.&.$.o./ ~ Q x l g d 7 3 1 2 3 1 1 , % $ o o X X . . X o o # $ , 1 7 d f j x x R E ~ ^ / X.o.o.O.o.X.o.o.o./ 7                                   ",
"                      d o X . , ~ o.+.$.&.&.;.:.;.&.#.O.^ Q E x k g g f d 7 7 3 7 4 3 < % % # $ X X o o o $ & , 1 3 7 f j j x c R R ! Q ~ ~ X.o.o.O.o.o.O.X./ g                                   ",
"                        E 7 X & Q o.+.$.$.&.;.&.&.$.+.X.! E R c l j h h f f d d d 7 4 4 < , , & % % % % , , , 3 7 7 d f j l v R R R Q ! / / X.o.o.O.o.X.o.....x                                   ",
"                          j $ o v X.o.O.$.$.$.+.+.o./ / ~ W R c x z j h f f f f d d d 7 3 1 1 , , , , , 1 1 4 7 7 f f g j k x R W Q Q ! ^ / ....o.o.o.o.o.X.X.R                                   ",
"                          k 1 o g Q / X.X.O.+.X.o...! ! E E R R c z k j g f f h f f f f 7 4 3 1 1 1 1 1 4 7 7 7 d f g j k l c R E ! Q ! ~ ....X.X.X.o.o.o.X./ Q .                                 ",
"                          R 7 $ 7 R Q ~ ......^ ^ ^ Q W E R v x x z k l k j j j j f g g g d 7 2 2 3 3 7 d d f d g j j k x x R E W ! Q ! Q / / ..X./ o.o.o.X./ ^ &                                 ",
"                        g v 1 % & k R W Q ~ ~ ~ Q ! Q E v v v x x x v l z l k j k j j k j g d 7 7 7 7 d f g g h h j k x l x v E R Q ! ! ~ / ../ ..X.o.o.o.X.X./ s                                 ",
"                        h g , $ # g l v E Q W W W W R R R c z c z x x l x k l k l k j z k k g f d s 7 d f j j j l l k z v v R R E Q ! Q / ^ / X.X.X.o.o.o...../ x                                 ",
"                        7 3 % # o 2 k l x R E E R R R v R v v z x x x x l k z l l l k k k j k g f f f f f j z l k x x x x c v W E Q W Q ! ! ~ X.../ o.X.X./ / ~ Q .                               ",
"                        , , # o X # h k k x c v v R c v x l k x R v l x k x c x k l k k k l k k g g f g g j k l x x v c v v R W W Q ! ! ~ / ^ ......X.o.X.X...../ 2                               ",
"                          & o X X X 7 j h l l l x x l x k x l x v c x c x x l l l k k l x k c l l j j j j j l l l v R R v R E W W Q Q Q ~ ~ ^ ..^ X.o...o.o...X...k                               ",
"                          , o X . . & d h j k k x k l x k x x x x x x l x x c c x l z z z z z l k x k l k l v c v R v R R E E W Q ! Q ~ ! ^ / ....X.X.X.o.X.X.X...E                               ",
"                          , o X . . . 7 g j j j k k k l z x v c x l v v l l c x x x l x x x x c v k k k j l x c R R R R E E W Q Q E Q ! ^ / ^ / ..^ o.X...X.X.X.X.^                               ",
"                          s % o X . . & h j k j j l l k x x v x c x c x x c x x x x x x x z v R R R x z x x z R R R R E R W R Q Q ~ ! ! ~ ~ / ^ ../ O.o.o.X.X.X...~ ,                             ",
"                          ! E 7 7 . . # j k x k k k z z c x c x x x x x x z x z v v v l x v v v v R R R c R x R E v R E W W Q Q ! ! ~ ^ ^ / ..../ ^ / X.X.o...X...^ d                             ",
"                        $ Q E R k $ X X h z z x x k z z v c c x v x c z x z v z v c R x c v c R v R E R R v R W R R R R E Q Q Q ~ ^ ~ ~ / ..^ ..~ ........X.X.X...^ x                             ",
"                        $ R x j g 7 < $ g c x x x l x z R x x x x x x x c c c c x x x x R v R E R E v R R R R E R R R W Q Q Q Q ~ ! ^ ^ ..........X.......X.X...X.^ Q                             ",
"                        . k x Q x g 7 , 4 k x c x x x v x x c x x x x x x v l v l z c v R R E W R R R E W R E R R E v R W W Q ! ! ~ ^ ^ / ~ ^ X...X.X.o.....o.......~ $                           ",
"                        o f Q ~ E d 1 % % g k x l c x x z x x x x x x x c c x x x x R R R R R W W R E R R Q R R E R R R W W ~ Q / / / ......../ ..X.X.o.X.....X.X./ ! 3                           ",
"                          s E ! c 4 , o % k x c x v c c c x c k x z z c l z v z l c c R R R R E E E E E Q R Q R E E R W E W W Q ! ~ ^ ^ ....X.....X.o.X...../ X.X...! g                           ",
"                          , R Q 3 % o X o j v v R v v x c c x l z l z x x x l x x x v R R E E E Q E W Q W W E E E W R v E E Q Q ~ ~ ..../ X.X...X........./ ..X.....! z                           ",
"                            x k % o o . X f x R R R v z x c x c x x x x x l c c x z v v E R E R W E W E E Q W W E R R v R R E Q Q ! ^ ^ / ....^ / ....X.X.X.X.X...^ ^ W                           ",
"                            s 4 # o . . . 3 x v c c c v x c x x x v x x x c x z l x z x R E R E E W E E Q W W E E E R R R v R E Q ! / ~ ^ ^ / ..X...../ ..^ X./ X./ / Q X                         ",
"                            $ & o X . . . % j v v v c x x l x x v v z c z l z x k x R c R v v E E E E E Q Q W E E E E R R v R R E ! ~ ~ ^ / ..X.o.X.X.........^ / ^ / Q <                         ",
"                              $ X X . . . % j l x x x x z x v x c x x v x l x x x x x v v c R R E W ! E E E W E W E E R E c v R W Q Q ^ ~ ^ / ..X.X.X...X./ ..^ / ! ! ^ 7                         ",
"                              o X . . . . . j k k x x c c x z x c z x x x x x z l k x l l x v R E W Q W E E W E W E E W R R v v E W Q ~ ^ ^ ....X.X.X.....X.! ^ ..^ ! Q j                         ",
"                              o , . . . . . f k k l x x R v R x x z c x x z x l l z k k l c z c v R E E E E R E E E R Q R R R R E Q Q Q / ..../ ....X.X.X.^ ../ ..! ~ ! x                         ",
"                              , h % . . . . 7 g j j k l z x x x x z x x c x z x k k l k k l l x v E R W E E W E E E E W R E R R R W W ! ! ^ ^ Q ! / X.X.X.X.X.X...~ ^ ^ E .                       ",
"                              l f , o . . . , j j k k k l z x x x x z x k x k k k k j k l z l c v R E R v E E E E W W E E E R E R R E Q ~ ~ ^ ! / / ..X.X...o.X...^ ^ Q Q ,                       ",
"                            x g 2 $ o . . . o f j j j j k k x z l z k l l k k j l k j k j k k l x v R E E E E E R W R R R R R E v R W W W ! Q Q ! ^ X.....X.o.X./ ~ ~ ! ! 3                       ",
"                          4 1 , & o X . . . . d j j l l x x l k l j j k l k k k k k j k k j k z z x R R E E R W W Q W Q R R v R R R W E E W Q Q Q ~ ../ ..X.X./ ! ! ! ! Q l                       ",
"                                                                                                                                                                                                  "
};
