/* XPM */
static char *_19b6423ad38472ac3fa13030dfac254Y7j1vYvJVsdp4oDv[] = {
/* columns rows colors chars-per-pixel */
"135 156 153 2 ",
"   c None",
".  c #010000",
"X  c #0B0000",
"o  c #0D0A03",
"O  c #0C0C0C",
"+  c #130000",
"@  c #1B0000",
"#  c #110E04",
"$  c #151105",
"%  c #1A1506",
"&  c #1E1808",
"*  c #121212",
"=  c #1C1C1C",
"-  c #250000",
";  c #2C0000",
":  c #340000",
">  c #3C0000",
",  c #231C0A",
"<  c #29210E",
"1  c #2B2313",
"2  c #2E2518",
"3  c #31261B",
"4  c #35291E",
"5  c #232323",
"6  c #2C2C2C",
"7  c #3C2D21",
"8  c #333333",
"9  c #3B3B3B",
"0  c #430000",
"q  c #4B0000",
"w  c #540201",
"e  c #5B0603",
"r  c #5E0803",
"t  c #630C05",
"y  c #691207",
"u  c #6D1509",
"i  c #731C0B",
"p  c #7A210E",
"a  c #7F2410",
"s  c #412F22",
"d  c #433123",
"f  c #4B3525",
"g  c #523927",
"h  c #563B28",
"j  c #5A3D28",
"k  c #64432B",
"l  c #6A472C",
"z  c #6E492D",
"x  c #734B2E",
"c  c #794F2F",
"v  c #7C5130",
"b  c #434343",
"n  c #4B4B4B",
"m  c #545454",
"M  c #5C5C5C",
"N  c #646464",
"B  c #6B6B6B",
"V  c #737373",
"C  c #7C7C7C",
"Z  c #832611",
"A  c #862812",
"S  c #8A2913",
"D  c #932B15",
"F  c #9A2C17",
"G  c #9E2C18",
"H  c #A52D19",
"J  c #AC2D1B",
"K  c #B32E1D",
"L  c #B82F1E",
"P  c #BA301E",
"I  c #C43321",
"U  c #C93622",
"Y  c #CD3922",
"T  c #D13D22",
"R  c #845532",
"E  c #8C5A35",
"W  c #925D36",
"Q  c #966037",
"!  c #9B6339",
"~  c #A1663B",
"^  c #A6693D",
"/  c #AA6C3F",
"(  c #D64122",
")  c #DA4522",
"_  c #DE4A22",
"`  c #E04E22",
"'  c #E35322",
"]  c #E65A22",
"[  c #E95F22",
"{  c #EA6224",
"}  c #ED6B2B",
"|  c #EF7232",
" . c #F27B3D",
".. c #F17637",
"X. c #AE6F41",
"o. c #B57344",
"O. c #B97647",
"+. c #BE7A4A",
"@. c #C37E4E",
"#. c #F37F43",
"$. c #C68151",
"%. c #CA8554",
"&. c #CE8858",
"*. c #D48C5C",
"=. c #F48246",
"-. c #F58C54",
";. c #F7935E",
":. c #DB9363",
">. c #DF9768",
",. c #E29A6B",
"<. c #F79561",
"1. c #F89966",
"2. c #F89A69",
"3. c #E7A071",
"4. c #EAA375",
"5. c #ECA679",
"6. c #EFAA7D",
"7. c #FAA275",
"8. c #FAA87E",
"9. c #838383",
"0. c #8B8B8B",
"q. c #939393",
"w. c #9A9A9A",
"e. c #A4A4A4",
"r. c #ABABAB",
"t. c #B6B6B6",
"y. c #BCBCBC",
"u. c #F0AC81",
"i. c #FCB18B",
"p. c #FCB794",
"a. c #FDBD9C",
"s. c #FDBFA0",
"d. c #FEC5AA",
"f. c #FFC9AE",
"g. c #FFCAB1",
"h. c #FFCEB5",
"j. c #FFD3BD",
"k. c gray80",
"l. c #D7D7D7",
"z. c #FFDDCC",
"x. c #FFE2D2",
"c. c #FFE7DB",
"v. c #FFE9DD",
"b. c #E4E4E4",
"n. c #FFEDE4",
"m. c #FFECE1",
"M. c #FFF1E9",
"N. c #FFF6F1",
"B. c #FFFAF7",
"V. c white",
"C. c #FFFEFD",
"Z. c #FFFFFE",
"A. c #F4F4F4",
/* pixels */
"                                                                                                                                                                                                                                                                              ",
"                                                                                                                                                                                                                                                                              ",
"                                                                                                                                                                                                                                                                              ",
"                                                                                      _ 1.                                                                                                                                                                                    ",
"                                                                                  S S i Z H                                                                                                                                                                                   ",
"                                                                                1.t q i y y                                                                                                                                                                                   ",
"                                                                              U S 0 : i u w                                                                                                                                                                                   ",
"                                                                          F D S p + - i i - V.                                                                                                                                                                                ",
"                                                                        D D D S p + ; i p V.V.v.                                                                                                                                                                              ",
"                                                                      D D D S D A e q G i B.V.n.                                                                                                                                                                              ",
"                                                                      S S D Z D A i w H i ) V.f.                                                                                                                                                                              ",
"                                                                      D D S S S S p i P p K V.V.h.                                                                                                                                                                            ",
"                                                                      I A Z Z S S S p F u A V.V.v.                                                                                                                                                                            ",
"                                                                      } Z S Z S S A Z a i p =.V.h.                                                                                                                                                                            ",
"                                                                      7.p S Z A Z S Z Z S i L V.B.x.                                                                                                                                                                          ",
"                                                                        Z p i a A A Z a S G D V.V.M.                                                                                                                                                                          ",
"                                                                        P p Z p Z A i Z Z G Z d.V.j.                                                                                                                                                                          ",
"                                                                        ( t a a A A A i Z D A Y V.z.n.                                                                                                                                                                        ",
"                                                                        ' i Z p Z Z A Z Z Z D F V.V.m.                                                                                                                                                                        ",
"                                                                        ] Z p p A A A p i i F a m.V.p.                                                                                                                                                                        ",
"                                                                          D i i u Z Z p i p A p _ V.g.c.                                                                                                                                                                      ",
"                                                                          F t i i p p i i i i p D V.B.M.                                                                                                                                                                      ",
"                                                                          J t i p i p p y u i S t h.V.s.                                                                                                                                                                      ",
"                                                                          ) i t i i p p i u i A t T V.=.f.                                                                                                                                                                    ",
"                                                                          a i t p y Z p u t u i i F V.z.x.                                                                                                                                                                    ",
"                                                                            a w i i i i i t t i p p c.N.a.                                                                                                                                                                    ",
"                                                                            p r y i u i u y t u a u } N...a.                                                                                                                                                                  ",
"                                                                            p e e p y i i y y i u u H n.i.z.                                                                                                                                                                  ",
"                                                                            p u q i y i i i r y u i i n.<.7.                                                                                                                                                                  ",
"                                                                              t q u t i i y t y t i y ;.' ] g.                                                                                                                                                                ",
"                                                                              t w r i u u u y t t u t G I U n.                                                                                                                                                                ",
"                                                                              p w e i t u u u r r e t p #.K 1.                                                                                                                                                                ",
"                                                                              0 e q a t i i u t e t y y ' L ( g.                                                                                                                                                              ",
"                                                                              ; q q p i u i u e r t t w J J K a.                                                                                                                                                              ",
"                                                                                q q p Z t u y t e t t w i H H -.                                                                                                                                                              ",
"                                                                                q q t A e y y t e r t w t S S U  .                                                                                                                                                            ",
"                                                                                q q e Z t u u u e t y t r A Z G -.                                                                                                                                                            ",
"                                                                                : > q Z u t i y t e r t q y p Z {                                                                                                                                                             ",
"                                                                                  q q i p y i y t t r t e r Z i K '                                                                                                                                                           ",
"                                                                                  q 0 t Z r u u t w t y t e p u S `                                                                                                                                                           ",
"                                                                                  y q w D t u i t e w t e q i i i )                                                                                                                                                           ",
"                                                                              M m S q w D i i i y t t t t w w i y J I                                                                                                                                                         ",
"                                                                              9.N S t q S S r u u t w r e t w i y p I `                                                                                                                                                       ",
"                                                                              9.B m u q i D t u y r w r r t e y u i P U                                                                                                                                                       ",
"                                                                              9.V M u q e H t y y y w e r t w t t i F P                                                                                                                                                       ",
"                                                                              C C M p w 0 G i u i y r r t e w t y u t J U                                                                                                                                                     ",
"                                                                              V C N i t q D S t u y r w t e e q t t r H I                                                                                                                                                     ",
"                                                                              B C B m u 0 a F e i y t t r t t e e t t Z H Y                                                                                                                                                   ",
"                                                                              M 9.V M y q t H t y u t w t t w w q t e y S L                                                                                                                                                   ",
"                                                                              m 9.V M u w w H y y y w e t t t w w r e w p F                                                                                                                                                   ",
"                                                                              n 9.C N i t q H S y u t t e t r r w w r w i p I                                                                                                                                                 ",
"                                                                              b V C B n y q S G t y t t w t q r w q w q r y P                                                                                                                                                 ",
"                                                                              b N 9.B m i q p J t i t r w t t w t w w w e u G D                                                                                                                                               ",
"                                                                              m m 9.B M i e w J i t p w e r t t e w q q q t i J                                                                                                                                               ",
"                                                                              m n 9.V M p r w H Z t i t e e w t e q w q q w t K                                                                                                                                               ",
"                                                                              m b 9.C N m t e D G r i t w w t e e e w e q w e G D                                                                                                                                             ",
"                                                                              b b V C B m t t p K t i i w t t w w w 0 q w w w Z K                                                                                                                                             ",
"                                                                              m b N 9.B M u t y L i t i w w r r t e q q q w w u J                                                                                                                                             ",
"                                                                              V b m 9.V M p t t K S t u y t w t q t e w w r q w H H                                                                                                                                           ",
"                                                                                n n 9.V M b r t D H r u y r w t e t e q w e w w S K                                                                                                                                           ",
"                                                                                m b 9.V N m y e p P e u u w e e t w w q q w q q e J                                                                                                                                           ",
"                                                                                b n C C B M i e t P p y i e w w e e w w q q e q q F J                                                                                                                                         ",
"                                                                                b b B C B M u r e J D e p i t r r e e e q q w e q A J                                                                                                                                         ",
"                                                                                m 8 M 9.V M n r e S H t u i e e e r t e q q w e w w H                                                                                                                                         ",
"                                                                                N 8 b 9.V N n t q u P t u Z r w e t r e e q w e q q H U                                                                                                                                       ",
"                                                                                  n b 9.V N M y w t J p y a i y t u i t i i t y u q D P                                                                                                                                       ",
"                                                                                  n n C C B M y r w G D 6 M N M M M N M M N N M M M N B C 0.                                                                                                                                  ",
"                                                                                  b b N C B N i e w a N M V M M M M M M M M N M M M M M M B N                                                                                                                                 ",
"                                                                                  b n m 9.B N n r q n B B V N N N N M N M N N N N N N N N N C                                                                                                                                 ",
"                                                                                  V n n 9.V N m t b B V B B M M M M M M M M M M N M M M M M M                                                                                                                                 ",
"                                                                                    b b 9.C N M m B V V V m M N N N N N M M M M N N B N N N B N                                                                                                                               ",
"                                                                                    n 9 V C N B B V B B 8 5 B M M M M M M M N M M M N N M M M M                                                                                                                               ",
"                                                                                    C b M 9.V V V B M 5 6 N V B N N N N N N M N N N M N B N N B                                                                                                                               ",
"                                                                                    C B M 9.V B B m 5 b N V V m M M M M M M M M M M M M N M m M N                                                                                                                             ",
"                                                                                    B V B 9.B N f 5 m B B B M M N N N N M N N N M N N N B N N B N                                                                                                                             ",
"                                                                                    V V V C N 6 8 M V B B b = M N m M m M M M M M M m M M M M m M                                                                                                                             ",
"                                                                                      C C V B b N B B N 8 5 m V B N N N N N N N M N N N N N N N B C                                                                                                                           ",
"                                                                                      V V B 9.B B B m = b N B V M M M M M m M M M M M M M M m M M M                                                                                                                           ",
"                                                                                      V B B 9.V N 9 5 n M B B N m N N N N N N N N N N B B M N B N B                                                                                                                           ",
"                                                                                      V B B C N 6 6 M B B N M 5 b N M M M M M M M M M M M m M M M M m                                                                                                                         ",
"                                                                                      B V B C N 9 M B N N b = 9 N B M N N N N N N N N B N M N N N N V                                                                                                                         ",
"                                                                                      V V 9.V 9.B B B M 6 5 m N B N M M M M M M M M M M M M M M M M N                                                                                                                         ",
"                                                                                        C C V 9.B B m 5 8 M B B B M m M M M N M N M N N B N M M M M M M                                                                                                                       ",
"                                                                                        V B B 9.N 9 5 m N B B B m 9 B M M M M M M M m M M M M M M M M N                                                                                                                       ",
"                                                                                        B B V 9.N 8 M B B N M 8 = n N m m m m m m m m m m m m m m m m m                                                                                                                       ",
"                                                                                        9.9.9.9.C N B B N m 5 8 m M 9 = * * * * > w q q t t y q = 5 = 8                                                                                                                       ",
"                                                                                        0.9.9.9.9.B N N 9 = b M m * . . . . . X > r y t i i p q X . - 8                                                                                                                       ",
"                                                                                        0.C V C 9.B m 5 8 M V N n O . . . . - 0 t u t t e t D G e : : p V                                                                                                                     ",
"                                                                                          9.0.9.9.N 8 n B V C B m 9 X @ - ; > q t e q q q q 0 0 0 0 q i G B                                                                                                                   ",
"                                                                                          0.0.0.9.V N V V V 9.C N n > > > 0 u t q q q q r q 0 0 > > 0 q Z M                                                                                                                   ",
"                                                                                          9.C V C C V C V V C 9.B m e w q t { Z w q q q q q q : > 0 > q q m B                                                                                                                 ",
"                                                                                          C 9.9.C C V V B V V 9.V M t e w t } I w q q q q q q 0 : > > 0 > p N                                                                                                                 ",
"                                                                                          q.9.0.9.N m B V B B 9.V N e u q q P j.i q q q 0 q q 0 > 0 0 0 q w M                                                                                                                 ",
"                                                                                          e.0.9.9.9 . m B B B 9.C N y p w q p V.i w w q q q 0 q 0 > 0 q 0 0 m N                                                                                                               ",
"                                                                                            0.9.9.6 . b B B B C 9.N 8 i w 0 p V.} r q q q q 0 q q > 0 0 0 > u N                                                                                                               ",
"                                                                                            9.C V 8 . n B B B C 0.B n p r q t x.V.y w q q 0 0 q q : 0 0 > > q M N                                                                                                             ",
"                                                                                            V B B 9 . M V B B V q.B M D t 0 t H V.G e q 0 0 q q q 0 0 q > > > b N                                                                                                             ",
"                                                                                            B N B m 6 B B B B V q.C N T i q e D V.( w w q 0 0 q q > 0 q 0 : > y M                                                                                                             ",
"                                                                                            9.V V V M B B B V B C 0.N T A q q y V.V.u w q q 0 q 0 0 > q q > > q m B                                                                                                           ",
"                                                                                            V B B V B B B B B B C r.B m L w q y ;.V.Z q q 0 q q q 0 > 0 w 0 > > n N                                                                                                           ",
"                                                                                              B B B V B B B B B V t.V M I w 0 w F V.F w w q 0 0 0 0 : q q w 0 : i N                                                                                                           ",
"                                                                                              V V V B N B B B B V e.9.M J t 0 q i B.T w q q q q 0 0 > > q q 0 ; q m N                                                                                                         ",
"                                                                                              V B B B B B B B V V 0.t.N S i 0 > t Y { t q q 0 0 0 0 0 > q q q : : 9 N                                                                                                         ",
"                                                                                              C B C V V B B B B B 9.b.B m a q 0 w S ) p q 0 0 0 0 0 > > q w q 0 ; e M                                                                                                         ",
"                                                                                              V m B V V B B B B B V A.B m y w 0 q i U D q 0 0 0 0 q > > 0 q q q : q m N                                                                                                       ",
"                                                                                            O.+.= n B B B B B B B V A.V M t q > 0 t K K w 0 > > > > > > > q q q > : b N                                                                                                       ",
"                                                                                        o.X.X.! * = N N B B B B N B y.y.M y w > > q D I t 0 > 0 > 0 0 > > q q q 0 ; u M                                                                                                       ",
"                                                                                    o.X.! R l j g d m M B B B B B B C k.N b e > 0 0 Z I S q q 0 0 0 > > > 0 q q q : 0 m B                                                                                                     ",
"                                                                                  o.W x k f s d 7 3 M M N B B B B B V r.B m e 0 0 0 y K J q 0 > 0 > 0 > 0 > 0 q q 0 : b M                                                                                                     ",
"                                                                                  R k g s 7 7 1 , , M M N B B B B B B 0.V M w 0 > 0 q H I e 0 0 > > > > : > 0 q q 0 ; t M                                                                                                     ",
"                                                                                  g d 7 2 1 , , % # n V B B N B B B B 9.C N y q : 0 0 S I u > 0 > > > 0 0 > 0 q q 0 : 0 m N                                                                                                   ",
"                                                                                ~ d 3 , , & & % o o # N N N B N B B B V 9.N b q > 0 0 y I D 0 > > > > > : > > q e 0 > : b M                                                                                                   ",
"                                                                                  3 , % $ $ $ $ o o o M M N N N B B B V 9.B m q 0 > > t P K q > 0 : > > > 0 0 q e q 0 : r m N                                                                                                 ",
"                                                                                  3 $ $ o # # o o o o M N N N N B B B B 9.V M e 0 > > w H ( u 0 > > : 0 > > 0 q r q 0 : 0 m N                                                                                                 ",
"                                                                                    , # o o o # o o o m N N N N B B B N C V M t q > > 0 D ) A q > : > 0 0 0 0 q J S q 0 : b M                                                                                                 ",
"                                                                                      f $ o o o o o o b N N N B N N N B V C N n q > 0 0 i _ J q 0 > q t r t 0 q U _ D 0 - t m N                                                                                               ",
"                                                                                                      m M M N N N N N B B 9.N m w > > 0 r _ U t > > 0 S i F q : 0 I T S > > m N                                                                                               ",
"                                                                                                        M M N B N N N N B C B M t > : 0 q U [ a > > : S a S y > + : P ( G > b N B                                                                                             ",
"                                                                                                        N N N N N N N N B C V M i q > 0 0 D 2.G 0 : ; p K w w 0 . . > T I > t m V /                                                                                           ",
"                                                                                                        M N N N N B N N N V C N m w > > 0 i z._ q : ; t =.0 - @ . . . : q ; 0 m B O.^                                                                                         ",
"                                                                                                      S m M N N N N N N B B 9.N m t > : 0 e M.V.i > ; 0 <.i @ . . . . . . - > m V 9.$.x                                                                                       ",
"                                                                                                      a m N M N N N N N N B 9.B m u w > 0 0 -.V.F > ; : ;.) X . . . . . . ; ; i m 0.$.&.                                                                                      ",
"                                                                                                      S m M m N N N N B N N 9.B N b a 0 > q P V.Y q > : I ;.@ . . . . . X ; ; q m 9.@.*.+.                                                                                    ",
"                                                                                                      Z y b n m N B N N N N 9.C N n D 0 0 0 S V.x.t > > y p.q . . . . . . - : ; n B 9.%.*.@.                                                                                  ",
"                                                                                                    F i q b b m B N N N N N V 9.N m S 0 > 0 w V.V.Z 0 : 0 } S . . . . . . : : - u m C %.*.>.+.                                                                                ",
"                                                                                                    S t > 9 6 n N B M M N N B q.N m S S > > q d.V.J q : : J F . . . . . . ; 0 X q m B O.*.:.>.o.                                                                              ",
"                                                                                                    p > ; 8 6 n M B N N N N B q.B M n S > > 0 T V.( i > : q e . . . . . . 0 e - ; b M V %.*.>.:.!                                                                             ",
"                                                                                                    w : ; 5 9 m N B B N N N N w.9.M n S > : > q v.} A 0 > > > . . . . . . : Z 0 @ t m V O.&.&.*.*.!                                                                           ",
"                                                                                    O.*.&.+.o.! j s > ; : > m n M N N B N M N 0.e.N M p > > > q  .8.D w : : ; . . + . . . - y y ; q n N V $.%.&.*.*.R                                                                         ",
"                                                                                &.6.3.*.+.X./ ~ R v 3 > : q n n M N N N N N M C l.N M i 0 : > > ) d.K w : ; - . . . X . . X > i : : p M B o.@.$.$.*.@.f                                                                       ",
"                                                                            %.4.5.:.&.@.o.X.~ ~ Q R k 4 > ; 9 n M N B N N N M V b.B M p q : > > p | { w : - X . . . . X . . . > > - y m B / X.O.@.@.%.o.                                                                      ",
"                                                                          >.u.6.3.:.&.@.O./ ~ ^ / ! v f ; + 5 n M N N N N B N B l.9.N b w > : > q _ V.D ; X . . . . X X . . . . X @ 0 b M V ~ X.X.+.@.@.f                                                                     ",
"                                                                        %.,.5.6.4.:.&.@.+.O./ / X.X.E j & . * n M N N N N N N B y.w.N m w : ; 0 0 } V.Y + . . . . . . X . . . . . . ; 8 m V ~ / ~ X.O.+.W                                                                     ",
"                                                                      f %.:.,.4.,.>.%.@.@.+.O.O.X.o.W z 3 . . b m N N N N N N N q.y.N m t 0 : > 0 U M.A . . . . . . X X . . . . . . - r m B ~ ! ! ! ^ o.^                                                                     ",
"                                                                      z $.&.,.4.,.*.*.%.@.@.O.+.O./ ! c d # . 9 m M M N N N N N C r.N M p 0 ; > 0 e e X . . . . . . X X . . . . . . X 0 b N B ! ! ! ! ^ ~ ,                                                                   ",
"                                                                      R O.&.:.>.>.:.*.&.$.@.$.@.O.O.! v j , . 6 n N N N N M M N V q.B M b q > > 0 > X . . . . . . . . + X . . . . . . : b M B W W ! ! ! ! 3                                                                   ",
"                                                                      v ^ @.*.:.,.*.*.*.&.&.%.@.o.o.! E k 4 X * 9 M N N m = = m N 9.V M n w > > > - . . . . . . . . . + . . . . . . . + 8 m B ! ! ! ~ ! ! j .                                                                 ",
"                                                                      k W o.$.*.>.>.*.*.*.&.$.%.O.o.~ W x d % O b m M m * . . 8 N V C M m e q : > . . . . . . . . . . X X . . . . . . . > n M B ! ! W ! Q E R                                                                 ",
"                                                                      h v ^ O.&.,.>.>.*.&.%.$.%.@.+.^ W k d , O 8 m M b . . . 6 M B C M m i i : ; . . . . . . . . . . X X . . . . . . . - 9 M B E W E ! E E X.1                                                               ",
"                                                                      d k W / %.*.>.:.*.%.&.%.$.O.o.^ E l f 2 % 9 n M 5 . . . 5 M B C N m S U q - . X . . . . . . . . + - @ . . . . . . . t n N ! W Q ! W E ^ v                                                               ",
"                                                                      3 g x ^ +.*.*.*.%.%.%.%.$.O.o.^ Q l j 7 , 8 n M 8 . . . 9 N N C B M M } G + . . . . . . . . . . X X + . . . . . . . 0 b M B W ! ! ! E Q E .                                                             ",
"                                                                      , 7 g R o.$.*.:.*.&.%.%.$.O.o.^ ! x j d < 6 b m 8 O . O m N N C C M M } ) @ . . . . . . . . . . X X X X + X . . . . ; b m N ! Q Q Q E E R #                                                             ",
"                                                                      # 2 s c ^ $.%.*.&.%.$.$.@.O.X.! W c k f 7 3 b m n 5 = 8 N N N V 9.N M ) ] X . . . . . . . . . X + X X X . . . . . . @ 8 m N N E ! W c E R &                                                             ",
"                                                                        < 1 h ! O.%.&.*.%.$.%.$.@.o.^ ! E l j s 3 n m M 9 b m N N N V 0.B N I Y X . . . . . . . . . . X X ; - X X . . . . . q m M N W ! W E R R 2                                                             ",
"                                                                        % , 7 R / @.%.*.%.&.%.$.+.X.^ ~ ! v j f 7 b n M M M M N N N B e.C N D w . . . . . . . . . . X + ; : : > : > > > : : e m N N E Q Q R R v &                                                             ",
"                                                                        . # , x ^ O.@.%.*.&.&.@.$.O.o./ W R x g 7 b m M M M M M N N B e.q.B M 6 . . . X @ @ @ ; : 0 w y n m m m M M M M M m M M M B N E W R R c ,                                                             ",
"                                                                        . . $ d ! o.@.%.*.%.&.$.@.o.O./ ~ v x j d b n M M M M M N N B r.k.V N n > q u n m m M M M M M N N M M M N N N M M M M N N N N R R R x x ,                                                             ",
"                                                                                                                                                                                                                                                                              ",
"                                                                                                                                                                                                                                                                              ",
"                                                                                                                                                                                                                                                                              ",
"                                                                                                                                                                                                                                                                              ",
"                                                                                                                                                                                                                                                                              ",
"                                                                                                                                                                                                                                                                              ",
"                                                                                                                                                                                                                                                                              ",
"                                                                                                                                                                                                                                                                              ",
"                                                                                                                                                                                                                                                                              "
};
