/* XPM */
static char *_c0be7242d894ff2deb664cf84d24412OuDJYHFmuLjesX9a[] = {
/* columns rows colors chars-per-pixel */
"153 219 161 2 ",
"   c None",
".  c #020100",
"X  c #0B0000",
"o  c #070805",
"O  c #0C0A03",
"+  c #0B0B0B",
"@  c #140000",
"#  c #1B0000",
"$  c #110E04",
"%  c #151105",
"&  c #1A1506",
"*  c #1E1808",
"=  c #141414",
"-  c #171915",
";  c #1C1C1C",
":  c #250000",
">  c #2C0000",
",  c #340000",
"<  c #3B0000",
"1  c #241D0A",
"2  c #29210E",
"3  c #2C2313",
"4  c #2E2518",
"5  c #30261A",
"6  c #35291E",
"7  c #242424",
"8  c #272925",
"9  c #2C2C2C",
"0  c #3C2D21",
"q  c #333333",
"w  c #3B3B3B",
"e  c #430000",
"r  c #4B0000",
"t  c #4C0808",
"y  c #540201",
"u  c #5A0502",
"i  c #5E0803",
"p  c #530A0A",
"a  c #5C0C0B",
"s  c #411516",
"d  c #640D05",
"f  c #650D0C",
"g  c #690D0C",
"h  c #6A0903",
"j  c #750E0D",
"k  c #681107",
"l  c #6C1408",
"z  c #6F180A",
"x  c #79100F",
"c  c #731C0C",
"v  c #781F0D",
"b  c #77100E",
"n  c #7D1110",
"m  c #7B210E",
"M  c #7F2510",
"N  c #412F22",
"B  c #443123",
"V  c #4B3525",
"C  c #523927",
"Z  c #563B28",
"A  c #5A3E29",
"S  c #63432A",
"D  c #6A462C",
"F  c #6E492D",
"G  c #744C2E",
"H  c #794F2F",
"J  c #7D5130",
"K  c #434343",
"L  c #4C4C4C",
"P  c #50524E",
"I  c #535353",
"U  c #5C5C5C",
"Y  c #636363",
"T  c #6C6C6C",
"R  c #747474",
"E  c #7A7A7A",
"W  c #841413",
"Q  c #8B1715",
"!  c #8E1816",
"~  c #951A18",
"^  c #9B1D1B",
"/  c #921917",
"(  c #832711",
")  c #872812",
"_  c #8B2913",
"`  c #942B15",
"'  c #9B2C17",
"]  c #9E2C18",
"[  c #A42D19",
"{  c #AD2E1B",
"}  c #A3201D",
"|  c #B52F1E",
" . c #BD311F",
".. c #C43321",
"X. c #C93622",
"o. c #CD3922",
"O. c #D23C22",
"+. c #845532",
"@. c #8D5B35",
"#. c #925D36",
"$. c #966037",
"%. c #9B6339",
"&. c #A2673C",
"*. c #A6693C",
"=. c #AA6B3E",
"-. c #D64122",
";. c #D94522",
":. c #DD4A22",
">. c #E04E22",
",. c #E35322",
"<. c #E65922",
"1. c #E85D22",
"2. c #EA6424",
"3. c #EE6C2C",
"4. c #EF702F",
"5. c #EF7131",
"6. c #F07435",
"7. c #F17738",
"8. c #AE6E40",
"9. c #B47344",
"0. c #B97647",
"q. c #BD7A4A",
"w. c #C37E4E",
"e. c #C68151",
"r. c #CA8554",
"t. c #CE8858",
"y. c #D38C5C",
"u. c #F48449",
"i. c #F68D55",
"p. c #F6905A",
"a. c #DB9464",
"s. c #DF9768",
"d. c #E49C6D",
"f. c #F99C6C",
"g. c #F89966",
"h. c #E7A071",
"j. c #EAA375",
"k. c #ECA679",
"l. c #EEA97D",
"z. c #FAA477",
"x. c #828382",
"c. c #898989",
"v. c gray58",
"b. c #F1AD82",
"n. c #FBAD84",
"m. c #F2B086",
"M. c #F4B48B",
"N. c #F6B790",
"B. c #F7B992",
"V. c #F8BE99",
"C. c #F9C09D",
"Z. c #FBC2A1",
"A. c #FDC9AC",
"S. c #FFCAB0",
"D. c #FFD0B9",
"F. c #FFD7C4",
"G. c #FFE1D2",
"H. c #FFE8DD",
"J. c #FFEFE7",
"K. c #FFF4EE",
"L. c white",
/* pixels */
"                                                                                                                                                                                                                                                                                                                  ",
"                                                                                                                                                                                                                                                                                                                  ",
"                                                                                                                                                                                                                                                                                                                  ",
"                                                                                                                                                                                                                                                                                                                  ",
"                                                                                                                                                                                                                                                                                                                  ",
"                                                                                                                                                      O.;.:.] z r r r                                                                                                                                             ",
"                                                                                                                                    L.5.3.<.2.2.;.) m ..X.o.r , > e m `                                                                                                                                           ",
"                                                                                                                                  p.4.H.Z.:.O.O.O.o.<.2.O.-.r > , u ) `                                                                                                                                           ",
"                                                                                                                                  3.2.G.J.3.;.O.X. .,.3.O.X.< > : r ( ]                                                                                                                                           ",
"                                                                                                                                  ,.<.4.J.F.-.o.X.X...2.3.O.[ _ M v ] )                                                                                                                                           ",
"                                                                                                                                  ,.,.<.Z.F.:.o... .{ O.3.-.m m i e v d                                                                                                                                           ",
"                                                                                                                                  5.:.>.2.K.G.o.X.| {  .2.1.` d r e m v                                                                                                                                           ",
"                                                                                                                                  i.:.2.:.f.n.,.| |  .| o.2.| d i d i l                                                                                                                                           ",
"                                                                                                                                    6.O.O.,.A.D.o.[ [ { { 3.3.k e > r l                                                                                                                                           ",
"                                                                                                                                  1.| z ` o.u.S.o.[ { { [  .3.2.d i d m                                                                                                                                           ",
"                                                                                                                                  :.m l | o.:.z.u.[ ) ` [ [ ,.3.) c l m                                                                                                                                           ",
"                                                                                                                                  ,.m c X.O...3.6.o.{ ` ` { ..3.,.c l v                                                                                                                                           ",
"                                                                                                                                    ;. .X.X.X...6.6.{ ` ( ] ' -.3.] l l                                                                                                                                           ",
"                                                                                                                                    -.X.X.| ....1.6. .` ] ` ` | 4.1.m l                                                                                                                                           ",
"                                                                                                                                      -.X.| |  ...3.,.[ ( ` ' ` ;.3...m                                                                                                                                           ",
"                                                                                                                                      -.X. .{  . .-.2. ._ ` ` ` ' 6.2.[                                                                                                                                           ",
"                                                                                                                                        X...{ |  .{ <.O._ ( _ ( ` o.3...                                                                                                                                          ",
"                                                                                                                                        -...{ { | [ O.1. ._ m ) _ { ,.2.v                                                                                                                                         ",
"                                                                                                                                           . .[ { { { ,.:.` ) M ) ) ..3.;.                                                                                                                                        ",
"                                                                                                                                          ..| { ' ] ` o.:.[ ) ( ) ` ` >.2.m                                                                                                                                       ",
"                                                                                                                                            | | _ [ ' | -.o.' ) m ( ) | 3.X.                                                                                                                                      ",
"                                                                                                                                            ..] ' _ _ [ ..;.{ ) M m ( ` -.;.M                                                                                                                                     ",
"                                                                                                                                              | [ ) ' ` [ O.X.` m m ) ( | ,. .                                                                                                                                    ",
"                                                                                                                                              { ' ( ) ` ` | -.] m m m M ( -.:.m                                                                                                                                   ",
"                                                                                                                                              X.) _ ( ) ` [ O.[ ( c m ) ( { >...                                                                                                                                  ",
"                                                                                                                                                ` ` ( m ( ' { ..` v m M m ) X.:.`                                                                                                                                 ",
"                                                                                                                                                [ m ( m ( ) ) O.| ( m m ` ( ..;.X.l                                                                                                                               ",
"                                                                                                                                                  ( m m m ) _ | | ' M m v ( _ O.;.(                                                                                                                               ",
"                                                                                                                                                  | ( m v m ( ( [ [ M m m M M | :.X.l                                                                                                                             ",
"                                                                                                                                                    m m m c M ( _ { ) m v v M M O.:.-.                                                                                                                            ",
"                                                                                                                                                    [ m ( c c M ( _ [ m v m M m [ ,.O.3.                                                                                                                          ",
"                                                                                                                                                      ( v v m m ) ) ' ( m m m m ( X.;.O.                                                                                                                          ",
"                                                                                                                                                      ] M m z z ( ( ` _ m m z m m { ;.;.7.                                                                                                                        ",
"                                                                                                                                                      7 m m v l v ` ( { M c l M m M X.;.O.3.                                                                                                                      ",
"                                                                                                                                                        ' m v z c ( ) _ ` v v m ( ( ) -.-.4.                                                                                                                      ",
"                                                                                                                                                        7 m m c k m M m _ ( v l m M m X.:.o.6.                                                                                                                    ",
"                                                                                                                                                          m v m c l m ( ) ` c c z m m ' ;.;.<.                                                                                                                    ",
"                                                                                                                                                          c m v v c c ) m ` ( m v c m m X.;.O.3.                                                                                                                  ",
"                                                                                                                                                            i c m z d m m ( ) c z m m ( [ O.-.{                                                                                                                   ",
"                                                                                                                                                            i m v c i c ( M ' _ v v v z M ..O.O...                                                                                                                ",
"                                                                                                                                                              M m c d l ) M ( _ m m c m m [ o.;. .                                                                                                                ",
"                                                                                                                                                              c c c l l v ( ) x.T ( v m c m  .O.-.-.                                                                                                              ",
"                                                                                                                                                              i m m v c z ) E E E I l v v m ` O.:.;.                                                                                                              ",
"                                                                                                                                                                c z c v l E x.E E T k d m v m X.O.;.:.                                                                                                            ",
"                                                                                                                                                                z M v v T E E E E E U i l m m ( O.;.X._                                                                                                           ",
"                                                                                                                                                                i ` c Y x.E R E R E R d d v m v [ -.:.X.                                                                                                          ",
"                                                                                                                                                                  L U c.E R E R E R E I d z c m ( X.>.o.X.                                                                                                        ",
"                                                                                                                                                                  T c.E E R E E E E E R d k c m m | X.<. .                                                                                                        ",
"                                                                                                                                                                T c.E E E E E E E R E E I y l m v ) X.:.-.`                                                                                                       ",
"                                                                                                                                                                c.E E E R E E R U 8 I E E c d c m m [ o.1...                                                                                                      ",
"                                                                                                                                                                x.E E E R E E q + + + U E U u l v m ( X.;.:.m                                                                                                     ",
"                                                                                                                                                                E E E E E E R = o . . L E R q i v v m ] O.3.)                                                                                                     ",
"                                                                                                                                                                E R E E E E T + . . . U E E U i d c M ( X.;.;.d                                                                                                   ",
"                                                                                                                                                                E E E E E E E U . = T E E E E 9 u l c m ' X.2. .                                                                                                  ",
"                                                                                                                                                                E E E E E E E E E E E E E R E Y i d v c m o.;.,.|                                                                                                 ",
"                                                                                                                                                                R x.E E E E E E E E E E R R E E w u l v m ` O.2.X.                                                                                                ",
"                                                                                                                                                                U c.E E E R E E R E E E E E R E Y u d v v m  .O.<.X.                                                                                              ",
"                                                                                                                                                                  x.E E E E E E E E R R E R R R E q d z v v { X.3...                                                                                              ",
"                                                                                                                                                                  T E E E E E E E R E E R E R R E U i d l c m | O.<.[                                                                                             ",
"                                                                                                                                                                  U R E E R E E R E E E E E E R E E q y k v v ] X.2.O.                                                                                            ",
"                                                                                                                                                                    R E E E E R E E R R R R E R E E R u i z m c  .-.,.m                                                                                           ",
"                                                                                                                                                                    R E E E E E E R E E R E R E E R E 9 u d c c _ ..:. .                                                                                          ",
"                                                                                                                                                                      T E E R E E E E R E R R E R R E T r u c z m [  .:.[                                                                                         ",
"                                                                                                                                                                      U R E E E E R R E E R E E R E R E I y k v v ` { -.O.                                                                                        ",
"                                                                                                                                                                        T E E E R R E E E R R E R R R E R u i k l m  ...:.X.                                                                                      ",
"                                                                                                                                                                        T R E E R E R R E R R R R E E R x.w y d l l _ [ o.;.                                                                                      ",
"                                                                                                                                                                        Y T E E R R R E R R E R R R R R E T i u l c v | X.<.`                                                                                     ",
"                                                                                                                                                                          Y E E E R E E R E E R E R E R R E w u i z c ( | O.O.                                                                                    ",
"                                                                                                                                                                          U T E E E R R E R E E E R R R R E E y y l v m |  .2.`                                                                                   ",
"                                                                                                                                                                          I Y R E R R E E R E E E R E R R E E L y i z c ( [ :.;.                                                                                  ",
"                                                                                                                                                                            U R E E R E R R R R R E E R R R E R u y d l l '  .2.X.                                                                                ",
"                                                                                                                                                                            U R E E R R E R R R R R R R R E R E L y i z c ) { -.;.m                                                                               ",
"                                                                                                                                                                              T R R E R R R E R R R R R R R R E R u y l m m [ X.<.X.                                                                              ",
"                                                                                                                                                                              Y R R R R R R E E R R R R E R E R x.L u d l c M  .;.;.|                                                                             ",
"                                                                                                                                                                              Y T E E R R R R E E R R R R R E R E E d u k c c { ..:. .                                                                            ",
"                                                                                                                                                                                T R R R E R R R R R R R R R R R R E I i d v l ` { o.;.;.                                                                          ",
"                                                                                                                                                                                R R E R R R R R R R R R E R R R E E x.R Y I I [  . .O.O.                                                                          ",
"                                                                                                                                                                                  R R E R R E R R R R R R R R R R E x.E E E E E E E E T T T U I                                                                   ",
"                                                                                                                                                                                  Y R R R E R R R E R R E R R R E E E x.E E x.x.E E E R E E E Y                                                                   ",
"                                                                                                                                                                                  L T R R R R R R R R R R E R R R R E E E R R E R E E E E E E T 9                                                                 ",
"                                                                                                                                                                                    T T R R R R E R R R R R E R R E R E E I I K I Y T R R E R R R v.                                                              ",
"                                                                                                                                                                                    T R R R R R E E R R R R R R R R E E E R R R T T Y U I K L I U I                                                               ",
"                                                                                                                                                                                    T R R E R R R R R R R R E E R E R E R c.E E E E E E R R R T T T K                                                             ",
"                                                                                                                                                                                      T T R R E R R R R R R E E R R E E E x.E R R R E E E E E E E R U                                                             ",
"                                                                                                                                                                                      R R T E R R R R E R R R E E E R R E E E I I I I Y Y T T R R R R R                                                           ",
"                                                                                                                                                                                        R R R R R R R R R R R E E E R R R E x.R R R T Y U I I K L I T E                                                           ",
"                                                                                                                                                                                        R R R R R R R R R R R E E E R E R E E c.E E E E E R R R T T T R Y                                                         ",
"                                                                                                                                                                                        E R R R R R R R R R E R E E R R R R R E E R R R R E E E E E E E Y                                                         ",
"                                                                                                                                                                                        R T R R R R R R R R R E E R R R E E R E E I K I Y T T R T R R R R w                                                       ",
"                                                                                                                                                                                          I R R R R R R R E R R E R R R R R R E E R T T T Y U I L K I U Y U                                                       ",
"                                                                                                                                                                                          K T R R R R R R E R R R E R R E E R E E x.E E E E R R R R T T T R R                                                     ",
"                                                                                                                                                                                          R T R R R R R R R R R R R R R R R E R R x.E R E R R R E E E E E E E                                                     ",
"                                                                                                                                                                                            Y R E R R R R R R R E E E R R E E E E E x.I L U Y T T T R R R R R L                                                   ",
"                                                                                                                                                                                            I Y T E R R R R R R R E E R R E E E E R E R T T Y U U I L I U Y T U                                                   ",
"                                                                                                                                                                                              U T R R R R R R R R R R R R R E R R R E E c.c.x.E E R T T T Y U T                                                   ",
"                                                                                                                                                                                              I Y T R R R R R R R R R R R R R R R R R R R R E E x.c.c.c.T K I Y                                                   ",
"                                                                                                                                                                                              T T T T R R R R R R R R R E R R R E R R R Y q q T E R R E E . X >                                                   ",
"                                                                                                                                                                                                R T T R R R R R R R R R R E R E R R E T = o . . Y R E R R I > r                                                   ",
"                                                                                                                                                                                                E Y Y Y R T R R R R R R R R E R E E R U + o . . q R R R R E m [ )                                                 ",
"                                                                                                                                                              t.8.9.9.9.8.q.w.0.=.*.            Y U Y T R R T R R E R R R R R R R E R T o . . . 8 R E R R R T o.o...)                                             ",
"                                                                                                                                                            w.*.$.@.+.J D F J G D G #.%.        L I U Y T T T R R R R R R R R R E R R R 8 . . + T R R R R R E `  .O...c                                           ",
"                                                                                                                                                          0.*.+.H S S A A B V V V V Z S G A V   w q K Y Y U U U Y Y T T T T R R R R R R R R R R R R R R R R R U l ` ` i                                           ",
"                                                                                                                                                          @.H A C V N B B B 0 0 5 0 0 0 B Z w w q 9 7 I w 7 ; 8 q q w L L I U U Y R R R R R R R R R R R R R R R d ( ( m l                                         ",
"                                                                                                                                                        G G A 0 B 0 0 0 0 6 3 3 1 1 1 4 0 w q 9 9 9 7 q = = + + + + + + = = = ; K R R R R R R R R R R R E T R R U d ) _ d                                         ",
"                                                                                                                                                        +.V B 0 5 3 4 5 3 1 % $ $ & ; 9 9 9 9 9 9 9 9 ; + o . . . . . o o o o . = T R R R R R R R R R R R R R T R l ( m v k                                       ",
"                                                                                                                                                        $.V 0 4 3 3 3 2 1 = = = = ; ; ; 8 8 9 9 9 9 8 9 w ; ; = = = = ; 7 = + = ; U R R R R T R R R R R T R R R R Y d _ ) d                                       ",
"                                                                                                                                                          V 6 3 4 3 3 1 = = = ; ; ; ; ; 8 8 9 9 9 9 9 O.O.X.| [ | `  .' [ | [ ] 9 q R R R R R R R R R R T R R R R E v ( v m d                                     ",
"                                                                                                                                                            2 3 1 1 * & + = ; = ; ; ; ; ; 7 9 9 9 9  .......|  ... .| ..o.| {  .9 8 Y R R R R R R R T R R R R R T R E d _ m l                                     ",
"                                                                                                                                                              2 1 * & & = = ; ; ; ; 7 8 8 8 9 9 9 9 o. . ...X..... ...| | ..{ ] [ 8 K R R R R R R R R R R R R R T T R m m m ( d                                   ",
"                                                                                                                                                                    0 4 ; = ; ; ; ; 7 7 8 8 7 8 8 .. ..... . .....X. .{ {  .` ] ( ; 9 T R R R R T R R R E R R T T R R R i ) M m                                   ",
"                                                                                                                                                                      V N ; ; 8 8 8 8 8 9 7 8 8 9 |  . . ... ... .| | [ { | [ ` ) m ; I R R R R R R R R R T R R R T R R v m v ' l                                 ",
"                                                                                                                                                                          L 7 9 9 8 9 8 8 7 7 9 ` { ..| ..| .. .|  . .{ ' ` m ( v c ; 9 T R E R R R R R R R T T R R R T T i ) v M                                 ",
"                                                                                                                                                                              q 9 9 9 9 8 8 9 (  . .{ ` { | { |  .{ [ ] ] _ M _ m m c 7 U E R R R R R R R R T R R T R R R q l m _ d                               ",
"                                                                                                                                                                              w q 9 8 8 8 8 ( { -.-.:.;..._ ` ` m ( { _ ) ` m M v m v ; 9 R R R R R R T R R T R T T T T R T i ( m )                               ",
"                                                                                                                                                                  y.y.y.a.e.=.%.q w 9 9 9 ) ) ] S *.d.m.b.m.j.e.l ` { m ) ( m m m M v M 7 Y R R R E E R R R R T T R R T T R w c m ) d                             ",
"                                                                                                                                                                  y.s.s.h.l.M.M.l.k.y.d.k.b.b.M.M.N.N.l.j.l.b.b.s.D _ ) ` M v m m c c m 7 L R R R R R R R R R T T T R T T T R u ) m _                             ",
"                                                                                                                                                                0.e.s.y.y.a.s.a.s.j.s.l.b.N.M.M.m.M.k.j.d.s.d.k.j.y.S | ) m c c v ( c m ; 7 T R R R R R R E R T T R T T T R T { i m ' c                           ",
"                                                                                                                                                                &.9.y.y.t.y.y.y.s.d.d.k.m.M.m.m.b.k.s.y.a.d.d.d.h.d.a.C ( ( M c m m l v M ; Y R R R R R R R R T T R T R T T T R u M m ' d                         ",
"                                                                                                                                                                %.&.0.9.e.e.t.a.d.h.d.d.d.j.h.d.s.a.t.y.y.y.a.h.j.h.k.y.{ m m m ( v v m m ; q R R R R R R R R R T R T T T R T T I u m ( m                         ",
"                                                                                                                                                                $.$.$.#.=.w.e.r.a.y.y.y.y.y.t.t.w.w.0.w.w.r.y.a.s.h.l.d.y.] v z c c c c c m ; Y R E R R R R R R R R R R R R T T R e M ( [ u                       ",
"                                                                                                                                                                $.&.J J +.%.&.8.9.9.q.q.w.q.9.9.8.=.=.8.9.0.w.y.a.d.l.l.j.%.m m m m c v c m ; K T R R R R R E R R R R R R R R T T K d m ) c                       ",
"                                                                                                                                                            l.V.N.k.G A S S G J @.+.#.%.&.%.$.$.$.#.$.$.8.9.q.r.y.a.d.k.l.j.F v v m m m m _ m ; T R R R R R R R R R R R R R R R T R y ( m [ d                     ",
"                                                                                                                                                        w.C.B.k.s.w.&.Z V V Z A C S S +.H J G H G S H @.%.=.9.e.r.y.a.k.k.k.d.V _ c v m v v c ; L R R R R R R R R R T R R R R R R T I i v ) m                     ",
"                                                                                                                                                      j.M.M.y.t.q.=.+.V 5 3 6 0 0 B A A A A A S F A S J $.*.9.9.w.r.y.s.k.j.l.y.0 ( M c m v v v ; T R R R R E R R T T R R R R R R T R y m m ] k                   ",
"                                                                                                                                                    M.b.d.y.t.w.8.#.G 0 $ & * 1 3 5 N N B B C C Z V A D #.*.8.q.w.t.y.y.h.j.k.k.e.3 c ( v v l z = U R R R R R R R Y R R R R R R R R T Y y ( m '                   ",
"                                                                                                                                                  M.k.j.d.a.r.0.9.%.+.N % O . O * 1 1 3 6 0 N 0 6 B A S #.&.9.9.w.e.y.y.y.s.j.j.k.e.1 c m l m v c q T R R R T I a e Y R R R R R R R R R u c m ` d                 ",
"                                                                                                                                                m.k.d.l.j.s.y.w.9.*.@.C 1 o . o $ $ & * 1 2 3 1 * V V G +.$.=.9.q.e.r.y.y.s.d.k.l.l.#.k d ) m l v ; I R R R ~ a ! x R R R R R R R R E T Y i ( ) `                 ",
"                                                                                                                                                d.d.d.d.j.s.a.t.0.8.@.A 3 o . o O . . o O O $ O % B V J J @.&.9.9.w.r.t.y.a.s.d.k.l.j.D l k l c v ; K T R R T T W ~ W T R R R R R R R R R v l c ' k               ",
"                                                                                                                                                y.a.d.d.j.j.d.y.e.0.&.H B * . . . O . . . . . . $ B V S +.#.$.9.q.r.t.t.y.a.s.s.j.l.l.d.V y d d d l 7 T R R R ^ t p f U R R R R R R R R T T r m ( ` m             ",
"                                                                                                                                                r.r.y.s.d.l.a.e.q.r.8.@.V 2 O . . d > . . . . . . 3 B A H +.#.9.q.r.t.y.y.y.s.d.d.k.l.k.d.0 d l l l = I R R R U ! ! ! x T R R R R R R R R T d k v ) l y           ",
"                                                                                                                                                q.q.y.a.s.y.t.q.9.8.q.=.G 5 $ . . X < : . . . . . & 3 C A G #.=.q.r.y.y.s.a.a.s.d.k.j.k.l.s.B c d d l ; T T R T b a / T R T T R R R T R R T Y i m ) ] r , z       ",
"                                                                                                                                                8.w.t.t.e.e.y.e.9.8.*.9.+.V & . @ . < < X # X . . . & V Z G $.%.0.e.y.s.a.a.y.a.s.d.k.b.b.k.s.6 i d l = I R R R Y ~ g I R R R R R R R R R R R k i l ` m , e d [   ",
"                                                                                                                                        8.k.m.h.w.9.e.w.0.e.e.r.e.w.=.8.&.A 1 . @ . # e : # : # . . . 4 V G +.%.*.q.y.y.a.a.a.s.h.h.k.l.l.m.l.s.B l d r ; T R R T j ~ ! T R R R R R R R R R T T y c ) [ r , r y d ",
"                                                                                                                                      M.Z.A.V.t.%.$.0.0.*.9.e.a.y.r.9.8.9.G 3 o @ # . < < # e , X X . o V G G @.*.0.e.a.a.a.a.s.s.a.h.l.b.m.l.l.s.B d r = I T R R T ~ a Y R T R T R R R T R R T u i v ` ( , < r r ",
"                                                                                                                                  h.B.M.l.j.k.y.w.%.%.9.&.=.0.s.k.t.r.a.&.A 3 o X > X : , > > < > X . . % V S @.*.9.e.y.s.a.s.a.a.s.s.j.k.l.b.b.l.a.v r r 7 Y R R Y a ~ / I R R R T R R T T R Y R u c ) { r < < r ",
"                                                                                                                                d.N.M.j.d.y.s.y.t.=.G *.8.%.9.e.b.l.k.&.G N 2 : . : # X : e X e , @ > . . 6 A +.%.=.w.y.y.y.y.y.a.y.s.d.d.j.k.l.k.j.q.i r + L T R R ~ s e j T R T R R T R R R R T z u v ` ( < <   ",
"                                                                                                                                M.l.h.s.a.a.y.t.w.8.%.D 9.&.0.9.t.M.&.G B 5 1 @ . # : . @ , @ , : : > : . O C G #.*.q.y.y.y.t.y.y.a.s.d.d.j.k.l.l.l.d.` < + ; U T T U L Q ^ T R R R R R T T R T R R e l ) [ e <   ",
"                                                                                                                              8.k.s.a.s.a.s.y.w.8.=.=.@.+.0.*.9.a.&.G B 6 3 & X X # > X X @ @ , r > > , # . 0 F @.&.w.y.y.y.r.t.y.y.y.a.s.d.j.k.k.k.d.#.u , + I T T R W t Q Y R R R T T R Y I Y R R ( r z ] ' e   ",
"                                                                                                                              t.t.r.t.y.s.d.t.9.=.&.$.9.$.*.8.&.&.G 0 3 3 & X X # . # . . . . X < X , < , . O J $.=.q.r.r.w.e.e.t.t.y.y.s.s.d.j.k.k.h.0.r < o 8 I Y T W Y x ^ T T Y T T U + . . q R R r k { [ y   ",
"                                                                                                                              9.q.q.9.w.t.y.e.q.9.&.%.%.w.$.=.G B B 1 1 % @ . X # X X . . . . . > # < < > > O J $.8.9.e.w.w.e.w.w.w.e.r.y.y.a.s.d.j.d.w.d e e + K Y T Y W ~ U T R R T T = . . . . U R q l c ` `   ",
"                                                                                                                              #.8.=.8.9.9.9.w.r.0.9.8.*.*.9.#.G 5 1 % O X X . X # > X . . . . . @ # e r < > O A $.&.q.e.e.0.w.w.w.e.w.r.y.t.y.y.s.d.d.r.u < , + q U Y T Y j p } R T T R + . . . . w R R e d ` `   ",
"                                                                                                                              @.8.8.*.%.*.%.=.=.a.t.9.8.$.$.&.D 1 . . . . . X X > , . . . . . . @ , e e > < O S %.8.0.w.9.w.9.q.w.q.w.w.r.t.r.y.y.s.s.t.d , < , = I Y T U W U W T T T T I . . . . I R R I e v [   ",
"                                                                                                                        @.e.a.*.&.0.0.#.#.$.$.&.9.k.t.0.8.%.$.@.V . X . . @ : X : : X : X . X > @ : < e y > O F *.=.q.e.r.q.q.e.q.q.q.w.w.r.r.r.y.y.s.y.0 > > u = 9 I U Y U g a T R R T T I o . 8 T T R R w i {   ",
"                                                                                                                      q.Z.C.C.d.8.&.%.$.$.#.J @.%.w.l.y.9.9.+.G V o X X . @ : @ @ # # @ : : X : # @ , e r > O +.8.w.r.t.e.w.q.q.q.q.w.w.w.q.w.e.r.y.y.t.@.: : > , = L I U I q Q Y T T R T T R T T T T T Y I r (   ",
"                                                                                                                    y.V.V.N.k.w.w.%.@.J @.%.+.G @.&.9.0.y.G G C 0 o @ X X X @ # . : : X : , X : X > > r e > 2 %.0.r.a.y.y.y.t.r.r.w.w.9.0.q.w.q.e.y.y.t.=.: @ @ e . 9 I I Y w t j Y U T R T R T T T T T Y T q l   ",
"                                                                                                                  8.N.N.j.j.w.%.D S A 4 V J $.+.G @.&.w.G +.D 6 1 @ # # # X : : @ > # @ @ > # @ X > > < > O @.=.9.w.y.s.y.a.y.y.t.t.w.w.q.0.9.0.w.y.y.t.9.: X : # > ; L I U W I n h h T T T T T T T T T T T Y d   ",
"                                                                                                                  y.j.h.y.w.#.A V B 0 * $ B D %.F D +.+.+.D C 3 $ @ . # @ X # # # # > @ X , , X X : , r , B &.w.t.y.y.y.y.y.y.y.y.r.w.w.e.q.q.0.q.r.r.y.w.d @ X @ > + w I I U t g ~ T T T T R R T T T T Y T E 7   ",
"                                                                                                                  r.y.s.t.&.V 6 0 6 3 * . o 0 Z J G G D C C 1 * # X X @ : : X , : . # > X : # > # > > < % $.9.r.y.a.d.a.y.e.t.r.r.r.e.r.w.q.w.e.e.r.y.r.w.C . X @ # . 9 I I U I p p ^ T R R T T T T T T T T R I   ",
"                                                                                                                  *.q.r.y.#.4 1 3 1 1 O . . O & 6 0 C V & * , X . . : X # : X > e # # > : @ > > # > : # B 8.r.y.y.a.y.y.s.s.y.r.r.r.e.r.w.w.w.w.e.r.y.y.r.%.X . @ > X = K I I I g U W T T T T R T T T T T T T R + ",
"                                                                                                                  5 9.=.$.G 0 1 * & O . . : : e . O O O X X . . . # > # # : # @ > , # > > X : : # > > O &.9.t.a.d.d.s.y.y.y.a.y.y.y.r.w.e.e.e.e.r.t.y.y.r.=.: . X # X o q I I I j p p U I T R T T R T T T T T R K ",
"                                                                                                                  V @.+.G B 3 * & o . . > > : < r X . . . . @ # . # > # # , # X : , : e e : , , : e > G 9.r.t.a.s.a.y.y.y.y.a.s.s.y.a.y.t.e.e.t.y.t.t.r.r.9.r . . @ X @ = L I I U K U I L T T T T T T T T T T T T ",
"                                                                                                                    Z Z N 3 * O . X X @ : r > , r < . X X . X X @ # > # X : > X : > # , e e > , < , 1 9.e.t.y.a.d.d.y.y.r.y.t.y.y.y.y.y.y.r.r.r.e.r.r.t.r.q.B . . . . X o q I I U U Y U T T T T T T T T T T T T T ",
"                                                                                                                      2 * O . X # < e > r r y : i u X < , : X : > X # > # X , : X , > @ y y X > < , G 9.r.y.y.y.s.s.s.y.y.t.y.y.y.y.y.t.t.y.r.t.r.e.t.r.y.9.A X X . . X : ; L I I U Y Y T T T T T T T T T T T Y Y ",
"                                                                                                                      _ r y l v ( ` < u > i y : r i # , e < X # > X @ , @ @ # > @ > > X e r < , e 1 *.9.t.y.y.y.a.y.t.y.e.r.t.y.y.y.y.r.r.t.r.t.w.r.t.y.t.q.G : X X . . @ + K I I U U U Y T T T Y T T T T T Y U w ",
"                                                                                                                    X.,.g.,.X.| | y d l > y d < > r r # y r > < r > X > , X : : X : , > > r , < , V *.0.t.y.y.y.y.r.r.r.e.r.r.r.t.r.t.y.t.t.r.r.r.t.t.t.y.0.@., . X @ X @ > 7 w K L I U U Y T T T T U Y Y U I w K ",
"                                                                                                              o.-.,.g.3.-.X.] [ u e i y e , y y # y r : e r r : r , # < > @ # # > @ < < @ e > e > H =.0.w.e.y.y.r.t.y.r.e.t.t.t.r.t.y.y.y.t.t.r.r.t.r.r.r.w.$.e . . X X X # + + = ; 7 9 q w K I I I I I I w 9     ",
"                                                                                                          ,.2.2.-.X.] [ ` ( ) d y y e i r : u u < r y < : e i # e r : r e , X > < X > e > < : e @ +.8.q.q.q.e.y.t.y.y.r.t.y.y.r.y.r.r.e.r.y.r.t.r.t.y.t.y.w.%.2 X X X X X : o . o . . o + + + = = = ; 9 q q       ",
"                                                                                                          X.) ` ` ' ` ( ` M k e v r : : d > e e e : r y # r u > e r e > < e > e , @ : < < # # > O $.9.q.w.r.e.t.y.r.e.w.r.e.r.t.y.t.y.t.e.t.t.t.y.t.r.t.r.w.&.0 . X X X X : : . . . . . o o + + + + + 7 q         ",
"                                                                                                          ` ) m ) c m v z r < y r y < e < r > r r : e e > e r , @ y y @ r < < : y < # , e # < > 1 *.*.9.0.w.w.w.t.e.w.q.w.q.e.q.r.t.t.y.y.t.r.y.t.r.y.y.r.w.=.B X . X X # @ X . . . . . . + o o + + + q           ",
"                                                                                                          <.i ..l d d d u < i e < r e : r y X d r > < , r @ e r : r u < e e r # r < # e r # > X 0 $.8.0.0.9.q.w.r.e.w.w.q.0.q.q.t.t.t.r.r.t.y.t.t.y.r.y.w.w.8.A # . . . X X X X . . . . . o + + + +               ",
"                                                                                                          ( i i i u u y < l u r > y e > < l > , r < X < r : , r e : r e @ y y # r < , , e @ > # A %.=.9.8.9.8.0.9.0.9.8.=.8.9.8.8.0.w.q.w.t.e.r.r.t.r.r.r.e.8.D < . . . . X . . . . . . + o + + =                 ",
"                                                                                                          k i e u d y r r , i r > r e , > r e @ u r X r < < > l u > r r : y r r > < r # : . @ # +.&.&.*.*.=.=.&.&.*.=.=.9.=.=.8.8.q.0.q.w.e.t.r.t.t.y.t.w.e.9.G                                                   ",
"                                                                                                          d y < u e y i i , e r < , y r : r r # < y > # < r > < e > r r < , d r # < < > X > @ @ G &.%.*.9.0.8.0.0.9.9.*.=.=.9.8.0.0.q.0.0.q.w.r.w.r.r.r.e.w.9.+.1                                                 ",
"                                                                                                          r y e r r < > r e > u r > r r # e r < > e e # e e , e y e , u r # r u , e , , # @ X X +.&.*.8.8.8.8.8.9.9.9.=.*.*.&.9.=.&.9.9.9.9.w.w.w.w.q.w.w.q.q.#.B                                                 ",
"                                                                                                          u u e r e r , r r , e r > e r , : r r # e r # e e e > y e # u i , , < r # > # @ @ . . +.%.*.8.8.=.*.8.=.*.*.=.*.&.=.8.0.q.q.9.9.q.q.0.0.q.w.w.w.q.0.#.Z                                                 ",
"                                                                                                          , r : u e r # y r : e y r # e y # r < > < < < @ < r # i r r , y y # y r > > @ # @ X o #.&.&.=.*.&.=.=.=.*.&.#.@.$.*.8.=.=.9.9.9.0.0.0.0.w.w.q.q.w.9.%.G                                                 ",
"                                                                                                          # y < e < e > r r , : e < @ X . . X < > # < e X e e , , < e # r < : i r , @ < @ # . 3 #.*.=.=.*.&.*.=.&.$.%.$.$.%.$.&.&.=.=.8.=.9.0.0.0.q.q.9.q.q.q.&.@.                                                ",
"                                                                                                          > r < e r r < r e r # < e @ . . . . # < # , e : > y e X y r # u r e , e , # > X X . J %.&.*.=.*.&.%.&.%.$.@.+.+.#.$.$.$.@.$.#.&.9.8.9.9.9.q.0.q.e.9.=.@.                                                ",
"                                                                                                          # l > < , e < e r < : r e . . . . . . < > : e < @ r , @ e r , < d u @ i , X @ @ . * J #.=.=.9.%.#.$.$.$.#.J +.+.+.@.@.$.#.*.%.*.8.9.=.9.9.0.q.q.0.9.8.%.                                                ",
"                                                                                                          @ e > < , r < r < , e # < . . . . . . r , X e , : r < < # d u X r r > > @ # X . . V @.#.&.8.8.8.&.=.&.$.%.#.#.@.+.@.+.+.@.@.$.&.=.&.=.=.0.9.w.q.9.9.=.&.B                                               ",
"                                                                                                          X r > y < e : < # r e @ r > . . . . # y , X < < , # e r @ e e , e y > @ > @ . . X G $.$.$.%.=.9.&.*.*.$.#.#.#.#.#.@.+.@.@.@.$.&.*.*.=.=.9.9.0.9.q.9.=.*.A                                               ",
"                                                                                                          . r # e e < > < # > < > e e > . # < : , e : # , < # e < @ < y , # r , > @ X . . X +.$.$.$.&.*.*.*.%.$.#.@.#.@.#.J J J G +.#.$.*.*.=.=.9.9.9.9.0.q.w.0.=.G                                               ",
"                                                                                                            i > e > < : < > : , e X r , # < < > X < > X < , : # r e # y r @ > # > @ . . . o #.&.$.&.&.$.&.&.$.$.@.+.+.J J H +.J +.@.#.@.%.%.=.8.=.9.9.9.0.q.q.q.8.$.                                              ",
"                                                                                                            u , < , < # < , X > e @ , e < # , < # < , > > e , @ , , : < > e X # : X . . . 1 $.%.%.$.#.$.$.#.$.+.+.+.@.+.J +.+.+.+.G @.@.#.&.=.&.*.9.=.9.9.q.e.q.9.%.                                              ",
"                                                                                                            i , > , < > , e @ < e , # , e X e e : > , < @ < , @ , < > # e > : : # X . X o V $.*.&.%.$.#.+.@.#.+.J H J J +.+.@.+.$.$.%.%.&.8.&.=.8.8.8.9.0.w.e.r.q.*.B                                             ",
"                                                                                                            e , > < , < > e > : r < X < e @ > e , # , : @ , < > > < e X # X > @ X . . o % D %.=.&.%.$.@.@.+.+.+.J G H +.J +.+.@.+.$.$.$.*.%.*.=.8.9.0.w.w.r.t.e.e.9.#.                                            ",
"                                                                                                            , , > e e e : < e X > , @ < , , # > < @ , < > : , , X , < @ X # : X . . X $ 4 J *.8.*.$.@.@.@.+.+.+.+.J J J J +.@.@.@.@.%.$.&.&.=.0.0.w.w.w.e.t.t.y.r.w.9.0                                           ",
"                                                                                                            < < @ , , > # , < @ : , , @ > , X : , : # > < X , , X # : : : # X . . . O 2 A @.&.=.*.&.$.+.+.J +.@.+.+.+.+.@.@.+.$.%.&.%.&.=.8.9.w.w.r.r.r.y.y.y.y.y.r.q.@.                                          ",
"                                                                                                            # > # > , < # > , , # < < X < > @ # e < X < < @ # < : . # @ : X X . . O 1 C +.$.&.=.=.&.=.&.%.@.@.+.J +.@.@.@.$.%.=.8.*.8.9.0.e.y.t.t.t.t.a.a.s.s.a.t.e.w.9.0                                         ",
"                                                                                                            . > : # > , : # , e @ : > @ X : > # , < # # : # X > e X X X # . . . o * C @.%.=.&.8.8.=.&.$.&.&.#.%.8.9.9.8.8.q.0.w.q.0.w.e.t.s.s.s.y.y.s.d.d.d.d.s.y.r.r.9.$.                                        ",
"                                                                                                            . # @ # # @ > @ : > # : : # X > > # : , # . # > X @ # @ # @ . . . o $ 0 +.&.8.9.9.*.=.=.*.*.*.*.*.9.9.9.0.w.t.w.e.w.w.r.a.y.s.d.d.s.s.s.d.h.d.h.d.y.y.y.y.w.9.B                                       ",
"                                                                                                            . X > # > : > # , > : X > > @ > : > @ , : . # > X . X > @ X . . X $ 4 S %.=.0.0.0.q.9.*.*.=.=.8.8.0.0.0.e.r.r.e.w.r.y.a.s.s.d.s.s.d.j.d.j.d.j.s.d.d.s.a.y.y.w.$.                                      ",
"                                                                                                              . > @ > : : : @ > > X > > # @ > , X : : @ X # # X X X X . . . O 1 V #.9.0.q.w.9.0.8.9.8.=.8.9.9.9.q.r.r.e.r.r.y.a.s.y.a.s.s.d.d.d.s.d.j.d.d.d.h.d.d.s.a.s.y.9.C                                     ",
"                                                                                                              . @ > @ : > # # > > # X > > X > e : @ # X X . . @ X . X . . . $ 1 S &.0.q.w.w.0.0.8.8.8.8.*.=.=.0.q.w.e.r.t.y.y.y.y.a.s.s.k.h.d.d.d.s.d.d.d.d.j.j.d.d.s.s.s.r.%.                                    ",
"                                                                                                              . . : : : > , # # : > . > # X . : > X X X X X @ X X . . . . O % B +.9.9.0.0.9.9.8.*.8.&.*.9.9.0.q.e.e.r.t.t.y.y.s.y.d.j.j.l.k.s.d.d.d.s.d.d.k.j.j.k.a.h.j.d.y.9.V                                   ",
"                                                                                                            8 . . : , # # # : X < # @ # # # . X @ . X X X X . . . . . . O O 1 V @.*.=.8.9.=.8.8.=.8.8.9.9.9.q.q.w.e.t.y.y.y.y.d.k.k.h.l.l.k.j.h.j.k.l.k.h.j.l.j.l.h.k.d.d.t.w.@.                                  ",
"                                                                                                          . - P X X > X , : # # > # # . X X . X X X . X X . . . . . X o O % 5 S $.&.&.*.*.=.*.9.=.=.9.0.0.0.0.w.e.r.y.y.t.d.j.l.k.j.b.k.k.d.d.d.k.b.k.k.l.l.d.j.k.h.d.j.h.y.r.%.0                                 ",
"                                                                                                    . P o P o - . . X @ : : # # @ X X X X X X . . . . . . . . . . . . O O * 0 G #.&.&.*.8.*.8.8.=.9.9.0.q.0.q.w.w.r.e.y.d.j.j.k.l.k.l.b.b.j.d.s.d.d.d.h.j.b.k.l.k.l.b.b.d.s.r.*.H                                 ",
"                                                                                                . P . P o 8 - + - . X # @ @ @ # . X X . . . . . . . . . . . . . . . . O $ & B J $.&.=.&.8.9.8.&.8.=.8.9.w.w.w.w.r.w.y.d.d.d.j.b.l.k.l.l.l.k.j.j.j.k.l.d.l.d.m.b.l.k.l.j.d.a.t.=.%.V                               ",
"                                                                                              8 o + + 8 - . 8 . + . . @ X @ X X X X . . . . . . . . . . . . . . . . o o O * V J $.*.=.8.9.0.9.=.=.8.9.9.9.w.w.w.0.r.y.s.s.h.h.l.k.l.b.M.b.k.h.j.b.b.l.l.l.b.b.b.b.k.m.l.d.y.y.=.$.G                               ",
"                                                                                          8 P 8 . . . . 8 . . . . . . . @ . . . . . . . . . . . . . . . . . . . . . . O $ 1 V +.%.&.*.*.9.8.8.8.*.=.=.8.q.0.q.q.y.y.y.y.s.d.h.l.l.M.M.m.b.b.l.l.k.b.k.d.j.l.M.m.b.k.j.b.d.y.r.0.9.*.V                             ",
"                                                                                      8 c.P . . . . . . . . . . . . . . X . . . . . . . . . . . . . . . .     . . . . O O 1 C G #.$.$.&.&.%.&.%.*.=.=.9.9.=.0.y.y.y.y.a.d.d.d.l.l.m.m.M.l.M.b.b.b.b.l.l.l.m.l.k.b.M.k.j.h.s.y.w.8.8.+.                            ",
"                                                                                    c.P 8 . . . . . . . . .         . . . . . . . . . . . . . . . . .           . . . O O 1 V G +.@.#.$.$.$.$.$.$.*.=.&.%.8.r.y.y.y.y.a.s.d.h.l.b.m.m.l.l.m.b.l.m.l.b.b.b.b.l.l.k.b.k.d.j.d.d.r.w.&.@.V                           ",
"                                                                                  c.P 8 . . . .                       . . . . . . . . . . . . . . .             . . . . O & V H G +.+.@.#.#.@.@.#.$.$.%.=.w.r.y.r.r.y.y.d.s.h.k.m.l.M.M.m.b.l.l.b.b.m.k.b.l.k.d.j.k.d.h.j.d.a.y.r.0.J S                           ",
"                                                                                c.P 8 . . .                             . . . . . . . . . . . .                   . . . O & 0 A H G J +.+.+.+.+.+.+.$.$.0.w.e.e.t.y.y.s.s.d.j.k.l.m.M.M.M.M.l.k.j.b.M.k.k.l.l.j.k.j.d.s.d.d.s.a.t.w.8.@.S                         ",
"                                                                              P 8 . . .                                   . . . . . . . . .                         . O o O 1 N D S H G G G G J G G +.q.q.w.w.r.a.a.s.s.s.d.d.j.l.b.m.m.M.M.m.l.b.b.l.l.b.l.k.a.d.h.l.h.s.d.s.s.y.0.q.8.G                         ",
"                                                                            P 8 . . .                                     . . . . . . .                                 . O * B Z A D D G D D D G G &.9.w.w.w.t.y.y.s.s.s.d.d.k.l.b.M.M.b.M.M.m.b.M.m.b.b.b.j.h.j.k.j.d.d.s.d.s.y.e.9.&.#.B                       ",
"                                                                          P 8 . . .                                         . . . .                                       o % 0 V Z S D G F D S G &.8.9.0.w.e.y.a.a.d.a.s.d.h.l.k.l.m.b.M.M.b.l.b.m.b.b.m.m.b.l.k.b.d.d.h.d.d.d.y.y.w.9.$.S                       ",
"                                                                        P 8 . . .                                                                                           o 2 B C A S A C A S %.=.*.9.9.q.e.y.y.a.s.a.d.j.d.d.k.b.b.m.M.M.M.m.b.M.m.l.m.b.k.l.l.l.l.h.d.d.h.s.s.y.t.q.&.J B                     ",
"                                                                      P 8 . . .                                                                                               & 0 A A A Z V F =.8.=.&.=.9.e.t.y.y.a.a.s.s.d.k.d.j.b.b.b.M.M.M.N.M.M.b.l.h.l.k.b.b.d.h.h.d.j.d.s.s.y.y.9.8.#.A                     ",
"                                                                    8 P 8 . .                                                                                                 # 0 C C V V J %.8.8.*.&.=.0.t.y.y.y.y.a.s.d.j.h.d.k.l.M.M.M.M.N.M.M.m.m.M.l.k.l.b.b.j.d.a.d.h.j.d.y.t.t.w.9.%.G C                   ",
"                                                                    P 8 . .                                                                                                     % B B 0 G @.%.&.%.$.$.9.e.e.e.r.y.s.a.s.s.d.d.d.k.b.m.M.N.M.M.N.M.M.m.b.k.l.l.b.l.k.l.d.s.s.j.d.s.y.y.t.q.9.@.F                   ",
"                                                                  P 8 . .                                                                                                         3 5 V J +.$.%.@.@.&.w.w.0.t.y.y.y.s.s.d.d.d.j.l.b.m.M.M.M.N.M.M.m.b.m.b.b.l.l.j.l.j.j.j.d.d.a.s.a.y.t.y.0.&.@.V                 ",
"                                                                P 8 . .                                                                                                             2 A G +.$.@.G $.8.0.9.q.w.r.y.a.d.d.d.d.j.k.k.l.b.m.M.M.M.N.M.m.b.m.m.l.l.l.j.h.j.j.j.j.d.s.s.d.a.y.y.r.q.&.+.                ",
"                                                              . 8 . . .                                                                                                               V G J J Z @.8.9.8.8.0.t.y.a.y.s.s.d.h.k.j.k.j.b.b.m.M.N.N.M.M.M.m.m.m.l.l.h.s.d.j.d.d.j.d.a.y.a.y.a.y.r.0.&.A               ",
"                                                              P . . .                                                                                                                   S S A A &.8.*.%.8.q.r.t.y.a.a.s.h.k.k.l.l.l.m.b.M.M.N.N.M.M.M.M.m.b.l.k.h.j.d.k.j.d.j.d.a.y.y.t.y.y.y.w.=.+.              ",
"                                                            8 . . .                                                                                                                     Z S B G *.$.@.%.9.q.e.y.y.s.s.d.h.k.k.j.j.k.m.l.M.M.M.M.N.M.b.M.M.l.b.j.k.k.j.j.d.y.d.j.y.t.y.r.y.y.t.w.8.$.V             ",
"                                                          . 8 . . .                                                                                                                       B 0 +.&.@.#.=.0.9.r.y.y.a.d.d.j.j.j.j.k.l.l.l.m.M.M.M.M.m.m.b.m.b.b.k.l.j.l.j.a.y.s.d.d.a.s.y.y.t.r.r.0.9.@.0           ",
"                                                          . . . .                                                                                                                           3 J @.G $.8.0.0.e.a.s.a.s.d.d.k.l.d.l.k.l.M.b.m.M.M.M.M.m.b.M.l.k.l.k.h.d.s.s.s.s.d.d.d.y.y.t.w.r.t.w.w.*.S           ",
"                                                        . 8 . .                                                                                                                               S S H $.8.0.0.e.y.a.s.s.d.d.k.k.j.k.l.k.k.m.M.M.M.M.M.M.M.l.l.l.l.k.j.s.y.s.j.s.a.d.d.y.a.t.e.t.r.e.w.0.J 6         ",
"                                                        . 8 . .                                                                                                                               Z A D @.=.9.0.w.y.a.s.d.s.d.k.l.l.l.k.l.l.m.M.M.m.M.M.M.b.b.k.j.k.k.d.s.y.a.d.k.s.s.s.a.d.a.t.y.t.w.e.9.%.S         ",
"                                                        . . .                                                                                                                                 0 C G +.$.=.9.e.y.s.d.d.j.d.j.k.b.l.l.l.m.b.b.m.m.M.M.M.M.b.m.l.j.k.d.d.s.s.a.d.d.d.y.y.s.s.y.y.r.0.0.9.=.#.V       ",
"                                                      . 8 . .                                                                                                                                   V D +.$.=.9.w.r.a.d.d.d.d.k.d.l.l.b.l.k.l.l.m.l.M.M.M.M.b.b.l.j.d.d.d.s.d.d.y.s.s.s.y.t.t.y.r.w.9.8.9.*.$.D       ",
"                                                      . 8 . .                                                                                                                                   1 Z G $.&.=.w.y.y.s.s.d.d.k.k.b.b.l.l.b.l.l.M.m.M.m.m.b.l.j.j.s.d.s.j.s.h.j.a.t.a.y.y.y.e.t.e.0.=.9.=.8.8.$.V     "
};
