/* XPM */
static char *a8c5d4b23aaa44a9ec682df1a675a220CinvF20QFZE7i5As[] = {
/* columns rows colors chars-per-pixel */
"88 114 140 2 ",
"   c None",
".  c #000000",
"X  c #080401",
"o  c #0C0903",
"O  c #0D0D0D",
"+  c #170000",
"@  c #120E04",
"#  c #151105",
"$  c #1C1607",
"%  c #1E1808",
"&  c #111111",
"*  c #1D1D1D",
"=  c #240000",
"-  c #3D0000",
";  c #221B09",
":  c #28200D",
">  c #2C2313",
",  c #2E2518",
"<  c #30251A",
"1  c #36291F",
"2  c #242424",
"3  c #2C2C2C",
"4  c #3C2D21",
"5  c #333333",
"6  c #3B3B3B",
"7  c #450000",
"8  c #4B0000",
"9  c #540201",
"0  c #5A0502",
"q  c #5E0803",
"w  c #600A04",
"e  c #6E1609",
"r  c #731C0B",
"t  c #79210E",
"y  c #7F2410",
"u  c #412F22",
"i  c #453224",
"p  c #4D3626",
"a  c #513927",
"s  c #563B28",
"d  c #5A3D28",
"f  c #63422A",
"g  c #69462B",
"h  c #6E492D",
"j  c #744C2E",
"k  c #794F2F",
"l  c #7D5130",
"z  c #444444",
"x  c gray29",
"c  c #535353",
"v  c #5D5D5D",
"b  c #656565",
"n  c #6C6C6C",
"m  c #737373",
"M  c #7B7B7B",
"N  c #832611",
"B  c #8A2913",
"V  c #932B15",
"C  c #9B2C17",
"Z  c #A32D19",
"A  c #AF2E1C",
"S  c #B42F1D",
"D  c #BB301F",
"F  c #C33321",
"G  c #C93622",
"H  c #CD3922",
"J  c #D23D22",
"K  c #845532",
"L  c #8C5A35",
"P  c #925D36",
"I  c #966037",
"U  c #9B6339",
"Y  c #A2663B",
"T  c #A6693C",
"R  c #AA6C3F",
"E  c #D64122",
"W  c #DA4522",
"Q  c #DD4922",
"!  c #E35422",
"~  c #E65A22",
"^  c #E95F22",
"/  c #EB6425",
"(  c #EC6828",
")  c #EF7131",
"_  c #F07333",
"`  c #F27A3C",
"'  c #AE6E40",
"]  c #B47344",
"[  c #B97647",
"{  c #BD7A4A",
"}  c #C37E4E",
"|  c #F37F43",
" . c #C68151",
".. c #CA8454",
"X. c #CE8858",
"o. c #D48C5C",
"O. c #F38145",
"+. c #F48449",
"@. c #F68D56",
"#. c #F6905A",
"$. c #DA9262",
"%. c #DF9768",
"&. c #E39B6C",
"*. c #F79561",
"=. c #F89966",
"-. c #F89A69",
";. c #E7A071",
":. c #E9A274",
">. c #ECA679",
",. c #EFAA7D",
"<. c #FAA275",
"1. c #FAA579",
"2. c #848484",
"3. c #8B8B8B",
"4. c #929292",
"5. c #9B9B9B",
"6. c #A2A2A2",
"7. c #ACACAC",
"8. c #B6B6B6",
"9. c gray72",
"0. c #F1AD82",
"q. c #FBAB82",
"w. c #F2B086",
"e. c #F4B48B",
"r. c #F6B790",
"t. c #FCB692",
"y. c #F7BB95",
"u. c #F6B992",
"i. c #F8BE99",
"p. c #FDBC9B",
"a. c gray76",
"s. c #CACACA",
"d. c #CECECE",
"f. c #D2D2D2",
"g. c #D8D8D8",
"h. c #FFD9C6",
"j. c #FFDCCA",
"k. c #FFE2D4",
"l. c #FFE7DB",
"z. c white",
/* pixels */
"                                                                                                                                                                                ",
"                                                                                                                                                                                ",
"                                                                                                                                                                                ",
"                                                                                                                                                                                ",
"                                                                                                                                                                                ",
"                                                                                                                                                                                ",
"                                                          Z *._ Z                                                                                                               ",
"                                                          J W W J                                                                                                               ",
"                                                        D C F F C D                                                                                                             ",
"                                                      A F 8 S S 8 F A                                                                                                           ",
"                                                      A _ W 0 0 W _ A                                                                                                           ",
"                                                    B J h.^ 9 9 ^ *.J B                                                                                                         ",
"                                                    N / k.( t t ( 1./ N                                                                                                         ",
"                                                    N 1.z.! S S ! @.` N                                                                                                         ",
"                                                    B k.h.~ Z Z ~ @.h.B                                                                                                         ",
"                                                  N F z.<.~ C C ~ +.k.F N                                                                                                       ",
"                                                  N ! h.| ~ Z Z ~ | #.! N                                                                                                       ",
"                                                m M 3.4.3.3.M M 3.3.4.3.M m                                                                                                     ",
"                                              M 2.2.3.2.2.2.M M 2.2.2.3.2.2.M                                                                                                   ",
"                                            6 2.M 2.3.! Q F S S F Q ! 3.2.M 2.6                                                                                                 ",
"                                            c M M / <.O.H t V V t H O.<./ M M c                                                                                                 ",
"                                          6 5 z A =.h.@.j.@.B B j.@.@.l.=.A z 5 6                                                                                               ",
"                                          c 5 2 E t.k.@.j.8 V V @.D @.k.t.E 2 5 c                                                                                               ",
"                                          b 3 3 ) p.j.@.@.8 V V @.8 @.j.p.) 3 3 b                                                                                               ",
"                                        m v x S / q.~ D D 8 B B D 8 D ~ q./ S x v m                                                                                             ",
"                                        M b D F ) <./ F D 8 r r D 8 F / <.) F D b M                                                                                             ",
"                                        9.F J G _ <.` D 8 8 9 9 y 8 D ` <._ G J F 9.                                                                                            ",
"                                      2.6.F W E q.-.G w 8 8 8 8 y 8 w G -.q.E W F 6.2.                                                                                          ",
"                                      4.3.F H ! ~ y 0 8 8 7 7 7 7 8 8 0 y ~ ! H F 3.4.                                                                                          ",
"                                    m 9.m G F C 8 8 8 7 8 8 8 8 8 8 7 8 8 8 C F G m 9.m                                                                                         ",
"                                    M 7.n H C 0 8 8 8 8 8 8 8 8 8 8 8 8 8 8 0 C H n 7.M                                                                                         ",
"                                  2.a.3.m F e 8 8 7 8 8 8 8 8 8 8 8 8 8 7 8 8 e F m 3.a.2.                                                                                      ",
"                                  3.s.M n V 9 8 8 8 8 8 8 8 8 8 8 8 8 8 8 8 8 9 V n M s.3.                                                                                      ",
"                                  9.9.m n r 9 8 8 8 8 8 7 8 8 8 8 7 8 8 8 8 8 9 r n m 9.9.                                                                                      ",
"                                6.f.4.n V q 8 8 8 8 8 8 8 8 7 7 8 8 8 8 8 8 8 8 q V n 4.f.6.                                                                                    ",
"                                7.d.M b e 9 q 8 9 7 8 9 8 9 8 8 9 8 9 8 7 8 8 q 9 e b M d.7.                                                                                    ",
"                                f.9.M b B r r t t B B V B V V V V B V B B t t r r B b M 9.f.                                                                                    ",
"                              m g.6.2.M m m m m m m M M m m M M m m M M m m m m m m M 2.6.g.m                                                                                   ",
"                              2.d.5.2.2.M M M m m m n n n n b b n n n n m m m M M M 2.2.5.d.2.                                                                                  ",
"                            b M M b b v v v v c c c c c x z x x z x c c c c c v v v v b b M M b                                                                                 ",
"                            n b c z 5 6 6 6 z 5 5 5 3 5 5 5 5 5 5 5 5 3 5 5 5 z 6 6 6 5 z c b n                                                                                 ",
"                            b c 6 6 5 5 5 5 5 5 5 5 5 5 5 5 5 5 5 5 5 5 5 5 5 5 5 5 5 5 6 6 c b                                                                                 ",
"                          v b x 6 5 5 5 5 5 5 5 5 5 5 5 5 5 5 5 5 5 5 5 5 5 5 5 5 5 5 5 5 6 x b v                                                                               ",
"                          v b z 6 5 5 5 5 3 5 5 5 5 5 5 5 3 3 3 3 5 5 5 3 5 5 5 3 5 5 5 5 6 z b v                                                                               ",
"                        x v c 6 5 5 5 3 5 5 5 5 5 3 5 3 3 3 3 3 3 3 3 5 3 5 5 5 5 5 3 5 5 5 6 c v x                                                                             ",
"                        z v c 6 5 5 3 3 5 3 3 5 3 3 3 3 2 3 2 2 3 2 3 3 3 3 5 3 3 5 3 3 5 5 6 c v z                                                                             ",
"                        c v z 5 5 3 5 3 3 3 3 3 3 2 3 3 3 3 3 3 3 3 3 3 2 3 3 3 3 3 3 5 3 5 5 z v c                                                                             ",
"                        v c 6 5 5 3 5 3 2 3 5 5 3 3 2 2 3 3 2 2 3 3 2 2 3 3 5 5 3 2 3 5 3 5 5 6 c v                                                                             ",
"                        b x 6 5 5 5 3 3 5 5 3 3 3 3 3 3 3 3 3 3 3 3 3 3 3 3 3 3 5 5 3 3 5 5 5 6 x b                                                                             ",
"                        b z 5 * 5 5 5 3 3 5 5 3 3 2 3 3 3 3 3 3 3 3 3 3 2 3 3 5 5 3 3 5 5 5 * 5 z b                                                                             ",
"                        c 6 3 3 3 3 3 3 2 2 2 3 * 2 * * * 2 2 2 2 * * * 2 * 3 2 2 2 3 3 3 3 3 3 6 c                                                                             ",
"                        3 & & & O O O O O O & O O o o O o O O O O o O o o O O & O O O O O O & & & 3                                                                             ",
"                        3 & O O O O O O O O O O o O O O O O o o O O o o O O O O O O O o O O O O & 3                                                                             ",
"                        z * & O O & O O & O & O O O O O O O o o O O O O O O O & O & O O O O O & * z                                                                             ",
"                        v * & & & & & O o O * O O O o o O & o o & O o o O O O * O o O & O O & & * v :.r.>.}                                                                     ",
"                        n 2 & O O O O O O O O O O O O O o O O O o O O O O O O O O O O O O O O & 2 n :.:.,.y.,.[                                                                 ",
"                        m 5 & & & O & O o O O O & O O & & O O O O & & O O O o O O o O & O & & & 5 m &.:.>.r.i.r.X.                                                              ",
"                        M z * & O O & O O O & & & & & O o O O O & O O O & & & & O O O & & O & * z M o.:.>.w.r.i.i.&.I                                                           ",
"                        M c 2 * & & O O & & O O O * & o o O O O O O o & * O O O & & O O & & * 2 c M  .&.:.w.e.y.y.i.e.o.                                                        ",
"                        3.v 3 * & & & & O & & O O O O O O & O O & O O O O O O & & & & & & & * 3 v 3. .$.>.>.w.e.r.r.i.r.>.T                                                     ",
"                        v n 5 & & * & & O O & & O o O O o & O O & O O O o & & & O O & & * & * 5 m v  .;.0.,.,.w.>.>.>.w.r.e.$.s                                                 ",
"                          M z * * & O & O O & O O O O & O O O O O O & O O O O & O O & O & * * x M P X.>.0.0.,.>.>.;.%.;.&.>.>.;.}                                               ",
"                            c * & & & & O & & & & O O o O O & & O O o O O & & O O O & & & & * c P R X.:.>.,.>.,.>.&.&.%.%.o.&.&.:. .                                            ",
"            o.,.w.e.0.0.e.%.m x 2 * & & & o O & o O O o O & O & & O o O O o O O o O & & * 2 x m P  .o.,.,.:.>.:.&.;.;.&.$.o.o.$.&.%.Y                                           ",
"      e.w.r.y.y.r.e.>.&.o.X...o.l ; . - = X . . . . . . . . . . . . . . . . . . . . . + > u g P R X.%.;.>.:.:.:.:.&.%.%.$.o.o.o.o.$.[ k                                         ",
"    e.e.w.e.r.r.r.e.0.,.&.%.o.{ U l ; . - = = . . . . . . . . . . . . . . . . . . . . # > a k U ] ..o.%.&.&.:.;.;.;.&.&.%.$.o.o.o.o.} j                                         ",
"  :.>.0.e.e.e.e.r.e.w.;.&.%...} R l 4 - 0 - = . . . . . . . . . . . . . . . . . . . o ; < a l Y ] { o.%.%.%.&.&.&.&.&.&.&.o.o.o.o.o...L                                         ",
"  &.;.&.,.e.e.e.e.e.0.,.&.o.o.} ] L a ; - = = = . . . . . . . . . . . . . . . . . X @ ; 4 a h Y ] { ..o.$.&.&.%.;.%.&.&.&.%.o.o.o.o.X.U                                         ",
"  %.&.:.w.w.e.e.e.w.0.,.,.&.o...' U j 4 X = = . . . = . . . . . . . . . . . . . . o # > 4 a j L T ] } X.o.$.&.&.&.&.%.%.&.%.o.o.o.X.X.R p                                       ",
"  $.%.;.>.0.w.0.e.w.e.e.,.&.o. .R U K h < . . . . . . . . . . . . . . . . . . X o # $ , i s j L U ] { ..X.$.$.%.%.%.&.%.%.%.o.o.o.X...[ f                                       ",
"  $.o.$.&.,.>.,.0.0.>.>.&.%. .[ R P K l f < . . . . . . . . . . . . . . . . . X @ $ : , p s h L U ] ] } ....o.%.%.%.%.%.%.o.o.o.o.o.o.] f                                       ",
"  ] } $.%.:.>.>.0.:.;.&.o.X.} ] U U P l l f 4 . . . . . . . . . . . . . . X X o $ ; , 4 i s j L Y R ] {  . .X.$.$.$.$.$.%.o.X.o.o.o.o.} j                                       ",
"  T { o.%.:.&.:.;.&.%.%.o. .{ ' Y U L K K l h p > . . . . . . . . . . . X @ o % ; > 1 i p s j L U Y ] } }  .} o.o.%.$.o.$.o.o.X.o.o.X...K ;                                     ",
"  L ] o.&.&.:.;.;.&.&.o.X. .{ ] R U U P L L K j j s < o . . . . . . . X X @ % ; , 4 4 i d g K L I T ] [ }  ...X.o.$.&.$.o.o.o.X.o.X.o...P ,                                     ",
"  Y ' X.$.&.&.;.&.%.%.o. .} [ [ T U U U U U P L P L j j s a p u , ; % # $ ; > > 1 i p p s h l P U Y R ] [ }  ...o.o.$.$.$.$.$.o.o.o.o.X.[ Y 4                                   ",
"  L U  .%.;.&.;.&.$.$.X.} } { [ [ Y Y U T Y U U P L K L L K K g a < > : > < 1 4 i i p s j j L L U Y ' ' [ } } ..X.o.o.$.o.$.%.%.o.$.o.o. .} ..P u                               ",
"  l U } o.%.&.&.&.$.X... .} } [ ] ' T T T Y Y U Y P U U U I P K d p i 4 4 4 4 i p p s f j l L U U T R ] ' { }  .X.o.o.$.%.o.o.o.o.o.o.o...}  .o.Y f                             ",
"  l U  .o.$.%.%.o.o.X... ...} { [ [ R R T T Y Y Y T U U U U U P K h p p i i p a s s g f K K P U U ' ' ] [ [ } .. .o.o.o.%.%.o.o.$.o.o.$.o.} } X...] U                           ",
"  P '  .X.o.o.$.o.o.X...} [ } { [ ' ] ' ] ' R Y Y Y Y Y Y T T Y P K d f s s s s f j j l K L L I Y U ' ] [ ] { } } o.X.o.o.$.o.%.o.o.o.o.X.} } o.X.{ j                           ",
"  I ] } ....o.X...o...} { } { { ] [ [ [ [ [ ] Y R R R ' R R ' Y Y P K h f f g g j k k K L P U U U T ' [ ' ] {  .} o.o.o.$.o.o.o.o.o.o.o.X. .{  . . .L                           ",
"  .. .[ } } ..X. ..... . . . .} { } { [ { [ [ ] ] T ' R R ] R ' ' T U K l j l l k K K P L U U U T T ] ] { ] } }  ...X.o.o.$.$.$.o.o.o.o.o.] { {  . .Y                           ",
"  } [ ] [ [ { } } }  . ... ...} { } { } { [ [ ] [ R R ] [ ] ] [ ] R R Y U K K K L L L P L P U Y T ' ] ' [ { } } } ......X.o.o.$.o.o.X.o.o...} [ { } ]                           ",
"  K P Y T ] [ } } }  ... . ... . . .}  .} { [ [ [ [ [ ] ] [ [ [ [ [ [ R R Y T U U U U U U U U Y R R ' ] [ ] [ } } ..X.X.o.o.o.%.o.o.o.o.X. .} [ { { [                           ",
"  l L I Y T ' [ [ { } ..X..... ... . .} } { } [ [ ] [ { { [ { { [ [ [ [ ] ' ] ' T T U Y U U Y T ' ' ] ] [ [ [ } } ..X...X.o.o.o.o.o.o.o.o.X.} [ [ { '                           ",
"  p g K P U Y [ ] } ......X.X.......} } } } [ [ [ ] } { [ { [ } [ } { [ { ] [ { [ [ ] R ' ] ] ' ] ] [ { } ] { } ..X...X.X.X.o.o.o.o.X.o.o.o.} [ } { U                           ",
"  i s k P Y R ' [ {  .....o...X. ...} } [ ] { { [ { } }  .{ { ..{ } } }  .} [ [ } } } [ } ] [ [ [ [ [ { } } } ....o.o.o.o.o.o.o.o.o.o.X.X.X.} } { [ P                           ",
"  < p h L P Y ] [ [ } ..X. .X.} .. .} } } } } { } } } { } } } }  .} .. .X. ... .}  ...X...X...} } } } } } }  ...}  ...X.o.o.o.o.o.o.o... ...} [ { ] j                           ",
"    L L L U Y R [ {  ... .X.....} } }  .} {  .{  .} }  . . . .{ } .. . . ...X.....X...X.o.o.o.o.X. ...} ..X... .X.X.o.o.o.o.o.o.o.o.o.o.$.....{ ] ] s                           ",
"    R U U U T ] ] { }  .X.......X...} } } [ } } }  ... . . .} }  ....... .X...X...X.o.o.o.o.o.o.X.o.o.o.X.X.X.....o.o.o.o.o.o.o.o.o.o.o.o.o...} ] T a                           ",
"    L K L Y ] ' ] } }  ... . . . ..... . .{  . .} } .. ... ...}  . ...} ....X.X...X.o.X.o.$.o.o.o.o.o.o.o.X.o.X.o.o.o.o.o.X.o.$.o.o.o.o.X.o.X.} [ ' p                           ",
"    f k K Y ' ' [ { }  . . . . .X. . .} } { } }  . .X. .......} .... .} ..........X.X.o.$.%.o.o.o.$.$.%.$.o.o.o.o.o.o.o.o.o.o.o.o.o.o.o.o.o... .{ T p                           ",
"      L U Y ' ] [ [ }  ... . .......} } } } } } .. ... . ...X. ...X... .......X...o.o.o.$.%.%.%.$.$.%.o.$.$.$.$.o.o.o.o.o.o.X.o.o.o.o.o.X.o.X.} [ ' a                           ",
"      T I U R ] [ [ } }  . . ...X..... .{ } { } } .. . . .....X. ... .X.............X.X.o.$.%.%.%.%.o.%.$.$.%.&.%.o.o.$.%.o.o.o.o.o.o.o.o.o.X.} } ' a                           ",
"      K L Y R [ ] ] {  . .}  .......} } ..{ { } { { }  .}  . . . .X.} ...... . .X. ...o.$.o.o.o.$.$.%.o.$.%.&.%.%.%.%.$.o.o.o.o.o.o.o.o.o.X.o. .[ ' s                           ",
"        j U R ] ] ] [ } }  ... ... ...}  .} } { } } }  .}  . . ...} } } } } .. ...X.$.X.$.$.X.o.o.o.o.o.o.$.%.$.o.$.$.o.o.$.o.o.X...o.o.X.X. ...[ ' a                           ",
"        L U Y R R ] [ [  . . . . . .} } } [ } [ [ { { } { }  . .} } [ { { {  .}  .} X.X.$.$.$.$.$.$.$.o.o.o.o.$.$.$.$.o.X.o.o.X.X...o.X.o. .X...{ ] s                           ",
"        U U T R ' ] ] [ [ } } } }  ...{ [ [ ] [ [ [ { [ [ { { { { { [  .{ }  . . .X.X.$.$.$.$.$.$.$.$.o.o.$.o.$.$.$.$.$.X.o.o.X.X.o. ...o.X.X. .} ' f                           ",
"        L L U Y ' ] [ ' [ { } .. ...} } [ [ ] [ [ [ ] ] { [ { { { { ] { } ]  . .[ } X.$.X.$.$.$.$.$.$.$.$.o.o.$.o.$.$.o.o.$.X... .} X...o...o.} } ] g                           ",
"          j U U T ' ] [ '  .{ } } } } { } { ] ] ' ] [ ] ] ] [ { { [ { { [ } [  .X.X.$.X.$.$.$.$.$.o.$.o.o.$.$.o.$.o.$.o.o.X...X.....o.o. .....} { ] j                           ",
"          l L P T Y T ] ] [ [ ] [ } [ { { [ [ ] ] R R ' R R [ [ { [ { { [ [ } [ } $.X.$.$.$.$.$.$.$.o.$.$.$.o.$.$.$.o.o.$.X.$.X...o.....o.{ }  .{ R L                           ",
"          j K L U Y Y R ' ] ] [ ] [ [ [ [ [ ] ] ] ] [ [ ] [ [ [ [ [ { [ { } [ ] } X.$.$.$.$.$.$.o.o.$.$.$.o.$.o.$.$.$.o.$.o...X.$.X.....o.} } [ [ ' P                           ",
"          p j K U I U Y R ' ' ] ] ] ] [ [ [ ' ] ] R [ ] [ ] [ [ [ [ [ { [ { ] } $.} $.$.$.$.$.$.$.$.o.o.$.$.$.$.$.$.$.$.o.$.$.$.X.....$.....} [ ' T P                           ",
"          p j K P U U U T T T R ] ] ] ] ' ' ' Y Y [ [ [ ] [ [ [ [ [ [ R [ R { [ } $.} X.$.$.$.$.$.$.$.$.$.$.$.$.$.$.$.$.o.o.$.X.X.o.o.o.....[ [ ' T I                           ",
"          p f L L I Y U U U Y ' T Y ' ' [ [ [ ] ] ] [ R ] ] [ ] [ ] [ [ [ [ [ } $.$.X.$.$.$.$.$.$.$.o.$.$.$.$.$.$.$.$.$.o.o.......X.....} ..} [ R T g                           ",
"          p h K L U I U U Y U Y Y U U Y ] [ [ ] ] R R R ] [ [ [ [ [ [ R [ [ R [ [ } } $.X.$.X.$.$.o.$.$.$.$.$.$.$.$.$.o.o.o.X.$.....o.$...} [ } R T g #                         ",
"          a f K K L K P L P I U P I U U R Y ] ] ] ] U ] ] Y ] Y Y R R [ R R [ [ [ } $.} X.X.$.$.$.$.$.$.$.$.$.$.$.$.$.$.$.o.o...$...$...} } } [ R T g $                         ",
"                                                                                                                                                                                ",
"                                                                                                                                                                                ",
"                                                                                                                                                                                ",
"                                                                                                                                                                                ",
"                                                                                                                                                                                ",
"                                                                                                                                                                                ",
"                                                                                                                                                                                ",
"                                                                                                                                                                                "
};
