/* XPM */
static char *d32aa30fcf03477dd9373416b64eeb6f6K2hyeRsLgWDAcGI[] = {
/* columns rows colors chars-per-pixel */
"512 512 256 2 ",
"   c #020202",
".  c #020C0B",
"X  c #070706",
"o  c #05120D",
"O  c #071816",
"+  c #171817",
"@  c #130C0B",
"#  c #291818",
"$  c #351B1B",
"%  c #3B1D1D",
"&  c #331717",
"*  c #280F0E",
"=  c #10221D",
"-  c #3B211E",
";  c #25221D",
":  c #3C1E20",
">  c #281E21",
",  c #012C2C",
"<  c #032726",
"1  c #182826",
"2  c #01312E",
"3  c #0A322E",
"4  c #012E31",
"5  c #0C2F31",
"6  c #013434",
"7  c #013936",
"8  c #023639",
"9  c #023C3B",
"0  c #0A3C3C",
"q  c #0A3636",
"w  c #183837",
"e  c #19322D",
"r  c #272928",
"t  c #3D2322",
"y  c #372928",
"u  c #273837",
"i  c #373837",
"p  c #32322D",
"a  c #141E21",
"s  c #421D1E",
"d  c #432424",
"f  c #452B2A",
"g  c #4B2C2C",
"h  c #482727",
"j  c #532C2C",
"k  c #4A322E",
"l  c #4B2E31",
"z  c #4D3333",
"x  c #483938",
"c  c #533433",
"v  c #5B3434",
"b  c #543B3B",
"n  c #5B3B3B",
"m  c #573837",
"M  c #543030",
"N  c #633C3C",
"B  c #66393A",
"V  c #693836",
"C  c #421F20",
"Z  c #02413E",
"A  c #0B423E",
"S  c #05473C",
"D  c #15423E",
"F  c #2F423D",
"G  c #4A4439",
"H  c #56463D",
"J  c #58513F",
"K  c #64413F",
"L  c #033E41",
"P  c #0B3E41",
"I  c #133E41",
"U  c #343E41",
"Y  c #593E41",
"T  c #4B3E41",
"R  c #663E41",
"E  c #034343",
"W  c #0B4444",
"Q  c #034946",
"!  c #0B4946",
"~  c #044C4B",
"^  c #0B4C4B",
"/  c #074649",
"(  c #124444",
")  c #134C4B",
"_  c #174A48",
"`  c #0B514E",
"'  c #04514D",
"]  c #13524D",
"[  c #1B524D",
"{  c #084E51",
"}  c #164E51",
"|  c #045353",
" . c #0C5453",
".. c #0C5B5B",
"X. c #095957",
"o. c #135453",
"O. c #1B5453",
"+. c #135955",
"@. c #145C5B",
"#. c #1B5C5B",
"$. c #1A5956",
"%. c #284947",
"&. c #374847",
"*. c #26524E",
"=. c #235D5B",
"-. c #275855",
";. c #375957",
":. c #35514E",
">. c #18625D",
",. c #0B625D",
"<. c #28625D",
"1. c #36625D",
"2. c #125E61",
"3. c #0B6664",
"4. c #146463",
"5. c #196866",
"6. c #197472",
"7. c #286865",
"8. c #376966",
"9. c #29726C",
"0. c #38736D",
"q. c #287875",
"w. c #397874",
"e. c #2D6E71",
"r. c #2D5E61",
"t. c #484847",
"y. c #5C4344",
"u. c #584947",
"i. c #5B5447",
"p. c #475857",
"a. c #585857",
"s. c #4B514F",
"d. c #634343",
"f. c #6B4444",
"g. c #644B4C",
"h. c #6B4B4C",
"j. c #674748",
"k. c #744A4A",
"l. c #645B4C",
"z. c #66574C",
"x. c #694E51",
"c. c #6C5353",
"v. c #675956",
"b. c #735354",
"n. c #785959",
"m. c #754F50",
"M. c #46625D",
"N. c #58625D",
"B. c #6C6353",
"V. c #6B6459",
"C. c #746B5B",
"Z. c #766959",
"A. c #7B715E",
"S. c #6A614E",
"D. c #765E61",
"F. c #466967",
"G. c #576967",
"H. c #47726D",
"J. c #487975",
"K. c #577976",
"L. c #55716E",
"P. c #686867",
"I. c #786865",
"U. c #7C7363",
"Y. c #7A7569",
"T. c #677877",
"R. c #787876",
"E. c #6C706F",
"W. c #535E61",
"Q. c #84595A",
"!. c #855251",
"~. c #866768",
"^. c #847B6B",
"/. c #857867",
"(. c #887875",
"). c #967778",
"_. c #8F6D6F",
"`. c #8C6B67",
"'. c #36827B",
"]. c #1A827D",
"[. c #48837C",
"{. c #56837D",
"}. c #6B827D",
"|. c #8B8376",
" X c #958978",
".X c #918671",
"XX c #A2927D",
"oX c #657E81",
"OX c #967E81",
"+X c #358A85",
"@X c #1C8483",
"#X c #498984",
"$X c #588985",
"%X c #58938C",
"&X c #599A94",
"*X c #4A958E",
"=X c #678986",
"-X c #778886",
";X c #67938D",
":X c #679995",
">X c #769996",
",X c #75928E",
"<X c #58A39B",
"1X c #6FA39C",
"2X c #78A9A4",
"3X c #70B1AA",
"4X c #5BACA5",
"5X c #77C3BA",
"6X c #7ACDC4",
"7X c #888887",
"8X c #978A86",
"9X c #9B9387",
"0X c #889896",
"qX c #989896",
"wX c #8D908F",
"eX c #A59989",
"rX c #A69A95",
"tX c #A88C8D",
"yX c #8DA29D",
"uX c #AAA498",
"iX c #B4A89A",
"pX c #B1A58F",
"aX c #87A9A6",
"sX c #98A7A6",
"dX c #8FB7B3",
"fX c #A8A8A6",
"gX c #B6ABA5",
"hX c #BAB3A9",
"jX c #B8B8B6",
"kX c #A9B6B5",
"lX c #A29EA1",
"zX c #C5BBB6",
"xX c #C4B7AB",
"cX c #C2B39B",
"vX c #8EC3BC",
"bX c #AEC2BD",
"nX c #CAC3B9",
"mX c #D3C8BA",
"MX c #E3D1BD",
"NX c #93CEC7",
"BX c #B2CECB",
"VX c #B5E6E1",
"CX c #C8C8C6",
"ZX c #D5CAC7",
"AX c #D9D8D6",
"SX c #D0D5D0",
"DX c #E4D9D5",
"FX c #E9E3DB",
"GX c #D3EDEB",
"HX c #E9E7E6",
"JX c #F5EAEA",
"KX c #FEFCFC",
"LX c #F9F7F6",
"PX c #EFF6F4",
"IX c #D8E0DF",
"UX c #C2BEC1",
/* pixels */
"j.c f g f - % d % : d t t % t t f - f f Y y.x.x.@   r &.:.H.{.8.[ ( W W W 0 9 9 6 2 , , , , , 2 4 4 6 9 W ^ ^ Q Q ' | | | X.X.X.3.3.3.3.6.6.6.6.6.X.X.3.3.3.3.6.5.4...5.5.4.q.6.6.5.2.q.'.5.X.' {  .5.2.6.3.6.4X+X+X5.<.J.{.;Xe   G hXuXnXiXY.I.I.C. XV.i.i.V.B.B.l.l.l.B.l.l.B.S.V.l.z.v.v.z.v.Z.B.B.Z.C.B.V.V.V.l.V.I.U./.(.8XhXDXZXr ; R.L.w {.1X3X&X#X} W P 3 w < 3 5 5 w 5 w q 0 ( 0 W ( 6 4 W ^ 9 9 L 9 9 8 W W 9 9 E E E Q ' { X.X...X.' ~ E ~ ~ ~ ~ ^ W E E 9 9 8 8 6 , , , 2 6 9 Z E S ! Z ) 7.0.J.J.H.H.%.:.s.v.n.m.n.n.f.v N N j v B R B j g h g g c v f.N m.n.b.n n.y X X 1 L.}.K.8.[ A A W W E L 8 9 9 8 6 6 6 , , , , , , 6 9 0 0 9 9 9 9 0 6 6 W ~ | | ....X.X... .X...@..... . .@...| | @.,.....X.4.4.3.3.3.5.6.4.@.+.@.#.#.+.+.@.#.J.$X{.r p fXJXFXhXnXZXuX|.|.Y.l.l.l.l.V.B.l.B.C.V.l.l.H x l.S.G p i p G G p i i i t.x p G p x G G H i.l.V.(.8X9XrXs.u :.F.*.-.J.:X1X0.0.7.#.$.^ ^ / +.5.@. .~  .@... . . . .X.6.3.,.,.X.5.3.5.5.4.| E E Q ^ 9 8 6 8 q 4 , , , , , , , , , , < < , , < < < < < < < , 6 A } $.Q  .+.w.J.K.$X=XL.1 i p y u.b g.",
"Z.g.c f f g f d % % % - % % t t f t t f m y.x.y   + &.&.K.L.H.-.[ W W W W A 9 0 6 , , , , , , , 4 4 6 9 E W W E Q | | | ..X.X.| 6.].6.6.3.3.3.6.6.5.3.6.6.6.6.6.5.6.3.5.5.5.q.4.5.5.2.4.6.5.4... .>.9...6.5.6.*X+X9.7.w.1.=XF.. + 8XgXhXnX9X(.|.Y.C.|.I.C.C.C.B.B.B.l.l.B.B.l.B.B.V.l.l.V.Z.v.B.B.B.B.Z.Z.B.l.l.i.l.Z.Y./.(.eXgXmXnXnXs.X G.=X;.H.1XvX3X1X7.W 8 3 q 3 3 5 , 5 < w 0 ( ( ( 0 0 0 8 ) ) L L W E E ^ W 9 9 E Q /  .~ ' ..5.4.,.4.4.X.~ '  .~ ~ / E E L 9 9 9 9 8 6 6 6 6 7 9 E W W W W Z ) 8.J.J.J.K.M.F s.u.c.n.Q.Q.k.N f.f.B N N N v j h h f j v v N N m.b.j.c.u.@   + &.-XK.K.1.[ W W ! W E L 8 9 8 8 6 6 2 , , < < , , 6 0 W _ 9 9 9 7 9 2 6 W ~ | X..... ...@. . .....@.@... . . . .|  .X.X.4.4.....5.6.6.3... .+.@.#.#.@.#.7.@.'.:X2XF.a t.SXKXDXxXmXnX9X^.^.Y.V.l.l.l.l.l.l.B.V.l.i.C.i.y i.i.x y x G i.J i x G t.i.G x u.x H u.u.u.i.l.I.|.gXgXhX7XF :.%.:.1.8.#X:X#X<.O.<.$.W ^ +.@.+.@.q.@.>.>...@.5.5.@.4.q.3.X.X.| 3.4.5.5...~ E E ~  .W 9 8 6 6 6 4 4 < < < , , , , , , , , , < < < < < , , , , 6 W ^ Q  .` 7.8.H.K.=X=Xu U i y u.b b.",
"n.c.H f d g g d % % % - - - t t f f d z b x.y.@   i W.:.T.F.1.*._ W A ( ( 0 0 0 2 , < , , , , , 4 4 6 8 8 9 9 Z E ' ~ ~ X.3.3.6.@X@X6.6.6.3.3.6.6.6.6.3.5.6.6.6.6.q.q.6.5.6.6...| 5.4.4.5.5.5... .>.9.4.6.5...4.9.>.7.#XJ.=Xe   s.hXgXnXhX9X X XI.S.V.B.Y.Y.U.Z.B.Z.B.l.B.B.B.C.B.S.i.l.Z.Z.n.Z.Z.Z.Z.Z.V.V.i.u.l.V.C.U.^..X X X^.eXgXhX@ p T.L.$X2XvXvX3Xw.$.) 0 q 2 q q , q 2 ( ( ( 0 9 7 7 Z E ^ ^ W / / W ^ Z 9 Z ^  . . .@.~ Q 2.q.q.5.3.3.,.| | | ~ Q / E E E L L 9 0 8 8 , 2 6 7 9 Z E Z Z ! 7 9 8.J.0.{.K.F.F s.u.g.~.~.~.Q.k.m.b.k.k.R n M h h h g c m R R f.m.m.d.I.y   X u T.,XK.F.=.[ W W ! W E E 9 8 8 6 6 6 , , < < < , , , 6 0 ) 9 9 9 9 8 6 6 W ~ {  .@.@. . ...+. . .+. . . . . .+.@.@.+. . ...5.....6.q.q.4.X.X. .@.@.@.@.4.9.9.#X3XdX%.1 R.JXLXgXgXmXhXeX9X9X^.C.B.B.l.l.l.l.l.H i.u.G G G i.G p x G G G G G G u.u.s.t.t.i.H u.i.i.l.V.Z.Y. XgXhXhXuXs.e w :.;.<.J.#X%X7.$.#.=.$.#.$.@.5.X.X.`  .' ~ ~  . .~ 4.6.4.X.X.,.5.5.,.3.3...X. .~ ~ Z 9 9 8 0 0 q 4 4 , , 4 4 6 6 , , , , , < < < < < , , , , 6 W ) ` @.` #.=.0.{.=X=X:.e &.p x g.n.",
"c y.d.c h d d d d d d d d t t t t z z b y.v.y   r P.G.G.L.F.*.*.( W A W ( 0 7 q , , < , , , , , 4 4 6 6 6 6 8 9 9 ~ ~ ~ 3.6.6.@X@X].3.3.6.6.3.6.4.5.5.3.3.6.6.6.6.6.q.5.4.4.4.| | 5.5.5.q.q.q.4. .#.7.4.5.,.~ ~  .o.<.H.;X:.  r uXgXzXZXiXgX9X XU.B.l.i.U.I.C.C.V.U.C.B.B.B.B.B.B.i.i.l.Z.Z.B.Z.Z.A.U.A.C.B.i.u.l.B.V.V.U.(..X|.iXDXDXKXP.  G.>X1X2X2X1X3X#X0.=._ D 6 6 6 2 q q 0 _ W 0 W W 9 W ^  .} o.o.o. .+.#.#.5.5.@.@.>.5.2.' ..q.q.6.5.X...| ' ~ Q E / / / E E E 9 9 8 6 , 2 6 7 9 Z 9 9 Z ! Z Z =.0.0.{.J.;.p.F a.y.~.Q.~.~.Q.Q.Q.m.k.N M j h h f g c m d.d.j.j.h.h.g.@   r a.>X}.J.1.<.] W W ! W W E 9 8 6 6 6 , , , < < < < , < < 6 0 9 P 9 9 9 6 6 W  . . .@.2.@.+.+.@.@.+.o. .^ ^ ^ ^ ^  .o.+.+.{ E ' ' X.4.4.2...X.X.|  .@.4.5.7.7.w.0.2X;XO i jXKXFXhXnXnXiXuX9X9X|.U.C.V.l.i.i.u.u.H i.G y H l.G G G J J G G G J G s.s.t.G G i.u.J i.l.Z.Y.^.|.9XiXzXuXfX}.O 1 %.*.;.8.8.w.<.] ) =.#.7.$.>.q.7.@.>.4.5.5.@.@.>.4.9.6.4.,.5.6.5.5.6.6.q.q.q.q.4.@.^ W E 9 W W 0 6 0 q 6 6 6 6 4 , 6 6 6 , , < < < < , , 2 6 8 W ) ` ` W W [ 8.J.K.K.L.1 u t.y x.g.",
"f z b b c f d f d d d d d f f f t z z z y.y.X @ s.E.p.G.F.F.*._ W W W W 0 0 6 6 , , < , , , , , 4 6 6 4 , 4 8 9 9 ~ X...6.6.6.@X@X].3.3.6.6.5.3.5.5.5.5.5.5.4.6.q.9.q.9.4.5.5.>.5.9.5.5.q.9.q.9.7.#.#.@.@.>.+.7.$.<.8.K.L.o . }.ZXgXZXnXhXzXuX9X8X|.U.C.^.C.C.Z.V.U.U.V.B.V.l.l.B.i.i.B.Z.Z.Z.C.C.A.U.U.C.C.B.a.i.V.Y.^.(.eXxXDXFXFXFXDXSX  e =X2X2X:X%X<X[.w.7.<.*.( A 0 q 6 6 , _ ) W O.=.] ! #.7.7.e.w.9.7.9.9.5.>.X.` 4.q.9.q.4.@.,...5.5.4.,.| | | ~ Q Q Q E E L 9 9 8 6 , 6 6 7 9 Z Z E 9 ! ! ! ! ) <.J.[.{.;.G.F s.y.b.m.Q.~.Q.Q.n.k.f.v j d h g g g l l c n R N h.n.% X @ t.,X>XJ.J.7.7.] ! ! ^ ! W W 9 8 6 6 , , , < < < < < < , , 6 9 P W L L P 8 q W o.+.@.#.>.$.o.o.#.<.=.$.) ! ^ ] ^ ^ ` +.@.5.5. ...5.5.3.3.5.6.5.5.4.4.7.e.q.w.w.w.[.1XD . E.HXKXnXnXZXhXiXgXrXrX9X|.Y.U.l.i.H G x l.i.G U.^.H G V.i.G G H J G G G t.s.G G s.i.i.i.l.V.U.|.9XeXiXhXnXzXjXhXF o w ;.;.-.8.8.=.! $.$.o.=.#.o.o.$.9.7.>.7.9.7.>.7.w.*X'.9.9.+X+X6.4.6.6.6.6.q.9.9.5.#.o.W 9 9 0 0 0 q q 6 6 6 6 4 , 2 2 6 6 2 , < < , , , , , 8 9 Z W ` ^ W ) *.J.{.H.=X&.1 a.x y.n ",
"c f f c n z f g d d d d h f f f f z b z T y   i s.P.L.L.F.*.*._ W W W P 0 q 6 , , , < , , , , 2 6 6 6 6 6 6 9 9 E ' ..3.3.6.@X@X+X+X@X6.6.5.4.4.5.4.@.5.q.5.4.q.w.9.w.q.9.q.q.q.7.9.5.9.q.9.9.7.7.=.=.7.$.7.=.7.8.1.F.K.e . a.CXzXnXnXhXnXhXiXgX9X8X.X|.|.C.U.B.U././.U.C.B.B.B.S.i.i.B.B.B.C.C.C.A.U.U.U.B.l.a.l.I.|.9XrXiXmXDXDXnXDXDXKXE.  G.,XaX1X#X[.0.0.0.H.0.J.8.1.<._ _ A *.*.) [ =.=.O.#.#.7.0.w.9.5.7.5.+.+.` +.9.w.>.@.4.@.X...4.5.5.3.X.X.X.~ ~ ~ Q L 9 9 9 9 8 6 , 6 6 6 7 9 9 9 9 ] Q ^ ^ Z ) 0.[.$XF.F.p.t.n.c.n.~.~.Q.n.m.f.N h h h h g g g f f t z n n g.g.X X + N.sX=X[.0.w.9.+.` ` o.^ ^ W E 8 6 4 , , , , < < < < , , , 4 9 L E L P W 8 8 ( o.] o.$.#.O.o.) 7.7.7.=.O.) [ O.O.o.7.7.5.w.#X+X+X*X*X+X+X*X*X+X+X+X+X+X+X+X[.#X#X1XJ.. F CXKXLXuXzXzXuXgXhXgXhX9X|.(.Y.C.B.l.u.G H i.l.Y.C.G G i.i.G x G G x G H i.i.i.l.B.i.i.V.U.Y.|.9XuXgXnXnXnXSXSXZXwX. 1 :.;.;.F.1.=._ -.=.7.w.0.7.7.=.=.7.$.] $.=.O.-.7.w.5.@.>.q.q.>...>.>.>.5.9.6.5.>.] ) ! ! W 0 0 8 0 8 q 8 0 0 8 6 , , 6 6 6 2 , , , , < < 4 8 9 9 Z o.=.] ! ) J.%XH.J.L.1 a.I.Y d.",
"y.z f z n m z c f d d d h f f f z b y.y.b @ + t.t.T.L.F.1._ [ _ W W W P 0 8 6 4 , , , , 2 2 2 2 6 6 6 8 q 0 W W  .~ ..3.3.6.@X@X+X+X+X6.5.7.5.7.7.7.#.7.w.e.7.w.0.7.w.7.7.0.0.0.7.w.0.w.w.0.e.7.8.8.0.0.7.w.<.-.8.;.p.u . i fXZXgXnXhXgXnXuXiXiX9X X|.|.(.U.^.Z.^.(.(.Y.I.V.V.C.l.i.S.B.l.B.C.C.U.A.U./.U.l.i.i.i.B.Y. XeXeXrXuXxXiXnXDXDXzX@ u T.>X>XJ.H.8.J.J.J.$X1X;X{.K.8.1.;.8.0.0.8.0.J.J.$X#X%X<X3X&X#X*X*X#X*X%X*X&X*X9.e.e.@.X.5.5...4.4.X.X...X. . .~ E E 9 9 9 7 6 2 6 6 6 6 7 9 9 7 ! Q Q ! W W -.H.J.H.;.M.s.E.I.I._.~.b.m.k.R n h g h h g g f t t t f m n y.y X @ r -X>X{.[.9.'.5.>.X.+.+.^ W E 9 6 6 4 , , , , < < < < , , , 6 E E W E W W 9 0 _ [ ) ) $.-.O.[ [ 7.<.<.-.-.-.-.=.#.$.7.7.5.q.*X+X*X<X<X*X*X<X<X*X*X*X#X*X%X%X%X%X:X;Xw = 0XLXKXSXzXnXhXgXhXgXhXhXrX9X|.^.Y.I.Z.z.i.p u.l.G G G G G H G G G G G i.B.B.V.B.I.U.l.V.U.|.wX9XuXuXhXZXnXgXDXDXZXjXi a r &.p.F.;.-.*.*.;.J.;X%X;X1X$X0.J.J.J.{.$X#X[.J.&X#X#X[.*X*Xw.#Xw.w.'.#X*X+X'.w.=.O.O.-.[ 0 q 0 0 0 0 0 P P 9 8 , 2 2 2 2 2 , , , , , , 6 9 W W 9 ! ) E 9 7 8.[.0.F.K.&.t.(.g.j.",
"u.b b b y.n n Y c g f h f f d t f b y.n.x   y t.s.-X:.:.*.=.) A W W W W 0 0 q 6 , , , , 6 2 2 6 6 6 6 q 0 W W ^  .~ 2.5...6.@X6.*X*Xw.7.7.0.0.7.0.0.8.H.$X#XJ.$XH.H.$XH.8.J.J.0.H.$X{.J.J.J.[.J.J.K.K.J.H.;XK.F.K.L.G.. r 7XHXjXjXhXhXhXgXiXuXrXuX X^.^.^.U.|.V.(.(.^.I.Z.l.l.Z.l.l.Z.Z.l.B.U.U.U.Z.U./.U.l.u.i.v.V.Y.8X9X8XrXgXeX XzXDXFXFXa.  p.-X,XK.K.J.K.J.J.;XdX>X$XK.F.8.F.F.;X2X>X:X>X2X2X2X2XdXNXdX2X2X2X1XdXNXdXdXvX3X3X%X#.` 9.7. .4...X.X.@...X. . .^ ~ W E 9 9 7 6 8 6 6 8 9 9 9 9 7 Q Z ! [ W W 8.H.H.;.M.G.P.Y.v.)._.m.k.k.f.N g g f f g f f t t f k b y.y.@   + i sXK.$Xe.9.q.5.5.@.X. ./ E 9 8 6 6 6 4 , , , < < < , 6 6 6 E +.Q ~ / ^ ^ W A _ *.[ *.-.-.-.-.-.;.;.-.;.1.1.;.-.8.<.7.e.7.'.#X9.w.*X*X*X*X+X*X*X*X[.w.#X:X1X:X;X>XM.. G.CXJXLXzXIXCXhXnXnXhXnXnXgXrX7X^.I.Z.v.u.a.G G G x x x G G H H i.B.V.B.U.|.Y.U.B.U.Y.B.I.I. XuXuXuXuXgXmXnXgXZXAXAXjXR.+ u u L.,X=X;.;.F.H.K.>X;X=X=XK.{.K.;XaXaXdXdXaX2XNXdXaX2X:X;X$X:X:X&X:X1X1X<X&X&X%XJ.8.=._ 7 0 _ 0 0 0 W W P 8 6 8 8 6 , , , , , 3 2 2 , , 4 8 9 ! E 9 7 W 9 7.w.0.H.L.M.r P.n.b ",
"x x u.y m y.b m c z g g f d f g y.y.c.c.@   x &.-XL.;.;.-.O.) W W W 0 0 P 0 q 4 6 4 4 , , , 6 6 6 6 6 9 9 E ^ ` +. .5.5.5.4...+X&X%Xw.8.J.H.;.8.;.;.;.;.M.L.{.oXp.;.u O O < < O < 3 w :.F.L.L.L.F.$XL.F.F.F.F.p.T.p.o   a.AXHXCXAXDXHXFXFXDXDXZXZXnXhXrX9XY.i.V.(.Y.Y.Z.I.l.l.V.l.i.C.C.i.S.U.^././.^.U.Y.Y.v.I.Y.9XhXrXqXnXZXZXSXAXDXDXnXzX7XX u G.T.L.L.;.L.;.;.K.}.L.p.;.&.u :.F.L.T.=X,X=X=X;XdXNXdX>X,X;X=X;X;X;X>X>X;X;X:X:X%X7.0.=.7.>.@.X...~ | ~ { E ~ E E E E E 9 9 7 7 6 6 6 8 7 9 E 6 7 Z ! ) Z Z ) 8.H.8.p.G.a.P.n.8X~.m.m.n.b.N M g g f f t - t t k b u.x.y X @ + -X0XK.H.9.q.'.6...5.4.~ 9 9 8 8 4 4 6 6 4 4 , , , , 6 8 8 9 ~ X.E 4. .^ #._ 0 *.:.-.*.:.8.;.( w :.%.F %.%.&.%.%.*.-.8.J.J.J.$X%X%X&X&X%X%X%X%X#X$X;X>X$X;X$XF.=XM.. 1 7XHXKXDXZXZXZXnXhXfXuXfXgXgX9XV.G t.p r t.a.t.t.H J G p k H |.|.9X XV.I.U.rX/.U.V.(.u.i.B.|.9XqXqXrXiXnXFXJXLXHXJXKXHXCXi 1 u . 1 :.e e O O O < O o o O o O O O = < 1 1 1 p.>X>X=X2X;X:X,X$X:X>X;X{.$X$XJ.H.:.;._ _ D q D 0 A 0 W ) W 9 9 9 8 6 2 , , , , 2 6 q 2 2 6 0 0 9 7 9 9 8 7 ] 7.J.{.1.F.&.s.R.z ",
"T f b f b z l z m c z z l g z b g.c.c.u.@ X i s.0XT.F.;.-.) ! W W L 9 9 9 0 q 6 6 6 6 6 6 6 6 6 0 7 8 9 Z E / `  .~ X.5... .9.&X[.-.%.-.:.;.;.&.u u e 1 a O O o . . o O O O O 1 1 e u u u e e u 1 1 e < 1 e O = O     &.qX7XP.t.a.v.P.P.P.P.V.a.a.u.p # @       p i.^.V.v.V.V.v.l.i.U.I.l.C.U.Y./.^.I.9XZ.# y y y i t.i p t.t.G t.G p p r + @   X U u O 1 o o o O . . o O 1 1 e 1 u u u &.p.s.p.p.L.K.p.w 1 < < < = O O O O e %.%.%.*.H.8.0.7.^ +.+.~ ~ ~ | ~ ~ E E E E Z 9 9 7 7 7 7 7 7 9 9 9 Z Z W ^ ] ! A ! <.8.1.L.K.N.a.P.~.~.n.n.b.j.n g g g g f d t y f x u.u.u.#   + &.sX=XJ.0.w.q.6.5.,.4.X.E 9 8 6 6 4 4 6 6 6 6 4 4 2 2 6 9 E ~ X.3.5.q.e.w.0.*.( *.w w w 1 < . . 1 O O O 1 1 1 1 1 e F :.p.p.p.;.;.F.F.8.;.;.8.8.1.;.;.;.p.u 1 o       i CXLXqXa.a.r + @             X       X     ; a.P.i.u.l.B.^.pXiX X|.|.l.V.I./.C.|.U.x @   X           @ r t.P.V.a.V.R.P.E.r @ r a . r 1 r i i u i &.t.s.s.&.i t.&.p 1 + + + o O O u G.G.p.G.-XT.L.F.F.F.M.;.F.;.%.F %.%.D ( D ( 0 9 W W 9 E 9 9 8 6 2 , , , , , 2 , , 6 8 9 6 6 8 0 8 7 ! =.<.J.8.L.M.&.v.v.",
"u.f b x z z b b m c z l g g z b g.g.c.y   + i -X0X=XH.-.O.^ ! ^ W E 9 8 8 8 6 6 6 6 6 6 6 6 6 6 9 9 9 E Q ~ `  ... . .7.^ o.e.J.F.G.-X0X0X0XqXwXkXfXlXwXR.P.N.a.s.a.N.P.E.R.7XfXsXfXkXkXkXkXkXjXkXsXsXqX0XwX}.7XR.u r G.R.u O O . . .                 @ ; r t.i X p Y.I.l.i.v.l.V.l.U.C.B.U.^./..X(. XV.; @ + @ X               .       X     O U &.e u p.G.E.7XT.T.-X0XsXsXfXfXfXkXjXCXSXCXjXfXfXkXfXsXsXsXsXsXsXsXsXqX-XE.a.p.&.u %.F.%.-.H.7.7.>. .Q  . . . ./ Q E Z 9 9 9 7 9 9 9 9 9 9 0 9 Z W W W ) ^ Z Z $.<.8.K.L.L.a.P.I.I.n.n.c.d.m f g f f f t t f z y.T i.x     + T.sXF.J.w.#Xq.5.3.4.4.| ~ Q 9 6 4 4 , 6 6 3 q 6 6 6 6 9 ~ ..5.6.q.q.q.w.#X0._ q w u u u s.L.T.E.E.E.T.-X7X7X7XwXqXfXlXwXE.N.a.s.s.U s.a.G.T.}.-X-XE.s.i &.u u i i i t.7XhXE.+ @ + + @ . @ a r i i i i t.a.G.E.E.s.  s.E.i.B.^.|.eXpXXX.XU. XU.Y.|./.U. Xi.@ r i a.&.i p 1 + @ . o     X   .   o   o &.s.E.jXCXSXHXAXAXAXHXJXLXHXCXlXgXfX9X8XfXjXzXjXCXAXAXjXwXP.E.a.t.&.s.p.p.s.s.&.s.&.:.u e w %._ _ ( A W W W W E E 9 7 6 6 2 , , 2 2 2 6 7 9 9 7 7 0 0 0 8 9 W ( 8.8.F.L.&.t.P.",
"u.T g.u.z b g.b z l g h d g c y.c.g.v.@   + u aX,X$X0.=.O.^ ^ ^ ^ W Z 9 9 8 8 6 4 4 4 4 6 6 6 8 9 9 9 E ~ ' | ....X.@.7.O.7.=.H.kXIXPXPXKXKXKXKXLXLXLXJXZXhXqX7XqXzXAXFXHXJXJXJXKXLXLXKXKXKXKXKXKXKXKXLXPXLXKXKXG.@ u sXkXkX,X,X-XT.E.G.L.T.T.T.T.T.T.0X0X0XqXP.; i (.^.V.l.Z.V.C.V.U.V.B.^.|.(.^.^.|.# X E.7XfXwX-X-X7X-X-X-XT.N.T.}.p.u r u G.0XG.u -XkXSXHXHXLXKXKXKXKXKXLXJXLXLXJXLXKXKXLXLXLXJXJXLXKXKXKXKXKXLXJXLXKXLXHXHXHXSXBXkX%.5 ;.H.$Xw.7.~ +. .+. .~ ~ E E 9 9 9 7 7 7 7 7 9 9 9 9 9 W W W ) ^ Z 9 ! =.0.8.F.K.G.P.I.I.n.c.c.h.y.g g f f f f f z b g.b x.#   X r 0X{.H.$X#X'.q.6.3.4...' { o.W 6 4 4 4 6 6 q q q 6 6 7 E X.5.6.q.6.@X+X'.w.8.D u p.7XsXkXCXIXPXLXLXJXLXLXLXJXHXJXLXLXLXJXDXZXZXZXzXZXDXJXJXJXJXJXHXAXhXhXfXfXfXqXfXP.t.7XqXR.qXsX0X0X0X0X0XsXsXsXsXsXwXsXkXfXkXsX-XF P.R.C.U. X9XeXeX XeX.XeX^.^.(.|.^.V.@ r }.CXAXBXBXkXkXkXyX-XT.G.G.W.1 o . O < p.T.u qXHXKXKXLXLXLXLXLXLXKXKXLXJXFXDXZXDXJXLXLXKXLXKXKXLXKXDXHX9X9XgXCXZXSXZXSXCXAXCXbXT.< = :.:.-.*.) ) ) ! ! ^ W E 9 9 8 6 2 2 6 q 6 q 0 0 9 7 7 0 0 0 0 9 9 7 <.8.1.L.G.&.&.",
"u.y.g.c.b b Y z g f d d g b g.n.x.h.b X     p.sXK.H.8.=.o.^ ^ ^ ^ / E E E 9 8 8 6 6 4 4 6 8 9 9 9 9 9 Q ' | X.,.4.X.5.7.8.H.F.aXKXHXgX8X9X8X(.OXtXtX8XOX).8X8XrXzXFXJXJXFXZXhXrX(.(.(.(.(.(.I.I.OX8X(.8X8XqXgX7X@   T.BX=XL.;.L.L.F.F.L.,XaXdXsXaXaXaXBXbXbXBX0Xp s.|.Y.B.C.Y.v.I.I.U.C.U. X X|.8X9XG X i wXIXPXGXIXIXIXSXVXBXbXkXBXSXkXaXaX,XK.>X;.1 0XIXLXKXDXAXAXAXDXDXZXgX8XI.I.I.I.(.(.(.(.rXrXgXgXrXrXrXgXrXtXtXgXCXDXFXFXDXJXLXHX&.. e F.:X%Xw.o.#.+.@.+. . ./ E E Z 9 7 7 7 7 6 7 8 8 9 9 W W W ^ ^ E 9 7 ) 8.-.8.L.F.G.I.n.c.c.n.n.g.n c z l g g z b y.g.x.T X     p.>XF.J.#X*X7.4.6.3...X.~ { +./ 6 , 4 , 6 6 6 6 6 8 8 E X.4.6.6.6.6.@X+Xw.0.;.w p.fXAXAXAXHXHXDXFXHXFXDXCXfX8X(.Y.I.).).).).tXzXFXJXJXJXJXZXgXtXOXOXuXrXzXZXDXDXJXjX+ + OXAXPXPXGXPXGXGXGXGXGXIXIXIXIXBXBXGXIXIXSXkXP.R.qX|.i.C. XeXrXeXiXXXuXeXeX9X X|.p   P.BXGXkXT.K.F.L.K.K.L.L.;.M.{.F.M.;.;.;.L.K.1 R.SXJXAXjXZXxXrX8X_.(.).(.).(.OXiXZXFXJXJXZXtX(.8X8XtX(.).xXZXFXJXJXLXLXJXLXJXDXZX7X. . %.F.H.8.[ ) ] ) ! ^ ^ W 9 9 7 6 6 , 2 2 2 6 6 8 6 6 6 6 q 0 I W 0 7 _ 1.;.F.K.p.F ",
"T x x D.x.b b b z g f f c j.n.Z.h.c.* X X   7X,XF.8.=.$.o.^ ~ ~ / Q E E W E 9 9 8 8 6 6 8 9 9 E W Q ~ X.,.,.3.3.q.,.e.w.J.L.>XPXIX8Xv.n.n.n.~.n._.).OXtX8X).~.~.(.(.~.(._.I.D.I.~.~._._.~._._.).I.(.D.(.8XrXfXt.  . T.T.;.F.F.;.8.8.8.8.F.8.8.8.F.H.H.J.F.J.>X=Xi i P.E.V.B.V.I.I.Y.(.^..XeX X X|.E.  X R.kXSXkXsXaX0X2XaXNXVXBXBXBXVXNXaXdXBXBXdX2Xu p.fXjXgXrX9XI.u.u.u.b x b z b n d.c.x.j.g.g.g.c.v.x.g.c.I.y.y.g.c.D.n.n.c.b c.(.8Xp   O ;.:X:X#X7.#.+.@.@.@.@. ./ W E Z Z 9 9 7 7 6 6 6 8 9 E W W ^ E 9 9 9 S =.-.H.F.L.P.v.x.x.v.n.n.c.g.m m c z z c Y g.y.D.>     . }.=XJ.[.9.+X>. .4.4.X.X.|  .o.W 6 4 , , , 2 6 6 6 8 8 ~ 4.6.6.6.@X@X+Xq.w.0.%.e T.HXAX(.x y i y y x x b b Y v.(.8X8X).OXtXtXtXtXtXtXtXtXiXrXtXtXtXrXOX_.).rXgXhXZXr X @ E.HXGXaX>X=X1X>X>X>X>X>XaXdXdXaXdXdXkXBXBXsXs.a.qXqXB.C. X XiXeXeX XuXeXrX|.^.I.  + -XCXyX;.;.;.*.-.F.L.J.K.K.L.;X2XaXdXvXBX>XK.:.1 a.9XrXrXtX_.n.c.c.b.n.b.h.d.d.x.x.y.b b g.u.u.x.g.d.n m D.~._._.).tXtX).tXI.c.I.P.@   e L.$XJ.*.A ! ` ] ^ ^ W 9 9 8 6 , , 2 , , , 6 6 , 2 2 , , 4 q 0 q 0 0 -.8.F.K.L.;.",
"u.x y v.n.g.y.g.n m c m d.c.n.n.~.g.X X   &.sXM.F.1.=.O.] ` { { ~ ~ E E L L 9 9 8 6 8 8 9 9 Z W /  ...4.3.3.6.6.'.9.e.J.H.L.BXLX7Xv.c.~.~.~.~.Q.Q.n.n.n.n.b.h.h.u.y.Y y.g.y.Y g.h.x.b.b.c.b.D.~.n.n.n._.OXrX9Xr   s.0XL.F.J.J.8.-.=.8.8.=.=.<.0.8.0.J.J.8.J.%X;XG.i s.Y. XP.C.8X(.(. X XeXpXeX9X|.i   F kXbX}.F.L.F.:.1.J.:XNXvXaX2X1X1X>X2XdX1X2X2X;.O s.E.I.tXrX(.n.n.v.y.y.c.b.h.d.d.h.h.h.c.h.d.n m y.j.g.d.d.d.g.h.b.b.x.j.c m m u.x . . O L.;X%Xw.$.` ` @.@. .^ / Q E Z Z Z 9 9 7 8 8 6 6 9 9 9 W ^ L 8 9 S ! ) -.H.K.K.T.a.u.y.g.n.n.c.c.d.Y n n b n d.c.c.g.@   @ &.-X{.$XJ.7.5.@. ...2.X..... .^ L 6 6 , , , 2 6 6 8 9 E X.5.6.6.@X@X+X+X'.w.8.w s.jXJXI.x y u.u.y.y.Y m b z z d.n.~.n.Q.n.n.b.b.n.Q.~.~.~.).OXOXOX).).OX_._.tXuXhXY.  @ t.jXGX=X*.8._ _ D ( _ _ _ -.1.1.H.H.H.J.K.H.L.p.G |.hXuX9X9XeX.X.X^.9XiXiXhX9X9Xi.  N.jXBX,XH.;.-.-.8.$X%X%X%X$X{.;X2X1X:X:X$X{.H.K.1 i E.(.tX8X~.I.~.~.n.b.j.n.n.n.n.b.c.b.b.g.x.g.d.h.h.h.v ~.`.)._.).tXtX).).Q.h.v.I.x . O ;.K.$X1.( ! ` ] ^ ^ W Z 9 8 6 6 2 2 2 2 6 6 6 , 6 6 , < , q q 6 7 7 _ <.8.H.L.F.",
"P.a.y u.c.n.c.g.y.n n y.c.Z.~.I.I.$     X sXBXH.8.1.=.o.`  . . . .~ E 9 9 9 8 8 6 6 8 9 9 9 E Z E ~ ..3.3.3.6.6.6.9.0.H.F.T.LXAXn.~.I.n.~.~.m.m.m.f.R N n c c c l b m l b y.b c Y n m n j.x.n.n.D.n.~._.I.(.P.  i 0XT.H.H.0.7.8.w.7.#.=.7.0.0.0.0.w.&X1X:X:X%X{.=X&.F N.wX|.Y.|.9X9X9X9XeXiXrXuXt.  o -XBXyXF.K.J.H.;.J.#X$X;X{.{.%XJ.K.[.$X:X%X%X$X$Xe 1 i x (.rX(.n.c.v.n.c.j.b.h.f.m.n.b.d.H d.y.m l z c m c m c m d.n.n.b.d.j.x.c.y.D.+ .   :.{.;X[.] ! Q o. .` ^ Q E E Z 9 9 9 9 9 9 9 8 8 9 7 8 W ) W 9 Z Z $.9 _ =.{.=XK.N.x y t.n.I.n.c.c.h.g.g.j.j.x.n.D.: X   + 0X}.K.J.7.7.Q  ...| X.| .. .~ L 6 4 6 , , , , 6 8 8 9 ~ 4.6.6.6.6.6.6.q.9.0.( O -XHXAXu.b x x z b y.m d.j.d.n f.Q.Q.m.m.j.h.h.f.f.k.b.n.b.n.~._._._.~.~.~._.). X8X@ + a.sXPXkX1.-.=.0.<.=.<.8.8.8.8.J.8.J.$X;X:XJ.8.K.K.F P.jXnXrX XpXpXeX XiXgXuXiX9XY.@   T.BXaXL.J.8.r.=.7.J.#XJ.J.8.<.7.0.7.J.%X0.J.H.L.u 1 t.P.(.8X~.~._.~.n.n.Q.b.n.n.b.m.b.b.h.b.h.d.c.n.v f.k.k.Q._.).).).tXtX~.~.n.n.I.a.    e L.=XH.[ ! ` o. .^ ^ E 9 0 8 6 6 2 2 , 6 6 6 , , 2 , < , 0 ( 0 6 A 7 _ 1.F.H.1.",
"E.W.T y g.x.g.y.u.v.u.I.(.).~.).g.@     &.BXaXJ.<.7.O./  . .~ Q Q Z 9 9 9 9 8 6 4 6 8 8 8 8 9 E /  .,.4.3.3.5.6.q.9.0.L.p.jXLX9XI._.n.b.Q.n.b.d.d.m l z m b b l z z z z c z z z z b y.g.j.h.b.n.n.(._._.~.8XT   T.aX8.8.#Xw.7.7.7.w.0.w.[.%X&X#X%X&X<X1X1X&X[.J.{.M.u t.E.rX^. X9XeXuXiXiXuXgXY.X   &.kXSX=XF.J.J.0.r.7.=.$.<.=.-.=.-.-.7.w.#X#X#X%X;X:.< i u.c.(.I.I.n.v.z.x.c.n.n.n.b.f.n c z b y.y.z f f f z l g z c y.d.y.b y.c.m g.v.u.@   O H.;X:X<.! ! Z ^ W W E 9 9 8 9 0 8 6 6 6 2 2 6 0 9 0 0 0 9 0 7 W ( , 0 _ 8.J.F.G.&.+ r u.v.n.Z.Z.~.c.n.b.n.c.~.u.@     G.=X{.[.0.<.+.`  . . .+. .` ~ W 9 6 4 , , , , 4 8 9 E W ~ X.| ..6.5...4.#.0.8.< &.kXKX8Xu.y.k x m z n m N b.Q.Q.`.Q.!.m.k.k.k.m.m.k.k.m.b.Q.~.~._.).)._.). X).).tXg.@ G sXGXGX;XJ.<.#.7.8.#XJ.8.J.%X#X#X#X%X1X1X2XJ.0.H.{.M.&.gXFXgXiXiXiXnXhXuXnXiX9XuXV.X r sXdX{.J.0.7.#.#.#.O.$.#.#.O.#.#.$.$.=.7.7.8.[.1.;.1 p a.(.(.8X~.~.I.n.~.n.h.h.Q.b.m.n.m.m.m.N m.n.f.j k.m.m.m.n.Q._.)._.~._.n.h.n.u.z.p   . &.{.{.=.) ! E ^ E 9 E L 8 6 8 6 6 2 7 7 6 2 2 2 6 6 6 6 6 0 A 7 9 7 A -.H.H.F.",
"L.G.s.r T y.g.m y.v.Z.Z._._.tXb.@     O ,XBX2X%X7.7.o.^ +. .| ' ^ ! W E E 9 8 6 6 6 6 6 8 8 9 L / | ,.5.5.5.6.q.5.7.J.F.G.AXJXc.).~.h.m.n.b.b.h.d.n l g l f f t h d d f f f y y f x b b b n y.g.x.k I.v.D.I.@ O -X;X8.<.0.0.=.=.7.w.w.#X#X[.*X&X%X<X<X<X&X#Xw.0.H.1.F &.V.rXeX XeXrXhXhXnXuXuXx   + 7XBXkXF.8.0.J.8.=.r.=.O.=.$.( [ $.$.#.7.e.q.#X%X$XH.< 1 i u.v.n.c.v.z.u.g.h.m.Q.Q.k.j.d.x y x b z t t t t t t d f f z z x x y.g.y.x.h.g.$   . w {.;X$X[ W ) ! W W E 9 8 8 8 0 8 6 6 6 2 2 2 0 9 0 0 q 8 6 6 0 _ 0 ( D -.0.H.F.&.1 + p z.I.n.~.~.~.Z.n.b.n.n.y     1 -XK.K.0.7.#. .` ` ^ ^ ` Q Q W 9 8 6 4 , 4 4 4 6 8 L E ^  .,.4.5.q.9.7.e.0.8.%.< E.HXJXP.y.T f z z c d.d.k.Q.Q.Q.Q.Q.k.V m.m.k.f.f.f.k.m.f.m.b.n.~._.)._.). XtX).).t * V.BXGXBX1X%Xe.e.e.J.&X&X#X*X&X&X&X<X&X&X#X%XJ.0.8.F.F.:.7XnXxXgXiXnXxXhXnXnXnXiX|.p   a.sXL.H.8.7.e.>.7.9.7.+.+.+.#.#.=.O.o.$.#.$.7.0.8.F.&.1 i P.~.n.n.v.c.j.n y.d.d.n.Q.Q.!.R k.k.k.k.m.V v k.k.k.f.f.k.b.n.b.m.m.j.c.x.g.g.x X   1 M.=XH.O.^ ` ^ ^ ^ / W W 9 9 9 7 7 9 9 7 2 2 6 6 6 6 , 6 q 0 9 W A A [ ;.8.F.",
"F.L.p.r p y.c.g.u.u.z.v.I._.).f X + X p.BXdX{.J.0.$.^  . . . . .~ Q Q ! ^ W 9 9 9 8 8 6 6 8 9 L  . .4.5.5.5.5.9.9.7.8.&.-XKXzXI.).n.N h.b.h.m.h.v c g d d t t t t : : t d t t y t y f z z m n y.y.y g.v.u.y   u yXK.%Xw.e.e.#.=.7.>.] $.+.o.9.#Xw.[.#X#Xw.9.7.<.8.8.;.&.s.7XiX8X9X9XuXhXhXgX|.    &.kXSX>X;.;.8.8.=.o.O.O.) O.) O.=.r.$.o.#.7.e.w.#X$X:X:.O r y b v.x.z.z.H g.h.m.Q.Q.f.j.c.b $ k f t % t t % % t t f y y f z z b b g.n.j.b.b X   . 1.$X:X8.A ! ! W A W 9 9 8 8 8 6 6 6 6 2 2 6 6 8 8 8 6 6 6 6 0 [ ( _ 0 _ 1.H.L.p.i + # u.I.Z._.~.).~.I.c.n.T       G.=XK.8.7.$.o.^ ^ ^ ^ W W Z Z 9 9 6 4 4 , 4 4 6 0 9 9 E ^ ~  .@.5.9.5.7.e.8.;.5 u wXKXzXu.y.x f z b n d.d.k.m.Q.Q.Q.Q.!.V k.k.f.f.f.f.f.k.f.k.k.b.Q.`._._.~.~.)._.n.* # wXIXGXNX:X*X#Xw.#.<.0.w.e.e.e.w.w.*X&X*Xw.w.7.7.8.-.F.p.N.rXhXiXeXiXFXuX XDXnXgXhXX X 0X=X;.H.0.7.e.5.7.e.7.@.+.@.@.#.$.o.o.o.$.$.<.<.8.1.M.1 p u.I.y.u.y.y.m d m d.f.b.b.Q.m.B k.Q.Q.k.k.v K k.K k.N N k.m.m.k.h.h.h.n.d.H y.u.r   . F }.;X0.$.o.o.=.=.) W ) W 7 0 7 q 0 7 2 , , 2 6 6 , , , 6 q 8 9 9 9 ( [ -.8.",
"F.K.G.u r x v.~.n.n.y.g.I.).y.@ # r + sXBX>XJ.w.7.o.^ o.^ ^  .~ E Q Q Q Q W W Z 9 9 9 8 9 L E E  .X...3.5.5.5.7.<.<.:.G.SXKXI.(.D.j.d.b.b.f.m.f.c v v g d t t t d t d h f f f y t y f f l m Y d.y.u.u.n.y   @ T.0X;X3X%X9.<.$.7.>.` 9 ! ` Q ` +.+.>.7.7.>.>.7.7.0.8.F.&.F P.hXrX9XuX9XhXuXjXi.  @ -XBXkXF.;.*.-.8.7.O.#.$.o.$.) [ $.O.^ E / o.#.7.e.%X;XK.+ 1 # x v.g.z.z.H g.h.m.Q.m.B N h.n t t t % $ t t t t t t y y y t f z z z d.c.j.n.x.#   . w J.$X[.] ! W S Z A A 9 8 8 8 6 6 6 6 2 2 6 6 6 6 6 6 6 6 6 0 ( 0 ( 0 _ -.8.K.L.p.p + x n.~.)._.)._.I.I.c.#   . a T.L.F.-.=.] ) ^ ^ ^ W 9 7 7 8 8 6 6 4 4 4 4 4 6 9 L 9 E ^  .~ ^ @.7.7.7.8.1.I < T.kXHX(.g.x z z b n n H N N f.Q.Q.Q.Q.Q.k.N f.f.B f.f.f.f.f.f.f.m.Q.Q.Q.~._.(.~.).x X + yXGXVXVX:X#X&X7.=.O.] ` +.+.>.>.X...9.q.9.7.#.#.$.-.1.M.s.E.gXiX XB. X XuXmXeXhXG   &.0X;.8.J.7.e.e.#.@.5.@. . .@. . .o.o.$.#.<.<.<.<.;.%.F.&.&.t.8Xn.g.g.h.d.m d.h.Q.Q.Q.Q.Q.k.Q.Q.~.Q.!.V B k.m.m.K N k.m.k.k.m.h.m.n.d.n b u.x     1 L.;X{.7.o.o.#.#.) W W W 8 8 6 6 6 6 , < < , , , , , , , 6 9 W W A _ _ -.H.",
"H.K.L.&.+ # T n.~.).I.x.(.(.* X i r L.BX>X$XJ.<.] ^ o.o.^  . .E E S S S E E E E E E E E Q / ^ { X.X.X.4.3.5.5.7.<.8.;.0XLXZXn.~.m.m.m.n.k.f.k.N n n N m g d t t t t d f f f t t y t t t d l m y.y.c.n.f     i kX=X>X2Xw.7.` @.#.>.+.E ` $.] o.Q ^ ` #.>.+.>.e.e.0.8.F.;.F s.hXzXuXiXrXiXuXuX#   i BXSX,X;.*.( -.=.O.) o.) W ) W 7 9 W W E W W E #.7.J.8.K.u 1 p i u.y.u.g.H j.h.k.m.k.B N N m t t t % $ t t t t t t t t t t t t f k m Y h.b.x.T X . o ;.{.[.7.) A S Z S W 9 9 9 8 8 6 6 6 6 2 6 6 4 , , 6 6 8 6 0 0 6 q 2 ( _ -.F.L.L.&.+ # y.~.).).).).~._.u.X   o W.G.K.;.=.O.^ ^ ^ ^ W 9 8 2 6 2 6 6 4 4 4 4 4 4 8 9 L 9 E ^ ^ / / } O.=.8.8.;.< U jXJXzXi.g.f l b Y n n n N N N k.m.m.!.Q.f.N N N B N f.f.N k.h.k.b.Q.Q.Q.~._.).).).#   i bXGXvXBX%X0.7.o.7.#.o.+.@.>.4.4...4.4.5.q.w.w.9.7.<.1.L.p.s.9XzXxXxXuXhXmXnXZXnXX @ -XL.;.-.0.$.e.9.@. . .| |  .X.' `  .+.@.$.#.#.[ <.*.D ;.p.s.a.(.~.x.c.x.d.d.n v Q.Q.!.!.!.!.!.!.!.~.`.k.j f.~.Q.f.B B B v v f.v K f.m.d.d.y.t.#   o %.L.J.8.o.W ^ ^ W E L 9 9 8 6 6 6 q 6 , , < < < , < , , , 0 W Z A W ( [ r.",
"8.H.F.p.r + y g.~.).).(.rXb   i t.&.BXdXH.J.<.W E W ^ ^ ^ o.o.E Q Q S S Z Z Z Z E E E E ~  . ...4.4.4.4.4.4.5.7.0.;.G.SXLXI.).n.h.n.b.k.N n R v j c m M f t : t t : t h f t t t t t t t d z n d.g.I.g.@   @ -XkX=X:X[.#.$.o.#.@.+.+.~ Q ^ ` #.+.o.` @.@. .>.9.5.0.<.H.M.&.F wXnXuXuXgXuXhXE.  X R.IXBXL.K.-._ } } ^ E ^ E 9 E 7 W W W W ^ ^ ^ ^ ^ =.=.-.F.F.1 u x x u.u.y.y.d.h.m.m.k.k.f.N g t t t t % t % $ t y t y f f f d t y f g c x.h.g.g.;     e H.8.8.! ! S Z W W E P 9 0 8 6 6 6 6 6 6 6 4 , 4 6 q q q 0 0 0 0 , 0 A -.-.F.F.p.i # k ~._.)._.).~.I.y     1 oXH.H.-.-.) ^ ^ ^ E 0 8 6 , 2 2 6 4 4 4 4 6 4 6 8 9 E E E W L E } O.O.-.8.F.e O -XAXLX~.b b l l b b m m m f.f.v B k.Q.Q.k.B N N N v N f.f.N f.f.k.m.m.Q.Q._.n.).8Xg.X   T.VXNXvX3X0.+.6 o.^ ^  .@.@...X...4.4.,...5.>.5.5.<.<.-.L.M.F E.nXJXmXFXFXzXSXJXi.  s.=X;.H.0.e.9.4.4.@...@...4.4...X. . . .+.` ^ ^ ! ) _ %.%.p.s.P.I.I.x.c.c.d.d.j M m.k.V B k.!.k.!.f.k.Q.Q.h V f.k.B v N B M j v v B n k.N d.m y.x X   1 ;.8.8.=.] ! W ^ ^ L 9 W 8 6 6 q q 6 , , < < < < < < , , q 7 7 9 A 0 ( -.",
"8.0.H.L.U p x y.~.~.).rX(.@ @ a.&.-XVX$XH.J.<.^ W W E E ) } ^ Q Q Q E Z Z 9 9 9 E E E E ~ ` @.4.5.5.5.5.5.5.7.<.8.%.sXKXZXx.).m.b.Q.f.N N v v j d d d d : : : : t : t t d t t t t t t d l b g.x.c.I.r   X s.jXaX>X%X7.o.o.5.7.@.~ +. .@.$.` o.^ $.^ `  .~ 4.q.7.0.<.0.F.;.F N.uXjXhXxXhXhXi   i kXGXyXK.:X1._ ) O.o.^ o.W Z ! E ^ ! E L P P W ( L O.[ 8.F.L.u 1 t.p x.c.y.d.K k.m.m.m.m.k.f.c d t t t % t $ $ t t t t f f f f d y f z c h.f.j.h.x +   o :.8.0.[ ) ! A W W W L L L 8 6 8 6 6 4 6 6 6 6 4 6 6 q q 0 7 0 ( 6 0 7 *.=.8.F.L.G.i y n.).tX).).(.u.@   . ;.=XL.-.-._ W W W W 9 6 6 4 , 6 2 6 4 4 4 4 4 6 8 9 9 E ^ ~ E / ) =.r.r.F.F.:.o &.UXDXgXx b g m z n c c v c d.N M j f.!.k.V V v n v M v N N v v N N N N k.n.Q.~.).~.$   1 aXBXdXvX<X>.` W #.9 Z  .@.X...X.X.4.4.4.4.4. .5.9.7.<.-.8.F.:.t.7XnXnXZXFXhXCXuXX @ }.;.8.[.&Xw.'.5.5.....5.5.4.4.,...|  . . .` / ^ ! Z ) *.%.:.&.G.P.I.v.n.n.m.f.v k.Q.k.V V k.!.k.m.B j V B j j j v v B f.f.N v v B f.B f.f.d.d.g.i.;   o u F.H.8.=.] ^ ) ) W 9 W 9 8 6 6 6 , , , < < < < < < < , 0 0 A W ( P _ r.",
"[.[.[.$Xp.t.t.u.I.OX).rXt.X i s.G.GXvX0.%X0.$.` o.^ 8 9 ^ ^ 9 W S S Z Z 9 9 9 9 E E E E E / +.4.4.5.5.q.q.e.0.H.F.G.AXLX(.~.`.n.Q.Q.f.N f.N v g h d d % % % % % t % % : t t t d f f f f z b d.g.n.u.X   X kXBXaX>XJ.#.o./ 5.4. .4.@.~ ~ ~ E ^ ~ #./ / ~ ~ 9.#X'.9.7.0.H.F.F F wXAXnXhXCXrX@ X a.BXGX=X>X$X-.9 $.] ) ^ ^ E 9 W Z Z Z W ^ ) W P P ) [ [ 1.8.8.1.< a.p v.n.Y y.n f.m.m.k.f.f.f.m h t t % % t % $ y $ % % t t t d d f f m n j.f.m.d.y.y X   3 $X[.8.[ ) W W W W E E L 9 8 8 8 6 6 6 6 6 q 6 , 2 8 7 7 , 6 0 8 ( 6 _ 8.J.H.K.-Xs.x n.tXtXtX8X8Xp   . 1 L.=X;.*.7 O.Z W W 9 8 , 4 4 4 2 2 6 4 4 4 4 4 6 9 9 9 W  .^ E / W ) -.8.F.;.= a wXAXDXi.z Y g n c n m c v g v M j j N k.j s h h j M M v N B j N f.f.N K b.Q.~._.~.z     L.BXNX3X4X#X>.$.#.E 9 Z  . .` 4.4.X.2.X... .,...'.w.@.O.<.-.F.M.u F R.ZXnXDXZXJXV.  &.=X-.#X3X&X'.4.q.q...X.5.4.| | | | ' '  .+.+. .o.o.9 ( ( %.;.:.s.a.y.i.u.g.h.n N !.Q.k.k.f.f.k.v B N h h s C j B B v v v B B B B B f.m.k.n.k.m.h.x.x @   e K.;X0.-.] ! W ! W E 9 W 9 8 q 6 , < < < < < < < < < < 0 0 0 Z 9 6 0 -.",
"w.[.:XJ.K.p.v.I._.(.8XrX@   s.&.sXBX2X0.0.7.` +.o.W 8 9 W W 9 W Q W Z 9 9 9 9 9 9 9 9 Z E ~  .@...4.2.q.7.7.-.H.p.0XKXzXI.).k.m.f.v M N f.N j h C % % % : : % % & % % $ % t f f l l f Y y.b.c.c.v.y     s.GXK.>X1Xw.o.`  .@.@...@./ E E E L L W L ~ ~ @.~ 9.4X#Xw.>.7.8.F.;.F N.fXDXZXzX7X  @ sXPXaXaX:X<.=.O.! ! ^ ^ W Z Z 9 9 E Z 9 W W ( ( ) } ) W =.*.8.=Xw i s.t.x x m R d.f.Q.m.f.f.N j h t : t % $ % t # # $ % t : t d d d f g m f.f.N Y Y v.#   O ;.:X$X[ ( ( A E W E W 9 9 9 0 8 6 4 , , , , , , , , 6 6 6 8 0 0 7 7 9 =.8.J.L.=X7Xv.g.OXtXtXrXI.  . . F K.H.-.[ W ! W E 9 9 8 6 4 4 6 2 6 6 6 6 6 8 7 9 9 9 E W / / / ^ W } -.8.K.e . s.CXJX8Xy b l l m n m v c j j v j h s s s C C h s C h j j v B v N k.N K b.n.n.~.~.b X   u bXNXNX3X'.5.>.o.o.) 2 9 Q  . . .+. .~ ' 2... . .9.'.o.] -.-.1.;.F r F wXnXgXZXjXX + T.*.J.1X3X#Xq.4.4.,...X.X.| ' ~ ' ' | | ` @.4.#. .Q ! W _ *.*.%.:.t.u.u.g.y.c.h.k.`.!.k.f.V V V B j h h h C C h j M j M v B v B k.B f.k.m.!.m.m.b.c.b r   . ;.aX=X=.] O.! W ^ E ) ^ P 8 6 , , , , < < < < < < < < 6 0 9 6 8 9 0 0 ",
"9.#X&X$XL.&.R.R.(.8X8Xv.X 1 &.G.BXdX$X0.7.+.` #.$.^ 8 9 E E 9 E Z Z 9 9 9 9 9 9 9 9 9 9 E /  .@.4...@.e.7.[ 8.L.E.AXLX8X~.Q.Q.R v g h j v c h d % % % % % % % % % t t % : t f f c z z z Y x.g.D.c.@ X . sXbX{.:X[.<.^ ^  . . .|  .~ E E E 9 9 E E E 9 ~ ~ 4.*Xq.q.e.7.<.H.1.u &.}.jXAXDXr   u bXGX2X2X;X=.) ^ O.o.^ ! ^ ^ W Z Z 9 9 9 W ( W ( ) W } W O.-.-.J.;.u a.T u.y.b m.m.b.b.f.N R N j & % % t % & $ t $ # # $ $ % : t d d f f c N N n n d.c.T   . e {.;X-.( A A A Z E E 9 9 9 9 8 6 4 , , , , , , , , 6 6 6 6 0 0 7 7 9 ) 7.J.{.=X-X7XY.(.tXOXrXi @   1 ;.{.8._ ) A W W E 9 9 8 6 4 4 4 6 q q 8 6 6 8 9 9 9 E W ^ ^ ^ ^ ^ ) =.-.8.%.= e qXJXCXu.y f f n m n v n n v M v M j C C h j j h h h h h h v N v v N n d.m.j.c.n.d.@   @ 0XBX3X3X&X9. . .o.$.o.9 9 W W E E ^ { { { @. . . .7.w.>.] [ [ *.:.%.u p a.nXqXfXa.  u -X8.&X1X[.>.5.5.4.X.| ' ' ~ ~ ~ | ~ | ' '  .o./ 9 / ^ W ) *.-.:.;.t.t.x i.x.n.h.m.`.!.k.f.V v v v j h h h h C h M v M M v v M B f.k.m.!.Q.Q.Q.Q.Q.n.v.x   . u ,X2X0.[ [ ) ) ] W E W L 9 8 6 , < < < < < < < < < < , 0 9 9 ) ) ) ( ",
"5.#X:X%X{.:.T.wXI.8X8X>   u u aXVX:X[.#Xe.+. .+.>. .L 9 L 9 9 9 9 9 9 9 9 9 0 9 L 9 9 9 / ^  .@.4...@.e.=.-.L.G.qXKXzX_.~.f.Q.B j h d d h g d % $ $ $ $ % % % % $ % % % : d f f l g c f n g.g.I.p     &.IX=X=X:X8.] ^  . . . .{ ^ E 9 9 9 9 9 9 9 L 8 E Q  .'.+Xq.9.7.<.H.H.%.u P.qXHXfX  . wXGXNX2X2X#XO.W W O.o.W Z ! ^ Z 9 Z 9 9 9 P W P P W 9 o.! ] =.O.=.H.1 &.i T T l f.j.f.N N N N N v s : : t % & & % $ $ # & & & % : d h g g l m c v N R g.x.@   . :.;XH.*.D ( W W W E E L 9 9 8 8 6 4 , , , , , , , 6 q 6 q 0 0 0 0 0 9 <.w.%X;X=XsXqXY.8XrXP.      :.K.{.<.( ) W ! ^ E 9 9 0 8 4 , 6 q q 8 q 8 8 7 9 9 9 W ^ ^ } ^ ^ ) O.r.;.8.< = G.AXKX7Xy Y z z n n N B N N v M v v j h h M v j h h h h C C B f.B v N v f.h.d.h.b.y     s.VXdX1X3X*X9.@.+.o.$.o.9 9 L 9 9 8 E / / ^  .{ ^ ^ 7.w.9.$.] [ *.:.;.&.1 F N.IXlX  . 0XK.K.3X<Xw.X.5.4.,...| ~ ~ ~ Q ~ ~ E Q Q Q / ^ E 9 ^ ^ ! ) *.*.*.;.&.i p x x.c.d.m.Q.!.k.f.B v M v h d d d C s C h M j h j j h M B N R k.k.!.!.!.m.b.D.v.@   O G.dX$X<.O.$.o.) W E / W L 9 q , , , , , < < < < < , 6 0 W ! O.$.) W ",
"+.9.<X#X>XK.&.sXR.Y.v.X + p.L.VXdX:X%X%Xw.5.>. .@.o.L 9 L 9 8 9 8 8 9 9 9 9 9 9 L 9 9 L ^  .+.@.@.@.7.7.8.L.K.E.AXJX8X).n.f.m.k.v v j h d d d % $ $ $ $ $ % % % & $ % % t d f l g l z g y.y.n.g.X   . sXdX8.%X%X=.] ^ o.+. . . .~ E 9 9 9 9 9 9 9 E 9 E E E q.<X*X5.7.9.<.H.K.u s.-XfXi   u SXGX1X2X2X0.) ) W ^ ! Z 9 9 Z 9 7 9 9 9 9 9 0 9 9 L E ^ ^ ! O.[ O.J.&.1 p.t.u.m n f.N n f.d.v M v h d C d : & $ % # $ # & & % : C d h g l c c c c K d.d.y.p X   1 L.$X1._ [ ( A ) W E E L 9 9 9 8 8 , , , , , , , 6 q 6 q 0 0 0 0 A 8 =.0.$X:X;X0XsXR.(.9X# X = &.F.$XJ.-.) ) ) ^ ) W E 9 9 0 q 6 q q q 8 8 8 8 8 7 9 9 W ^ ^ } } } o.O.=.8.:.o U sXLXJXb x b m h.c.f.R N N R n j M M j h h j j h C d h j h j B k.v B f.v n d.j.c.z.@   + sXBX1X3X3X*Xw.7.5.@.o.^ 9 9 9 9 9 9 L L L / / / ^ ^ o.7.e.7.$.[ *.*.;.:.e i s.lX+ . W.>X{.:X3X&Xq.4.4.X.,.4.X.~ ~ ~ ~ ~ ~ E E Z 9 E / / E ^ ^ W ! ] _ _ :.:.i 1 r x u.d.m.m.!.k.K K v j M d C % % % & s d h h h h h C h j v B B k.k.k.m.m.m.n.c.r   o &.>X:X0.=.=.! W W W ^ / W 9 q 2 , , , , < < < < < , , 0 W W ) } ^ W ",
" .>.<X#XaX>XF -XqXa.@   U 0XBXGX2X3X%Xq.7.5.4.@. .{ L L E 9 8 9 7 9 9 0 9 9 9 9 L 9 9 E { +.@.@. .#.7.7.8.K.G.qXKXgXI.).f.f.k.k.N N v h d d t $ % $ $ $ $ $ $ $ $ $ % t d f g z z c z n g.g.I.y     t.BXH.8.[.8.] ! ) $.+.+. . ./ E 9 9 9 9 9 9 9 E Z W E 9 >.*X3X'.9.e.=.0.K.:.u P.U   . -XGXbX:X3X:X<.! ^ E E E W W 9 7 9 9 9 9 8 8 8 0 9 W W ! Q ` Q ! O.-.8.F.1 t.a.u.y.y.f.f.h.b.h.c g j C M h C : $ % % & # # & $ % : C C d g j c c l c K R d.b x.y   . &.=XH.*._ ( 9 ) W E E E L 9 9 8 6 , , , , , , , 6 6 6 6 8 0 0 0 P 9 $.w.%X3X2X=XsXwXR.x X 1 }.,X{.;XJ.-.) ) ! W ^ ^ E 9 9 0 0 q q q 6 6 6 8 8 8 7 9 E W ^ ^ ^ o.o.O.=.=.8.< O P.AXLX9Xx d.g y.h.h.f.f.B B N v j M j j h h d d C C s h j h M f.k.B f.f.n c H c.b.H     s.VXdX1X1X#X9.7.5.#.o.` / Z 9 9 9 9 9 9 9 9 E E W ^ ` ` o.7.0.<.$.O.[ *.:.&.i s.r   O sXyXK.3X3X'.5.>.4.X. .X.' ~ ~ ~ ~ ~ ~ ~ ~ E L L / / E W W W W ) _ ) *.;.&.r + p u.g.h.n.n.k.N N M C d h d C - % % C d h h h h h h h h v B B f.k.k.m.m.m.x.x.u.  . a L.2X[.<.-.) W ^ / ^ ^ W 9 8 6 2 , 2 , < < < < < , , 0 9 9 L W W ^ ",
"` >.%X&X2XaXK.G.wXi   @ W.BXPXvXdX3Xw.@.>.,.| @.~ ^ E 9 E 9 7 9 7 7 9 9 9 9 9 9 9 9 E /  .@.@.#.+.#.<.<.;.p.G.AXLX(.~.n.v R m.n v n c h t - % $ % % $ & $ $ $ $ $ # $ t t d h g f l l y.h.c.c.@   . qXdX1.J.0.` S W o.=.#.+. .{ E E 9 9 9 9 9 9 9 9 9 W ~ Q @.'.3X<Xq.7.0.8.H.K.&.t.X   1 bXGXaXaX2X#X=.) E 9 W E ) ) 9 6 8 7 8 8 6 6 8 0 9 W ^ o.` +.^ ! $.=.-.F.%.1 P.T y.j.n f.h.c.j.N N v h n h C : : : $ # # # & & % : C C s g g g l g l n m m Y c.y.X   O F.K.;.*.( 0 o.^ ) ^ ^ W E 9 8 6 , , , , , , , 6 q 6 q 0 0 0 P ( 0 ) w.&XNXvX=X0XkXa.  . s.0XaX2X>XJ.=.) W ! E ^ ^ E 9 9 0 8 8 6 q 6 6 6 8 9 9 9 E W ^ ^ ^ ) o.O.$.r.8.:.. 1 wXJXDXy.n.h.n j.n d.R B B B B v j v j j h C C C C d C C h h M f.k.B f.k.N n j.n.z.-     sXBX%X&X'.+.| +.@.o. .^ Q E Z 9 9 8 8 8 9 9 9 9 W Q ^ ! Q >.[.0.7.=._ %.;.G.u &.  . p.BXK.>XdX3X9.>.>.5.>.'  .~ E E E E E E E E E / / / / L E / W Q ) ) [ -.;.&.&.r p G x.d.m.k.h.K n g % % g d C - - % - d d d h h g h h h h M V B B B k.k.m.b.c.v.@   . &.2X;X0.<.=.$.#.o.o.o. .W 9 8 6 2 2 2 , < < < < < 6 A W 7 8 9 P ^ ",
"o.7.w.1X1X1X>XM.P.p   U 7XSXBX2X3X&Xw.@.5.,.'  .{  ./ L E 9 7 9 8 8 8 7 9 9 9 E 9 9 W  .@.@.@.>.#.=.<.-.;.&.wXLXzXI.~.d.n f.k.M v c M g f - % $ - $ & & # $ $ $ & & $ t t t d g h g c y.x.h.t X   t.kX=XH.w.>.S Q W o.#.+.o.{ Q E 9 9 7 9 9 8 8 8 6 9 W Q ` >.q.&X3X*Xw.'.0.H.=Xu 1 + + G.BXBX2XdX1Xw.$.o.W E ^ W ^ W 9 6 8 7 8 8 6 6 8 9 L ! ^ ` @.+.o.o.o.=.-.;.p.1 s.g.y.h.R d.h.j.n d.m.f.v n h C d : % $ # # # & & % d d d C h h f g f f m c c d.d.Y y X . %.K.F.*.( A O.) } ^ ^ / E 9 9 8 , , , , , , , , 0 q 0 0 P P W ) 0 0 7.1XNXdX:X,XsXr X r -X-X;X2X:XH.=.) W ) W ^ ^ E 9 8 7 8 6 6 6 6 6 8 7 9 9 Z W ^ ` o.o.o.o.O.-.8.8.e . t.fXKXgXn n.v m N f.k.B B V V v j j v j j h C C d d h h h j v v f.k.k.k.m.h.h.m.n.y.@   F BXvX#Xw.7. .| @.@.o.o.^ Q S S 7 7 8 6 8 9 9 9 9 W W ^ Q Z +.'.#Xw.<.[ *.;.L.p.1   O sXkXL.aXdX1X7.9.9.9.5.' X.` W E 9 9 9 Z 9 9 E E ^ ) ) ^ ^ ^ ^ ^ ` ^ ] -.:.%.:.&.i x x.j.d.f.k.h.m h d - g d - - % % % d C d d d d d d d h j B B B B f.k.k.n.c.n.i X   1 {.1X$X8.7.7.7.#.+.@.+.^ E 9 7 6 2 2 , , < < < < q W W 9 9 E W ) ",
"$.7.7.&X1X%X=XT.p.r r R.BXPXaX2X1X&Xw.5.4.4.@.@. .o.^ L E 9 9 9 6 6 8 8 8 9 L E 9 Z ~  .@.@.@.5.#.7.1.*.F.s.CXKX(.~.b.h.m.m.R v n c c c g t - - $ & & * & # $ $ $ $ % d f f g c m n j.g.c.g.X   X sXsX=X{.=.S Z ^ ^ ) } ^ / Q L 9 7 8 8 8 8 8 6 6 7 W Z 7 Q >.q.*X3X4X&X[.0.K.T.e 1 i G.kXPXaXaX3X:Xw.$.O.o.} W ^ E 9 9 9 9 9 W 8 8 8 9 9 L W ! Q >. . .o.W ) -.-.1.%.1 P.u.y.d.j.Q.b.n n f.N v m h d d % $ $ $ $ & & & : d h h d h h h f f h c m m Y Y b c.@ . = K.F.*.( 0 ) ^ W W W E L 9 8 8 , , , , , , , , q 6 8 0 0 9 P W P 8 ] <X3X1X2X;X-X. + P.kX0XJ.%X$X=.O.W W ] W W ^ Z 8 8 8 8 6 6 6 6 6 6 9 9 9 Z / ^ +.@.O.o.O.O.=.;.;.o 1 E.zXKXc.j.v v f.M f.n N B B v v j h j M h C C h h h d h h v B B k.m.m.!.m.h.m.m.z.x     ,XBXvX:X'.9.5...4.2. .+. .Q E Z 9 9 9 9 8 8 9 9 9 W E ^ Q Z +.e.%X#X8.=.*.*.p.p.1 r R.IX,X>X2XNX&X+.q.q.>.4.>.X.^ W E 9 9 E Q E L 9 E W ^ ) } o.o.` ^ ] ^ ) -.-.%.M.p.i i v.c.j.h.n.n.m t t % g d - - - % % C d d C C d d d C d g v B B B B k.f.n.h.c.V.@   . ;.1X;X0.<.O.#.5. .@.+.^ E 9 6 2 2 2 , , < < < < , 9 9 9 W o.$.#.",
"@.@.9.*X1X:X$XK.W.&.p.kXPXNX3X3X3X*Xq.9.5.X...4.5.2. . . .~ E 9 8 7 9 9 L E E E E ~  ...>.7.7.#.$.-.;.;.U wXKXZXI.~.h.d.N f.N v v v j h d d t t t t - % % % % $ % & g f t c c m j.h.x.y.v.# X   p.kXL.=X8._ A W W W W W ! W E E 9 9 9 8 8 6 6 6 6 8 9 9 9 E ' >.+X4X3X3X#X0.$Xp.. r E.CXIXIX2XdXNX%X<.$.$.$.o.^ ^ W E E E 9 7 7 0 q 6 8 9 9 Z E ` o.+.o.o.o.o.O.-.;.;.u U v.u.y.j.h.k.m.m.n M m n M d % % $ $ % & & & & % h f d g C g M h h m n n n n h.h.c.H     F G.%.( _ ) ! ^ ^ W E P 0 8 q , , , , , 2 2 2 6 , 7 A 9 9 W 9 W 9 <.1X4X1X;X;XL.u &.T.aX,X{.J.J.0.O.W ^ ^ W ^ ^ A 8 8 9 7 6 6 6 6 8 8 9 9 E E ^ ~ +.#.} ) =.=.-.F.u O s.fXLXZXb m m n N N N N B v M j h C h h h d C % % d d d C j v K B f.k.!.!.Q.m.m.g.i.+   w NXdXNX<Xq.q.5.6.4.X.| 4.X.~ ~ ~ / Q E 9 8 9 L 9 E E ~ ~ E E ` q.*X*X'.7.A 1.;.p.i G.kXBXaX2XvX5X'.@...>.5.5.,.@. .E 9 9 9 E E 9 9 Z E W W ^ ^ E ^ o.O.O.} O.O.*.;.;.p.p.i u.y.g.b.h.g.z % y t f d t t % % % t d d t t d d d C d h v B N f.f.k.f.m.c.j.v.b     < =X;X8.=.7.>.@.@.#.@.^ ^ W 0 6 2 , , 2 , < , , 0 W E L W o.o.^ ",
"@.@.w.w.[.$X$X=Xu . W.yXdXaX3X4X4X*X+Xq.4...2.4.2...| X. .~ E E 9 9 W W / W ~ ~ | X.X...5.7.7.#.=.%.;.%.W.SXKXgX~.n.j.d.n N v M v M g h d d d t $ % % % % % t t % % c m z m k M d K x.n.u.@   o ,X;XJ.$X-.D _ 9 ) W E E W W Z 9 9 9 9 8 8 6 6 6 6 8 9 Z E Q ' ..9.<X4X3X3XJ.K.1 . W.qXsX0XdXdXdX3X'.<.#.$.o. .^ ^ W E W W E 9 9 0 6 6 8 9 9 E W E ^ o.o. .o.o.) =.8.;.;.u s.a.x.n.n.f.f.Q.~.m.j.c h : t t - $ $ $ $ $ $ t f f d h d g M g h g c g m m g.c.b.g.#   1 p.;.%.D A ] ] ^ ^ ^ W P 0 q , , , , , , , 2 8 2 0 0 9 9 W 9 8 ! #.&X3X1X%X=Xe p.-XT.=X,X2XJ.$X8.} ^ o.o.] ) ! 9 8 8 9 7 6 7 8 8 8 8 9 L E Q ~  .@.@.o.$.=.-.8.F.O u qXDXLX8Xy.n n n N n v v n v M j h h h j h h C % % d h h C j v K B k.k.!.Q.!.Q.j.v.p     L.NXvX3X*Xq.q.6.6.3.,.....~ E E ~ ~ / E 9 9 L E E E E E ' ' ~  .#.#X&X*X'.[ -.:.s.&.-XL.T.>XNXNX4X9. ...>.4.5..... .~ E E E E E Z E Z Z Z S E Q ^ ` o.o.) ) ) O.) *.;.p.p.t.u.c.n.n.j.d.z t y y f t : : % $ $ % f h t t - - - - d g c v N N R f.k.f.j.c.n.v.-   o F =X8.-.0.5.>. . . . .^ P 8 4 6 6 q q 6 2 6 9 9 E E / ^  . . .",
"@.7.#X9.7.0.K.L.o O E.T.=X>X3X3X<X*X+Xq.4.4.5.4.X.X.X.X. . .~ E 9 Z / ^ ^ E ~ X.4.....,.5.5.#.$.-.-.;.u qXKXZXtX~.j.f.f.N v N v v M g h d - - % & $ $ $ & & $ - % % h d d h - g j h.b.I.#     s.dXL.{.H._ 0 [ 0 } W 9 9 9 Z 9 7 9 9 9 8 8 8 6 8 0 9 9 Z E ~  .>.5.*X4X3XNX2X1.. F sXjXE.L.>XdXdX%Xw.7.7.#.o.^ ^ W E 9 E E Z 9 9 q 6 6 8 9 9 9 W 9 ^ o.o.o.o.^ W O.8.1.L.e i a.u.~._.n.k.n.b.H K m g d d d t % $ % t % % d f f d C d h j M g f c d z z n d.g.g.k   . u G.%.( A [ ^ ^ ^ W W 9 8 4 , , , , , , , , 6 2 8 0 7 9 W Z 9 O.w.+X3X%X$X:.1 0XjXP.L.K.;X[.J.7.#.$.o.` o.] ! 9 8 8 9 7 6 7 8 8 8 8 8 L E Q / @.4.+.o.=.=.-.;.%.. a.CXKXZXI.g.d.d.d.d.N v v v M j j h h h j h h C % s h g g j v B f.K !.!.!.Q.m.b.j.u.@   1 dXvXNX1X'.+Xq.q.6.3.3.4.X.Q E E ~ ^ ^ / E L E W ^ ^ Q ~ ..>.@.@.+.[.&X%X%X8.;.:.s.7XjX:.w {.vXNX1Xe.@.>.>.4.5.4. . .{ / E E E E Q W E E Z E E Q ^ `  .^ ^ / / ^ ) *.;.F.G.s.T x.I.I.h.y.b f y f f d : : % $ $ % f f d - - - - C d h g j M v B N f.N d.b.c.Z.u.    O K.=X8.0.7.>.@. . .@.o.^ 8 6 2 2 6 8 6 6 7 Z E E /  . .~  .@.",
"+.'.*X7.<.8.F.F   P.E.&.K.K.1X3X&X#X+Xq.,.4.5.5.X..... . . .` E 9 9 W ^ ^ E ~ ..5.3...2.4.#.$.=.*.F.u G.AXKX8X8XD.j.m.h.f.N k.N v M h d C % % $ $ & & & # * & % d h d - h h d m m.n.n.u.    i sX>X{.$X-.[ ( ( ) ) ^ E 9 9 9 9 9 9 9 9 8 8 8 6 8 L 9 8 9 E ` >.9.'.+X<X4XvXBXw   G.AXjXu :.=XvX2X#X0.7.e.7.o.o.o./ E L 9 9 9 8 8 6 4 6 8 8 9 9 E W Q ^ +.+.^ E E ) } r.M.&.r T x y.n.n.n.n.K g K n v g d t - - - t t - % d g f d % d d h M d % g d f d f c H y.u.@   1 M.:.*._ ) ! ^ / W W 9 8 4 , , , , , , , 2 6 6 9 A A W ) ) ^ $.#X#X&X%XH.< W.AXBXu p.L.8.$Xr.7.8.7.] ` o.! W 9 8 8 9 8 7 7 8 8 8 9 9 L / / ~ >.@.` o.$.-.;.:.< 1 7XAXLX8X~.g.d.d.h.h.d.N B v M h h h h h j h h h s C h g j j B B k.f.Q.Q.Q.Q.n.h.x.y   @ T.vX2X2X#X9.7.....6.X...4.X.E Q Q / / ^ / E E E / / ^ E E  .>... .7.9.[.*X&X$XL.p.G.HXSX1 < L.aX3X:Xw.7.9.5.5.5.4.@. .~ Q E E E E E E E E E E Q ~ ~ ~  . .{ ^ / W ] $.-.;.p.a.r y g.I.n.g.y.f t f f d t t - $ $ % d t - % - - - C d d d h g j v v N N K j.y.x.c.y   . &.aXH.<.7.7.4.@...#.@.E 8 8 6 6 8 8 7 7 9 9 E E ~  .X. . ...",
"@.*X'.<.7.8.M.O O qXE.O :.1.J.3X4X*X'.q...X.4.5...2...| {  .~ E E E E  . .~ | 2.5.4...2.@.+.#.r.8.;.u fXKXjX~.).n.m.Q.m.N n k.B M j h d d - % % % $ & & $ $ : d d g h g z g g m j.h.I.y   @ -XSX{.$XH.[ _ W W ^ W W W 9 9 9 9 0 9 9 9 8 8 8 8 8 9 9 8 9 E ` @.7.+X'.*X1XvXdXo . E.PXkX  O K.kXdX[.0.7.7.#.$.@.@.o.^ E L 9 8 8 8 6 4 6 8 8 8 9 Z / E E +.@./ E ~ O.W -.%.;.U r r y j.n.n.Q.f.c c g g f d % % t f t t % % d g f C C d C C d % & t d t - t c y.g.v.x   . &.M.;.*.( ^ ^ ^ ^ / W 9 8 2 6 6 6 6 , 6 6 0 9 W ) ) ) o.=.o.7.w.<X%X:Xw %.sXKXCX. 1 L.;.J.0.7.0.9.>.+.` E W 9 7 9 9 7 7 9 9 9 9 9 L E / ~ ~ @.@.o.$.-.*.;.%.o p.jXJXzXD.n.d.d.d.f.f.R B B v M j h j h j j j j h C h j j j v B f.k.k.Q.Q.!.!.Q.h.Y X   s.BXvX3X#X7.#.^ ~ ..4.~ ~  .~ E Q E E E E E 9 9 E W E ^ ~ ~ X.>.@.X.9.+.w.%X&X1X=XG.qXKXSXo . &.aX1X#Xe.7.9.5.5.5.4.2. ./ Q Q Q E 9 9 9 E E E E E ~ ~ ~  . . . . .{ ^ o.O.*.;.G.r @ t v.~.c.d.z - d f d d d t % $ % % % % % $ $ % % h d h h j M v v c d.n d.d.y.c.u.@   = T.=X8.<.9.5.X. .@.+.E 9 9 Z 9 9 9 E E E Z E ~ `  .X...X.| ",
"#.%X0.7.J.8.F   a.fXwXp 1 ;.1.:X3X<X#Xq.4.X...5.4.2.X.~ ~ ~ E 9 E E Q ^  .{ X.2.4.4.4.4.@.#.7.8.K.w G.IXJXI._.n.m.m.n.f.n v B v h h d d d d d d d % & $ $ $ % d d g t h g d l m d.c.v.*   r kXVX=XJ.-.[ ) A ^ Z 9 E E 9 8 8 8 9 9 9 9 8 8 8 8 8 9 8 9 E E / ` +.q.w.#X3XvX:.. + wXHXjX+   u =XdX$Xw.7.<.$.o.o.+.+. ./ E L 8 8 8 8 6 6 8 8 8 9 Z Q 9 E @.#. . .@.7.$.-.*.;.p.r r > g.~.n.k.f.n g g M c f d t t t t t % % d g g C % % C d d % % f f t f z b g.g.c.x.X   1 M.;.*._ ) ^ ^ ^ W W L 9 8 8 8 8 6 6 6 8 P W W ) ) ^ ^ $.9.w.[.%X2XH.1 -XAXJXZXi   ;.8.8.J.8.7.9.>.S 9 W W 9 9 9 0 9 9 9 E E E W / ^ ^ `  .+.$.$.=.-.-.;.O + 7XIXKX(.b.Y n n N d.N B B B v M j h j j j M j j h C h j v v V B B k.k.Q.Q.!.Q.n.h.#   O 0XGXNX3X0.$.o.~  .9.2.~ Q ~ ~ / E 9 9 L L 9 9 9 9 E E ~ ~ ' @.4.>.>.7.] [.&X%X1XK.G.SXKXfXR.  O L.2X%Xw.7.7...4.6.5...| { { { ~ E 9 9 9 E E E Z E E ~ ~ ~ ~ |  ...X. .o.O.*.;.L.&.@ X x I.b.j.n d d h d d d t % $ % - - % % & & & % h d d d h M v v v d.n K c.h.h.v.i   o u ,XK.=.0.7.>...4.4. .^  .E Q E E ~ / Q E E ~  . .X.@.+.' ",
"7.#X7.0.H.;.o O wXfXjXR.= :.F.{.3X3X&X'.9.,...6.5...| {  .~ E 9 L E ~ { { | ..4.5.5.4.4.>.7.0.H.;.u fXLXjXv.~.R h.k.f.f.v v v v h h d d d d d d t $ & $ $ & : d c M h c l g d.h.h.D.x   X G.BXaX:X0.[ ] ] W ^ E L L 9 9 8 8 8 9 9 9 9 9 9 9 9 9 8 9 9 W E E ~  .>.#X<X3X>Xo o s.CXCXjXE..   &.>X%Xw.7.7.#.$.@.+.+. . .^ / L 8 8 9 8 8 9 8 8 9 E W E / +.@.@.@.>.$.=.r.;.;.p.&.r + y g.n.b.b.k.N v v c g h d d - d d - - f c j C % % d g d t f z f - z z z y.j.g.v.y X . &.M.%.*.[ ) ^ W W E E E 9 9 9 8 8 8 9 9 L W W ^ ) E 9 ) '.'.&X%X:Xw p.jXKXDXZXqX. 1 ;.8.0.w.0.<.+.S 7 S W Z 9 0 0 0 9 Z 9 E W W / ^ ^ ` +.+.$.$.=.;.*.w . s.UXLXCXx.x.m Y n n n n v v B v j h h h j j M M j h C h v B B B B B m.m.~.Q.Q.n.h.b X . p.BXVXvX<X7.#.E ~  .5.X.| ~ ~  .^ E 9 9 9 9 9 8 9 9 W E E E Q X.X.X.@.>.7.&X&X[.=XF.,XLXSX7XCXi   1 =X2X#Xe.5.X...6.6.......X.{ ~ ~ Q E E E E E E E E ~ ~ Q ~ | X.X.X.@.@.#.-.8.L.L.p + y x.c.c.j.M h d d d d d - % % d d % % & & % d h d C C h g M M v n N d.c.b.j.c.c.+ X . L.=X8.0.e.9.5.5.5.2.@.@.Q ~  .~ ~ ~ ~ Q ~ ~ `  . .`  .@.",
"e.0.=.<.1.:.  &.fXzXjXfXa u L.1.:X3X<X'.9.4...q.5...|  .X. .W Z E ~  . .| X.4.5.5.5.4.2.7.0.J.H.1 p.AXLX(.~.j.N n.b.N R v v h M j h d d d d C % & * & $ % : g n f h g d.n m c.g.g.D.*   + sXSXH.%Xw.<.! #.^ E ^ W E 9 9 8 9 0 9 9 9 9 9 9 9 9 9 9 9 9 E E E ` @.>.<X3X1X;.. 1 wXAXfXjXgX;   + ;.$Xw.8.7.7.5.7.5...X. .o. ./ L P P 9 0 9 9 9 9 E E Q ^ `  .@...~ E o.0.8.8.%.G.r r @ y n._.Q.m.v v c f d d f f d d d d d j v M d % % g c t $ d h % * f f - m j.g.c.n.#   1 L.:.*.-.O.) ^ ^ W W W 9 Z 9 9 8 8 9 E E ^ ^ ^ ) E 9 ) 7.'.*X2X-.w sXPXLXJXZXCX1 o :.8.H.$Xw.$.7.9.] 7 W Z 9 0 0 0 9 W 9 9 E W W W / ~ @.+.$.O.*.;.%.o e -XDXKX(.D.n m n m v v v v v B v M j j j M M v v j h C j B f.k.k.B V m.Q._.Q.Q.h.d.#   o >XGXvX3X*X9.q.~ ,.....~ | ~ E  .^ 9 8 9 L 9 9 8 9 9 W  .~ E ` >.>.@.>.Q w.1X%XH.L.G.BXKXfXR.fXOX@ o F ;XJ.e.9.4.4.6.6.3.4.2.X.~ ~ '  .~ / / E E E ~ ~ { ~ ' X.......X.5.@.#.=.1.F.=X&.p r y.v.n.n.v g f h h f f t - t d d % & & % d g h d d d d g j M v c f.K K c.f.x.x.b   X &.=XJ.w.w.9.5.5.4... . .Q  .@. .{ ~ ^ ^  .~ ^  .` Q ` >.",
"$.7.8.1.L.1   7XfXzXrXwXN.1 G.M.J.vX3X#Xq.q.+X*X5.| ..5.@.+.o.^ E ~ @.5.5.@.| | 5.6.5.7.7.r.K.w u fXKXzX~.).f.f.f.f.f.d.v v B v j g h C % % % % $ % % % : t h f h C m K c n b.c.I.f X   p.IX>X;X%X>.o.+.>. .Q #. .E 9 9 9 8 6 6 9 9 8 8 8 9 9 9 E 9 Z ^ E E 5.7.7.1XNX{.w   a.zXZX9XgXrX7XX   u 8.[.J.7.7. .9.5.2.4.@.@.+./ 9 9 9 9 8 8 9 E E E 9 9 9 E | ..| Q ^ ^ ] =.8.8.;.&.r y y v.~.~.Q.m.N n m m c f d d d % d M v v v M % f f n m $ % d $ t % d d f y.g.c.~.x X . G.K.-.*.$.) ) o. .^  .Q E W 9 9 W W ^ o.^ 9 E ) E W 0.w.[.1X$X, L.SXKXJXDXzXnXR.  u ;.K.[.[.8.7.w.9.S 7 S W 0 9 W W Z ) 9 9 ^ $.o.o.#.@.` =.<.1.F.< o P.CXLXDXc.D.R n c v n n v v v B v v j j M j j v B j v j j B k.k.m.m.Q.m.k.Q.Q.m.D.y @   G.VXBXNX3X'.>.4...X.4...X.~ Q  . .E 9 Z 9 8 9 9 9 9 E ^ ^  .` E Q @.5.>.>.&X%X8.1.G.T.KXDXI.I.I.qXt.  1 H.#Xw.+Xq.5.3.3.3.5.4.2.X.| | | { / E E ^ {  . .~ E ~ X.X...4...5.e.7.O.*.-.;.p.U i x v.n.n.n j g g f g f d d d d c f % % d h c g h d d d f j j v v N d.f.f.m.b.g.c.r   O =X>XJ.7.9.@.X.5.5.' ~ ~ { {  . .+.@.#.W E ^ ^ E ` 7.e.",
"=.8.-.;.%.  t.qXrXnXgXjXhX&.r G.H.1X3X&X#X'.q.q.4.| ..>./ E ^ ^ E @.7.5.{ E ~ ..q.9.4.#.r.8.:.e E.DXKX(.).n.B ~.f.f.f.N v n N v v m c j g f f h C d d d d h g l g h g c c g.g.n.c.*   1 kXBXJ.:X#X>. .>.7.5.>.9. ./ L 9 9 9 8 9 9 9 9 9 8 9 9 9 9 W E W Z E @.>.&XvXdXK.O . R.DXrX8X8X8XrXu.  + *.J.J.7.7.9.q.5.5.5.2...+.~ L L 9 9 A 9 9 L E E 9 9 9 E  .X. .Q E ^ o.-.=.-.;.p.i p y g.~.~.Q.b.m.f.n m c g h h g d d c N N v M d g f n m % t f d f t f f c d.h.n.~.I.#   u oXF.-.-.O.$.5.@.`  .E / ^ E W o.$.#.^ ) ) ^ E W 7.[.#X3X3X-.e yXLXKXFXZXzXhXlXr O F ;.;X;X0.0.'.'.! S W W A W W W W ] Z 9 ^ o.O.#.7.<.$.<.-.1.u O u qXAXKXgX_.n.f.R n n n N v v v B N N v v B v B B B M V v v f.f.R f.R m.m.m.~.~.n.x.#   r sXVXNXNX<X6.3.5.,.,.4...| Q Q ^ ` E 9 9 9 8 8 9 9 9 9 ^ o.Q 9 Z  .7.>.^ 9.%X[.1.F.G.BXKXrXI.(.(.9XR.@ . ;.J.J.q.q.,.6.6.6.6.6.5.2...| ' E E E E / ^ ~ ~ E E | ..X.4.5.4.@.#.o.O.=.-.8.L.&.p p u.c.h.f.n g f f f f d d d d z f % C d f m m z g h h h f g v v n d.f.h.h.b.c.c.u.  . p.2XJ.0.0.9.5.9.5.' ~ L / {  .{ ^ ^ ^ E E W W ! =.7.8.",
"8.0.-.;.=   }.uXzXZXgXhXZXwXr &.;.H.2X1X<X&X+X'.q.4.5.4.~ W ) ) / ^  .` ~ E ~ ..5.4.#.=.r.8.5 u fXKXZXI.8Xm.f.~.k.f.N v v n B M c c c m c c c c d d d d d d h h m m l l m x.y.I.y   X E.SXaX$X&Xw.>.>.>.4.4. .@. .~ Q E 9 9 9 9 9 9 9 9 9 9 E E 9 ^ Q W E W $.7.4XNX2X:.  i gXDXI.).(.(.rX9X#   w 8.8.8.7.w.w...5.5... . ./ 9 9 9 Z W W L 9 9 9 9 9 Z E /  .@. .E W ) ) [ *.;.M.:.i T y.~.~.~.Q.n.h.K n m c g h h d d v f.f.B v g l c n c % d g h f % d g m h.b.~.~.8Xb   o T.;X8.7.=.7.e.7.+. .Z ^ ` 9 9 o.o.o.! ) o.^ W #.w.#X:XdX:X5 p.BXKXLXDXnXxXuXhXP.  1 e K.1X[.[.#X0.! ! W A A W W W W ) W L ^ o.O.#.7.7.=.<.8.F.O O E.SXLXDXOX).m.h.R N n n n v v v B N N B B B B N k.B B B B B k.f.B R B k.n.Q.~.~.n.x   @ T.GXBXNX5X+X6.6.q.6.5.5...' ~ Q ~ ~ E Z Z 9 8 6 8 9 8 9 E E E Z Q  .@.+.^ 7.#X<.;.G.-XKXHXY.I.~.Y.(.rXp   w 0.J.9.w.5.6.6.5.5.5...X.X.~ ~ E L E W W W W E L ~ @...~ X.4.X.+.o.^ ] $.-.;.L.M.u r x x.c.n.f.m z l g f d d d f g f d d h j N n m M g h d d d g g c n d.f.h.m.m.c.I.y   1 }.{.0.0.7.>.>.4.>.@.9 E / ^ W L 9 9 9 W W A -.8.8.8.",
"8.8.;.F   i P.qXSXhXgXgXfXjXP.1 :.1.:XdX:X*X'.'.q.4.@.@. .^ ^ W ^ Z 9 E ` +. .` @.#.7.0.H.:.1 T.HXLX8XtX~.~.Q.b.b.f.N n v v v g g g g c c c v v v v v M l g g l c K n z b u.c.c.X   i BXbX;X3X%Xq.9.9.5.4...' | { ~ ~ E 9 9 9 9 9 9 9 9 E E W ! E o.^ ^ ^ ^ 7.w.&XNX:XO . E.DXrXn.~.).8X(.tXD.  O %.1.8.=.w.9.' 5.4.| ~ ^ E 9 9 9 9 Z 9 9 9 9 9 9 L 9 9 E  .@.5.^ W W W ) [ *.:.p.&.a.u.n._.`._.Q.b.f.d.H m l h j h h B m.m.B v M l m Y c C d g d d % d j n m.n.~.Q.~.n.    &.=XH.8.7.e.w.9.@.o.^ o.#.^ ^ o.o.+.] ] ^ ] 7.w.[.#X1XaX8.5 ,XIXKXHXZXhXgX9XgXlXr . e ;.>X:X[.[.$.] o.! A W W W W W W A W ) O.O.O.=.<.=.8.L.;.. u qXJXKX8X).D.b.m.f.d.K n n n v B N N B B B B B f.b.k.B k.k.f.k.k.f.R N f.Q.~.~.D.g.#   U BXGXNXNX5X+X+X+X+Xq.9.5. .~ ~ Q E E E Z 9 9 8 6 8 8 8 9 9 8 E ` ` Q Q ] #.7.{.*.1.G.jXKXgXI.y.b c.g.(.u.  = 8.0.w.9.q.>.,.q.q.4. .X.X.X. .9 9 E E E E E E 9 E +. .E ~  .~  .] ^ ! ) O.-.8.L.u r y i.I.~.j.Y b c z g f f g c M f h h j n h.n m c l g g g g g f g v K f.m.b.b.h.n.v.X   :.>XJ.0.7.7.>.9.e.e.W ^ ^ W P 9 L W 9 W 0 _ 8.0.8.8.",
"8.F.M.O . P.a.uXhX|.rXnX9XgXuXF u %.H.dX:X[.w.q.5.,...@.+.+.) W ! Q ! ^ ^ ^ ` o.#.7.J.{.K.e &.CXKXzX).rXn._.Q.m.n.m.h.d.m c M g l g g l c c v n n n n m m c c m g H y.b g.u.~.x   X -XSX>X%X3X#X>.5.q.5.4...| | ~ ~ ~ E 9 9 9 9 E Z 9 9 Z E W W W ^ E ^ ] ^ 7.#X<X3X8.. u rXZXI.~.~.).8XI.I.8Xy   1 :.F.-.0.<.` +. .~ Q ^ E 9 9 9 9 7 7 9 9 9 9 9 9 9 9 9 / o.$.^ ^ W W ( _ *.*.;.p.G.a.g.(._._._.n.m.f.d.n c g v c v f.Q.m.B v M j R f.M d d f j v M v v n b.Q.~._.Q.(.$   O L.J.0.7.7.e.9.@.o.o.o.#.O.] ] ^ ] ^ ] ! <.*X%X[.%X:XaXD %.kXPXKXAXmXiXxXiXuXjXE.  1 w K.aXJ.w.7.<.=.] W ( ( W W ) 0 9 W ) } O.O.#.=.8.H.H.1 O P.CXLXZX~._.n.n.b.j.f.d.H n n n R f.N B N N f.f.k.Q.k.K k.f.B R f.k.N n f.~._.n.c.x   @ R.GXNXNXNX4X+X+X+Xq.5.5. .E Z Z 9 7 7 9 9 7 0 8 6 6 8 8 7 9 E W Q ! ! ] $.<.0.[.1.;.0XKXZXn.n.b Y ~.g.n.I.@ . %.F.J.0.9. . .@. .Q 9 9 E E 9 9 9 9 9 8 9 9 9 8 8 E ^ E E ~ ~ Q ] ! Z ! O.-.;.F.:.r r x I.~.c.g.y.b c z g g c n c h h g v f.m.d.N n m m n n n m c c n d.h.b.n.Q.b.c.I.r   e >XJ.0.8.7.<.7.>.] ^ ( W W P 0 0 A A 0 A =.J.0.-.=.",
";.F.:.  i P.Y.hX(.I.9XhX9XuXzXR.= 3 %.aX1X#X[.+X9.9.5.4.@. .^ ^ W ! ! ^ ! ^ o.<.e.w.[.K.;.1 -XPXFX(.rX_._._.k.n.n.m.h.j.n v v c n m c c c c v v m n m m m m b n m y.g.g.Z.Z.Y.+   p jXaX:X3X*Xq.| ..5.4...X.| | ~ ~ ~ E 9 9 Z 9 E Z 9 9 9 9 E E ! ^ 9 W ^ ] e.#X&X:Xq o s.ZXxXc.~.n.n.).).n.tX(.  . u p.8.0.=.o. .` / Q ^ W 9 9 W 9 6 7 9 L 9 9 6 9 9 9 9 L E E W ^ ) ^ W W _ *.%.p.a.a.T Z.~._.).~.b.h.d.n m c v g B m.Q.!.k.B c M h.h.M d f c R k.h.k.f.f.Q.~.).).).8Xv.X   :.H.0.7.7.e.q.7.>.$.) o.] ^ W 7 S Z ! $.w.&X%X[.&X2X=Xe T.SXLXKXFXDXxXnXhX9XhXgXp   1 ;.dX%X0.[.<.<.O.) ) W W W W 0 W W ) } =.=.<.7.0.H.:.. u qXJXJX8X8Xb.~.n.n.m.h.j.d.H n n R f.B N N N B B f.n.f.v B M j v v N n n d._.(.I.g.#   i kXIX1XdX<X9.5.6.5.2... ./ 9 9 9 7 7 8 7 7 7 9 0 8 8 7 7 9 9 ! ! Q Q ] =.7.7.0.8.8.p.SXKXrXb c.h.n.(.c.g.).y   1 F.F.J.<.+.o. . ./ / W / E 9 9 7 8 8 8 9 9 9 9 8 E ^ L L ~ E W ] ^ 9 ! $.-.-.1.M.u r r u.n.I.D.n.g.y.n c c m d.c j j M R k.f.d.K n n n n n n d.n n d.f.c.b.n.Q.Q.~.D.a.. . ;.8.8.<.=.<.=.] W ) ) W W ( W 0 7 ( 0 _ 0.J.8.*.=.",
";.:.O o a.V.8XuXZ.U.8X9X|.uXnXlXs.e %.;X2X&X*X#X'.'.9.4.@.^ W W ^ W W ) O.<.9.0.w.J.[.8.e :.UXKXgX(.tXn.)._.m.Q.Q.n.b.h.R n R n y.H n n n v n n R R d.d.d.d.d.d.y.g.n.I.I./.u.X X E.jX=X;X1Xw...,.,.5.4.....| | ~ ~ ~ E Z E W E Z Z 9 9 Z E W W W ^ W W ^ 7.#X*X&X[.O < 7XDX8Xn.n.n.~._.tX~.).8XT   O &.F.8.-.] o.] ^ ^ ) W 0 W W 9 7 9 9 9 9 9 6 9 9 9 9 9 L 9 ^ ) ) ^ W W _ %.%.:.t.s.T y.n._.)._.Q.n.b.f.K N v g f.~.Q.Q.Q.k.v v b.b.c j v d.f.n.n.Q.n.n._.).).).tX).(.+   O ;.8.8.7.w.#X#X+X0.7.7.<.=.=.] $.` ` 9.%X$X[.#X%X2X:.%.kXPXPXLXDXDXmXmXgX9X9XzX7X. O w =X2X[.J.7.7.<.-.[ _ _ ) ) _ [ [ O.=.7.7.7.8.0.8.< O R.SXKXzX~.OXb.~.Q.~.b.b.c.d.d.d.n R R N f.f.f.f.B f.n.f.v v c M v n N d.h.c.).).n.u.@ @ P.BXBX%X%X5.Q ' X.X.| ~ / E E 9 9 8 q 7 7 7 9 0 0 9 9 7 7 9 Z E ! ^ ! o.7.w.w.=.-.F.-XPXDXI.y.d.c.n.x.y.H n.g.  . &.M.H.<.=.#.^ ^ ^ W L L 9 8 9 7 8 8 9 9 9 9 L 9 W / 9 9 E 9 ! ] ! Z ! O.[ *.;.F.&.r r y y.D.~.n.b.x.g.y.d.d.d.n v v N m.b.f.f.d.N N N K K K d.d.j.h.m.b.n.Q.~.~.~.I.E.1   O 1.0.0.0.[.[.w.J.0.8.<.<.<.<.-.) ) ) <.J.J.<.-.<.",
"L.%.  i R.(.9XeXZ.C.9X X|.8XhXhX}.e u F.dX2X&X<X*X+Xq.5.7.7.$.$.o.o.$.7.7.0.w.[.#X{.{.;.O -XJXLXuXgX~.~._._._._._.~.n.n.h.d.j.j.d.d.d.d.f.d.d.R R R R R Y n n n d.b.~.(.I.Y.@   + qX,XaX%X[.9...>.X.X.| |  .E E E Q E E Z E E Z 9 9 Z E W ^ ^  .E ` ` ^ o.w.<X&X1X*.. u zXzXg.D.n.~.tX_._._.n.~.OX@   r p.;.*.) O.o.^ ^ ^ W 0 W W Z 9 9 9 8 8 9 9 9 9 8 8 9 E W O.) W W ^ ) _ ( *.:.:.s.u.k n.).)._._._._.n.m.h.k.N Q.).`.~.`.m.n v n.n.v m R m.R m.b.Q.Q.~.).tXtXtXtXtX8Xx o   u ;.8.0.*X4X1X<X#X[.J.0.0.[.w.w.9.$.#X1X[.[.&X$XK.1 G.BXLXKXJXhXxXxXxXuXiX|.hXnX&.  < %.aX:X8.#Xw.w.0.=.-.-.-.-.*.-.=.7.8.8.8.=.8.8.;.. &.UXJXLX(.OXn.~.n.~.~.m.~.n.b.h.j.f.f.f.f.k.m.m.k.k.m.Q.n.N R f.f.m.h.h.h.n.b.(.(.v.x   + 7XBXdX%X0.Q Q ~ X.@. .^ L 8 9 8 6 6 8 8 6 8 9 9 9 L 9 7 7 Z W E ! Q ! =.w.J.0.-.F.F.SXKXlXx x.y.b.c.b j.g.H I.@   1 p.8.H.=.=.O.O.) W P P P 9 7 6 6 8 9 9 9 9 6 9 ^ E 6 9 ^ 9 S ! S S ) ] ] -.8.8.&.1 p # y g.c.h.g.g.h.h.b.n.h.R N d.f.Q.Q.f.k.h.f.f.f.f.j.j.d.f.m.n.n.n.Q.~.).~.x.I.I.i   O %.F.J.$X2X1X&X:X1X:X#X[.#X#XJ.w.[ *.0.{.0.=.8.8.",
"s.r   E.P.|.iX|.|. X X X|.|.rXnXfX&.e F aXdX%X&X<X*X'.9.9.e.e.7.7.9.9.'.5.7.w.[.J.:XK.u r fXKXCXtXtXtX X).~.~.~.~.~.~.c.d.d.j.h.b.h.j.d.j.j.h.h.f.h.m.h.N n f.h.n.n.n.(.(.u.    p.aX=X;X&X9.@.5.,. .'  . ./ E E / E E L 9 9 E E 9 E E Q / ^  . . .+.` o.w.%X&X1XL.1 . R.DX(.g.~.n.Q._.~.Q.~._.Q._.I.  . i ;.8.*.$.O.) ^ ) W 0 W W Z 9 9 Z Z 9 9 9 9 9 9 9 9 9 Z W W ^ ^ ^ W W W ( %.:.s.s.u.p 8X_._.).)._.~.n.n.n.n.n.~._.Q.m.f.h.b.n.h.d.d.d.R h.n.b.~._._.OX).).pXtXtX8X7XX   1 %.;.H.:X3X&X&X%X#X#X*X#X#X'.9.[.0.<X&X#X1X3X:XL.1 0XHXLXKXJXhXhXiXeXpXiX|.|.nXwX+ o = =X=XH.[.J.J.8.=.<.-.*.-.8.*.1.1.1.8.;.8.1.L.O O E.CXKXhX(._._._._._.).)._.Q.m.n.Q.m.k.b.Q.m.m.Q.Q.b.n.Q.n.Q.n.n.b.n.n.n.~.n.~.~.I.u.@   &.kXdXdXJ.=.A W o.^ ^ ^ W 9 9 8 8 8 8 8 8 9 9 9 9 9 9 9 9 9 Z E ! W W $.7.[.$X8.F.:.qXKXDXI.y.y.h.g.j.y.j.h.c.c.T     u F.8.0.O.o.) ) W W W 9 7 9 9 8 9 9 9 9 9 8 9 9 9 E E E Z W S Z Z ^ o.o.^ =.8.F.O r i # y.g.~._.(.~.g.h.n.d.f.d.f.k.k.j.R b.j.d.m.n.b.j.f.d.h.n.n.b.n.n.n.n.c.I.n.I.P.X . u p.L.;X2X3X3X<X&X%X#X%X$X[.0.8.*.8.J.J.8.8.8.F.",
"r   t.R.V.8X X|..X X X X X|.9XgXhXP.1 F T.NX2X#X&X*X'.q.e.w.w.w.w.w.#X%X9.w.[.[.{.aXL.O t.SXKXgX8X)._._._._.n.x.n.c.y.m m y.n c m H y.H m c m n n n R j.h.h.m.b.n._.D.I.(.@   o 0X{.K.%Xw.7.>. .>.@. .o.` E E E E E L 9 9 9 9 E E E E E Q ~ ~ ~ ` #.Q 7.<X3X1X$XF   u fXnXv.x.b.n.n.Q.Q.b.Q.~.Q.~.).y   + &.8.1.-.O.) ^ ^ W 0 ) / E 9 E E E 9 9 9 9 9 9 7 9 9 Z 9 9 W W W E E 0 W ( :.:.a.E.v.n.(.~.~.~.~.I.I.~.n.n.b.n.~.n.b.h.Y g.x.j.g.g.x.h.n.I.D._._._.).)._.).tXtXrX9Xt.  a u ;.K.{.$X:X#Xw.7.7.0.0.w.'.0.<.#X&X%X&X:X2X>Xe a.BXJXKXJXmXnXhXiXeX XXXU.Y.uXuXa.  O &.>XK.H.J.H.-.*.:.;.;.;.F.;.;.8.F.L.H.}.0XF O + R.LXJX(.~.~.I.~.~._._._.n.Q.n.m.m.h.f.m n.b.b.b.n.n.Q.Q.m.m.m.n.Q.~.~.~.n.~._.~.~.#   . -XdX2X2X<.! 0 ) ) ^ / ^ W 9 9 9 8 8 8 8 9 9 9 9 9 9 9 9 Z E W Q ! Z ) =.0.$X[.1.;.P.HXJXzXg.g.g.c.x.g.j.g.c.n.n.g.X o O ;.8.0.<.O.) W W ( ) W S 9 9 8 9 9 9 9 9 8 8 9 9 9 E E Z W ! W W ^ ) ^ ^ O.8.F.w u t.y y.I.(.I.x.c.n.I.n.b.x.j.j.j.h.h.j.b.c.h.g.h.h.d.n j.h.b.j.j.n._._.g.g.I.I.I.7Xp   u :.;.K.;X:X&X[.J.J.0.0.H.0.<._ *.;.F.H.F.F.F.F.",
"X   R.R.|.hX|.U.|.^.^.|.|.|.8XrXhXqXp 1 :.aXaX:X%X$XJ.w.J.#X$X$X:X&X3X3X%X1X2X1XvXyXu 1 qXKXLXzXZXzXgXgXgXuX8X_._.)._.I.h.d.d.Y x.Z.Y.I.x.y.y.g.y.y.x.n.n.n.n.I.~.c._.OXx X O :.0X8.$X#X$.$.@.+.@.X. . ./ E E W L 9 9 9 9 9 9 9 9 9 E E ~  . .` `  .^ [.3XdX3X1.o   E.SXrXg.b.j.b.m.m.m.j.k.n.n.h.).I.    e %.( O.O.] ) ) W W ) W E E E W W Z 9 9 9 9 9 9 9 9 9 0 L W / ^ / W W W ( ;.:.s.E.7Xv.I.Y.(./.I.v.v.n.n.v.c.b.n.n.b.c.n.I.D.n.v.n.n.v.I._._.)._.~._.~.).).8X8XtXOX(.X O &.%.;.L.H.8.8.8.8.=.<.8.0.J.0.0.J.J.J.J.:XaXK.e wXIXKXKXDXeXxXiXiXeX.X.XU.U. XnXuX;   = L.}.K.F.F.F.F.;.%.%.u :.%.;.M.K.T.K.=Xs.. o &.jXKXjXrXgXrXtX8X8XOX_._._.).(.~.~.(.(.~.x.n.I.D.D.~.~.n.D.D.~.(.OX(.I.n.).v.(.(.p + X s.bXaX>X%X( 7 W ) ^ / W W W 9 9 9 6 6 8 8 9 9 9 9 9 9 9 E W ^ ! ! ! Z [ <.[.:XJ.;.p.fXKXDX(.c.x.x.d.y.H b H j.c.c.x.y   . e F.0.8.=.[ ( W ) ) ! ! Z 9 9 9 9 E E 9 9 9 9 9 9 9 E Z S ! ! W W ^ ^ ^ ) =.-.%.1 i i x x I.(.(.(.8X8X(.I.n.v.c.x.c.c.c.c.v.c.g.g.c.c.g.v.I.~.n.x.v.n.x.x.i.I.R.Y.qXP.. a &.G.L.H.1.1.1.-.8.8.;.;.8.8.:.%.:.;.F.F.p.:.%.",
"  t.7Xv.|.rX9XuX XU.C.Y.^.|.8X8XuXjXV.+ s.T.K.,X;X=X$X$X$X=X=X=X{.;XdXNXdXdX2X>XkXG.+ a.SXCXE.u.D.D.D.n.v.v.x.u.~.8XrX8X(.I.~.(.P.P.P.a.x x u.v.R.(.7X8X(.Y.(.8X8X(.v.i X   . aXK.J.:X8.] ` ` @.X.` ~ Q E 9 9 E 9 9 9 9 9 9 9 9 9 9 E /  .@.+.+.o.Q 7.&X1XvX1X3 . i fXAXI.g.h.j.h.d.K d.N R f.b.j.D.8X#   O w q [ -.O.] o.^ W ^ W E 9 E ! W E Z 9 9 9 9 9 9 7 9 0 W ^ ) ) ^ ) ) ( ( :.%.&.t.E.s.r x a.P.V.u.x y p y y y y y y y y y y y y y p y r y x u.V.I.(.(._.(.8X9X8X7XrXt.  u &.%.F.K.M.F.F.F.F.8.1.8.H.F.K.F.L.=XK.;X=X&.E.UXLXLXZXxX9XpXeXpXXX.XXX X^.|.uXhXV.  O 1 L.L.F.%.u w O . O 1 . O o . . o .   o   o E.AXfXi t.a.a.a.P.(.8X9XqXOXR.D.i.t.x x T I.(.8X8XtXtX8X(.g.y.x x T x i i y i i r X     0XbX1X;X7.7 ! ] ! ^ / W W E 9 9 9 6 6 8 9 9 9 9 9 9 9 9 E ^ ^ ^ ! ! A <.8.$X:X8.;.T.HXKXfXc.D.b.h.y.H b b H u.h.c.x.c.X . O ;.J.8.8.-.) W ! ! ! W W E E Z E W W E 9 9 9 9 9 9 Z Z Z S W W W ^ ^ W o.-.-.;.w i i ; @ y i x i y p p x x x i i y y y y y r # # # # # r y p y p t.v.i.x y i x p i i     r &.:.M.F.M.;.F.K.K.M.:.%.F e < 1 1 < O . .   ",
"s.qXR.P.|.|.9XeXeX^.U./.Y.^.^.Y.8XgX8X; i u o O O O O < < O O O O < < O < O o O o . 1 s.s.+   X     X             X @ @ @ @ @ X                 @ @ + + @   X + @ # @   . . G.>XF.K.J.] $.o.^ Q  .~ E Z 9 9 9 9 9 8 8 8 9 9 9 9 E E E / ^ ` ` ^ ` $.#X1XdXvX8.. + 7XCXrXc.j.R f.d.n c m n m n h.b.h.(.u.  . 1 ;.-.=.=.] ) / W ^ ^ Q E W ! W E E 9 9 9 7 9 9 7 9 9 9 W W W / ^ ) W D w F &.u &.o     . o O O .                     X             .     X X X X @ @ @ + # @ + +     . i u r G.T.-XT.=X-X=X=X=X-X,X,X,X,X-X-X-XL.T.kXPXKXZX9XuXpXeX X X.X^. X|.U.U.rXhX Xi @ . u a.G.:.&.a.P.R.-XR.wXwXR.P.P.E.E.P.t.i t.R.a.@   o           . . o o           . o   X @ + + + @ @ X             .   + o       -XBX;X$XJ.! 9 ) W W ^ ^ Q W E 9 8 9 8 8 9 9 9 9 9 9 9 9 9 E Q ^ ! W W ) 0.H.$X{.*.;.fXKXCXv.v.x.b.R n b c c b H j.h.h.v.t.  . 1 F.0.0.<.O.) ) ^ W E Q Q E E E Q W E E E L 9 9 9 9 E Z Z 9 E ^ } ^ ^ ^ ! -.;.%.u &.. . + O O o                                     X X           X X             o     . 1 + o O O . o O O O O o .       . . O 1 r u ",
"CXfXi.v.V.|.9X9XeX.X.X.X^.^.^.C./.9XgXV.r p + O e e u F &.&.i i i &.u u i 1 + o O   1 &.s.G.T.E.L.L.G.G.G.G.G.p.p.s.&.i u u u u u u &.&.p.p.&.u e 1 1 1 = + O O .   1 u = G.aXF.1.8.-.] ] ! o.Q +.^ E 9 9 9 9 8 9 8 8 8 9 9 9 9 9 E E / ~ ^ ^ ` E 0.%X1XBX2XO . s.jXUXD.n.j.d.R m m l l m c c R m.j.b.(.@ . O :.;.8.=.] ^ ^ ^ o.o. .^ ^ ^ E 9 9 9 9 7 7 7 9 7 9 6 8 9 L L E E W 7 D q w %.%.u o e %.s.:.:.s.p.G.&.:.:.&.&.&.&.&.r r r e u u u u e 1 1 O O O . o @         o   .   . s.E.E.wXqXfXSXAXAXSXAXIXIXIXSXbXbXsXsXfXfXUXJXKXFXiX9XeXXXXX X|.U.A.Y.U.V.B.I. X9XV.i s.7XIXPXAXjXfXkXAXHXAXPXHXSXAXAXAXAXjXE.U a.E.t.s.E.W.L.G.G.p.:.&.&.&.&.:.p.p.M.F.p.:.i u r r u u u i &.:.p.G.G.G.p.p.M.;.G.p.&.L.BX;X-.=.-.Z W W 8 W ^ ~ W E E 9 8 8 8 9 9 9 9 9 9 9 9 9 E W W Q W S A =.J.J.{.F.%.T.AXKX8Xy.x.d.f.n c z z z z c n d.j.g.~.#   o w F.H.8.=.O.o.^ ~ ^ Q ~ E E E Q E E E E E 9 9 9 9 E Z Z Z W ) o.o.^ ^ W ) ( %.F &.1 &.T.0XsXsX0X,XT.p.:.&.&.&.&.&.&.u u u u u u u F &.u u i u 1 = + + 1 1 O + o O . 1 1 t.s.r r r r p r r + o @ r t.a.N.E.7XfXjXCXjX",
"I.P.v.^.V.^. X X9X.X X X|.|.|.U.Z. XxXgXV.Y.wXfXkXkXkXUXCXZXSXAXSXSXCXUXnXjXCXwXr r E.0X0XaXsXaXdXdXdXdXdXNXvXdXdXdXaXaXaXdXvXBXBXBXkXdXkXBXbXdXBXbXdXdXdXdXdXaXdXBXBXBXkXbXF.%._ _ _ $.^ W o.o.o.^ W 9 9 9 9 8 9 9 8 9 9 9 9 9 9 E / ^ ~ ^ ` o.! J.:X2XdX;.. u wXCXrXc.c.j.f.N v n c g c c M n f.m.d.(.t.X   < ;.8.8.=.o.^ ^ o.o.` ^ ^ ^ E 9 9 9 7 8 6 8 7 7 8 6 8 0 9 9 9 9 Z 0 A 0 D w %.:.u :.;XBXVXVXVXGXGXGXGXPXPXGXPXGXGXGXGXIXBXBXdXaXaX>X>X>X,X=X=XK.=X-XR.T.}.-X0X-X0XR.&.i R.jXDXKXKXJXLXPXJXLXLXHXHXLXJXKXKXLXKXKXLXKXDXiXeXiXeX.X X X|.A.B.Z.I.P.V.Z./.uX|.V.V.fXHXHXHXAXAXJXKXKXKXKXLXJXLXJXHXUXE.@ i wXkXyX0XsXsXdXsXaXaXaXyX>X>XaXaXkXBXVXVXVXBXBXkXkXkXkXbXkXkXBXBXkXaXaXaXdXdXdXBXBXBXdXdXK._ _ ! W E Q W 9 W ~ Q E E 9 9 8 9 8 9 9 9 9 9 9 9 9 E W W W W W W ) 0.J.K.H.%.M.kXLXDXv.x.Y f.v n m m c c c c n d.d.g.n.v.X . . %.H.8.<.=.$. . .X.~ ~ ~ E E ~ / E E E E 9 9 9 9 E Z Z W W ^ o.o.^ #.$.] A ( *.:.%.K.aXNXBXBXBXBXBXBXBXNXkXkXkXkXdXdXdXdXdXkXdXsXdXsX0X,X=XK.L.L.L.K.K.,X,XsXkXkXkX0X&.s.7XwXqX8XR.7X8XwX7XY.Y.9XhXjXjXzXCXSXAXCXzX",
"V.|.V.l.l./.9XeXeX.X XXX^.(.|./.Z./.eXgX9XU.9XjXuXuXuXgXzXnXZXAXnXZXSXHXDXAXJX(.  U kXBX=XF.8.H.$X%X%X#X[.[.J.w.J.w.J.[.%X2XvXNXNXBXBXBXBXBXNXdXaXdXdXaXaXdXaXaX2XdXaXaXdX8._ *.0 [ ! o.o.o.E ^ ^ ^ W 9 9 9 9 9 9 9 9 9 9 9 9 9 Z Q ^ ^ / Q Q ^ =.J.:XdX{.o . G.jXCXI.D.m d.n N n d.m g m m M m f.b.Y g.8X+ o   :.8.0.8.7.$.^ ^ ^ / Q ^ ^ E 9 8 9 7 6 6 8 8 8 8 6 8 8 9 9 9 9 9 ( 6 7 _ 2 D %._ *.H.$X:X2XaXdXdXaXdXdXdXdXdXdXdXdXdXdXkXdXdXdXvXdXaXvXdXaXaX2XdXkXkXkXkXkXkXkXkXBXu   R.CXFXLXfXfXhXgXgXnXjXuX9X9XnXnXnXZXnXZXDXZXuXeXpXiXeXeX.X/./.U.B.V.U.Y.U.Z.U.|. Xv.v.a.a.a.u.a.7XxXnXzXZXCXZXnXjXgXzX7X    a.fXSX0Xp.F.F.;.*.*.*.:.:.*.*.8.;.H.1XdXdXdXNXvXdXdXNXBXNXdXaXaX2X;XH.8.8.0.8.J.$X{.$XH._ ( [ W Q S ~ E ` ) ^ Q E E Z 9 9 8 9 8 9 9 9 9 9 9 9 9 E W W W W W ! [ J.J.L.M.F T.PXLXrXy.Y d.n n v M g g l z g c n d.d.j.8Xt.  . O H.8.8.7.#. . ...|  .' Q Q ' ' E Z Z E 9 9 9 9 E Z W W W ^ ^ ^ / ~ o.^ A 0 *.w D D D q _ -.-.8.J.F.8.;.;.;.;.-.%.%.;.F.L.=X>X2X>X=X=X;X=XK.K.K.K.{.F.;X,X>X>XaXdXsX1 r wXzXFXLXLXJXJXJXFXAXzXgX9X8X|.Y.V.a.i.a.a.",
"9XrXY.Z.^. XeXeXeXXX X X X.X^././.A./.XX|.B.B.U.I.V.V.I.8XgXzXzXiXgXxXZXZXZXCX+   1 0XF.F.8.{.$X#X<X&X#X#X*X&X<X<X*X&X3X1X1X3X3X&X2X2X2X:X%X#X0.$X[.J.#X#X[.H.<.*.-.-.*.-.8.8.*.W ! ^ ^ ^ o.^ W E E 9 9 8 8 9 9 8 8 9 9 9 E E W E Z ~ ` E Q ` ! w.%X1X;Xe o e sXAX9Xn.x.j.d.N v n c c n n m m n k.m.h.y.(.v.  . O F.8.0.0.o. . ./ / / ^ ^ W 9 8 9 9 8 8 6 8 7 0 6 6 8 8 9 7 7 7 7 9 A 0 0 0 D ( _ _ _ _ [ [ -.8.=.=.r.=.8.8.8.8.-.-.*.*.-.8.H.J.J.J.#X[.0.7.=.-.-.;.;.;.-.;.:.%.L.G.  F 7XR.jXhXhXuXgXjXZXDXmXmXzXnXzXxXxXgXhXnXZXxXiXpXeX.X/././.U.I.Z.l.a.B.U.l.l.V.V.i.i.B.a.v.I.Y.Y.Y.8XgXhXgXnXgXhXzXHXp X . s.kX>X;.F.1.;.*.-.*.-.*.-.J.J.J.J.H.J.$X$X$X:X$XJ.J.{.%X%X[.0.J.$X%X#X%X#X0.<.] -.-.*.-.8.7.] W ^ ^  . .^ ^ ^ E E Z 9 9 9 9 9 6 8 9 9 9 9 9 9 W 9 W ! Z ! ] ( 8.H.1.M.&.F BXPXZXI.b j.f.j M v g h f k k k z m n d.h.c.(.r   . w $X8.7.7.>.+. .X.@. .~ ~  . .~ E E E E E E L 9 E E E W W W W E ~ ` ^ W 0 w w w ( W _ *.<.8.0.H.J.H.0.0.0.8.8.8.;.-.*.*.;.8.8.8.8.1.1.0.0.1.-.1.H.8.J.J.0.8.1.;.F.:.o F a.(.ZXFXFXFXFXmXDXZXZXmXnXgXuXuXuX9X X8X",
"uXiX^.C..XeXpXeX X XXX X X.X|.^.A.Z.A..XU.C.U.|.^.^.^.(.eXiXxXxXiXgXzXZXnXAXE.  . L.=XK.;X;Xw.*X<X*Xw.9.e.w.#X1X4X&X1X3X&X1X3X:X1X1X:X%X%X%X%X&X3X3X1X1X:X%XJ.8.8.<.<.8.J.[.0.! W ! ^ ^ ^ ^ ^ E W E E 9 9 9 9 9 8 9 9 9 E / ^ ^ Q Q ^ ` ^ ` $.<.$XaX>XK.O   R.CXzX(.g.j.d.v v f.N c l c m c v N k.k.m.d.I.I.#   o %.8.8.J.7.+. ./ / ^ / W Z 9 8 9 9 8 8 6 8 q q 8 8 8 8 0 7 0 9 7 7 9 0 0 0 ( ( ) ) ) [ -.=.=.0.7.7.7.7.7.8.8.8.8.1.=.-.-.=.7.8.0.<.0.0.7.7.7.8.=.8.8.8.8.8.8.F.=X0Xu + E.7XqXCXgX9X9XrXiXmXmXiXuXgXhXhXhXiXiXxXcXpXeXeXeX X.X^./.U.U.C.B.i.i.B.l.i.l.i.i.l.C.B.V.I.I.U.(.9XrXrXhXhXgXhXZX7XX   r -X,XF.1.8.*.=.-.-.*.*.*.*.J.J.J.J.J.#X%X$X%X:X%X#XJ.[.$X&X<X<X3X3X3X<X<X*Xw.<.7.0.w.8.0.0.7.] W / `  .^ ^ W W 9 Z Z 9 9 9 9 9 6 8 9 9 9 9 9 9 E E ! ^ W ! ) _ -.J.F.p.e R.AXKXrXD.g.h.d.v v j g h h k k l z c l m h.n.~.i.X   1 F.H.0.e.>.2. .@.@. .'  ...X.' ~ ~ E E E E L L E E E E E W W W / ^ Q Z 9 A ( ( ( W W ) $.-.=.7.8.7.7.7.7.=.=.=.-.[ _ _ *.-.-.*.-.*.*.=.<.=.=.8.<.<.0.J.w.w.J.J.;XaXw = a.P.hXFXFXDXFXDXFXDXmXxXzXiX9X8X|.U.I.U.",
"A.^./.A.A.^. X.X/..X X.X^.^.|.|..X.X/./.C.C.Y.|.|.^.^.|.9XrXpXiXeXeXiXuXuXuX@   &.yXF.H.;X%X0.%X#Xe.7.7.7.#.$.7.7.7.w.0.7.w.[.w.w.0.0.0.7.7.e.w.w.w.0.w.#X[.e.7.7.<.7.0.w.0.<.W W ^ ^ ^ Q E E E W E E L 9 9 9 9 9 9 9 L W / / W Q ~ ` ` ` ^ $.w.2XaX;Xw   u jXDX8Xn.y.h.d.v M v m l g k z g c n f.f.h.j.g.I.u.  . 1 ;.8.#Xw.@. .~ ^ ^ / E 9 9 9 7 7 8 8 6 6 6 6 8 8 8 8 8 7 0 7 7 7 9 9 0 P ( ) W ^ W W ^ W W o.=.=.=.=.=.=.=.7.=.-.-.O.O.O.#.<.>.+.<.>.$.$.#.=.-.=.=.<.7.8.0.J.{.dXK.. s.qX7XAXnXgXiXiXeXiXhX9X X9X9X.X|.|. XeXpXeXXXeXeX X.X/.U.A.U.Y.U.B.l.i.B.l.l.l.i.V.C.Z.U.U.Y./.^.|.|.|.eX9X9XuXfX;   1 T.sXL.*.0.8.0.w.7.-.[ [ } ( -.$.=.=.<.7.8.<.=.8.8.7.7.7.e.9.w.w.w.'.w.w.'.'.9.5.7.9.e.e.e.0.7.) Q ^  .` ^ E L L 9 Z Z Z 9 9 8 6 6 8 9 9 9 9 9 Z E W W ^ ^ ! ) -.H.K.F.F &.BXLXZXv.c.h.f.N v M h g h f g g g l c c c d.h.c.~.r   o w J.J.w.#.>.~ +. . .~  ... .~ ' ~ ~ E E E L 9 E E E E E E E E Q Q E Z Z W ( ( ( W W W W W W ) O.[ [ O.O.O.) ) [ _ _ ) _ ) _ ) _ ) ( ) [ O.-.-.] $.<.e.9.9.w.$X:XBXK.. s.E.9XDXDXZXDXDXDXZXnXiX9X X^.U.V.i.i.S.",
"B.C././.A.A.^.^..X X X^./..X X X.X/././.U.^.|.|.Y.I.U.(. X9X X9X X XiX9XgXa.  u ,X}.1.H.[.0.<X1X%Xw.=.o.O.O.) ) ) ) $.O.W ) } ) O.] ] O.] ] ] o.` $.` ` <.<.] o.$.o.$.#.#.+.` E ^ ^ ` ^ Q E E E E E E E 9 9 9 L E 9 9 9 E W E E Q ` ` `  .Q >.#XdX:XF.. . 7XAXzXx.g.x.d.n N v h h d d g l g l v N n d.h.n g.x.+   O %.J.$Xw.5.+.` ` ` ^ W Z 9 9 8 8 8 8 6 6 6 , 6 6 6 6 6 6 6 7 7 7 0 9 9 W ) ) ) ) W W W 9 9 W ) ^ ) ) ) W ) O._ _ ) ) ^ ! ^ ] $.^ ` ` ! ^ ! ^ ! ! ) ] O.$.7.J.0.2XaX1 e 7X7XjXZXjXiXhXiXeXiXrX9XrX9X.X|.|. XeXpXeXeXeXXX.X/.A.U.A.U.^.^.U.V.S.i.i.i.i.i.l.i.i.l.V.U.^.^.^.|.9XrXgXuXuXa.  u T.dX>X-.-.1.<.#X#XJ.=.O.$.O.) ) W ! ) ) ) [ ( W ) ) ] o.$.#.+.+. .@.>.+. .>.5.@.`  .+.$.o.$.#.o.W Q ^ ^ ^ W 9 9 9 E 9 9 9 8 8 8 6 8 8 9 8 9 9 9 Z E / W ! ) ! ] 8.$XL.p.1 wXHXJX(.y.g.d.n n v M j g g f k g g g z m c n d.Y _.u.X . O H.%Xw.=.#./ ^ ^ ^ ~  . .| ~ | ~ ~ E E L L L E E 9 9 L E W W W E Z Z Z W W 0 W W 0 0 0 9 0 9 W W W ( ( W W W ( ) _ ) ) ) ) ) W W W 9 0 ( ) W ! ] ] $.7.7.9.[.%XdXdXe u R.R.nXDXZXmXMXmXnXxXuX9X X^.U.B.l.B.B.",
"eX|././././././..X X X/./..X.X.X/././././..X X(.U.C.U.|.9X9X X X|.9XiXuXfX+ = }.dXF.J.#X0.0.3X&X%X0.O.W W ) $.=.[ _ [ O.) W _ } ] o.] ! ^ ] $.$.] #.` ^ <.>.o.#.#.^ E ~ `  . .Q ^  . . .~ Q E Q 9 9 9 9 9 9 L E W 9 9 9 E E E E ~  . .+.@.o.0.1XdX;X< . i hXHX(.y.y.g.n c n N c h d d h f h l v v v n m.d.c y.p   o e $X&Xw.e.>.` `  .^ ^ W 9 9 6 6 6 6 6 6 6 6 6 6 4 4 4 6 6 7 7 7 7 0 9 W ^ ) W W W W W 0 9 W W W W ) ( W W ) W W W W E 9 9 E o.W ^ Q W ^ W W 0 0 0 W ) ) #.8.8.K.dXF.O a.7X7XZXnX8X8XrX9X9X9X^..X.X^.|.|.|..XeXpXpXpXXX.X/.A.A.A.A.U././.C.C.l.i.i.l.l.l.i.i.l.B.U.Y.^.^.|.9X9XrXhX7X@ . T.bXaXF.*.<.O.<.#XJ.#X=.) ) ) o.O.O.o.#.O.O.O.) ) O.o.o.` o.@.>.>.>.4.5.>.@.>.@.` '  . .` / ^ ) ^ W / ^ ^ E 9 9 9 P 9 9 9 8 6 6 6 8 P 9 9 9 9 9 E E W ^ ! W ^ ! -.J.{.F.u &.CXJXZXI.v.g.n n K v j v g h f f g g g l k z c g.j.n.c.@   o ;.;X0.7.#.^ / ^ ^ {  . .| ~ ' ~ ~ E L L L L E L L L L E E E E E Z E W E 0 0 0 0 0 0 7 0 0 0 0 9 0 W W 0 0 0 0 0 ( ( W W ( ( 0 W P 0 0 W W 9 W ) W ^ $.#.7.w.J.%XBXK.O N.R.qXDXDXmXMXnXxXxXuXXX|.C.B.B.A.|. X",
" X/./././././..X/.^..X/./././.A..X.X.X/.A././.Z.U.U.^. X9X9X X X^.rX9XuXV.  F yX>XH.$X[.<.#X&X#X0.] W o.) W W ) W E W ) ) ^ ) =.) ] ) ! ! ^ ) ^ Q ^ Q Q $.$.o.#. ./ ^  .`  .+. .^ ~ ~ ~ Q E E E 9 9 9 9 9 9 L E W E E E Q E E Q  .+.@.@. .+.'.3XNX1.. O 7XHXxXb u.y.j.j.n M j g j h d d d d l m v n v m.h.M b u.X . < {.2X#X+Xe.+. . .^ ^ W E 9 6 6 6 6 6 6 6 6 6 6 6 6 6 6 6 q 6 7 7 0 9 L / ^ 9 0 8 0 0 0 8 P ( ( ( _ ( W P W W L E W E 9 9 W $.^ ` ^ ! ^ ^ ^ 0 0 0 A W ! ] $.8.1.>X,X1 r 7XY.gXnXrX|.8X8X(././././.U.^.|.|.XX XeXpXeX X.X.X^.A.A.Z.A.A.A.Z.Z.C.C.B.B.U.U.A./.^./.U.Y.^.^.^.Y.(.(.rXa.  e sXbXL.;.1.-.<.J.#XJ.0.o.^ ^ ) $.o.o.o.O.o.) ) ) ) o.o.^ ^  .@.>.>....... . .+.+.` ` .. .` ^ ^ ) ) ) W W E 9 9 9 9 0 8 6 6 4 4 6 8 8 P P 9 9 L E W W ) ) ^ ! ! ) <.[.=XF.O 0XHXJX8Xn.v.n c n d.v g j h d d f f f h l f k f n j.d.n.y X . w $XJ.0.7.$.W / ^ ^  . .' ~ ~ ~ ~ E E L L E E L L L L L E E E E E E E 9 8 8 0 0 0 0 0 0 D ( 0 0 0 ( W 0 0 0 0 0 W W W W P P 0 0 0 0 0 ( ( W ( W 0 W ^ ` o.<.0.J.dXdX1 e R.}.nXFXMXmXnXgXiXeX9X^.B.J g.A. XrX",
"Z./..X/.^././. X.X.X.X.X.X/././..X/./.~.Z././.Z.Z./.(. X X X|.|. XeXeX9X+ . T.aX;.8.1.<.$.%X*X#X9.` S ` Q Q ! ` ! ` ! ! ! ! W ) ) ) ) ] ] ^ W E ^ ^ ! ^ ` ^ ! Q / { @.@. . .@.+.' ~ ~ ~ ~ E E E E E E E E E W / E E W ` ^ E E Q +.+.@.+.Q $.%XvXdX< . i CXHXI.z y.b d.j.N j C % g h d - % d j n N n n h.m.H b u.y   O ;.3X%X*X+X5.#.+. .^ ^ W L 8 8 8 6 6 4 , , 6 4 6 6 6 6 6 6 2 6 8 8 9 9 L P ( I 0 0 0 0 q 0 A ( ( 0 0 W ( P P 9 E ^ ^ W ^ o.$.^ o.o.^ ) ^ ) ( D 0 0 W ) O.O.7.1.J.>X&.+ N.R.Y.uXhX9X9X8X(.)./.A.B.B.A.A.|.eX XeXpXXX.X.X.X^.A.A.A.A.C.Z.C.Z.U.U.B.v.C.C.Z./././.U.U.(. X|.^.8X8X7Xy X p.kX=X:.;.8.-.8.#X#XJ.=.] $.o.o.$.` ^ ^ ^ ^ ^ ) ) ) ) ) ` o.@.>.>.X.' >. .' ' +.` Q ^  . .` ^ ^ ^ ^ ^ E 9 9 9 9 9 8 8 6 6 4 4 4 4 6 6 0 8 9 9 L W W W ) ^ ) ! W $.0.{.=X%.F SXLXCXn.g.g.x c n c M g C d - - t d d h f f x f z d.Y c.u.@ . < H.$X0.8.r.^ / / ^ +.@. .~ | | ~ ~ E L L L E E E L E L E E W E E E L 9 9 0 q 0 0 0 q 0 w 0 0 0 0 0 0 0 0 0 P W ( ( ( ( P 0 0 0 0 0 0 W ( ( ( w 0 W E Z ^ ] 7.0.{.vXG.O N.Y.9XZXmXnXxXiXeXXXiXeX^.Z.z.Z./.^.",
"/..X.XZ./.^.Z./..X.X.X.X/././..X.X/././.A.~.A.n.v./..X|.(.(.|.(.|.(.iX|.  r ,X,X;.8.=.=.=.J.w.e.+.Q E Q Q ` ] S 7 Q S Z Q ` ` ] ^ Z Z ! ) W W ^ ! W ^ o.o.o.o.^ +. . . .+.@.@.Q  .' ~ | | ~ ~ ~ ~ ~ ~ / / / ^ ^ E E ^ o. .E 9 E ` Q  . .Q <.1XNXJ.. o R.LXfXy.y.b m n m j c g % % % - - : d j v d.n N f.h.h.d.k i.  o w aX%X&X*Xe.7.@.o.o.o.^ W 9 8 8 6 6 4 , , , 4 4 4 6 2 2 2 2 2 6 8 8 8 9 9 0 0 6 6 0 q 8 0 0 0 0 7 0 ( ( W W W W ) ^ ^ ^ $.] W ] ] ^ ) ) ) [ _ ( A W O.=.#.<.0.-.}.L.O i }.Y.8XhXrX|.(./.^./.U.A.A.U.A.^.eXeXpXpXXX.X^.^./.A.U./.U.A.Z.Z.Z.A.U.B.l.Z.v.v.C.C./././.^.|.|.^.8XtXa.  . -XBXF.-.*.-.*.[ 8.w.7.^ E o.W 9 / W ^ W ^ W W ) ) ) ) ^ `  .+.@.@.@...>. .Q ~ $.$.` o. . .` ` ^ W 9 9 9 7 8 7 9 7 6 , 6 6 6 4 4 , , , 6 4 6 8 9 E W W W W ) ! ! <.[.$XH.O -XIXKX(.Y y.b c n m d j v % - % % t d d d h t z c m d.j.Y y.+ . O 1.:X0.0.7.O.^ E  .2.4...| | | { ~ E L L L E E E E E E E L W E E E 9 8 9 ( q 0 0 q 6 q q q q q q 0 q q q 0 0 0 0 0 P W 0 0 P 0 8 8 0 0 0 0 0 q ( _ 9 Z ) o.<.7.H.dXaX= e P.Y.mXxXxXiXpXeXeX.X X.X/.Z.Z.Z.Z.",
"/..X^.A././..X.X.X.X/./././././..X^.Z.^.A.Z.Z.z.Z.A. XZ.C.9X|.|.(.|.gX;   G.sX{.-.8.) O.=.0.8.<.W E W Q Q ! W Z 9 9 9 Z ! ] ` W ^ ^ W E W ^ ^ Q +.` ^ ^ ^ ^  .@.~ ~ ~ ~ ~  . .+. . .' ~ ~ |  .| ~  . .~ ~ | ' Q E ~ / Q ^ W 9 9 W ` +.` ` w.3XvX%.. 1 SXZXu.c.b m l f z z d t d t d d % % C g v N N f.h.h.m.h.Y I.y   = K.3X<X*X#X7.#.o. .o.^ W E 9 9 8 8 6 , , 6 6 6 6 6 8 q 6 6 6 , , 6 6 6 8 8 8 8 6 6 6 8 8 0 8 8 0 0 W ( ) W ) ) W 9 E ^ ` Q ^ ^ ^ ^ ^ ^ ^ O.^ W Z ^ $.+.7.7.7.8.J.,Xu O a.7X9XzXrX X^.V.I.U. XY.C.|.|./.XX XpXeX X^./././.A./././.U./././.U.Y.C.B.Z.Z.Z.Z.U.U.C.U.^.^.|. X(.8Xr   :.aXaX;.;.=.[ *.-.<.8.W 9 9 9 Z Z W E E W W W W W ! ! ^ ^ / /  .@.+. .'  .X.@.$.+.] ^ W ^ ^ W W W 9 0 0 9 7 6 2 6 6 6 , 6 q q 6 , , , , 6 q 0 0 9 Z E W ) A ) A A 8.J.K.u u SXKXzXy.c.b Y m l g g l h : % % % % % : d h d g m N n n n y.u.  . %.L.;X0.7.O.W W  . ...2...2.| ~ ~ E 9 9 Z E Z 9 9 E E E E 9 9 9 9 9 9 9 W 0 0 7 8 q 0 0 0 0 0 ( W 0 q q 0 8 q 8 8 0 0 0 q 8 8 8 8 8 8 8 9 8 A _ _ ( W ) ] ] $.<.$XdX=XO :.Y.uXzXcXeXeXeXeX|.^.V.^.C.U./.v.",
"/.^./././..X.X X.X.X/././././.A..XA.A././.A.B.S.A.A.^.Z.I. X8XY.Y.hXa.  1 ,XaX8.8.0.O.=.<.7.-.[ W W W W W E 9 9 9 9 9 9 Z ! Q Z W W E E W ^ ^ E @.+.^ / ~ ~ E E E E E E E W / W / ^  .`  .` | ~ ~ ' | ~ ~ | ' Q Z ~ ~ ! ! Z 9 9 W ! +.` <.[.aXaXO   E.FX(.b Y Y m c g g f t t t t t t % C h v N v n K d.K f.h.j.x.v.@ O %.:X<X&Xw.7.#.o.^ o.^ ^ 9 9 9 9 8 6 , , 6 6 6 2 2 6 6 6 , , , , , 6 6 6 8 8 6 6 6 8 8 8 8 8 0 9 0 A 0 0 0 9 9 7 7 9 W Q W Q / / ^ ^ ^ ^ o.^ ^ Q `  .~  .#.7.8.H.$X;.O u R.|.gXrX8X|.U.U.U.U.C.C.U.U./..XXXpXeX X^./././.A././././.A.Z.B.U./.A.B.C.Z.C.U.Y.A.^.^.U.|.|. XY.(.X . T.aXK.1.=.-.O.-.=.8.<.A 9 9 9 9 Z Z 9 Z Z Z Z Z Z E W W W E E ^  .` ~ ~ E E Q Q / E L 9 9 9 9 9 0 0 7 7 7 6 , , , 2 2 2 , 2 6 2 , , , , 6 q q 9 9 Z W W A ! ) A O.J.;XF.a G.AXLX8Xg.g.j.y.m g g l l g g % % % % % % : d d j v n m m b y.u.# X O F.{.0.<.O.) o.5.5.,.X.| X.| { ~ / S 9 9 9 9 9 9 9 9 9 9 9 9 9 W L 9 9 9 0 9 0 7 7 0 0 0 6 q 0 0 6 6 6 6 q 6 6 8 8 8 q 8 6 6 6 6 6 8 9 0 9 A W W 0 0 0 A 7 ] <.w.2XaX8.< a.8XxXcXiXpXeXpX9X|.U.|.U././.Z.",
"/..X.X.X.X.X.X X XXX X.X.X.X.X.X.XB./././.A.S.Z././.A.C./.^. XC.(.9XX + G.sX;X8.0.e.O.=.<.=._ ( W E Z 9 9 9 9 7 6 8 8 7 9 Z Z 9 9 9 9 9 9 E E Z  . .^ E / ^ / 9 E Z E E E Z 9 9 8 E ^ ^ W W W W '  ...X.X.X.X.' 9 Q ~ Q Q 9 7 Z W Q o.] w.&XdXH.. O jXZXu.y.b m n m g h t - t t - - % % C h v d.v v N K N N j.h.y.(.p   e J.2X&Xw.7.7.o.^ o. .^ L L L 9 8 6 2 2 6 6 6 , , , , , , , , , , , 4 6 6 6 6 6 6 6 8 8 8 8 8 0 0 8 6 4 6 6 , , 6 9 E E E E E E E E E E ! E W W `  .~  .o.=.7.;.K.;Xw O a.Y.8XuXrX XI.C.^.V.C.Y./.|. X XeXpXeX X^.A.A.A.Z.A././.A.B.l.i.Z.U.A.C.Z.Z.C.U.U.C.|.^.Y.|.|.^.8Xv.  u kXaX1.8.=.[ O.*.-.<.[ 7 A 9 9 9 9 9 9 9 9 9 9 9 9 9 9 9 Z 9 E Q / E E E 9 9 9 9 9 9 8 8 8 8 8 8 8 8 6 6 6 , , < < , , 6 , , , , , < , , q 6 8 8 9 Z W W A _ A A <.J.=X%.1 fXJXZXv.x.g.j.n g d h g d d d % % % % % % : : d g c m c c m y.g.v.X   u K.8.7.=.O.#.9.q.4...| X.' ~ / / E 9 9 9 9 9 9 9 9 9 9 9 9 9 L 9 9 9 9 0 7 8 6 6 6 8 8 6 6 6 6 , 2 , , 6 6 4 6 6 q 6 6 6 6 6 6 6 8 8 0 0 9 7 q 0 0 6 2 7 7 <.0.%X1X1XD p V.eXiXpXeX.XpXeX X^. X^.^.^./.",
"/.^..X.X.X.X.X XXXXXXXXXXXeXXXXX X/..X^..XA.A./.|..XA./. X X^.^.gXi   t.sXdXJ.0.0.0.#.=.$._ ( ( 7 7 8 8 8 7 8 q 6 8 8 7 7 9 9 9 8 8 8 6 9 9 Z 9 E / ^ W /  .^ 9 9 9 9 9 9 9 8 6 4 8 8 6 6 8 9 9 Z Q ~ ~ ~ ' ~ E 7 Z E Z Z 9 7 Z ! ^ ] <.%X2X1Xw . s.AX8Xy.h.g.c m m c d % % t t % % % % % d M v M j N f.N N N f.g.I.v.  = ;.2X%Xw.e.7.o.^ o.^ / W W W L 8 4 , 2 6 6 6 , , , , , , , , , , , , 4 6 6 4 6 4 6 6 6 8 8 6 6 4 4 , , , , , , 8 9 E 9 9 9 9 9 9 9 L E E 9 9 9 ~ +. .>.#.o.-.-.H.aXH.. &.Y.(.rXuX|.V.I.Y.C.C.U.A./..X.XXXpXeX.X/.A.A.Z.A.A.U.A.Z.B.l.l.B.U.U.A.U.C.C.Z./.C.^.^.|. XU.Y.rXr   E.kX=X;.-.=.[ -.[ [ O.S 7 9 9 9 9 9 9 9 9 9 9 9 9 9 9 9 9 9 9 E W E 9 Z E Z 9 9 9 9 8 8 6 8 8 8 6 6 6 , , , , , < < < , , , , , , , < < , 6 6 6 8 9 A Z Z ! ( 0 _ 8.$XF.1 p.AXLXtXc.x.b.b c d t f g % & & $ $ % % % % : t h g l c c m Y g.c.I.p   = ;.H.8.=.) ` >.4.X.| X.X.' E E 9 9 9 9 9 9 9 9 9 9 9 9 9 9 8 8 9 9 9 W 8 6 6 2 2 2 2 2 6 2 , , , 2 , , 6 4 4 4 6 6 6 4 4 6 4 4 6 6 8 8 7 6 , , 6 q 6 2 A 2 =.w.w.:XvX{.1 p Y.uXeX X/.eX8X|.(. X|.^.^./.",
"Z..X.X/./..X.X X.X.X.X.X.X X X X X X XXX XA..X.X XXXA.^.9XeXY.uXuXX o P.BXdXJ.8.0.w.e.<.$.S A A 6 6 4 6 6 8 8 8 6 6 8 q 8 8 7 9 0 0 8 6 9 E W E 9 W ^ E L E L 8 9 7 8 8 8 6 6 , , , , < < , 6 6 6 9 9 E E E E 9 Z Z 9 9 E 9 9 W ) ] ] J.:XdX{.o . qXUXc.g.y.d.c m m c f t % % % % % % % C d g M v M B f.R N N R x.c.Y.r . w :X;X#Xe.7. ./  .~ E W W W 9 8 , , 2 , 6 2 , , , , , , , , , , , , 4 6 4 4 4 , 4 4 4 6 6 4 4 , , , , , , , , 8 A Z 7 9 9 9 9 9 9 9 L W 9 9 9 /  . .>.7.` #.7.8.;X>Xe 1 E.R.|.9X9XY.^.Y.|.U.C.A./././..XeX X/./././.Z.A.U././.A.Z.Z.Z.C.U.U.A.U.A.V.B.U.Y.^.Y. X|.U.9X(.  ; yXkXH.8.*.-.-.8.*.[ [ 7 Z 7 7 7 7 9 7 8 7 9 9 7 8 8 8 8 7 7 9 9 Z 9 7 9 9 9 9 7 8 6 6 4 , 8 8 8 6 6 , , , , , , , < < < < , , , , < < < , , 2 6 9 9 9 9 9 W 7 A 8.J.;X%.e wXJXFXI.v.x.b.c z t t f f % & & & & $ $ $ % % : g g g z c n d.j.n.x.I.+ . e H.;.<.]  .>.4.X.X.X...' E L 9 9 9 7 9 9 9 9 9 9 9 9 9 9 8 8 8 8 9 9 8 6 2 2 6 6 6 6 6 2 , , 6 6 , , 4 4 4 4 6 6 4 4 4 4 4 4 , 4 6 6 6 , , , , 6 6 6 7 Z <.8.8.3XvX1X&.= N.uXiXeX X X.X/.|. X X.X/.A.",
"/. X X/./..X.X.X.X.X.X.X.X.X.X.X^..X.X X.XZ..X.X X XZ./. X9XY.gXt.  F 0XBX;X[.0.<.w.w.$.] 7 A 7 6 6 4 4 6 6 6 4 4 4 6 6 6 6 6 8 0 8 6 6 8 9 E 9 8 E W E 9 9 9 8 9 7 8 6 6 6 6 6 , , , < , , 4 , 8 9 E W / / E E Q S 9 Z Q E Z ! ! ) ] [.:X1X%.  r zX8Xg.x.d.n c c c g f d % % % % % % t d h j M v v B N B N f.f.m.g.I.v.  o p.>X#X7.#. .~  .~ / E E E 9 6 2 2 6 2 6 6 , , 6 6 , , , , , , , , , 4 4 , , , , , , , , 4 4 4 , < < , , < , 6 9 9 6 8 8 8 9 9 9 9 9 9 9 9 Z ^ +.` @.>.^ #.8.<.0.aXL.  s.E.E.|.uX9XU.Y. X|.C./..X.X.X.XeX.XA.Z.Z.A.S.A.A././.A.Z.Z.A.U.U.C.B.C.C.B.B.B.Y.U.I.Y.I.Y.rXy   s.kXdXF.8.=._ =.8.-.[ ( 7 7 6 8 8 8 8 8 8 8 8 8 6 6 6 6 6 8 6 6 8 7 7 6 6 7 8 6 6 6 6 2 6 4 6 6 6 6 4 4 , , , , , , < < < < , , , , , < , , , 6 8 0 0 9 9 9 A 0 *.J.=XK.1 p.CXKXzX~.b.c.j.m f t % t t $ $ $ # & & & $ $ $ % d d d f g z n Y n.y.I.a.  O &.;.<.$.>.9.9.5.3.X.X.' Q E E 9 9 6 9 9 9 9 9 9 9 9 9 8 8 9 9 8 6 6 6 2 2 2 6 6 6 2 6 2 , , , 4 , , 4 , , 4 4 4 4 , 4 4 , , , , 4 4 , , , , , , 6 6 2 ! >.<.<.1X3XdX{.u t.qXhXxXiX.X(.A..X X X.X/./.",
"XXXX X.X.X.X/./..X X.X.X.X.X.X.X/.^.^..XA./..X.X X^.C.Y.(.^.8X8X  + T.BXdXH.[.w.<.[.w.] S 7 D 7 8 6 6 6 6 4 4 , 4 , , 4 4 4 4 6 6 4 , , 4 8 8 8 8 9 L E L 9 9 9 9 7 8 6 6 6 6 3 , , , , , , 4 , 4 8 9 E E E E E E E Z Q ^ Q E ^ ! W =.[.$XK.< . E.zXI.x.c.j.n g m g f f d % $ % - - % % C d g j N N N N v n f.f.f.x.D.rX+ . u >X$Xe.5.$.^ ^ ~ +.~ E 9 9 6 6 6 6 6 q 6 2 , 6 6 , , , , , , , , , , , , , , , , , , , 4 4 , , , , , , , , 6 0 9 6 8 8 8 9 8 8 8 6 8 6 9 9 ^ +.~ +. . .o.<.=.<.:XaX= = s.a.V.uXgXY.U.Y./././..XXX XXXeX^./.Z.S.B.B.A.A.A./.A.Z.Z.U.A.U.C.l.l.S.S.B.B.U.B.V.V.l.Y.U.  + -XBX=X;.-.[ _ 0.8.[ ( S 7 2 2 6 8 8 8 8 6 6 6 6 6 6 4 4 6 6 6 2 6 6 6 2 6 6 6 2 6 2 6 2 , , , , , 4 4 4 , , , , , , , , < < < , , , , , , , 6 7 0 9 0 9 9 A A _ 1.J.=X:.1 wXLXJXtX_.n.b.K n f t % t t % $ $ # $ $ $ # # $ $ : t d d t d z m h.j.v.8Xr o 1 M.*.] +.>.>.5.3.X.X.' E E E 9 9 8 9 9 9 9 9 9 9 9 9 8 8 9 9 9 6 6 6 6 2 2 6 6 6 6 2 2 , , , , , , , , , , , , , , , , , , , , , 6 , , , , , 4 6 6 2 ` +.<.<.w.3XNXaXL.&.}.hXnXmXeX^.Z..X XXXXXXXXX",
"eXXX.X.X X X.X.X/.^./././..X.X.X X X X X/. X.XXX X/./.|.|.U.uXP.  u sXVXJ.J.#X9.w.&X#X! 7 7 _ 7 q 8 6 6 6 6 6 4 4 4 , 4 6 4 4 4 , , , , 6 8 6 4 9 8 9 9 9 9 8 8 8 6 6 2 2 2 , , < , , < < < , 6 4 6 8 L E E E E Z E E ~ ` Q E ` ] _ 0.[.$X;.. @ lXgX~.x.j.v n m m f d d d % $ % t % % $ % C d h B B k.N M v R N R b.n.hXa.X 1 >X%X0.7.5. .^ ~ @. ./ E 9 8 8 8 6 q q q 6 6 6 6 , , , , , , , , , , , , , , , , , 6 6 , , < < , , , , , , q 0 0 8 8 8 8 8 8 6 4 4 0 8 7 9 ! ` Q  .+.>.! O.<.8.J.vXL.  u F i 7XnX9X|.C.|. X/..XeX XeX X/././.S.Z./.U.A.U./.A.Z.U.^.C.U.A.B.B.B.B.C.C.A.l.Z.l.l.Y.p X i kXIXp.:.1._ -.J.8._ A 7 A 6 6 6 8 8 8 8 6 , 6 6 6 6 4 4 6 6 6 , 2 6 6 6 6 6 2 2 2 2 , , , , 4 4 6 6 6 6 6 6 6 , < < , , , , < < , , , , , 6 0 0 P 9 7 9 A ) 0 *.8.8.=Xe &.SXLXZXD.n.Q.n.j.n d y f f f t % & % % % $ $ $ $ % : f z l t d l n R f.D.9X7X  1 F.=.$.+.X.,.6.q.6...' E 9 9 9 9 9 9 9 9 E E E L 9 9 9 8 9 9 9 9 0 8 8 6 8 7 0 0 0 2 6 6 6 6 , , , , < < < , , , < , < , , , , , 6 , , , , 4 6 q 8 2 +.>.>.<.>.3XvXNXaXp.N.rXxXZXxX/.S..X XXXXXpXpX",
".XpXeX/././..X.X.X/././.^.^././..X.X.X.X.XXXeXeXpXeXeX/.9X9XuX; X G.BXBXJ.#X[.<.*X*Xw.Z S S 7 S 6 6 6 6 6 6 4 4 4 4 4 4 4 4 4 4 , , , 6 6 6 6 6 8 8 9 9 9 9 8 6 6 2 2 2 2 2 , , , , , , , , , 6 4 6 8 9 9 9 Z Z 9 9 E ^ ^ ` +.o.] <.J.J.{.e . &.gX(.n.x.f.f.d.c g g f d - $ & * t $ & % d d d d B B B B B B B B m.b.I.rX8XX . T.1X7.7.7.o.^ ^ +.` Q Z 9 9 8 6 6 6 6 6 6 6 , , , 4 4 , , , , , , , , < , , , , , 4 , , , , , , < , < < 2 q 7 q 8 6 8 6 4 4 6 6 4 8 6 6 9 ! W / +.+. .$.+.=.<.0.:XaX= o i p i.rXgX|.^.U..X/..XXXpXeX.X/./.A.Z.Z.A.A.A.A.Z.Z./././.^.A.A.A.B.B.B.Z.I.l.V.i.G C.l.  X 7XCXyX:.;.-.A 0.w.=.A W A 6 9 0 8 8 8 8 6 6 8 6 6 6 6 6 4 4 , 8 6 6 6 6 6 6 6 6 2 2 6 6 , , , 4 6 6 q q q q q 0 6 , , , 5 , , , , , , , , , 6 0 A W 6 7 W 9 W 0 -.1.F.:.1 0XPXKXtX~.n.m.n.N n f f y t t % $ $ $ $ # & & & $ $ : f f y t d g n h.Q._.OXhXt.  &.1.7.+. .>.4.3.X.| ' ~ E 9 8 6 8 9 9 E E E L 9 9 W 9 6 8 9 9 8 8 6 6 6 6 6 6 6 6 6 2 , , , 6 6 4 , , < < , , , , < < , , , 4 , , , , , , , , , , 7 +.+.+.>.e.#X3XNXBX>XG.hXZXxXZXpX^. X.X.XXXXXpX",
".X X.X.XXX.X/..X/./.^..X/././././././././..X.X.X|.eXeX|.9XhXuXX + sXBX2X1X3X'.#X<X#X7.Z A S 7 S 9 0 8 8 6 4 4 , 4 4 4 4 4 , , , , , , , 4 , 6 6 8 8 9 9 9 9 8 8 6 2 2 2 2 2 , , , , , < , , , 6 q 8 0 9 9 9 9 9 9 E E Q ~ ' ~ Q O.7.J.{.H.O . E.rX_.b.h.d.N n z c z g d t % $ & % $ $ % d d h h j M v v N N f.f.k.h.n.(.hXi X e aX$X<.#.^ Q Q Q ^ W 9 9 9 8 6 6 6 6 6 6 6 6 6 6 4 , , , , , , , , , < , , , , , 4 4 , , , , , , < < < 2 q q q q 6 6 6 , 4 4 4 , 6 6 8 9 W E E  .~ E Q ` <.8.8.J.BXG.  r t.a.9XgXeX|.Y..X/.^..XeXeX.X/./././././.^./.A.Z.Z.A.U.U.|.U.A.A.B.B.B.B.C.C.V.i.i.Y.y   t.jXGX}.*.8.-.8.J.8.[ 9 A 9 8 9 9 8 8 8 8 6 6 6 6 6 6 6 6 6 6 6 8 6 6 6 2 2 2 2 6 , , 2 6 , , , 4 4 6 6 6 q 6 6 q 6 , , , , , < , , , , , , , 2 0 0 W 9 0 W 9 A ( 1.8.F.%.u jXLXDXrXtXQ.f.m.N m f f f t t : % $ $ $ $ # & $ $ $ : d y t t d h v R ~.~.8XhXqXX = 8.[.<. .,.4.5.| | ~ E E 9 9 7 9 9 9 9 E E L 9 9 W 9 8 8 9 9 8 8 6 6 6 6 6 6 6 , q 6 6 6 6 6 6 4 , , < < , , , , , < , , , 4 , , , , , , , 4 6 6 A +.+.+.>.7.#X3XNXvXBXT.jXFXmXDXxXiXpX^..XXX/..X",
"XX X.X.XXX XXXeX/./..X.X/././././.A.A.A./././.A./.|.A.l./.hXeX  s.kXSX1X%X5X4X<X4X9.] Z ! S Z S 7 8 6 6 6 6 4 4 4 4 4 4 , , , , , , , , , , 6 8 8 8 9 0 9 9 0 9 7 7 2 2 2 2 , , , , , , , , 2 2 4 8 8 8 8 8 9 E Z ~ E E ` ' E Q ] 7.J.J.;.o O wX(.I.n.m.f.n n l z g f d - % $ $ % $ % d h h h g v v B N N N f.f.f.m.~.I.UXu.X o 2XdX0.7.o.^ o. . .Q Z 9 9 8 8 q 6 6 6 6 6 6 4 4 4 , , , , , , , , , , , , , , , , , , , , , , , < < , 6 7 7 8 8 6 6 4 , , , , < , 2 6 7 9 9 Z ^ Q E ^ ! O.7.0.$X0XsXO i 7XgXzXgX9X^.Z././..X.XXXXX/./././././.^..X^.U.Z.Z.A.A.A.U.C.B.S.l.l.B.l.I.C.i.i.I.8X  + 7XSXPXT.1.%X0.#X[.=.W 0 9 0 9 9 9 8 8 7 8 6 6 6 6 6 6 6 6 6 6 6 q 6 6 6 6 2 2 2 2 , , 6 2 , , , 4 6 6 6 6 6 6 6 6 , , , , , , < , , , , , , , , 7 8 0 9 0 0 6 0 _ -.1.F.%.p.IXKXxX).)._.Q.h.v m l f f t t % $ & $ $ $ & & $ $ $ : t t : d d d c m x.h.I.8XfX    :.%X*X7.' X.4...X.~ E E 9 9 9 9 9 9 9 9 9 9 9 9 L 9 8 8 9 9 9 8 8 6 6 6 6 6 6 6 q q 6 6 6 6 , , , , , < , , , , , , , , , , , , 2 2 , , 4 4 6 6 ) o.+.@.@.9.%X3XvXNXbXL.UXJXzXZXxX^.eXpX.XXXXXXX",
" XXXXX X X X X.X^././././././././.A.A.A././.A.Z.A.A.B.C.rXxX|.  a.kXBX:X1X5X6XNX4X7.$.) ! Z W S 9 7 6 6 4 6 4 4 4 4 4 4 , , , , , , , , , 6 6 8 7 8 8 8 9 9 0 9 7 7 2 2 2 2 , , , , 2 2 2 2 2 6 , , 6 8 8 9 Z E E ~ Q Q X.' ~ @.>.0.J.8.;.O O E.I.I.D.b.j.d.n c g f d d t % % % % $ % t d d h g N B N N N N K d.h.n.~.~.rXy   o =XBX%X[.$.Z `  . .^ E E 9 0 q q q q 6 , , , , , 4 4 , , , , , , , , , , , , , , , , , , , , , , , < , 6 q 7 8 8 6 6 4 , , , , , , 2 6 7 9 9 9 ^ ^ ^ ` W ] 8.J.:X>XkXO p fXJXKXmX XZ.l.A./..X XXX X/././././././..X/.A.Z.Z.U.U.A.A.C.C.S.l.B.B.l.l.l.u.V.(.Y.  y sXfXBX{.J.1X&X#Xw.O.! ( 0 9 W 9 9 7 7 9 8 6 6 6 6 6 6 6 6 6 6 6 7 7 6 6 6 6 6 2 , , , 6 2 , , 2 4 4 6 6 6 6 6 6 6 , , , , , , , , , , , , , , , 8 6 0 0 9 8 , 0 *.*._ 1.:.G.AXJX8X~._.)._.m.v n z g f d t : $ $ $ $ & & & $ $ $ $ : : % d d f v j.f.j.x.(.I.  . D :X3X[.>.>.9.5...{ E E 9 9 7 8 9 9 9 9 9 9 9 9 9 9 9 9 9 9 9 8 8 q q 6 8 6 6 6 6 , , , , , , , , , , , , , , , , , , , , , , , , 2 , , , 4 6 8 O.] +.+.+.q.<X3XdXVXK.L.AXJXhXMXiX^. XpXpXeXXXpX",
"XXpXpX X.X X.X/./././.A.A.A.~.~.A.A.Z.A././.Z.Z./.Z.C.^.hXxX^.X i R.L.$XvXvXNXNX4X9.9.=.! Z ! W W Z 9 8 6 6 , , 4 4 4 6 6 4 , , , , 6 6 6 6 6 7 8 9 7 7 8 8 0 0 7 7 6 6 6 2 , , , , , 6 6 6 6 6 8 6 6 9 L E Z 9 Q ~ Q ' @.~ ~ 9.w.[.[.<.8.= . x I.~.~.b.x.h.y.b c z g d d t t t t % % % C C d g v N B N n n d.f.m.b.b.~.v.X     8.NX%X[.#.Z ^ o.o.^ E 9 0 8 6 6 6 6 6 , , , , , , , , , , , , , , , , , , , , , , , , , , , , , , < , 6 q 6 6 6 q 6 , , , , , , , 6 7 0 9 Z W o.^ W ! ^ <.w.0.J.aXM.  F jXLXLXhXrXY.B.A..X.X XXX.X/.A.A./.A.A././.U.A.A.A.U././.A.A.U.C.l.l.B.l.H i.i.I.|.P.@ ; wX-X=XL.;X1X1X{.8.[ [ ) 7 0 ) 9 9 9 9 9 7 6 6 6 6 6 6 6 6 6 6 6 7 7 8 6 6 6 6 6 4 , 6 6 6 , , 2 6 6 6 6 6 6 6 4 6 , , , , , , , < , , , , , , 2 8 6 9 0 9 8 6 ) <.-.w :.:.s.qXzX~.~.).).~.b.H n c l f d d t % $ $ & & & & $ % % % d d t d d g m j.j.b.D.I.y   . w J.$X0.>.5.9.X...{ E L 9 9 8 8 9 9 9 9 9 9 9 9 9 9 9 9 9 9 9 8 8 6 6 6 6 6 6 6 , , , , , , , , , , , , , , , , , , < , , , , , , , , , , , 6 8 $.o.+. .X.9.&X3XBXBX%.7XPXSXxXZXgX8X8XeXeXpXiXpX",
"pXXXXX.X.X.X X/.Z./././.Z.Z.A./.A.A.A.A.A.A.Z.Z..X/.Z.l.9XrX(.y @ u 1 H.NXNXNX5X&X7.7.] Z 7 W E Z 9 7 8 6 6 6 6 6 6 6 6 6 6 6 6 6 2 6 6 , 6 8 7 9 9 7 7 8 8 8 0 0 8 6 2 6 6 , , , , , 2 2 6 6 2 0 8 8 9 W ^ W Z Q Q Q  .@.~ ' 9.'.[.[.8.J.e . p D.~.~.b.b.x.y.b m c g f d - % $ t % % % % % C h v v v n v m H d.f.~.I.~.y     o L.dX[.0.<.] o.$.^ W 9 9 8 6 , 4 , , , , , , , , , , , , , , , , , , , , , , , , , , , , , , , < , , , 6 6 6 2 6 6 2 , , 4 , , , , 6 8 7 9 Z W o.] ) O.$.7.0.8.J.=XO . }.PXKXCX8XiX^.Z.A..X.XXXeX^./.A.A././././.A.A.A.A.A.A.U.U.C.C.A.C.l.l.B.S.V.V.v.V.9X7Xt.  G.=XF.K.dXdX1X$X7.O.O.) 0 A ) 9 9 9 9 9 9 6 6 6 4 4 6 6 6 4 4 4 6 6 6 6 6 2 , , 4 6 6 8 6 , 2 6 6 6 6 6 6 6 6 6 6 , , , , , , , , , , , , , , 2 2 6 9 9 9 0 0 O.8.1._ *.%.F a.rX8X_._._._.m.n m g f d t t : % & % $ $ $ % % % : d M c g l g c n f.n.c.n.b @     w 1.8.$.` X.,.| | ~ L L 9 9 8 7 9 9 9 9 9 9 9 9 9 L 9 9 9 9 9 8 6 2 , , , , , , , , , , , 4 , , , < , , , , , , , , , , , , 2 2 , 2 , , , , 6 8 ) o.+.@.5.w.&X3XVXF.:.jXJXuXgXnXxX(..XrX XeXcXpX",
".X/..X X.X/./.Z.A./././.Z.Z.A.~.Z.A.A.A.Z.B.Z.A././.C.B. XrX|.V.@ u < D 3XNXNXNX<X<.O.W W 9 W Q Z 9 9 9 9 9 9 0 8 8 q 8 8 8 8 6 6 6 2 2 , 6 8 7 9 9 9 9 8 8 8 8 q 8 6 6 6 4 4 4 , , 4 6 6 6 6 4 8 8 8 9 W ^ / E E E ~  ... . .,.q.[.w.[.K.:.. r c.I.~.b.b.h.H x z c g f d - $ $ t % % % % % C d M v v c c c n H j._.).v.X   @ s.dX2X[.8.=.] W Q W 9 8 8 6 4 , , 6 , , , , , , 4 , , , < < , , , , , , , , , , , , , , , , , , < < < , 6 6 2 2 6 6 2 , 6 q 4 , , , 2 6 6 9 E W ) $.O.r.7.7.8.0.$X%.. u kXKXLXfXrXrXU.B.A..X^. XXX/.A.Z.A././.A.A.A.Z.A.A.Z.Z.A.A.A.C.A.U.C.C.U.Y.^.I.v.v.9XuXR.@ r T.L.=XaXdX3X&Xw.O.( ( W ^ ) 9 Z 9 9 Z 9 7 8 8 6 6 6 6 6 6 4 4 8 8 6 6 6 6 4 4 6 6 6 q 6 2 6 8 7 8 8 6 6 6 6 6 6 2 , , , , , , , , , , , , , 2 2 2 9 8 0 0 8 ) 1.1.1.;.%.&.F I.tX~.n._.).m.m c l h d d d d : & % % % % % : d d j m c c m m n d.h.n.c.u.* X   1 ;.H.1.[ ` ~ ..@.Q E L L 9 9 8 9 9 9 9 9 9 9 9 9 9 E 9 9 9 9 9 6 6 , , , , , , , , , , , 4 4 , , < < , , , , , , , , , , , 2 6 6 2 2 6 2 , , 6 0 W o.$.+.7.+X<XNX>X1 -XIXnXI.rXiXiX9XU. XiXXX.XXX",
"XXXXeX XZ.Z./.A././.A.Z.Z.A.Z.Z.B.Z.A.A.B.l.S.A.Z.Z.l.Z.^.eX|.8Xp + %.q ] &XNXNXvX'.+.! o.! ^ ^ ` ` ^ W W 0 0 8 0 0 9 9 9 8 8 6 6 6 6 2 , 2 6 7 9 9 9 9 7 8 8 9 q 6 2 2 6 6 4 4 , 4 6 6 6 6 6 6 0 9 7 9 9 Z Z Z E E ~  ...,.@.' 7.*X'.$X[.L.o o u.I.I.b.b.g.b x z c g g f d t t % $ % % % % C d h j M c M c n d.n.I.(.x   X o -XdX$X0.*.O.O.W ^ W 9 8 8 6 4 , 4 q 6 4 , , , , , , , , < < < , , , , , , , , , , 2 6 6 6 2 , , < < < , 2 6 2 2 6 , , 6 0 0 6 , , 6 7 7 7 W W ^ ] @.^ o.=.8.0.0.$Xo O p.SXKXZXY.gX XV.Z.U. X^..X.XA.Z.Z.A./.A.Z.Z.A.A.A.A.Z.Z.Z.U.U.C.C.A.C.Z.U.U.U.I.I.V.Y.9X|.a.  p.G.L.8.;X3X%X#X-.9 W ) ) ) W W W W W E 9 9 9 9 9 0 0 0 8 8 8 9 7 9 8 8 6 6 6 6 6 8 q 6 6 6 8 9 7 8 8 6 8 6 6 6 2 , , , , , , < , , , , , , , 7 6 9 8 0 0 6 9 <.<.8.;.%.M.p p ~.~.Q.`._.n.H c m l g g l l f d t t : % : d d d g j f g c m m n j.g.c.z     . &.{.H.[ ! ` ^ ~ ~ E E L L 9 8 8 0 9 9 9 7 9 9 9 9 9 L 9 9 8 9 8 6 6 6 , , , 6 6 6 , , , , 4 , , , < < < , , , , , , , , , , 2 6 6 2 6 6 2 , , 6 0 Z o. .` 5.w.&XNX%.u fXPXqXi.9X9X XU.U. XeXiXpX.X",
"iXcXpX.X/././.Z././.U.Z.Z.A.Z.l.v.Z.A.B.l.B.Z.Z.B.l.Z.C.V.8XgX|.E.+ u p.3 -.vXNXNX4X9.~ ` +.] ] ` ] ) 0 0 w 0 q 6 9 E Z 9 9 8 6 8 6 6 8 8 6 7 9 Z 9 9 9 7 7 7 9 6 6 6 6 6 2 , , , , , , , , 2 6 0 9 9 Z W ^ W 9 E Q { X...5.5.X.7.&X&X&X:X%X%.  i 7XI.c.n.n.n m n v M g h d - - - - % % % % C h M n c j n N N b.n._.v.@     r aX:X[.7.<.$.] ^ Q Z 9 9 9 7 6 6 6 2 6 7 8 6 , , , , , , , , , , , , , , , , , , , , , , 2 2 2 , < , , 2 , 4 6 6 6 6 6 6 0 8 6 4 6 9 7 9 E o.#.@.' ' >.5.#.8.8.$Xw . p qXJXKX|.rXiX^.B.Z./.^.^..X.XA.Z.S.B.Z.A.U.A.U.U.U.A.A.Z.A.U./.A.Z.Z.C.C.C.A.Y.U.C.I.V.rXuX(.i . p.G.;.K.;X:X%X0.O.! ) A 9 ) ^ ! W W E 9 9 9 9 9 9 L 9 9 9 9 P 0 0 8 8 8 8 0 9 8 9 P 8 8 8 8 9 Z 9 7 9 7 6 7 2 6 6 6 6 6 4 , , , , , , , 2 6 8 7 7 7 6 6 7 0 ) 1.1.1.1.F.p.r V.I.c.~.).~.m.n Y c c m z f f d t % % % % % d d j j g g c z c Y Y b.y.X X   o L.{.1.[ ) ^ o.+.| E E E 9 9 7 6 6 6 6 6 7 8 8 9 L 9 9 9 9 9 9 8 6 6 , , , 6 6 6 q 6 6 , , , , 6 4 3 4 4 , 4 , 4 , 4 4 4 , , , , , 2 6 q q 4 4 0 _ ^ Z  .9.#.w.vXF.O R.AXZXY.|.rXrX^.A.A.XXiXiXpXpX",
"iXiXeX/.A.A.A.A././.A.Z.Z.A.Z.B.Z.A.A.B.l.B.Z.B.B.B.B.C.I.8XgX9X|.s.X F &.w $XNXNX3X'.X.' ] [ $.+.` W 7 q q q 8 Z Q ~ Q E 9 9 8 8 8 6 8 8 8 9 Z W E Z 9 7 9 9 9 7 7 6 6 2 2 , , , < < < , , , 6 8 7 7 7 9 W E 9 9 E ~ | X.4.4.X.+.#X&X&X3X3XJ.. = a.I.I.n.b.d.d.d.n m l g h d - - $ % % % % C h z g c n N R f.h.b.~.x     o M.yX:XJ.7.$.o.` ^ Q Z 9 9 7 7 6 6 6 7 7 9 9 7 6 2 , 6 6 6 6 2 , , 6 , , , , , , , , , , , , 2 2 , , 4 6 8 6 6 8 0 q 8 6 6 8 8 6 6 8 Z E E W ^ +.@. . .| @.#.0.K.;.O o a.SXKXnX8XgXrXU.V.Z./.^. X X/.Z.S.l.B.A.A.U.U././././.A.Z.Z.A.C.Z.V.C.A.A.U.U.I.C.C.S.V.8XiX9XE.r 1 &.F.F.;X:X%XJ.$.! ! ! W ) ^ ^ W W E E E W 9 9 9 9 9 9 9 E P 0 0 9 L E E E L 9 E W L 9 L 9 7 Z 9 7 9 7 6 7 7 6 6 8 6 6 4 , , , , , , , 2 6 8 7 7 7 8 8 7 9 ( <.8.0.H.{.L.F t.I.I.I.~.~.m.n m l z c z g f t $ & & % & d c v N N c g z z x b g.x.y     . u {.J.<._ ! ` +.@.| ~ ~ E 9 9 7 8 6 2 2 2 6 8 8 9 L L L 9 9 9 8 8 8 q 6 6 6 6 q q q 0 0 q 6 6 8 q 6 6 6 6 6 6 6 6 4 4 4 4 4 , , 4 4 2 6 q q q q I ) E E +.#.#X1X=XO s.fXHXrX(.8XhXeX/./.^. XeXpXpXpX",
"XXXX.XZ.Z.Z.Z.A./.U.A.A.Z.Z.Z.Z.Z.Z.Z.v.l.B.B.l.v.Z.C.C.U. XiXiX(.Y.+ + p.e %.dXNX5X*X>.Q S ! ] ' Q 9 8 6 4 6 8 ` X.X.| ~ E E L 9 8 8 8 8 9 L W ^ W 9 9 8 9 9 9 9 7 7 2 2 2 2 2 , , , , , , , 2 6 8 8 8 9 W E Z E Z ~ X.X...4.X.o.>.w.9.*X3X;X< . p u.~.n.h.j.d.n v M g h h d - - - % - % % d g n g m h.f.f.m.j.n.D.@     e ,X>X$Xw.=.$.$.` Q Q Z Z 9 9 7 6 6 6 8 9 9 9 0 8 8 8 8 6 6 6 4 4 4 6 2 , , , 6 6 , , 6 6 6 6 6 6 6 6 2 6 7 8 7 9 9 9 Z 9 7 7 7 7 9 Z E W / W / ^  . . .@.>.J.0.$X5 . r qXKXKX9XuXxX XC.U././.^.eX9XU.Z.S.S.A./.U.A./././././.A.B.B.C.Z.Z.A././.U.U.Y.U.U.U.l.C.^.uXuX8XP.. u &.;.{.;X1X%X7.! ! ] ) ) ] ! E E E E E W W E Z 9 9 9 9 E 9 9 Z E E E E E Q E Q ~ E E Q E E W E Z W Z 7 9 9 7 7 7 8 6 6 6 6 6 6 , , , 6 6 7 7 0 7 7 0 A W 7 [ <.0.J.$X}.:.r G Z.I.~.Q.h.d.c g g g f f d $ & & & * & h N f.f.N m c c b b y.x.x X     1 G.{.0.[ A W ^ o. .~ { ~ E 9 9 7 8 q 2 2 6 6 8 8 9 9 E E E 9 9 8 9 9 9 9 8 8 7 9 9 9 Z Z 9 7 7 9 9 9 6 6 6 8 8 8 8 6 8 8 6 6 6 8 8 8 7 9 0 I 0 0 P W ^ +. .7.#X:Xw 1 }.AXAX(.9XuXhX^.U..X X X.X.X.X/.",
"/././.Z.A.Z.Z.A./.U.A.A.Z.B.B.Z.Z.Z.v.l.B.B.B.l.l.U././.U.U.eXhX(.(.v.X &.&.3 {.3XNX4X9.! 9 Z 9 S S 9 9 8 6 8 7 ,.3.3.X.' ~ Q E W 9 9 9 9 9 E ^ o.^ W E E E E E W Z 9 7 6 6 6 , 6 , , , < , , , 6 6 6 8 9 W W E E E ~ X.X...4.@.+.` q.*X<XdX2XD   @ p c.n.n.m.f.v c M g g g f d d - - C C d h M d.v n h.f.j.m.h.I.T       p.yX=XJ.7.#.#.>.+.Q S E Z 9 9 9 8 6 8 6 8 7 9 9 9 9 9 8 8 8 6 6 6 6 8 6 6 6 6 6 6 6 6 0 7 8 8 6 8 7 7 6 7 9 9 9 Z S Z W E 9 9 9 Z W ^ W ^ ^ ^ ^ ^  .+.$.7.0.$XJ.;.o O a.CXKXAX9XzXiXU./.^./.U.^.eX9X/.A.Z.Z././.A.A.U././.^./.A.Z.Z.U.Z.A.U.U.A.Z.Z.C.C.U.U.l.C.I.9XhXqX8Xi O e %.L.{.:X:X[.$.! ^ ] o.o.^ E Z Z 9 9 Z $.o.^ ! E 9 9 E E E E E E E E Q ' Q ' | ~ ~ ' ~ ^ ` ^ / ~ W 9 9 Z Z Z 0 0 8 6 6 6 6 6 6 , , 6 6 6 8 q 7 7 9 W ) A _ <.0.{.;X>XF.1 + x I.~.n.N f.z f d t % t - * & & & * & j d.f.f.v v H n b y.u.g.>   X   &.}.{.0.-.) ] o.@.@.' { ~ Q E 9 9 7 7 6 2 6 7 7 8 9 E W W W 9 9 7 9 Z Z 9 9 7 9 9 9 9 9 9 9 9 9 9 L Z 7 7 7 9 9 9 9 7 9 9 9 9 9 9 9 9 9 0 0 I I P P W Q +.9.#X$X1.. &.hXLXgX7XuXnXiX^.^. XeXXXXXXX.X.X",
"^..X/.A.A.A.Z.A.U.A.A.A.Z.B.B.Z.A.B.l.l.S.B.S.l.B./.U./.U.C.|.rXeXU.(.r ; W.u q &XvX3X%X>.Z A 9 E Q / W L E E ~ 4.5.5.,.| | { ^ / W W E E E Q ~ @.X. .` { `  .` Q ^ ! Z 9 9 8 , 6 6 , , < , , , 6 6 6 8 9 E E E E E ~ X.X.X.2.,.7.+.9.<X4XvXvX;X. . # b I.~.n.b.f.d.n m m c l g - % % - - C h M n n c v d.f.j.n.v.@ X . 1 =X>X=X0.7.$.#.7.$.^ E E E 9 9 9 8 8 8 8 8 7 7 9 9 9 9 9 9 0 7 8 8 8 9 7 8 8 7 9 9 9 9 0 0 9 8 8 9 0 9 E Q ~ Q Q ~ ~ Q / Q E E E Q ^ ^ ^ ^  .o.o.+.+.$.7.=.J.J.K.< o 1 fXLXHXgXgXnX9X/.^..X^./..X X.X/./.A.A./.U.C.Z.A.^.^././.A.A.A./.Z.Z.A.A.Z.B.B.Z.l.A.Z.V.B.Z.^.iXuXrXwX. 1 w 1.H.{.:X&X0.] ^ ` #.@. .Q E E E E E #.#.@.o.^ / W Q ` ~ ~ ~ ~ ~ ' ' X.| X.X.| ' | |  .+. .`  .~ E E W W W W A 8 6 q 6 6 6 6 , , 6 6 6 6 6 6 6 8 0 A 0 A -.<.[.%X1X{.%.. @ u.I.n.n n z d t : % t d $ % $ & % % c f.f.f.M v d.n z y.u.x X   + 1 L.=XH.<._ A ! ` +. .Q ~ ~ E E L 9 0 7 7 6 7 7 9 9 9 E W / W W 9 9 9 W E E 9 9 9 E E E E E E E E E E W E E 9 9 E E E E 9 9 9 9 9 9 9 9 9 0 0 ( _ _ ) o.o.+.[.w.H.< 1 T.SXAXY.^.9XiX|.(..X.X.X.X.X.X.X.X",
"^.^./.Z.A.A.A./.Z.Z.Z.Z.Z.Z.Z.U.A.Z.l.S.S.S.B.Z.A.A.V.U./.U.U./.8XU.U.v.@ t.p.w 8.3XNX3XJ.) ) ) ^ o.o.! W o.4.4.5.6.6.3... .o.o.{ ~ ~ ~ ~ ~ ~ | @.X.| |  . .+. .~ ` ^ Q E L 9 6 8 6 , , , , , 6 0 8 8 9 9 E E E E E ~ | ' | ..X.5.' Q '.#X3XNXNX< . + x D.~.Q.~.b.j.n m c l h d % % % % % % h j c N M j f.x.x.I.f   + 1 :.aX;X%X8.#.o.o.$.o.^ / E E Z 9 9 8 8 8 9 9 9 9 9 9 7 7 9 9 9 9 7 7 9 9 9 9 9 9 9 Z 9 9 9 9 0 9 9 0 W W ^ ^ o.] ^ ^ ^ Q ^ ^ ^ W ! ^ ^ ^  .{  .o.#.#.$.$.=.0.H.$X:.. o G.FXKXDXuXnXhX.X X(..X/.^. X.X/./.^././././././.^././././.A.A.A./././././.U.A.A./.U.^.U.^.U./.^.rXgXrXrXF O u w 1.J.:X3X%X9.` ` @.>.+.~ ~ / / / / `  .o.^ ^ ^ ^ / ^ ~ ~ ~ ~ | | X.,....... .|  . . .@.@. .X. ./ ^ ! W W W A 6 6 6 6 6 , , , , , 6 6 6 6 , , , 6 q , 2 0 ( [.%X1X{.;.=   ; c.I.h.d.y.z f f f f k f - % C h g n f.f.f.v v d.n y.g.i.#   + r %.{.K.1._ Z 7 S / ~ ~ E E E E E L 9 0 7 7 7 7 9 9 9 9 E E Q / Q E E Z E / W E E E W W W W W W W E E E / ! W E E E E E E L L P W P P P 9 W W W _ ) ) O.=.7.7.0.J.3 o &.kXFXzX^.eXxXrX|. XeX X XeXeX X.X/.",
"/./.A.B.Z.C.A.A.Z.Z.Z.Z.Z.Z.A.U.A.B.S.B.B.B.Z.U./.Y.U.|..X/.Y.V.^./.I.(.r a p.F.-.:X3XNX1X7.=.} } =.O.W ) r.e.5.5.6.6.5... .o.o.o.{ {  . .{  .@.@. .~ Q ~ ~ { ^ ~  . ./ W W L 8 8 6 , , , , 2 6 W 9 9 9 E W E E E E ~ ~ ~ X.X.| ' ' Q 5.#X3XNXvX1.o o y c.I._._.m.f.n c l g h d C % % % % C h j n N N n j.b.c.g.@ X r &.K.>X{.J.=.o.^ o.o.` ~ / E Z 9 9 9 8 8 8 9 9 9 9 9 9 9 7 9 9 Z Z 9 9 9 9 E E E E E W W W W W W W P P W W W ^ ) ) ) ) ) W ) ) ) ^ ) ) ) )  .{ { o.o.+.$.#.=.J.H.K.o O r jXKXKXmXnXZXiXeXeX X.X/.(. X.X/./.^..X.X^.^..X.X X^.^././././././.^.^.^..X.X^..X.X X X.X X X X.X9XiXuX9X7X+ 1 1 %.J.:X3X3X#X>.~ +.>.+.` ~ ^ ~ / / Q ^ ^ W E W W E W W W / ^ ^  . .5.@.@.@.` ^ ^ ^ ~  .@. . .' / ` ! W W W 0 2 , 6 , , , , , , , 6 , 6 6 , , , 2 6 6 q 7 ! &X4X3X%XF.%.o + y.n.b.h.g.b z z f f f z % % h c v v f.k.f.v n n H c.c.x   + u &.L.{.H.<.] S W `  . . .~ E E L 9 9 9 8 7 7 7 9 9 9 9 L E Q ~ Q ~ Q Q Q Q ^ / / E / / / / / / / ^ / E / ) ) ) W W W W W P W ( ( ( ( ( ( W ) ^ W W W ) o.#.<.w.[.J.o + a.AXZX9XeXhXnX9X X.XU.A.^.XXeX.X/./.",
"A.^./.C.Z.C.Z.B.Z.Z.Z.B.Z.A.A.A.C.S.S.B.C.C.U.|..X.X XeXeX X|./. X.X(.Y.a.X &.F.;.$X1XNXvXJ.7._ ( O.} P ) 7.e.@.4.5.5.4. .^ ^ ) o.}  . . . .+.>.7.@.^ E L E / / / `  ./ E W W 9 0 q 2 , , , 2 6 9 8 6 9 E E E E E ~ ' ~ ~ ..,.|  .>.' Q '.4XNXdX2Xo   r u.n._.~.m.f.n v m n m c h d d d d d g v f.N f.f.d.c.x.y   r u p.>X$XJ.<.] ^ ^ o.o.^ E E E 9 9 9 9 8 8 8 9 7 8 7 9 Z Z 9 E W ! ! ! ! ! ! W W W W W W W W W W W W 9 8 8 9 6 0 ) _ } } } _ [ } [ _ _ } [ } +. . .o.o.o.#.=.0.8.J.%.. 1 a.HXKXDXzXFXZXxXxXeX X X/./.9X X.X.X^..X.X.X^..X X X X.X.X X.X.X^.^././.^..X.X.X.X.X X^..X XrX9XeX9XpXrXuXgXF . u e F.$X3X3X<X9.` $.>.o.^ / / W E E o.o.o.! E E E 9 W W / ^ ) } o.o.=.$.$.O.^ W W E E {  .^ ~ E Z E Q W W W 9 , , , , , , , , , , , , 6 6 6 6 6 q q q 0 6 ! 4X3X3X$XJ.F.e r u.y.j.h.b y t f t % t f % % g n v j N k.N n N v n n.u.@ X i :.M.;X{.J.<.! S Q ^ ^ ~ ~ E E E 9 9 8 8 8 8 7 7 7 9 9 9 L E ~ ~ E E Q ~ Q Q / / / E / / ^ ^ ^ ^ ) } } ) } O.O.} } } [ ) ) ( _ ) } _ _ _ _ _ P 9 9 9 9 W o.=.w.[.1X< . r rXJXhX8XhXZXnXrX9X|.^./.^.|..X/./.^.",
"U./.U.A.Z.Z.Z.Z.Z.Z.B.l.B.A.A.A.B.B.A.C.Y.A.^.^..X.X XeXuXeX X|. XuX XY.9Xp . L.F.=X:X3X3X:X=.=._ -.-.P P o.5.7.X.q.5. . . .^ } } ) ( ) } O.$.#.8.=.) W ( W P P 9 E ^ ^ W 9 9 W 8 8 6 , 6 6 , , 8 8 L W E 9 E E E ~ ~ ~ | | | X.>. . . .5.<XNX3XvX1.  . x ~.).~.n.h.d.d.d.n m n g h h h h g g c B N m.f.h.n.g.  X s.p.=X>X$X8.] Q / / / ^ ~ E 9 E E 9 9 9 9 9 9 9 9 9 E E 9 Z ~ W E ^ E ) W ^ ^ Z E E W W W W W W W W W 0 0 0 0 8 W _ _ ( ( ) ) O.O.O.) ) _ [ O. . .+.@.$.$.=.7.J.1.{.3 . i fXKXKXZXZXDXmXxXxXeX X.X.XeX XU.^. X^..X.X^..X X X.X X.X.XXXeX.X X X/./.^. X.X/. X.X|.|.|. X9X9X9XeXrXxXgXgXE.  u 5 %.J.:X&X3X#X` $.7.$.) W W ! W E ) ^ ! W W W 9 9 W } } ) } ^ E W =.W ) $.8 9 P 8 E  .o. .Q 9 9 ^ o.W Z W W 8 2 6 6 , , 6 2 , , , 6 6 6 , , , , , , , < ! %X3X3X&XJ.J.&.i P.g.h.h.Y b f t - t t f % f d v f.j k.k.v n n H h.n.x   r W.;.}.:X$X0.<.] W Q ` ^ ~ ~ E E E 9 8 8 8 8 9 9 9 9 9 9 9 9 E E ~ / E E / ` ` ) o.} } o.) ) O.O.} } O.O.} } $.) ) [ O.) ( W P _ ( ( _ ( ( ( P W W 0 W ) ) ] <.0.$XK.. = t.ZXFXrX9XxXnXgXeX|. X X|. X9XXX.X^.A.",
"/./.A.A.A.A.A.Z.Z.Z.B.Z.Z.A.A.C.B.B.A./.^.^.|. X.X|.|. X9XeX9X X^.rXuX^.wX7Xo u L.=X1XJ.:X%XJ.=.-.*._ _ ) ) 7.'.9.q.9.X.@.#.#.e.8.=.) ) } ) O.#.7.O.W ) } } } _ ) ^ E 8 9 W ) P 0 0 q 6 6 6 6 6 9 8 9 E L E W E E ~ ~ ~ | | ' | 5.@...` @.*X5XNX3X2XO . ; (.(.8Xn.m.h.h.d.n c g j g d % % d M n f.k.m.n.c.D.#   r p.=X>X;X[.0.<.$.$.+. .^ ~ E 9 E E 9 9 9 8 8 8 9 9 9 9 9 E E Q / ` +.W E 9 ^ ) W W ! W W 0 0 0 P P 0 0 0 0 0 8 0 W ) W W W ) [ O.[ ) [ O.O.$.O.5.7.7.=.$.=.8.8.8.:X1.. = E.HXKXZXnXZXFXZXZXnXpXeXeX X(.U.^.9X.XS.^. X.X.X X X.XeX X.XXX9X X X^.eX X/. X X X X^. X X9XeXpXeXrXeXpXZXzXrX7Xr + u e ;.$X$X&X%X7.$.7.$.) 9 9 W ) ) ) W 0 9 0 W ( _ } O.O.-.=.$.] O.7.) ) O.8 0 ( 9 9 9 9 / } W L ^ W ! ! W 9 6 , 2 , , < , < < , 6 6 6 6 , , , , , < , , W 9.&X3X<X$XJ.G.i V.g.c.h.d.y.z f f t t t - % % v k.N m.f.v N K d.n.v.# X &.M.K.$X$Xw.<.] W 9 E ^ / ~ ^ ~ E E 9 9 9 9 L L E Z E E E E ~ ~ ~  .+. .^ ^ ` ] o. .^ ^ o.o.o.=.o.O.$.#.O.o.O.=.) ) ) ) ) ) _ ( W 9 0 A 0 A W 0 ( ( _ [ $.O.-.8.8.{.%.o 1 |.HXAXgX9XnXnX9XuXgX9X9X X9X9X|.|.^.^.",
"|.^.Y.Y.Y.C.Z.Z.Z.B.B.C.A.C.C.C.Z.C.C.^.Y.Y.|.9X9XeX9X X8XeXrX9XY. XhXqXqXjXt.. G.=XaXJ.%XJ.J.H.H.8.7.7.$.] 7.9.5.5.@.` X.+.>.e.e.#.] o.$.o.o.#.<.+.^ ) ] ] ) ! 9 W ) ) _ _ ( P 0 0 0 0 q 8 0 0 9 9 9 E L E Q E Z E E Q ~ ~ ~ | >.>...' ' 5.&X5X5XdXH.o   i.rX~.n.b.f.N n n n v j j j h h g c n f.b.b.n.D.x.  @ F M.aX1X$X0.0.7.o.+. .^ / / W E 9 9 9 9 9 9 9 9 9 W W 9 Z Q ^ Q Q  .#.^ W E ^ ^ ( ( ( ( 0 0 0 ( ( ( ( ( ( I 0 0 9 ! ^ ) ) ] ] ] $.$.$.$.$.$.$.$.$.=.=.O.-.8.H.8.H.;.3 . p.AXKXKXnXZXZXZXnXZXmXiXiXiXrX9X|.|. X^.C..X.X/./..X X.X/.U./. X X.X.XZ./.9XeX9X X X9XeXuXeXeXeXrXrXuXuXgXgXzXgXuXs.  &.u %.H.K.0.J.w.7.<.=.-._ _ _ ( ( _ ( 0 0 0 A ( _ [ ) ) O.=.] W ) <.] ) [ 9 [ O.( 0 0 P ) } W W O.9 W W 9 6 6 6 6 6 6 6 , , < , 6 6 , 2 , , , , , 4 4 9 ! X.+X3X4X%X$X=Xs.s.x.h.x.g.y.b z f f d t d % & n d.f.m.R v d.d.j.~.u.  ; :.;.;X:X#X7.<.$.! E W ^ Q Q / Q / ~ E E E L E L E E E E E ~ {  .~  .+.+.` ^ ] ] +.@. . .$.$.$.>.^ o.#.#.#.$.=.7.#.$.O.$.<.<.#.O.=.[ O.] ) ) ] ) _ _ _ _ -.-.8.H.H.=Xo . a.nXHXDXzXhXnXhXiXgXiX9XuXeXeX9X|.|.^.^.",
"/.Y.U.Y.U.V.Z.Z.Z.B.Z.U.U.C.B.C.B.Z.Z.|.^.|.^. X|. X X|.|. X8X8XY.P.uXjXuXqXwXo u L.aX;X{.J.8.F.8.J.:X:X#X%X&X'.w.[.'.w.w.9.9.'.[.w.w.[.#X'.w.'.#X[.'.'.'.w.0.0.<.*.( D 0 q 0 ( I ( W P 0 9 0 E E 9 9 W E E E E 9 E E E ~ ~ ~ '  ...X.| ' | q.3X5XNXdXO o + (.n.n.n.h.d.N d.f.N v v n v j c n K k.f.b.c.~.y   r u L.aX:X[.7.7.#.^  .` / E E E E E 9 9 9 9 9 9 L E W W E E Q ~ Q Q o.#.o.#.=.$.W [ _ _ _ _ _ _ _ ( _ _ _ _ _ _ _ ) ] O.O.O.O.O.[ -.<.<.<.-.=.7.0.8.8.-.-.8.H.F.;.;.L.< u kXKXLXnXnXZXSXnXmXZXmXhXxXiXeX9X|.^. X|.|..X/.Z.Z././.A.Z.U.^. X.X/..XZ.A. X X.X X|..X X|. X9XeXrXuXrXrXiX|.nXDXjXR.. + p.&.;.oXH.H.8.8.8.H.{.K.H.8.;.*.%.*.-.;.-.-.;.;.-.=.<.8.0.<.=.7.w.0.0.0.-.8.=.[ ( _ _ [ *._ W ) ) ! 9 7 9 9 9 6 8 6 6 8 6 , , , 2 , , , , , , 6 q q 9 ` 4.'.4X<X&X%X=XL.i g.y.x.g.y.b z f f f f h d d d.M v f.N n d.d.h.I.y   p u F.1X1X#X9.7.>.o.^ ^ ^ Q Q Q E ^ ~ Q E E E E E E Z 9 E E /  . .~ {  .o.o.O.$.$.#.>.$.$.<.<.$.=.7.7.7.7.=.=.7.8.7.<.7.8.0.0.7.<.7.<.<.=.O.$.<.=.*.;.8.8.H.8.1.F.L.p.  u fXIXAXnXxXhXhXhXhXiXuXuXuX9X9X9X|.|.(.Y.",
"U.I.V.V.C.C.C.C.C.C.C.U.U.Z.Z.U.C.C.U.|.^.^.U.U.Y.^.^.|.|.|.|.8X|.R.9XnXgX8XfXt.. :.}.K.L.,XK.F.K.:XdXaX:X:X:XJ.8.$X:X:X1X3XvXNX3X3X3XvXvX5X3X5X3X3X3X3X3X3X3X3XaX;X8.*.*.*.%._ ( ( ( W 0 9 9 9 L 9 E / E E E E 9 E E E ~ ~ Q ~ ' X.X...,...q.4X6X6XNX8.  X x I.n.n.Q.n.m.m.f.v f.R n j g c n d.b.f.n.n.n.X + r u >X>X;X[.e.#.+.@.@.@.^ E E E E ^ / E L 9 L L E E 9 9 E E E E E / +.#.$.=.e.7.-.-.*.%.%.*.*.*.%.-.-.;.;.;.;.;.;.;.<.-.-.=.-.-.-.<.1.8.8.8.8.0.H.F.;.;.p.G.L.L.L.>Xe . yXHXLXJXZXCXZXnXhXnXnXhXhXuXiXeX9X|.(.|.U.(./.U.C.A.U.C.l.U.U.U./.A.A.(.U.U. X|.^.(.U.U./.^.|.|.|. X8X9X9XuX|.hXSXjXfXt.@ &.&.&.L.T.K.;.;.;.H.{.K.F.1.;.;.%.;.F.L.L.L.K.$X{.{.$X$X$X0.8.J.J.$X;X1X;X>X>X>X;XK.8.;.8.8.*.( -.) A W ! E 9 9 9 6 , , 6 6 , , 6 2 , , 4 4 6 6 q 9 9 @.q.].+X*X*X%XK.=X&.i G i.g.j.y.n c z k f f d h n d j N d.H H h.n.n.@ @ p w >X1X%Xw.w.e.o.o./ W ^ W ^ ^ E ~ ~ E E E E Q Q Q Q E ~ ~  .+.@.o. .} o.#.7.7.7.=.<.<.7.0.0.8.8.8.8.8.8.8.0.J.J.H.H.H.J.J.J.J.H.J.8.8.1.-.=.<.-.;.;.;.8.H.J.H.L.-X= 1 R.CXSXZXhXzXhXnXZXiXrXfX9XfXuXfXgXrX9X|.Y.",
"Y.U.V.B.C.Y.U.Z.C.C.A.Y.U.A.U.^.U.I.U.|.|.|.|. XhXgXgXxXxXhXhXnXjXnXjXAXDXAXjXfXo 1 &.u w w u w e u ;.;.;.F.K.L.=XaXaXaX>XaXaX2XdXaXdXvXNXvXNXNXvXvXvXvXdXdXdXdXdXaX=XF.:.;.*.( w 0 0 0 0 W W E L 9 E ^ E E E E 9 E E E / Q E ~ X.X.X.,.5.3.6.<X6X4XvX2Xo   y n.n.n.n.n.b.k.f.N N N v g g c c M n.n.n.~.x   ; r M.dX;X[.w.7.+.+.#.@.+.^ Q E E E / E L L L E / / W 9 9 E ^ / Q ~ ~ +.o.o.^ =.r.r.*.:.:.;.F.F.F.8.;.;.;.8.8.8.F.F.;.;.F.F.F.F.1.;.F.1.;.;.F.;.*.w 1 1 1 e e e u &.u   u jXKXKXCXZXDXAXAXFXJXFXDXZXDXnXhXgXrX7X7X(.I./.^.U.C.Z.C.Z.C.C.l.Z.U.U./.U.Y.|.|.|.^.U.^.|.uXiXgXhXhXzXnXnXAXjXjXSXCXfXi   1 p.p.p.F.F.M.F.;.F.L.F.;.:.:.;.F.F.K.K.L.L.K.K.=X;X,X>X=XL.H.K.K.=X,XaX>XaXyX0X0X=XF.:.:.;.1.8._ W W ] ) Z E ^ $.( 6 6 6 7 7 8 6 6 , , 6 6 6 6 6 Z Z >.].3.6.+X#X#X{.;XG.r G u.g.h.h.h.g.H z f g - - f d c d.d.y.H c.~.y.  # 1 ;.>X[.[.w.<.>.$.^ W E E 9 W / E E E E E E Q ~ { ~ ~ ~ ~  . .@.+.@.o.} o.=.7.7.=.8.F.F.F.H.H.H.L.F.;.;.%.%.%.u w %.%.u w w ( %.*.H.F.F.F.1.8.H.H.K.K.L.L.K.K.L.L.p.  i jXSXSXCXAXnXSXDXDXZXjXuXP.a.s.t.G i i.Y.7X",
"H v.I.C.C.U.Y.C.C.U././.U.U./.^.U.V.U.|.|.I.I.|.rX9X9XrXrX9X9XqXqXuXqXrXgXhX7XqX+ X r e e   . 1 O . . . o O 1 r 1 r r 1 = 1 1 < < = < < = O < = < = < = O O O O O O < O O < w ;.( 0 8 0 P ^ ) ^ / Q ^  .E E E ~ 9 E E E W E E Q  . .X...4.3.5.'.4X6X3X1XL.  X u.n.b.m.m.k.f.k.m.v v M j c n M C b.n.n.n.*   r &.,XdX%Xw.0.>.` +.`  ./ E E Q W E E E E E E / / ^ W E E ^ +.@.@.+.` @.o.o.W ) ( _ 5 w u %.:.;.;.:.;.;.F.F.F.H.H.L.G.G.G.G.G.M.s.&.1 1 1 1 1 1 O . 1 a + + o         . G.SXwXr * @ @ + x R.uXiXuXrXv.y @ + @   @ + G U.|./.V.U././.U./.V./.9X|.^.^.|.^.Y.^.U.l.i.u.G v.Y.8X9XqX9X7XS.p @ + ; +   @ X U &.e 1 e &.%.%.;.;.%.F %.%.%.:.:.&.%.F u u u u &.p.p.p.:.:.p.;.:.&.&.e 1 O O < O o O O O < _ _ _ ) ) ! W W ^ <.[ A 9 0 0 9 9 6 6 2 2 6 6 6 6 7 Z Q 6.].6.6.+X+Xw.$X>XT.F F t.u.g.x.c.h.d.b z g t t % h l n d.d.g.n.Z.$   ; r -X$Xw.[.'.+.` $.^ W W L 8 9 E Z E E ~ ~ ~ ~ { { ~ ~ ~ ~  . . .{  .o.} O.$.-._ 0 O < 1 O = O O + o O O O o o O o . . . . . . o O O O < 1 1 w %.%.;.M.F.F.;.%.1 a o + P.CXjXqX|.qXhXuXs.@ @ @ X                   ",
"  x I.U.B.Z.U.U.U./.|.^.Y.Y.^.^.^.V.^. XI.+                     X       X           F T.sXsXfXfXqX7XR.E.R.R.R.R.-XR.R.R.R.R.R.R.E.T.R.P.a.t.t.&.&.i i i t.t.t.t.s.&.p.L.p.1 O w ;.%.A 0 W ^ ^ ^  .|  . .E Z E ~ 9 E E E W E E E ~ ~ | ..3.3.3.6.<X6X5XvX1Xo . # c.c.b.n.n.k.k.m.d.n j h m K m h f.b.n.b   X u p.dX1X%X0.9.o.~  .~ ~ E E E E E L / / W W E L 9 9 9 E Q ^ @.5.5.@.@.#.$.7.O.*.q < ;.p.L.T.T.L.L.L.T.T.T.-X,X,X>X0X0X7XE.a.t.U i i r i &.s.a.W.E.R.a.a.a.a.a.a.t.i &.s.7X-Xa.t.; y +               X     + r p p + @ i.(.Y.U.|.|.C./.|.U.^. XU.V./.Y.Y.|.Y.i                           X       @ 1 i p.a.&.s.s.P.p.p.G.T.E.T.}.-XT.G.G.p.p.p.a.p.p.t.a.a.s.t.&.u u u r 1 r r u i U i i s.E.G.u < 3 H.8.O.W Q ^ ^ E ^ E 9 Z E Z 9 9 6 6 2 2 6 6 6 6 Q S | ].@X].@X6.+Xw.%X1X{.M.u s.u.d.j.g.g.d.y.H k f g % h d c d.j.c.v.c.X X 1 F aX;X%Xw.9.>.+.9 E W ^ 9 , 6 E E Q ~ | | | ~ ~ ~ ~ ~ ~ ~ |  .| { ^ } O.O.[ ( , O &.a.G.G.P.G.N.G.E.R.R.P.s.t.i i i i i i i i i u u r r r 1 1 r u 1 w u u F u U &.a.P.qXfXs.  .         .   o r 1 e 1 1 r p F i r ",
"# u.9X^.Z.Y.|.U.A. X|.C./.^.U.^.U.Y.^.Y.+ + a.R.p.s.&.&.;.:.%.F e u u + .   . O e G.p.-XIXPXLXKXKXLXHXAXSXSXAXFXHXHXHXJXLXLXLXKXLXLXLXHXSXCXzXCXjXgXzXZXSXZXSXAXAXSXAXCXE.a.u e F.J.) 9 9 9 o.} ~ X.@.~ E Q E / E L L L / ~ ~ ~ | ..5.q.6.6.6.6.].5X6XNXNXF..   t.Z.n.g.n.b.f.m.f.d.n z c y.j.g.n b.n.#   + r ,X>X1X%X'.7.+.`  . .| ~ L 9 E / ^ / E 9 9 7 9 7 7 9 9  . . .5.5.5.4.>.7.8.:.O O a.jXSXLXHXLXKXKXKXKXKXKXKXKXKXKXKXKXKXJXSXzXjXgXrXrXjXjXjXSXHXJXLXJXCXDXAXCXzXCXjXwXa.G.kXjXjXjXfXfXwXR.E.a.s.s.s.a.a.P.wXsXqXR.t.@ x |.|././..X/.C..X^.|.|././.U.^.U.8Xp   t.R.0X7X-XT.T.T.G.G.W.p.T.T.p.u u p.-X0Xp.T.yXjXAXHXLXPXPXPXPXHXHXAXCXSXjXkXfXhXjXCXnXjXCXAXAXSXCXCXCXCXCXCXCXCXCXCXCXCXCXSXkX7XE.u o K.1Xw.5.9.9.q.+. .Q ~ E 9 9 9 7 7 6 2 2 6 6 8 9 Q ' ~ 6.+X6.6.,.3.*X4X2X;X=Xe p G x x.g.h.d.h.H z g f d d f n f.b.c.v.y   . O L.;X%X[.w.<.` o.o.9 E W Z 8 6 9 Q | | | ~ ~ ~ | |  .~ ~ ~ | ..2.X.{ o.W -.M.5 1 E.jXSXCXAXHXHXLXKXLXKXKXJXCXgX8X7X(.8X8X8X8X8XlXfXrXqXwXwXqXqXqXqXsX0XkXkXjXCXjXjXjXE.R.qX7X0XE.L.G.G.G.G.K.=X,X,X=X=X0XsXkXsXT.u ",
"p V.uXuX^.C..X^.^. X.XA./.U.I.U.^.^.Y.r . E.kX0XyXaXaX>XaX2X1X;XK.,X>X=XF.:.;.M.K.>X-XG.SXKXKXLXJXLXKXKXKXLXLXKXKXKXKXKXKXKXKXKXKXKXKXLXJXJXJXLXLXJXLXKXKXKXKXKXJXKXLXDXi @ 1 p.>X$X0.! ! E #.o. ...4.| ~ | ~ ~ / E L E / ~ ~ ~ ' | ..3.3.3.3.3.6.+X3XNX3X;X< . ; u.x.y.j.b.m.b.n c g f z H d.d.x.n.g.X X   p.,X$X#X'.9.X.~ ^  .X.X.| ~ E Q / W L 9 9 7 7 9 7 9 W E  .| X.5.5.5.4.#.=.-.e O &.fXKXJXfXhXhXfXrXrXrXqXqXrXrXrXrXqXrXgXlXtXrXzXJXLXLXJXJXKXJXzXrXrXrXgXzXLXKXKXKXLXi @ G.kXPXPXHXPXKXPXIXSXCXBXUXjXjXkXCXSXSXBXs.t.G G 9X8X^. X9X X X X|.|. X|..X^.|.^.U.X + yXkXyX-X}.K.K.T.K.L.G.M.T.-X=X}.T.T.=X0X;.p.BXLXKXJXKXKXKXKXKXLXLXJXJXLXJXLXLXJXJXLXLXJXLXLXLXLXLXKXKXKXKXKXKXKXKXKXKXKXLXKXhXx r &.< ;.dX<X5.5.4.5.6.6.2.2. .~ ~ E Z Z 7 6 2 6 0 P W  .| Q 5.].6.6.3.,.9.#X:X$X=X:.r i b u.n.j.f.h.b.c l h f g m d.j.j.b.u.+     w {.[.J.9.7.>.^ ^ E 9 A W Z 9 Z E Q ~ ' | ~ ~ ~ ~ ~ ~ ~ ~ ~ | ..4.4. .} [ H.:.o t.CXKXLXKXKXKXLXZXgXrXrXrXrX8X8XrXxXDXFXFXJXLXLXKXLXKXKXLXLXJXJXLXLXKXKXPXKXPXKXLXKXR.@ t.0X0X>X,XoXK.K.L.H.L.K.L.J.{.=X=X,X>X0XT.u ",
"p v.rXxX8XB.XX XeXeXXX X|.|.^.Y.Y.Y.V.X r ,X-XF.L.$X=X;XaXBXVXVXvXBXVXVXNXNXBXBXaXaX=Xu P.SXAXhX9X8X7XR.I.I.(.(.Y.I.I.I.I.I.D.v.I.I.I.I.n.n.I.I.n.I.(.8X8X8X(.V.v.P.P.(.>   r s.dX>X%X7.] o.$.+. .2.5.X.' ..| ~ E E E E E E E E ~ Q ~ | 3.3.3.3.6.6.4X5X3X%X-..   i g.y.n f.m.h.f.n c c H j.h.c.v.z.y   X X T.=XJ.[.w.>.` Q E ~  .X. .~ Q E L 9 9 9 9 9 9 Z Z Z W E @...2.q.6.5.4.7.r.( O + R.HXJXrXT x.u.T x.u.b x b u.v.n.n.v.u.v.I.D.I.).tXtX8X8X(.(.(.I.c.n.v.I.I.(.8X8XfXP.    &.CXPXKXSXGXSXBXBXBXBXBXBXBXkXkXjXsX-X=Xe &.|.t.V.hXiX8X XrXpX X^.|.|.^..X|.|.|.u.X s.yXG.%.p.:.%.;.F.F.F.p.F.L.K.T.}.=X>XaXyXL.u T.fXfXrX8X(.R.R.R.Y.I.I.(.I.I.(.(.(.Y.I.I.I.I.I.I.I.I.I.Y.(.(.OX(.(.(.7X8X7XwXfX7X+   i 1 3 2X3X+Xq.5.2.5.q.4.5.4...@.` Q ^ ! 9 6 6 8 L W ~ ' ~ 6.+X6.6.3.3.4.#X%X$X=XL.e r x x b.j.d.j.n.d.n c c n j.h.j.j.n.y       ;.;XJ.0.<.<.>.` ^ 9 9 9 9 Z W W E Q ~ | X.| ~ ~ ' | ~ ~ ~ ~ ~ ..4.5.>.$.*.8.1 e 7XKXFX|.Y.R.P.v.u.u.u.y.g.v.c.x.I.tXtXtXtXgXxXxXgXrX8X8X8X9XqXrXfXgX(.R.wXrXgXfXjX7X.   &.F.p.F.H.;.8.8.1.1.8.8.;.1.;.;.%.w w ;.;.w ",
"y G Y.uXrX^. XeXeX X XXX|.|.^.I.I.(.p   G.=XF.K.K.J.H.J.2XNXNXvXNXvXNXBXNXNXNXdXNXaX,XL.1 wXZX9X8X8X(.I.v.c.x.x.x.g.u.g.g.u.y.b y.y.y.y.y.Y b b y.y.y.g.c.v.x.b x T u.v.g.@ X O ,XdX:XJ.! o./ #.~ ..5.X.| ,.X.' Q E E E 9 Z E E Q Q ~ | 3.3.3.6.5.6.*X3X3X#X=X<   # u.u.b R h.R d.n c m n H d.h.v.u.@     &.,X{.[.[.w.9.@.` ^ ^  . . .{ / E 9 9 9 9 9 9 7 9 9 Z 9 E @.4.4.5.5.9.>.0.=.5 o s.UXKXgXx.D.(.I.n.I.x.n.v.x.c.v.v.x.g.u.u.g.x.b.b.x.d.g.v.n.v.I.(.)._.v.v.I.I.(.8X7X+ X r R.SXGXT.T.&.;.:.%.u u u e e %.%.%.F.F.K.F.O P.R.G rXgXiXrXeXuX|.^.|.U.U..X|.I.Y.@ X 7X7X:.F.F.;.;.F.{.;X;X=X{.;X>X,X=XK.=X2X>XT.%.O &.a.(.I.(.I.I.I.I.n.n.~.n.x.x.c.c.c.g.y.b b b x x x l f x x y y y y x x y i i x r X O e w J.vX3X+Xq.5.5.5.4.6.5.2.@.` E ` ! Z 7 6 8 9 E Z Q ' 6.@X6.6.6.3.4.'.%X$X{.}.&.p t.k x.n.b.n.~.n.b.h.j.h.c.x.h.n.c.@     e L.;X{.w.>.+.o.^ W 9 8 6 8 9 W W E E ~  . .| ~ ~ | |  . . .' X.2.5.7.7.=.*.%.O W.CXKXrXv.u.v.x.u.y.c.n.c.c.n.n.c.c.D.b.c.h.n.~.~.D.g.b b T y.y.u.u.v.u.x (.8XqXrXqX+   e %.;.8.$X0.0.8.1.-.-.1.-.*.-.-.;.;.*.%.:.;.%.",
"i i u.Y.uXuX|.eXrX X9XeX X|.^.C.Y.(.X o =XL.{.#XJ.0.8.[.1X3X3X3X3X:X3X3X3X3X3X%X:X:X=X0Xu s.gX8X(.(._.~.I.Z.n.x.b.x.h.x.c.x.g.y.u.u.y.y.d.y.y.b g.d.g.g.g.c.g.x y.T g.u.I.y   . &.dX1X%X$.! E =.E  .5.X.| ,.| | ' ~ ~ ~ E E E E E Q ' X...3.3.6.3.5.5.<X<X%X:X;.    y u.g.j.h.j.d.n m m m m y.g.c.y     + -X-XJ.J.'.w.9.>.+.+.+. . .' ~ / W L 9 9 9 7 8 8 9 7 Z E E @.@.2.5.5.5.#.w.*.o 1 wXLXLX(.c._._.~.D.D.g.n.c.g.Y b m z f y t f d.m.f.R d.d.H y.x.c.g.g.g.c.I.c.(.I.(.r   p E.SXPXkX:.K.L.H.H.;.%.%.%.%.*.w :.;.$X$XH.$X3 u wXa.Y.gXhXuXiXiX|.|..X|.|. X9XrXY.  p 7XG.p.F.8.;.*.;.H.K.{.J.H.H.F.F.8.-.*.8.{.H.;.o r i E.8X(.~.I._._.~.~._.~.n.b.b.b.b.h.d.y.b Y b b b l f x x k k z x x x u.x y y x #   o :.$XNX6X#X+Xq.q.6.6.q.5.X.X.~ E Q S 9 9 8 8 9 E E Q ~ X.3.3.6.q.X...9.w.%X{.$XF.u t.x b b.b.~.~.n.n.n.c.c.c.x.g.D.y     . ;.{.{.J.7.` Q W 9 9 8 6 , 6 9 E E E E ~ | | ~ E ~ ' | @.@. . .@.5.5.5.=.=.-.%.1 -XJXLXv.I.n.c.v.c.c.y.g.g.y.y.d.d.g.j.b.h.d.n.~.n.b.y.y.y.y.y.y.b y.g.Y d.I.8XI.8Xx   e :.1.J.J.8.<.%X<.<.=.=.<.<.<.8.1.8.J.H.1.%.%.*.",
"t.i i i.9XhX XeXpXrXpXrX8X8X|.Y.8Xu.  &.{.;.#X<.[.w.e.0.w.w.9.w.9.7.w.'.'.#X#X#X#X:X%X>XL.r 7XrX(._.I.b.n.Q.~.~.b.h.f.j.j.d.n n y.H m b m n Y H m m g.x.c.c.y.k c.u.T u.n.g.    o =XaX2X%X) ) } W  .>.X.X.,.X.| ' ' ~ ~ Q E E E L Q { X.| | ,.3.3.X.5.w.#X&X$X{.=   @ x g.g.x.h.j.d.d.y.y.y.g.x.u.X     s.sX,XK.[.w.7.@. .`  . . .~ ~ Q W E 9 9 8 8 7 7 9 9 W ! @.~  . .4.9.5.#.7.H.5 . s.CXKXzX(.tXn.n.n.h.j.j.Y m c z c c m c % d d.~.~.m.f.m.h.n n g.d.y.j.n.n.~.c.I.I.u.X t.7XBXGXGX;.M.;.$XK.$X8._ [ *.-.8.-.-.;.H.2X$XJ.1.e N.7XR.ZXZXrXxXxXeXXX9XeXrX9X9XuXr   P.}.:.F.:.;.*.[ *.=.7.<.=.-.*._ _ *.*.-.8.8.F.;.e o r i I.(._._._._._.~.Q.b.m.m.k.d.N N N d.y.Y n Y n b m y.m z z b b b b x k u.z x p @   w ;XVXNX4X+Xq.+X6.5.6...' | ' ~ Q Q E 9 9 8 9 9 E E E E ~ | 3.6.3...>.7.%X%X$XK.F t.u.x u.c.~.~.n.~.~.n.c.c.c.c.g.X     e F.;XJ.7.<.! Q Q Z E 9 6 4 8 Z E Z Z E ~  .{ ~ ~ ~ | |  . . . .2.5.5.$.=.r.:.1 u fXKXCX~.8XI.g.v.c.b.y.y.j.h.g.d.d.d.j.h.h.h.Q._.Q.n.j.Y n Y g.g.y.g.n.Y b.~._.(.v.@ u =X;.F.{.%X0.e.7.7.7.7.<.8.0.0.J.[.$X$X$XJ.*.D *.",
"&.&.p G P.uXiXeXrXuXuXeX X X X(.9X+ . L.F.;.#Xw.w.w.7.7.7.>.>.>.$.$.+.$.+.>.7.q.w.#X$X$X=X&.s.OXI._._.~.~.Q.Z.n.m.f.K n m c M M m c g f f g g l m l c m m H y.b b y.y.c.u.g.r X   &.;X2X2X=.] E ^ /  .X.4.5.,.X.' ' ~ ~ ~ E E 9 9 E { | ' ' X.5.5.| q.4.w.%X#X{.:.O   r u.y.g.h.j.g.g.g.g.c.g.u.#     + -X>X;X[.J.e.@.' ~ ~ / / ~ E E E E 9 8 8 8 8 8 9 9 E ^ ] #.'  .@.4.9.7.=.8.8.< = 7XJXJX8X).8Xx.n.n.d.n c z g d d f g h d f c j.Q.Q.m.b.Q.N K h.b.h.m.n.b.~.~._.I.(.* + P.kXSXPXyXF.H.8.8.:X2X%XJ.0.H.0.J.#X#X:X2XdX%X0.{.u &.wXY.gXFXzXiXnXiXiXiXiXiX9XeXqX  a R.p.u ;.%.-.*.O.$.$.O.o.] ] O.O.O.$.[ _ -.1.H.;.%.+ r y i.~.~._._._.~.n.m.k.f.f.f.N n N n n n m m n n n n n n m m n n n m b z b l $ y y o . ;.dXNX5X<X'.q.6.3.3.X.| ,.X.| ~ ~ / E 9 8 8 8 8 8 9 E ~ X.,.3.6...>.>.w.#X[.{.G.s.a.t.u.I.~.).~.~.~.n.b.n.n.b.t     O :.K.$XJ.9.7.` ` ] ^ ) W 8 6 8 W W E Z E ~ ^ | { | | | ~ / ~ ^  .@.#.#.O.-.;.%.o p.SXKX9X).~.c.c.h.d.y.m n d.j.h.j.d.R R k.h.f.n.~.Q.Q.b.m.d.f.j.g.y.y.x.f.n._.I.(.# . G.L.F.{.J.0.>.9.@.e.w.w.7.8.0.0.8.0.J.$X;X%X8.( _ ",
"&.&.u i G |.hX9XuXiXiXrX8X9X9X9XR.X r T.8.0.7.0.9.e.7.7.7.7.$.! Z S S ! o.`  .@.q.7.$X$X=XT.u a.I._.(.~.~.Q.Z.n.k.f.K n v M j c l g g g f g g g m c m n n n n c Y b y.c.x.c.i.    . :.=XJ.=.) W W 9 Q | 3.6.3.,.| ' ~ ~ ~ ~ E 9 E E ~ { ' | 4.6.3.5.4.q.7.%X%XJ.L.e   + T u.y.x.c.c.c.c.n.I.v.u.  X   &.aXK.J.0.e.7. .~ `  . .~ ~ E E E E 9 8 6 6 6 6 6 8 9 ! ` Q Q @.5.4.7.7.7.8.;.o u jXKXDX~.8Xg.b.x.Y c m f z f d d l c g t d m f.b.Q.Q.Q.b.k.f.b.n.f.h.n.n.~.I.~.(.y.X t.R.SXPXBX;.%.-.8.=.O.0.w.7.0.0.8.w.[.0.J.%X:X$XJ.8.p.1 P.7XE.hXzXzXhXxXnXhXhXgXeXhXx   p.T.%.:.*._ O.O.$.=.#.o.o.o.o.o.^ ^ O.$.O.-.=.<.;.1.u o p u.c.n.~.~.~.n.b.k.k.N v v v N K m n n n n N n n n n n n n n n m m m m f l y y p @ . < $XNXNX4X*X6.6.6.6.3.3.6.,.' ~ ~ ~ E 9 8 9 9 8 6 9 E  .>.4.5.X.Q ,.` +.w.w.J.K.&.t.t.b ~.n._.~._.~.n.n.n.n.v.  X   e M.{.J.[.w.7.` ` ` ^ ) W 0 8 8 W W W 9 Z ~ / ~ ' | | ' Q ~ {  .+.@.#.=.=.=.%.w 1 7XHXKXrX~.f.n.h.H c.d.j n g g N j.f.f.m.k.f.B k.n.m.Q.Q.b.k.f.m.h.d.d.c.R j.c.I.t.X r -XF.;X[.w.7.>.`  .W $.#.O.$.<.<.-.-.<.<.8.J.8.*.*.",
"&.:.u e F t.gXeXiXrXxXrXiX9XuXzXr   G.G.;.K.7.7.7.#.o.] ) ! ! ! _ ( W W L W / ~ @.9.w.J.>X=Xu r t.I.(.)._.n.~.n.j.j.h.d.m m n n m m j g c v c j n m m N K n c c m m n g.x.g.u.x   . + F.H.{.=.O.) ) +.5.6.6.6.3.X.X.| | |  .Q 7 9 W  .~ ~ ' ,.6.4.5.5.5.7.#X*X0.8.F.. . + x u.y.I.I.I.I.(.n.I.@     + =XK.H.0.7.e.5. .'  . .~ ~ ~ Q E E W W 9 8 8 9 8 6 8 Z E 9  .4.4.#.#.7.=.r.F.e O P.HXLXgX_.n.b.h.y.c m m g g g f h d d t t h h N f.m.m.k.Q.f.n K h.f.m.n.b._.).(.(.$ X p qXIXGXsX8., W 7.=.O.o.) ) ) O.O.) ) [ ) _ =.<.*.*.L.w u 7XP.uXzXxXhXnXzXzXgXuXuXi.  + -X:.%.%._ [ ) o.o. .`  . .o. .` ^ ` o.#.#.#.O.8.1.1.M.O i u.I.c.c.n.n.c.f.f.n n v v m m v c c v v c v n n v n v v n d.f.f.f.Y y.Y z f y y i   O ;.2XNX3X+X+X6.6.q.6.5.5.4.X.X.~ E L L L 9 8 0 4 6 E ^ ~ ..9.4.X. ...+.7.w.0.J.L.&.i t.I.~.~._.~.~.n.~.v.D.*   . O F 1.J.0.'.w.5.~ E ^ E 9 W 8 6 8 7 9 9 9 9 9 Q { ~ ' |  .{  . . .$.#.r.=.-.;.;.o a.UXLXAX(.n.n.b.h.d.d.n j j j c v N R f.f.K v v B k.m.m.m.b.f.N f.f.d.j.b.d.b.c.V.i   u L.,X2X:XJ.o.+.~ / W ) 9 7 ! W W ( 0 0 A ( _ *.*.*.",
"%.:.;.e F s.Y.hXuXgXiXgXrXuXhXY.  p T.%.;.1.<.o.o.^ W W ^ W W Z ( I P 0 9 9 9 7 W $.8.8.J.K.;.1 r u.I.~.~.~.~.n.h.j.f.j.K H H n v v c c c m c c g f g j M g h f f f z b g.x.g.u.+   o &.=X{.8.) =.O.+.5.].].6.6.3.3.X.| | ~ / E 9 ^ +. .~ ~ | | 4.3.4.4.5.w.w.w.8.8.e . O y u.u.I.~.I.I.I.I.y   + a p.=XH.<.7.w.9.4. .' ~ ~ ~ ~ ~ Q E E E E 9 8 9 8 8 8 9 9 9 E @.9.7.@.#.7.7.;.H.O 1 kXJXLX(.).c.h.d.c d f f - d d d d d d d d h h N k.m.k.B f.K v m N n f.b.b.~._.).I.X   i jXGXIXdXH.} O.#.O.o.} ) ^ ) o.o.) W ) ) [ =.-.*.1.F.F.1 P.P.7XzXzXZXgXnXnXhXuXqXX   L.=X&.%.%.-.=.=.$.$.+. .' ' ~  .' ~ ^ o.$.+.o.o.<.8.8.p.u i a.I.c.c.n.n.c.d.H m v v c M M z c c v v v v n n v N N N N N R R N d.d.y.m z k x p   . 1 =XvX3X<X'.q.q.'.q.q.q.q.4.@. .~ E E L 9 8 8 4 6 9 E E  .>.4.X.| @.@.#.9.0.J.{.G.s.t.u.I.n.~.~.I._.I.I.T @   O u ;.8.8.0.q.9.>.~ Q ~ W 9 9 8 8 6 7 9 9 9 7 9 E ~ ~ |  . .~  . . .o.#.=.=.*.:.w u 7XFXLXrX~.x.j.f.f.N N v g j j c v v v n N N v B f.k.k.f.f.k.N N f.f.d.j.b.x.c.v.a.X . F {.2XdX2Xw.o.^ ^ / W ] 9 7 W W W A A 0 A A ( <._ [ ",
"*.:.F.%.u s.a.zXhXgXxXiXhXuXfX;   T.L.%.H.-.O.) ! Z 9 0 W ( W P q q 0 0 0 0 8 7 9 W $.<.=.J.L.e + x v.n.I.~.n.h.h.m c c l h h d d h g h d d d d d d d h h d h f d h g z b u.g.x.u.@   o L.H.J.$.) W 9 ' 6.6.,.3.3.3.X.X. .^ ^ ] 8 E  . .~ ~ | | | ' ~ | ..@.5.q.7.<.;.<   + x u.n.I.~.D.I.v.  @ r F }.H.J.7.9.9.9.4... .~ ~ ~ ' ~ Q E E E 9 9 8 9 6 8 9 E 9 E ^ @.7.7.#.O.=.-.F.%.  P.SXLXzXI.Z.y.n m g t d f % d d t t t t t d h h N f.k.R V B N v n K N f.b.n.~.n.~.H   X P.SXGXBXaX8.-.O.o.o.} } ) ^ ) o.o.) W ^ ) [ O._ [ 8.H.K.F u -XE.hXnXgXhXzXxXuXrX;   i kXF.*.;.-.*.=.=.$.@.@.@.+. .+. . .`  . .+.+. .+.=.8.8.;.M.u N.P.v.z.z.c.x.d.n m c c l g h f k c v n n v n N N N N N N N N N n d.d.n n b y.y.b #   o ;.>XdX<Xq.q.q.9.6.6.q.6...X.| E L L 9 9 8 6 4 4 6 8 9 E ~ @.X.X.4.9.7.e.#X0.J.K.G.s.x ~._.).)._.).(.I.# X . e F.8.8.=.q.9.4.,.~ E E E 9 9 0 0 9 9 E E Z Z E ~ | | X.....X. . .o.$.=.=.-.*.%.< a.CXKXZXI.b.K N N N v v c g j j c j j g j c v v B f.k.f.B B B B N f.h.j.h.n.c.i.I.p   O ;.>XdX2X%X#.} W } W ) ) 9 9 0 0 P 0 0 0 0 0 _ _ _ [ ",
"*.-.1.M.&.t.R.uXhXxXxXxXfXCXa.  &.,X;.L.K.8.( ) ) A 8 q 0 W W W 4 4 q 0 I 0 0 0 9 7 A <.<.8.K.;.i x x.n.I.~.c.j.h.m j j h - t - d g g f d d d t - d d h d d h g h g g k z b y.g.n.y     e F.H.8.-.o.~ ,.].6.3.3.6.3.X.X.` Q Q ^ 6 9 Q Q ~ ~ | X.| X.| X.4.4.4.q.7.7.1.%.  @ r u.n.n.(.I.Y.r   x r M.;X8.0.9.9.,.5.4... .~ Q Q ' ~ Q E Z Z 9 9 9 8 8 9 Z E E ^ +.@.5.7.<.O._ *.F.1 1 fXHXJX8X).g.m c c g f f f - d d - % % - t t d C M B B R B k.N N f.h.h.h.b.n.~.I.Z.# X 1 sXIXVXdX;X-.O.O.} ) } } } ^ ^ } ] ^ ^ ^ ! ) ) _ [ -.;.;.;.< E.E.qXnXrXzXnXuXjXs.  + 0XdX:.F.H.-.A ] ^ / ~  .+. . . .X. . . .@.@.+.+.@.>.7.8.:.F.u s.a.g.g.g.g.g.g.y.c l l f t - - h g c v v c c v v v v v v v v v v n n n m y.g.c.c.y.  @ e L.2X&X#X'.q.9.5.4.5.5.4.| ~ E 9 9 9 8 8 4 4 4 4 4 8 9 9 E Q Q  .5.5.7.w.#X$X;XL.G.s.n.). XtX8X(.rXT   + = ;.K.8.<.#.4.5.6.5.X.E E ^ ! W 9 9 E W Q / ~ ~ ' | | ~ | ....X. . . .O.=.-.-.%.u u qXLXJX).c.d.n n N N v v v g j j j j g h g g j j M B K K B f.f.B B k.m.m.b.n.v.i.V.@   e K.dXNX&X7.W ^ ^ ^ L ) ) 8 8 0 8 0 8 8 0 7 9 [ , O.[ ",
"-.*.-.F.p.F E.uXgXhXxXgXjXqXX . ,XT.:.,X{.<.A 7 A 0 q q 0 0 0 0 8 8 0 0 q q q q q 7 2 [ -.-.F.F.N.y.g.n.~.~.b.n.f.n n m g h h d h f g f f f d t % t d d d d h h d h g k k c y.g.x.u.+ X o F.J.J.=.#.>.q.+X6.3.3.6.3.X.| / Z 7 7 9 E E E Q ~ | X.| 3.3.4.6.6.5.q.+X'.7.H.< . + u.P.I.(.R.P.  # t.&.}.;XJ.0.>.4.X.4...X.{ ~ E Q ~ Q Q S Z 9 9 9 9 9 9 9 9 E ` @.@.@.7.7.=.=.*.*.:.O N.CXKXxX~.~.d.m z g f d d d % % % % % % % d d C C j v B f.R k.N K d.f.h.h.m.n.D._.y.  X &.BXGXNXaXw.=.o.O.O.E } } } ^ ^ ^ ^ ^ ! ^ ! W ) -.-._ _ 0 :.%.u E.R.hXhXhXgXhXR.X X t.BX}.1.$XJ.=.S +.o.^ ^  . .` ^ `  . . . .@.@.@.+.@.7.7.<.-.;.%.&.i b u.u.g.g.g.y.z g f d - & $ t d d g g h h h g g g j M M v v v c m n n Y j.b.b.b.> X o %.>XdX<X'.w.q.7.>.5.5.@... .Q L 9 8 8 6 , 4 4 , , 6 7 7 9 / E E +.@.+.#.#X%X;X}.-XR.u.).8XtX8X8X9X+ X + F K.H.<.7.9.,.5.6.5.X.Q E E W E 7 9 9 Z E Q Q Q | | | ~ ~ X...X. . .^ o.=.-.*.%.e G.AXLXgXc.h.n n n d.d.n m v g M g h h f f h d h h h v f.k.k.f.k.f.f.k.m.h.x.c.n.v.r   o ;.$XdXdX#X^ ^ ^ ^ L W ^ W 8 8 8 6 0 6 7 9 9 9 W ] 7.<.",
"$.) *.:.F.F &.fXnXgXhXgXZXr   s.aXH.K.:XH._ ( 2 7 q 0 0 0 0 0 8 L L P 0 0 q q q , 0 6 q *.-.1.F.R.v.v.n.I.~.n.n.d.K f.N g d d % d d d % t t % $ $ - t t d d d d d h g k k z m Y g.x.y   . ;.;X:X=.+.4.q.q.5.3.3.4...' ~ Q Z 7 6 9 E / ~ ~ | X.X.| 3.5.3.5.6.6.q.<X*Xw.H.%.o + x P.(.R.(.i   r r T.=XH.[.w.>.,.4.5.4... .~ ~ ~ ' Q Q E Z Z Z E E E W W E Q +.@.X.X.7.7.o.-.8.%.1 u fXKXDXn.c.c n m M g f d h g d d C C C C d d d d C j M B B B N N K n n d.d.m.n.~.~.#   1 ,XSXBXdX1X<.$.! ) } E ^  . .^ / / Q E Q ! ! S ( <.8.[ O.( *.;.1 t.Y.8XhXuXhXgX@ X + sXBX1.J.{.8.<.] ` `  . . .` ^ ^ ^ / / ~ ^  . . .X. .5.7.=.7.*.;.u # y x y.u.y.y.b z f d t $ & & - d d d h d d d h h h h h h h j j d g c m n n d.d.c.x.@   1 K.BX3X9.7.9.7.@.>.@. . .| / E 9 9 8 8 , 4 4 4 4 6 9 9 ^ o. .~ o.#.+. .q.'.[.{.-XwXu.c. X8XtXgXz.  @ a F.=X0.<.9.q.3.6.3.3.X.~ ~ E 9 8 9 9 Z Z Z Z Z S | X.| ' | X...X.2.@.o.#.=.-.:.%.u sXKXZXn.I.f.n n n n n m m v h f d C : d d d % d d h v f.k.k.R f.B B f.f.j.h.c.I.u.    u F.;X2X%X7.Z ` / W 9 ) W 9 6 9 8 6 9 6 9 8 ! Z 7 4X*X'.",
"#.) [ *.M.p.p 7XjXnXgXnXR.  + yX;XJ.;X%X<.S A A 6 q 0 q q q 8 8 9 9 9 9 0 w w w 6 q 0 6 D -.-.F.E.I.D.D.I.n.n.b.m.k.k.n h d d d h h h d : t t t t t t : t h h d d h f f k k c m j.x.b X   e {.2X[.7.9.+X+X6.6.6.X.X.' Q E E Z 7 8 9 E ~ ' X.X.X.X.3.6.6.6.q.+X].*X<X*X0.F.u X r v.R.R.E.@ @ r &.,XK.-.0.w.q.4.6.5.4... . .~ ' ' Q Q Q E E E E E W W E /  .+.X.` X.5.$.) *.;.%.e -XHXLX7Xy.y.c m n c v v c c c j g g h d d d h h d - g j M B v B N H m c d.f.m.~.~.b   X G.BXBXdX1X[.] ! W W W ^ ^ ^ ^ / E E E Z S S W S A =.8.=.<.) -.:.F a V.V.rXuXZXa.  @ s.GXaX{.$XH.<.$.$.S Z Q ~ E 9 E W E E E E Q ~  . . . .@.5.=.r.*.;.&.+ # y x y.b b b z f t d t $ $ % f d d f d d d d h h d d C C d h C d g c n d.d.Y x.D.x @ . %.1X3X0.0.7.7.>.7.5. .~ / E E 9 9 9 q 4 , 4 6 6 8 7 9 W W ^ ^ ^  .o.{ 5.'.J.K.T.R.v.f ~.9XrXrX#   + i =X{.0.0.q.q.6.6.6.6.3.,... .W E 9 Z W E E E E E ' X...X...3.4.4.5.5.7.7.8.1.*.%.G.AXJX9Xc.n.N N m c m c c c l d d : % % : t : % C C h j v B R R B B B N f.j.c.n.n.#   + p.F.:X&X0. .Z ~ ` / W o.W 9 6 9 8 8 W 7 9 7 ^ E S 4X3X#X",
"#.] ) -.;.L.F s.qXAXAXfX@   s.kXF.{.%X$X[ S 7 ] 7 0 q , < , 2 6 7 7 9 9 q q q q 0 , 0 q 0 *.*.M.a.E.P.I.D.n.~.b.f.f.n d & C g f d f f d % % t t t t : $ % d h d - d d f g l m n Y g.y.r   o ;.>X%X7.7.'.q.6.6.3..... .Q E E Z 9 9 Z E E ~ ' | | X.X.3.6.6.6.@X].+X4X<X[.J.L.. + u.a.(.a.  + r E.=X8.8.7.e.q.5.6.5.2. . .{ ~ ~ ~ ~ ~ Q Q E E E E E 9 E  .@.+. .' >.#.$.$.*.%.&.p.SXPX8Xx u.d.n g N N d.f.N v M d h h C C C d d h d % d C h v v B v n c c d.j.h.n.c.@ X + sXBXdX2X#X$.$.] $.W 8 W W ^ ^ E Z Z 9 9 Z 7 S A 7 ] 7.7.[ ) _ %.&.1 F N.Y.hXqX;   o sXIXK.1X2X[.<.7 ] S Q  .+.E 9 E W E E E E E ~  . . .X...5.7.=.=.;.:.r # # y x x x b b f f f t % $ % f d t d d : % : d d d d C C d d h g g m d.m.b.m.m.D._.y   O %.2XJ.0.7.$.$.5.5. . .^ ^ E 9 9 6 6 6 , 4 6 q 6 8 Z ! Z ^ o./ W  .^ ` e.w.H.L.T.wXx u.tXrXI.X   + G.>XJ.J.w.q.q.+X6.@X6.3..... ./ W 9 Z W Q E E Q ~ ~ | ,.,.4.4.4.4.5.5.7.7.8.;.%.u lXLXCXn.).c n R m M M M g l g : : : % % % % % % % % % C h M B R B v v n d.h.n.I.b     s.p.K.%X&Xe. .~ Q @. . .Q W 9 8 E 9 9 W 9 W 9 Q Q Q >.5Xq.",
"0.O.O.=.*.1.F.u R.CXSXi   a kX=X8.$X[.8.) 7 Z 9 9 A 0 2 < , 2 2 6 6 6 6 8 q q q 0 0 0 0 0 D *.;.F.T.E.a.(.b.~.n.K n c l l g h d d d t $ $ - t % % t t % % t t % % C h h g g l c m y.u.x   . 1 }.2X8.<.9.9.5.5.5.>.+. .W 9 9 9 6 9 S Q E Q ~ ~ E ~ | | ..3.6.6.6.5.#X<X#X'.[.*.. r v.I.@ + u &.aX:X#Xe.7.5.5.5.4...| ~ E E Z E ~ E Q E E E / Q E E ~  .2.2.@.@.@.5.9.$._ :.&.u qXKXjXr b y.x z z n v N k.N M j h h C % % C h h h d d % d j h M k.N v v h.d.h.n.~.l X   a.GXBX;X1X<.[ ^ ) O.[ ( 9 E ] } E 8 8 8 8 7 8 7 A A W -.0.=._ _ *.;.F 1 p.N.wXG     s.IXBX>X2X:X8.[ ) Z Z 9 E W E E E Q W Z Z 9 Z Q {  .@.X.4.9.9.7.=.-.;.&.O r ; p x z z z m g d f % & t % % C d - % % % d d f d d C C C f h v n v !.).`.`._.~.I.#   O G.2XJ.8.7.@.@.@.^  .^ / E 9 9 8 6 6 6 6 6 6 6 q 9 9 W W / ` ^ E W W 7.0.8.H.L.-XwXa.^.|.@   + &.sX=X[.0.9.9.6.6.3.3.3.X.| ' ~ E E 9 Z Z Z Z 9 E E ~ ' | X..... .'  .` $.=.*.;.u a.DXLX(.~.c.x.R v v M v v M f d d d % % % % % % $ & & % f M M v v k.N v n.d.g.n.x.@   1 F.H.[.&X#X4.4.........X.' ~ E 9 9 L E E 9 9 ^ ^ ^ `  .5.+X",
"&Xw.<.] [ 1.H.F.G.kXa.@   }.BX:.K.$X0.[ W Z ) ! 9 9 9 2 , , 2 2 2 6 6 8 8 7 q q q 0 0 0 0 ( *.-.F.F.E.E.c._.n.~.n.f.m k f f f h t t t % % % % $ % - % $ $ % % % & C g M j g g g z y.u.t.+   + N.aX[.7.w.w.5.5.5.~ E W W 9 9 E 9 7 Z E E E Q ~ Q E ~ | X.3.5.6.6.9.w.<X#X*X%XH.w   i > X i E.dXvX3X&Xw.7.>.>.2.@.@. .~ Q E E W ^ Q Q E E E ~ ~ ~ Q ' X.2.4.@.>.7.7.$.=.;.:.1 s.DXHXi.u.v.y x y.d c v R f.N j h h d d C d h h h d d d C d j c v B B v K h.m.n.~.n.*   + sXVX2X:XJ.$.) W W ) P 0 9 8 E W 9 6 6 8 6 q 8 q D A A [ 8.0.-._ _ ;.:.u u N.p     r kXPX0X>X2X$X<.[ ) W ^ E W W Z 9 Z Z Z Z Z 9 E / { | ..| 2.5.7.7.#.-.-.;.1 + + r T x b c n c h f d % t d % % d d % % % t t t : : % % % d C j v V Q.)._._._.).~.u.  @ i >X;XJ.0.7.7.5. . .^ ^ W 9 9 8 6 6 6 6 6 6 6 q 8 9 W E E ^ ~ E W ! 8.$XJ.%X;X=XyXP.t.X   i E.BX>X%X[.0.7.9.6.6.6.3.3.X.| ~ ~ W E 9 9 Z 9 9 9 E ~ ~ ~ | X...@.@.@.+.$.<.-.F.p.&.wXLXzXI.D.h.n m v N n n m v f d C : % % % % % $ $ t % % d c N N v f.j n d.x.c.I.p     %.F.[.w.#X5.....4.4.4.4.X.| | E E E 9 L E 9 E E ! ^  .X.9.&X",
"&X%X0.=.<.1.1.G.G.P.@   r BX-X;.K.J.<.[ -.=.=.] 9 9 7 6 , 2 2 2 , 6 6 8 7 7 q 6 8 0 0 ( ( ( [ *.8.M.G.E.T ~.n.~.n.m.H c g g f h t % % % % $ & & % - % $ & $ % $ & - g c M g h f z b b u.i   X u ;X;X0.7.9.>.@...~ E W ^ W E 9 9 9 Z E E E E / ~ ~ | | X.3.5.3.6.5.9.&X*X4X3X:XH.  +   @ a.kXGXdX3X4X#X9.5.>.@.@.@. .~ Q E E W ! E Q E E E ~ { { ~ ' X.2.@.@.#.7.7.O.<.-.e 1 R.KXfXy v.y.t f f f j N R N v g C C d d h g h h d d d d d h j N N v v j f.K b.n.I.x     p.GXdX{.%X=.O.! W W W 9 8 9 6 9 9 8 6 6 6 6 6 6 0 W A A _ =.8.0.-._ %.;.:.e s.@   X a.GXIXK.;X%X0.[ W 9 9 W ^ ^ ! E 9 9 9 7 Z Z Z E / ~ | X...2.5.5.5.=.=.-.;.u O + # x x y.z m v M z g d d h d % % d t % & t % % % C C C % d d h v f.!.`.`.`._._.~.(.@ X O L.>X$X0.q.7.4. . .^ / W L 9 8 6 6 6 6 6 6 6 6 8 9 W E E ~ / W ! ! 7.*X%X:X2X=XyXwX;   @ a.jXIX>X%X[.9.7.5.5.6.6.3.X.| ' ~ ~ W E 9 Z 9 9 9 9 / ~  .X.X.....@.@.>.$.$.-.-.F.&.G.DXJX8XI.x.R g g m R n v v M f C % % % % % $ $ $ % t % % d v f.N v f.M f.y.g.v.u.@   O ;.K.$X[.w.X.,.4.4.4.4...| ~ ~ E E E 9 L W E W E W o.$. .7.&X",
"J.[.w.8.8.1.;.M.G.1 X . T.kXw {.K.0.-.O.7.8.=.) 9 9 7 6 2 2 2 2 , 6 6 8 7 7 6 6 q 0 0 A A ( _ _ -.F.G.a.u.y._.~.m.h.f.d.n m g h d t : d t & & $ - t % $ $ $ $ & % t h g l g d t l b b v.u.@   O L.aX$X7.9.7.7.X.` E W ) ^ 9 9 9 9 9 9 E E E E ~ ~ | | | 3.3.3.5.5.5.'.<X3X3X2X,Xu     p R.BXBX2X3X&X+Xe.7.5.@... .~ E E Z 9 Z E Z Z 9 9 E / / ~ ' | X..... .$.$.7.<.=.%.o &.fXLXv.b y.y k t d m j d.N M j h s s C d g g g h d d d % h j v N f.v N v N n j.n.b.#   a sXGX>X{.0.O.O.^ W W W 0 0 0 8 9 9 6 6 6 6 4 6 6 7 A A 9 A ) <.J.8.*.%.;.G.&.r 1   1 yXPXBX}.>X$X8.[ ) W E W o.} ^ W Z Z Z 9 Z S E W / ~ ' | ....4.4.#.#.-.-.%.&.1 + > y b j.Y d.f.h.d.z h f f d % % % % $ & t % % % d d d d h g j v f.k.k.!.!.Q.Q.~.(.t.  . %.2X2X%X#Xq.7.@.o. .^ / E 9 9 9 7 7 8 8 6 6 8 8 9 E E E ~ ~ W ^ ^ ] w.&X:X2X=X0X-XX @ p 0XIXaX1X%X[.9.5.4.3.3.3.3.X.| ~ ~ W W E Z Z 9 9 9 9 Q ~  .X.....X.X.+.@.o.] *.;.M.p.fXKXgXI.~.d.M g c c n m M g g d : % % % t % $ & $ % $ % d v B B B B N N f.j.y.c.t   . u F.:X[.[.5.>.5.5.4...X.| X.X.~ ~ / / 9 E / / W 9 9 ) o.Q ` 9.",
"<.<.8.8.=.-.1.M.W.u a a.kXT.1.{.$X0.[ ! $.=.^ W 9 9 7 6 6 6 6 6 , 2 6 6 q 8 6 6 0 0 0 0 0 A ( _ *.F.F.s.a.x ~._.b.m.k.h.d.n c g g d d d d % % t % - % $ $ $ $ & t - - d f f d t f x b v.u.G X   %.dX1X8.7.9.w.+.E 9 9 W E 9 9 9 9 9 9 9 9 9 E E E ~ ~ ' ,.3.3.3.4.9.5.4X3X&X1X>XL.X a a.sXBX>X2X&X#Xq.5.5.4.@. . .~ E L 9 9 9 9 9 9 9 9 E / / ~ ' X...@...+.$.$.<.8.;.e O a.AXJXb b x f f z d.m M N c d h h C C d h h h d d d d d % g n N B f.B f.N N f.h.I.y.@   G.GXBX>X[.=.O.) W 9 9 0 9 9 8 9 9 8 6 6 6 6 6 6 6 q 0 A 7 9 A 7.J.8.-.*.F.T.M.+ r u T.IXPX>X;X1XJ.=.[ O.) ^ W ) ^ W E Z Z S S Z Z W W / / { ' | X. . .+.o.O.*.%.&.u r i T g.j.n.b.Q.`.b.M h l f f d % % $ $ & - t d d d d h f h c M v f.V V f.k.b.n.~.~.Y.@   e >X2X%X#Xw.7.+.o.o.^ ^ W L 9 9 9 9 9 q 8 6 8 8 9 E E Q ` ^ W ^ ] E 7.1X:X:X>X-X-Xp p -XGXBX>X%X#X'.9.5.4.4.3.3.3.X.| ~ E W Z 9 9 Z E L 9 E Q ~ ~ | X.....@.@.$.O.*.-.;.p.-XLXAXI.I.n.c g c c g m c g d d d % % $ % - % $ & $ % % & d N k.f.f.k.N f.d.j.c.g.X   1 ;.L.1XJ.7.Q >.5.@. .~ ~  .@.5.@. . .^ 9 9 L 9 8 8 6 9 E 9 7 Z ",
"[ [ 8.0.<.-.1.M.G.t.P.BXsXF.2X:X[.<.) A ) o.E W E 9 7 8 6 2 2 6 , 6 6 6 8 6 6 6 0 0 0 9 0 A W W [ 1.L.:.t.u.d._._.~.b.f.R n m m c g d d d % t d % % $ $ & $ $ & t - - - h h d - d f x i.u.v.#   O =X:X8.$.7.7.Q E 9 9 E 9 9 9 9 8 9 9 9 L 9 L E E Q ~ | 4.5.3.5.5.q.5.4X&X[.$X=XG.1 s.wXSXBX:X:X&X'.7.@.@.@.@.@. .~ E E Z 9 9 Z 9 9 9 E / / / ~ | ..4.4.@.@.#.7.8.8.:.O s.qXKXzXb x b b d d.n M c v g C d g h h d d d d C C d d h d j N B B f.f.f.f.d.n.n.n.y   O kXPXdX:X8.O.] ^ E 9 9 9 9 8 6 8 8 6 6 6 6 6 6 6 6 6 0 0 9 7 9 $.0.0.8.-.;.L.L.e 1 0XSXPXGX{.1X%X8.[ [ ) ) ^ W / E 9 9 9 7 7 7 9 Z W W W Q ~ ' | X. . . .o.} [ %.%.&.r s.v.b.d.b.m.Q.`.m.f d c g j f : & & $ $ % t d d d d h g d M v v f.K B f.k.k.~.~.~.(.x   O F.$XJ.J.w.7.@.$.o.^ ) ^ E E E 9 Z 9 0 8 8 8 9 9 E E ~  .^ / ^  .Z @.&X&X%X,XK.0XG.wXbXIX>X$XJ.[.w.9.5.5.5.5.4.4.X.| ~ E Z 9 9 7 9 9 L E / ^  .| X...,.@.@.o.o.-.1.1.;.L.SXKX7Xv.n.m g l g f f l g f d % % % % $ $ % $ $ $ $ % d & & M f.f.f.k.f.h.d.g.~.x     &.F.:X:X[.` ` 4. . .~ E Q ~  .@.^ / / E 8 6 8 6 6 8 4 , 7 9 9 7 ",
"A -.0.[.J.1.:.;.p.s.kXCXL.F.aXaXH.*.W A ] o.Z ^ ! 9 8 8 6 2 6 6 4 6 6 6 6 6 6 6 8 9 9 A W W W W ) -.8.p.U u.b n.)._.Q.k.d.n n n z z f d t d d d % % $ & & $ $ $ $ $ - t d d t % t y l T b v.x   . :.=XK.<.<.$.! ! E E W 9 9 9 8 8 8 9 E E 9 9 E E Q ~ | 4.5.3.5.5.9.q.*X'.#X[.=Xs.p.0X0XsXaX1X#X*X'.9.>.@.@.>.4. .~ E E E E Z E E 9 9 L / / ~ { ..4.4.@.+.$.7.7.8.F.w u wXHXJXI.u.b b c c n d g j j g h d h g h d C % % % % C d h j v v B f.K f.f.h.h.n.I.b *   t.GXGX2X[.O.O.^ W W 9 9 9 9 7 6 6 6 6 6 6 4 6 8 6 6 6 0 0 9 9 9 W 7.J.H.8.;.;.K.u e sXSXBXGX1X1X{.1.O.O.) ) o.) W L 9 9 8 6 6 7 7 9 E E E E ~ ~ X.X...@.+.o.o.O._ D %.e i P.n.f.k.k.Q.Q.d.g g l v m g d $ $ % % t t t t C d d h d g j v K k.f.f.k.K Q.~.~._.D.+ . e L.H.0.[.e.9.#.+.} o.^ W E W Z Z 9 9 8 6 8 8 9 E E E ` ^ W ^ ` Q 7.w.#X#X$XK.G.P.CXyX>XK.[.#X#X'.9.5.5.5.5.5...X.~ E Z 9 9 7 7 9 9 9 E / {  .....,.4.4.#.$.O.-.8.F.;.0XLXCXI.n.d.l d c g d f d f f d % % % % $ $ $ $ $ $ $ $ % $ & h N f.k.f.m.b.b.n.v.@   @ &.H.1X$X0.` >.4.~ ~ E L E E E E 9 9 9 9 6 6 8 4 6 8 6 , 9 W W W ",
"2 -.8.[.%XF.%.M.u a.jX}.1 F.>X;XJ.[ A 7 ) ^ 9 ^ ^ Z 9 8 6 6 6 6 6 6 6 6 6 6 6 8 6 8 9 W W W W A ) [ :.M.&.i u.b ~.~.Q.n.h.d.n c g g f d % d d - t t $ & & $ % - * $ t f f t % % t d f x b x.i.@   1 L.;XH.-.] ] E E W W 9 W 9 8 8 6 9 W W E E E E E E ~ ..4.,.,.4.4.+Xw.w.%XK.=X:.E.SXT.p.=X2X%X[.w.e.7.@.@.@.4. .{ E E E E E E E 9 9 L L E ~  .@.4.4.X.` o.=.8.8.F.O T.UXKXzXy.x.z z d.m f v M c g j j C d g d C C % % % % C d h v v M B k.K B m.b.n.n.I.y     -XGXBX:X<.O.] ^ E E E 9 9 9 7 8 6 8 8 8 4 4 4 6 8 6 8 9 0 A A Z ! <.J.J.{.K.p.L.O G.sXsX}.dX1X:X0.-.[ ) 9 Z ) ^ ^ E 9 9 7 6 2 6 6 9 9 E 9 E Q ~ X.X.....+. .o.O._ D %.u r P.n.n.Q.Q._.Q.N v m l n n M d % % % % d - % % d d d d d h h M N k.k.K B v N ~.n.~.OXy   O L.K.1.0.<.9.#.o.o.o.o.W E Q Z Z 9 9 8 6 8 8 9 E E E ~ ~ Q /  .@.w.@.w.#XH.K.G.-XCXG.K.=X:X#X#X'.9.5.,.,.4.4.X.| ~ E Z 9 7 7 9 9 9 9 L W {  .X.X...4.7.7.7.=.8.F.F.p.BXKX8XOXn.c n f c g d f & % d d t - - % % $ $ $ $ $ $ $ & d g j v f.k.f.k.n.n.(.i   X u %.K.1X[.^ ` 5.@.~ Q E L E E E 9 E 9 9 9 8 8 8 4 , 6 8 8 0 0 0 0 ",
"q *.8.[.{.;X,XM.u wXLXR.o :.=X;XJ.-.( A ) ^ 9 ^ ^ E 9 9 9 8 6 6 8 8 6 6 6 6 6 6 9 9 9 W ! ^ ^ ! ! O.*.;.p.i x y j._.~.~.n.Y d.d.c f d % & % d h t % $ & * & % $ * & - t - % % - t f f f H x.u.i X   G.>X$X-.] O.9 E W W 0 9 9 8 6 6 8 9 L 9 9 9 9 Z ~ X.,...X.X.| 9.+X9.#XJ.=X:.p.SXPXs.1 F.{.:X0.w.w.$.@.`  .+. . .Q E 9 E E W E E L L L E { @.@.5.4. .^ #.8.;.H.u u qXPXJXc.g.m n d.h.d.m M v M c M g g h d C % % % % % C d h h c N B B m.m.N k.h.~.n.i.@   i BXGXdXJ.<.) o.! ^ W W L 9 A 9 6 8 q 6 4 4 4 6 8 9 8 8 9 W W W W O.$.w.{.:X2X>Xe u 0XSXT.:.K.dX:X8.-.[ [ W 9 W W ^ W L 9 8 6 6 6 9 9 9 9 9 9 E E ~ X...4.4.@.o.^ [ _ w %.u x (.b.~._.n.k.m.d.m c n c h C % % % % % d % % % % d % C d j M h v N M N f.N n h.~._.n.  . &.}.J.H.<.w.7.^ ^ o.o.^ / / E E 9 9 8 6 6 8 9 9 E Q ~ ~ ^ /  .>.9.@.0.0.H.K.L.AXCXu %.L.2X1X#X#X9.q. .' X.| X.` / E Z 9 9 7 Z Z E E E E { ....X.| 7.@.>.7.=.8.F.u 0XLXAXY._.Y c M c l g g t h t % % % t t t % $ $ $ % % % $ & h h v R k.m.f.f.h.n.I.@   + &.%.K.%X<.Q +.>. .~ E 9 9 L W W E o.) W 9 9 W 9 8 6 6 6 8 q q 2 , ",
"_ D 1.[.:X=X}.&.a.AXKXP.  u L.L.J.-._ A _ ) E ^ #.o.^ ^ E 9 9 9 8 8 6 6 6 8 8 8 7 9 9 W W W W W ! W [ ;.p.&.i y l n._.n.m.b.j.n n m c g d % t % t % % $ * & % $ & $ t t t % $ $ t f y t x u.x.u.X   u =X=X1.*.) 9 9 W W W 0 9 9 6 6 8 9 L 9 9 9 E E ~  .@.,.@.@.@.w.9.9.J.{.;.p.sXPXHX&.. w K.>X[.0.0.7.$. .@. . .^ Q E 9 E E E E E L L L E { @.5.5.>./ o.=.=.F.p.O p.UXLX8Xc.g.m H d.g.d.v j j g M c M g d % & % % % % % % d d h h M N f.k.m.k.f.b.I.I.#   ; qXGXBX:X8.<.<.] ] ^ W W W A E 9 8 8 6 6 4 4 6 8 9 9 8 8 9 W W W ^ =.-.0.J.,XdXL.1 G.SXPXT.L.=X2XJ.8.-.[ [ W W ^ ^ ) ^ W 9 9 8 6 6 9 9 9 9 9 9 E E Q ~ X...>.@.#.@.] ) %.%.u i i.n.n.n.m.f.h.d.m c n v f d d t % $ d d % d d d g f C C d h h C C C v M j g n b.n.I.#   + F.;X8.8.0.7.o.o.@.o.^ ^ / E E Z 9 8 8 6 8 9 E Q E ~  .o.+.5.9.5.<.0.0.K.T.7XHXSX  1 ;.%X1X#Xw.q.7.>.X. .X. .` Q Z 9 9 9 9 Z E E E E /  .@...X...@.>.7.=.-.p.&.p.kXLX9XI.c.n c M M g g f d d - % % % t t - % $ $ $ % % $ $ d d h d.k.f.m.n.h.c.n.x     &.:.F.J.0.o.~ @.>.` Q E 9 9 9 W W W ) / 9 9 W ) ( 9 P 0 0 0 0 0 q 6 ",
"-.D 8.=X1X;XG.F qXKXSXR.+ . u p.H.-._ A _ ) W ) #.+.^ ^ W E E W 7 8 8 8 8 8 9 9 9 9 9 Z W W W W ! 9 [ *.;.p.u p > b ~.n.h.n.d.c m c c g d d d % t - t % & $ - $ * & % t t t t : t f f t f y.c.n.y   . p.=XJ.*._ A 9 9 W W 0 9 0 8 8 8 L L 9 9 9 E E ' X.>.@.@.@.9.#Xw.#X;X=Xu E.HXKXjXP.  = %.J.$X0.0.0.$.o.+. . . .~ E E E E E E E E E E Q { @.7.>.#.E #.=.-.L.F O 7XLXFXf b.d.m H d.d.n v M j h g M j d s % & % % % % % % % C h d j N B k.m.m.b.b.c.u.    P.IXVX2XJ.O.<.7.! o.E W W 9 9 9 7 8 4 4 4 4 6 8 9 9 9 9 9 W ^ ^ ) o.<.-.0.H.;XaXF u sXIXCXT.}.=X{.{.8.-.[ [ ) W ) ) ) ^ W L 9 8 8 6 9 9 9 9 9 9 E E E ~ | X.....@.#.#.] *.D %.&.p g.y.h.j.h.b.h.n v n M h d f d $ * t t $ t d % f j c g C h j h d v k.v M j c h.n.).u.X   u ,XH.0.0.e.7.#.$.o.o.o.^ ~ Q E 9 9 9 8 9 8 E Q E  .+. .o.7.9.#.7.w.J.=X,XCXLXAX1 . %.K.1X&X'.#X7.7.@.` +. .` ~ E E E E E E E E E Q { +.4.@...4.+.7.7.=.F.;.u 7XPXDXI.D.j.m c M g h h d d - % % % - t t - - % % % % % % $ d d h N f.f.b.n.b.c.v.+   = G.F.{.0.-.)  .@.+.^ 9 9 9 0 8 7 9 Z E 9 6 8 9 W 0 8 ( ( W W ( ( ( ( ",
"( -.H.1X=X{.&.a.IXJX8X8Xv.  O &.F.-.*.( [ O.^ o. .^ Q W W E W ^ 9 9 9 7 7 9 9 9 9 9 9 Z E W W W W _ *.( *.F.:.p r > g.~.D.b.n c g d d d - d g g t % % $ & $ t % # # & % t t t t % t f f f b x.n.v.    1 }.=X_ -._ W 0 W ( 0 0 0 9 8 9 L E 9 9 7 9 Q X.>.>.X. .X.'.#X[.%X1XF.s.fXLXPXjXhXu   = ;.%X[.0.0.#.#.+. .X. .~ ~ Q Q Q Q Q E E Q / ~  .@.@.X.$.^ =.*.8.F.< &.CXKXlXz c.m n d.d.n m v M g C h g d % & % % % % % % % % % % C h g j v k.n.m.b.n.i.#   r kXIXdX[.<.$.#.$.W ^ 9 W P 9 8 8 7 6 4 4 4 6 6 8 9 9 W Q ^ ^ o.o.o.o.O.-.H.F.K.L.e E.HXAXqX7XG.L.;.1.8.*.[ [ _ ( ) ^ ^ ^ W L 9 8 6 6 9 9 Z 9 9 E W Q E ~ | X.| |  .@.7.` ) 0 :.p.r t.t.u.g.h.h.j.d.n m M f h f d % & % % & d d & d j h h * & j d & j j C N v n f.f.~.~.+   + L.;X1.w.0.7.7.$.} o.+.^ ~ Q Z 9 9 9 9 9 9 E E ~ @.+.~ o.e.<.#.w.0.K.=XsXPXIXAXwX  < F.$X3X&X#X7.7.#.`  .+. . .` ~ Q Q Q E Q ~ ~ ~  .@.5.@...5.#.8.r.8.L.u &.UXKX9Xx.j.n v v M g h d d t % % % % t d t t - - % % % % % % - f d g v R n.n.b.c.i.X . :.M.K.J.8.O.] o. .` / 9 9 9 9 8 6 7 9 9 8 6 6 8 8 6 , 0 0 0 0 A ( _ _ ",
"q 1.{.>XH.:.F sXKXgXI.OX7Xr   = ;.;.-.*.*.=.) o.o. .{ ^ / E E E E 9 9 9 9 9 9 9 9 9 9 9 W W W W 0 [ _ A _ 1.F.&.p # f ~._.b.j.m z d d t % d g f t $ & & & % t % t % $ $ % : % % : t f f f x g.v.I.y     &.=X:.-.-._ ( ( ( ( W W L 9 9 E E 9 9 7 9 ~ >.5.+.`  .>.'.w.J.{.K.u }.IXKXZXZXZXqX  + w {.:X[.0.7.e.+.+.@. .' ~ ~ ~ ~ ~ ~ ~ ~ {  . . .@.@. .^ $.=.*.L.u + R.PXHXI.b.Y m j.j.H c g j g C % d g d % & % % & % % % % % - - % d g M v k.n.n.c.n.b   X T.IXBX;XJ.=.<.>.] ` W W ^ W 0 q 7 7 8 4 4 4 6 8 9 9 9 ^ ^  .+.+.+.+.o.[ 8.K.F.F.e &.BXKXjXqXqXp.G.M.%.;.*._ *.[ ) ) ) ^ ^ W E 9 7 6 6 9 9 9 9 9 9 E E E ~ | X.| |  .+.4.` ) [ :.;.:.i t.u.y.d.d.N R R m c z g f f d t t t % d d % d g m K g h f.N d h C v `._.~._.~.)._.x     u >XH.0.0.8.7.$.} o.+. .~ Q E 9 9 9 9 9 9 E E | @.{ { 7.w.$.<.0.H.=X0XSXLXAXDXAX+   ;.H.:X3X[.9.#.o.o.o.`  .+. .` ~ Q Q ~ ' | ~ ~ ..4.5.4.4.7.7.8.8.J.%.1 R.PXFXg.v.m m v N v g g h t t % % % % d d d % % % % % C t d d d g h M n f.n.n.h.x.r   1 ;.;.L.J.7.O.o.+.+.^ E E L P 0 0 8 7 7 8 8 8 8 8 6 , , 2 6 6 7 0 A ( _ ",
"( 8.$X{.1.e L.HXJXn.I.I.(.v.  . u *.;.-.-.$.^ ^ o. . . .^ ~ E E W E 9 9 9 9 9 9 9 9 9 9 9 W W W 0 ( q ( [ *.F.M.i r # g.~.n.b.m c f f d d d d t t $ & & & - t $ t : $ $ % t t t t t t t y z u.v.n.I.@   o F.J.-.*._ ( W W ( ( W W L L E W E Z 9 Q  .5.>. .` #.e.w.0.0.{.;.&.kXKXJXZXDXFXCXr o = 1.:X%X8.0.0.$.@.+. .| ' ' ' ' '  . . .+.+.+.@.@.4.+.E <.7.8.F.O t.jXKXgXD.I.m d.n m c g f g g d C h j g d % % % % % - - - - d d g d j d.f.f.m.n.n.z.@   p BXIXyX$Xw.O.<.>.` o.9 W W P 8 8 8 8 6 6 6 6 6 9 9 9 Z / `  .+.+.@.@.o.-.J.K.M.%.1 -XLXPX8X8XqXT.W.T.M.*._ _ *.[ _ } } ) ^ ^ W Z 9 7 6 8 7 9 9 9 9 9 Z E ~ | X.X.X.2.2.5.#.#.7.*.%.p.F r r y y.h.f.R n v c g f f d d d - t % d d & C C j m C & g j % % % v Q.Q.b.Q.~.)._.~.X   = =X;X8.0.8.7.=.} } o. .` ` ^ W E 9 9 9 E E  .@. .~ 5.w.w.[ 8.0.J.aXBXKXFXDXDXZXa.  u ;.$X3X%XJ.<.$.o.` ` o.@.@.X. .' ' | X.X.| | @.5.9.4.9.7.=.8.H.1.O s.CXKXrXu.n.Y R N f.N c v c d d t t % t d d d t % % : d d d d d d d d K h.f.b.n.x.u.X   &.F H.H.J.=.^ ^ o.@.^ E E L 9 0 7 8 6 6 6 8 8 9 8 6 6 6 6 6 7 7 7 0 0 0 ",
"1.H.;X8.%.:.bXLXfXy.D.D.I.I.+   = w ;.;.-.-./ ^ { ^  . .` ~ E Q E E Z 9 9 9 9 9 9 9 9 9 9 W W W ( 0 0 _ [ [ ;.F.s.p # f b.Z.c.H m g f f d d d % t % t % $ % t % $ $ $ % t t f f t - - t y k y.c.x.~.y @   w {.;.*.[ ( 0 0 ( ( W W E E W ^ W E E ` X.>.>.+.+.7.w.0.w.[.K.:.-XAXKXzXDXJXFXfXa.  1 w [.;Xw.w.0.7.#.+. . . . . . . .X. . .@.@.@.@.@.5.@.^ <.8.H.%.1 wXHXHX(.I.c.Y d.g h d h g g j j h j c M h d d d d d d d d d h g c h c h.h.f.m.Q.~.k   + -XIXbX;X{.<.) +.o.^ ^ 9 W P 8 6 6 8 6 2 6 6 6 8 9 9 9 E ^  .@.@. .+.+.o.8.{.K.%.e p.CXKXCXR.(.R.7Xs.G.L.*.%.*.-.[ _ ) O.} ) ^ W Z 9 9 7 7 9 9 9 9 9 9 Z Q ~ | | X.X...@.7.5.7.e.O._ ;.&.1 X + b x.x.f.R m v g g g f f d t d % d d % C $ d j % * % d % d g N k.N B k.Q.)._.).x X O ;.>XJ.8.7.7.7.$.o. .^  . . .^ W E W ^  .~ @.@. .>.w.w.0.8.0.J.;XkXHXLXZXDXZXxXrX+ O %.8.1X3X#X0.7.O.` ` o.@.@.@.X.X.X.X.....|  .,.5.5.5.7.e.r.8.H.5 e wXHXDXv.g.x.d.f.N k.f.n f.H l g g f h h f g f h d d d d d d h h d t d d.b.b.n.n.v.y   a :.:.J.J.8.[ E ^ +. .E L 9 9 9 8 6 6 6 6 6 6 6 8 8 6 6 8 7 7 7 7 7 7 0 A ",
"H.$X=X;.e -XPXDXi.n.D.n.b.(.b   . e ;.;.=.=.) o.o. . . .~ ~ E Q E Z Z 9 9 9 9 9 9 7 8 8 9 L W W _ P [ ) ) -.*.1.L.i # y c.~.g.c.d.m c g d h h - - t f f % % t - % % % t t t y t - - t y y f b g.x.d.g.@   . L.F.:.-.*.( 0 _ _ A W E E ^ ^ / E E ~  .@.>.#.#.9.w.w.[.$X;.:.kXLXLXDXJXZXrXrX9X+ . 3 F.>X#XJ.w.w.7.$.+.X.X.X.X.+.X.X. . .@.@.@.@.@.+.#.#.<.8.H.< &.jXKXjXv.~.y.y.z z h d g z g d h j M c g f g l c g g f h h h g l g h M n K m.~.~.n.*   t.BXSX>X;XJ.! ] o.` ^ 9 W E 9 8 6 8 0 8 2 6 6 6 8 9 9 E E  .@.@.@. .+. .) H.K.F.w < 0XLXJXY.Y.I.v.7XP.W.L.:.*.:.-.[ ( ) ) } ) ^ W E 9 9 9 9 Z W W W W W E ` | | | | | | { 5.@.#.7.<.*.:.M.&.o   y Y j.h.h.f.n c c m c g h g c f f f h g d C M M g v g C d c d.f.k.k.m._.).`.).I.X   1 =X$X=.=.7.8.=.o.^ ^ ^ ^ ) ^ W W ^ ] $.` @.>.@.w.#X7.0.#XJ.{.aXBXLXZXZXZXzXmXCXs.  u D $XdX$X[.w.$.] ! ^  . . .X...,...,.@. . .4.5.9.9.4.e.7.H.;.. G.CXKXgXy.n.x.h.b.R m.f.N m.h.m c c c M l c c c j h f g g f h f g h l g n m.Q._.~.v.X . F w H.1.J.O.W E o.+.E 9 L 9 9 9 8 8 6 8 0 8 6 6 8 0 8 6 8 6 8 7 7 7 0 ( _ ",
"H.$X=Xu &.CXLXtXu.x.c.I.n.I.v.    o %.K.-.=.#.^ o.o.+. .^ / Q E E E W E 9 9 7 7 8 7 9 9 9 W W W ) ) ) O.$.O.*.*.8.F.u + u._.h.n.n.h.n k g f f d - t f f f y t t y t $ $ t t t t t $ t f f f b g.h.j.x.x.@   + T.K.8.*._ ( A ) [ W W W ] o.! Z S ` +.9.7.9.#X'.0.J.;XJ.e ,XPXJXSXDXzX|.9XuXrXa.  1 F ;X2X[.J.[.0.7.>.X.~ +.>.] o.<.) ^ +.^  .5.7.$.=.8.-.L.:.1 -XLXJXD.~.v.g.Y m z d d z c l f g g c m g f g g h % d f g g f f g t z d b.b.c.~.(.x X @ wXGXaX>X$X=.o.] o.^ W E W 9 9 9 6 6 8 6 , 2 6 7 9 W W W W  .5.>.+.$.o.] <.8.{.:.O s.AXKXrXi.I.n.v.E.a.&.G.F.:.;.F.8.*.O.) ) ) ) W W E 9 9 Q E E ^ ^ W E ~ ~ ~ X.X.~ ~ X.X. . . .$.=.=.-.;.;.e   + y y.d.d.j.d.H n m M M c N M c g j M g c m g c g g v h h v f.f.k.n.Q.).).).~.tXb   . M.;X;.-.=.0.w.$.) ) ) O._ W 0 W ! ] >.$.+.+.9.'.9.0.#X#X%X2XkXPXHX9XZXmXzXzXZXfX; . 1 ;.dX>X%Xw.0.] ^ W Q  . . .@.@.@.@.@.@.@.2.6.q.9.w.8.0.L.< u sXKXJXx.I.n.~.n.Q.Q.f.B n v m H K d.v j c n n n n g g j M j j j c v v n b.b.~.~.(.r   e M.%.{.8.H.) ^ ^ ^ ^ W E 9 9 9 9 6 6 8 8 6 6 6 6 6 6 6 6 q 8 8 6 0 ( 0 ( ;.",
"8.;XM.e -XLXZXg.g.c.x.n.x.c.v.#     < ;.1.7.#.#. .o.#.$.+.+.` ~ E E E E 9 7 8 7 7 7 7 7 9 9 E W ^ W ^ ) ) ) [ [ ;.F.:.r i n.D.b.n.n.h.n l g f d f h f f f y t y t t t y t t y t f t t f f z g.n.Q.n.D.c.i X . ;.K.F.-.[ *.O.W 6 ) ) ] o.W 9 Q o.>.7.7.7.#X%Xw.J.J.{.K.F.BXHXJXZXFXxX XxXDXJXuX  = e {.;X$XJ.0.0.7.>.+.' +.>.+.<.$.) ) o. .+.>.#.#.<.=.H.L.e U BXKXtXI.I.g.c.y.b l y y l z z f f f c m g h d d % f g c z l g f f f c g n.b.c.I.n.+   i BXBX,X;X8.] ) ^ ) ^ E Z E 9 9 9 6 6 8 6 , 2 6 7 9 9 L E E +. .+.` ! ] -.-.H.F.e + wXKXDXI.v.g.I.Y.a.s.s.t.G.:.;.8.1.-.$.) ) ) ) ^ E E 9 9 E E E Q / E E Q ~ ~ | X.~ ' | X.' ' ` +.$.=.=.-.:.&.r r p g.x.d.g.d.d.H n c v n N v N n v n v d.K m m c m n g h h R m.~._._.OXOX).).~.).# X e K.;.1.-.=.<.-.[ [ ( _ ( A W ! ) $.#.` ] <.w.'.9.9.J.[.;XaXSXKX9X XmXhXiX9XfXCXP.  O u K.dX{.J.J.0.#.o.^ `  .+.>.5.$.+.@.@. .X.4.7.7.7.8.$X;.O G.AXKX8XI.I.n.~.~.Q.Q.k.N N B n K K v M j v N d.K N v v c c c M j g M N R m._.OXOXg.  . &.:.F.H.H.*.! ^ ^ ^ W E 9 9 9 9 9 6 6 8 8 6 6 6 6 6 4 6 6 q q 8 7 7 q 0 *.-.",
"F.L.e p.SXLX8Xy.x.v.c.c.g.y.x.t.      e 1.J.7.<.o.o.o.o.o. .~ E E E E E 9 9 7 7 7 7 7 8 8 9 9 9 ^ ^ ) ) ) _ [ *.*.;.G.s.x g._.n.Q.~.~.b.n c g d f f g g g f d t t t t t t t t t f t d f h m c.I.~.~.I.v.v.r   = F.K.J.8.[ [ [ ] ! ! ) o.` Q Q Q  .7.7.'.<X#Xe.w.:X{.:.aXPXPXnXhX8X X.XrXgXnXhXr o e M.;X:XJ.0.w.7.>.@.' +.>.+.>.$.) ^ ` ^ +.5.5.o.0.8.K.;.1 T.PXJXI.(.I.x.c.y.z z l l z b b c l g v n n m m c g c c m c l g h h g c c b.b.n.I.u.  X T.GXaX{.$X*.) ) ) ) ^ ^ W W 9 9 9 8 8 8 6 , 2 6 9 0 9 9 9 E  .E ~ ` W O.8.*.1.%.O &.SXKXrXu.n.y.D.I.u.t.a.U &.%.%.:.-.-.$.] } ) ) ^ W E E E Z E E E E E E Q  .~ | | | X...X.X.|  .@.#.#.-.*.*.p.&.i p g.c.h.h.g.j.d.n v n R f.f.k.f.N N n f.f.v v v n n h h & d N k.k.b.).).).).).rXx.  . &.:.;._ ( _ _ ) A A 0 0 0 A S S ` +.S +.q.'.w.7.9.0.$X>XBXPXIXI.rXhXeXiXrXqXjXrXp . = :.aX$X%X%X0.e.7.$.o.@.>.4.9.>.#.#.@. ...5.7.e.7.H.K.< u kXKXZXv.).~.~.~.~.`.m.f.N N B v n B n v n N R f.N v v M M M v v M M v m.m.n.).OXOX$   u M.%.J.H.J._ W ^ ^ ^ W E 9 9 9 9 8 8 6 6 6 4 6 6 6 6 6 6 6 q 0 8 9 9 6 _ ;.-.",
"K.%.1 qXKXZXv.b.g.c.c.n.x.b u.x.X     O D 8.w.0.7.7.>.+.+. . .' E W E E Z 9 9 7 6 6 6 6 6 8 8 8 ^ ^ o.o.) ) [ *.*.:.F.E.P.c._.Q.~.).OX~.m.R v g h f f f h h d t f f t t t d f d g f g z c d.n.~.~.~.n.I.v.s.O   u ;.J.H.0.w.0.<.$.=.<.7.7.>.+.+.9.9.9.&X1Xw.e.0.{.K.M.SXKXnXiXnXxXzXxXxXxXnXDXY.  F F >X1XJ.0.w.9.5.>. .+.#.+.7.o.) ^ ^ o.>.7.7.=.w.K.K.u u kXLXrXI.~.v.D.x.x.Y b z l l m b m g d j c m m n n m c c c g g g l c z m m j.c.I.n.y   u sXBX>X$XJ.O.) o.o.o.^ ^ ^ W 9 9 9 8 8 8 , , 2 6 0 0 8 8 9 L E Z E ! ) -.1.*.%.1 O qXJXLXI.g.c.c.c.x.x.a.s.a.u e e ( *.-.-.$.O.} ) ^ ^ ^ E E Z E E E E / / /  .~ ' | X...,.X.,.4.4.,.>.>.#.O.-.:.&.t.a.I.n.x.c.c.h.j.n n N f.f.f.m.k.f.N n f.d.v m m n v g g M j N N M f.).tXtX).tXtX8X@ X 1 :.;.%.%.-.-.=._ [ *.[ ) O.$.` Q ` ` q.*X*X#X'.#X$X2XdXGXKXuX9XgXiX XiXgX9X9XhXR.O . e K.;X[.[.7.e.e.7.@.5.5.>.>.>.@.@.@.+.4.7.7.w.J.H.%.O T.PXLX(.~.~.~.~.~.Q.~.Q.m.b.m.k.k.m.m.f.f.f.f.f.f.N c M M v v v N N N f.n.~._.)._.n.@   G.;.;.J.H.8._ ! ^ ^ ^ ! E 9 9 9 9 8 8 6 6 6 4 6 6 6 6 6 6 6 q 7 9 9 A _ -.8.8.",
"F.1 p.AXKXrXx.y.d.x.x.c.c.b H v.+   o O , *.J.w.e.7.#. . .X.X.| ~ Q E E Z 9 9 7 6 6 6 6 6 8 9 9 Z ^ ) o.) ) _ _ [ :.;.L.7XI._.D._.OXtX).Q.m.f.R M c c g j M j h f g g h h h f h c n d.j.d.b.~.~.~.I.n.I.v.E.t.. o u ;.0.J.;X&X#X%X&X&X&X#X#X*X&X*X9.9.%X*X7.0.8.F.:.0XHXHXwXZXZXzXZXmXnXZXnXDXgX  e F {.>X{.0.w.w.e.7.7.7.7.>.e.$.#.#.#.7.0.e.7.[ *.$XK.e G.IXKX(.8X~.n.I.c.v.x.y.Y b m b Y Y c c c m m m m n m v v M M M m R j.f.h.j.d.g.v.b X X P.SXdX>X%X-.) ^ } } ^ ^ ^ W 9 9 9 9 8 8 6 6 , 2 6 0 0 8 6 9 9 9 W Z Z O.1.;.;.%.. &.SXKXzXu.y.y.n.g.u.I.V.a.E.:.u e D *.=.=.<.o.) ^ ^ ^ ^ Q Z E Q E E E Q Q E E E E ~ ~ X...| 3.4.4.3.4.5.>.$.[ %.&.G.7XrX_.d.n.c.c.h.d.K f.h.k.f.k.f.f.h.f.m.d.n N N N d.v N f.f.Q.n.f.Q.).tX).8XtXtXOXu.X @ &.:.%.;.J.J.H.0.0.J.J.0.J.#X0.>.` >.*X4X&X*X*X&X:X,XbXKXAX9XZXxXpXrXeX9X|. XxXqXs.. o %.,XJ.8.$Xw.w.w.e.e.e.9.7.7.<.#.>.5.e.e.7.8.H.8.5 F kXKXCX(.8XI.~.).)._._.Q.m.k.k.f.f.k.m.h.h.f.f.f.f.f.N N f.f.f.f.k.b.b.Q.Q.).).).8XT X + L.:.H.J.0.[ W ^ ^ ^ ^ ! W 9 9 9 9 8 8 8 6 6 4 6 6 6 6 6 6 q q 7 A 7 A <.0.H.J.",
"e 1 fXKXSXD.g.b d.g.j.g.u.b b i.x     e :.8.J.<.$.+.^ / |  . .' ~ ~ Q E Z 9 9 7 6 6 6 6 8 7 9 9 9 E ^ ^ ^ ^ ^ ) ( -.%.p.7XwXOX~.).).tX)._.Q.n.b.f.f.f.n n R n v g c m m m n n m d.h.n.n.n.Q.~.~.~.n.Y.v.I.P.E.a . 1 :.J.:X2X2X1X1X1X1X&X%X%X%X%X'.7.[.&Xw.7.J.K.L.&.CXPXfX7XZXpX XhXgXiXhXuXxXAXp   &.:.=X;XH.$X[.w.w.w.e.7.=.0.0.0.<.] O.<.=.-.D *.=X;.1 0XKXJXrX).~.D.c.c.g.y.g.y.Y b Y y.Y n n n n n n n n n n n n n n d.x.n.~.~.~.n.n.b #   r sXIX,X;XJ.W ] ) ) ^ ^ ! W E 9 9 9 8 8 q 6 6 6 2 6 8 8 8 8 9 L 9 ! 7 7 -.8.;.;.< o wXPXKX(.y.y.b y.g.x.v.I.D.v.G.M.%.%.-.<.=.<.] ) ^ ^ ^ ^ Q Z Q Q Q E E Z 9 9 9 9 E E E ' X.| 4.5.6.5.6.6.9.7.O.-.:.W.7XgXOXy.n.c.c.c.h.h.b.n.n.h.m.h.h.m.j.b.K n d.N f.n.b.b.k.n._.~.n._.).).).).tXrXOXI.+   &.&.&.p.K.{.{.J.K.$X#XJ.#X*Xw.7.7.'.3X3X<X&X&X&X:X}.SXKXfXzXZXiXeXiX9X X X|.uXfX|.u . e ;X2XJ.%X[.J.J.0.7.e.w.e.e.7.<.<.7.0.0.8.-.L.%.. a.AXKXuX8X_.).~._._.).).~.Q.Q.n.m.b.n.n.m.h.h.h.j.f.j.h.m.n.n.n.n.~._._._.~._.).OX8Xy   &.p.;.H.J.-.! ^ ^ ! W E W E 9 8 9 9 8 8 8 6 6 6 6 6 8 8 6 q 7 0 A S 7 ! 8.J.H.J.",
"O W.HXKX8Xb y.Y n m H H b b b u.u.X   a M.{.$X=.=.$. .~ X.,.,...| ' ~ E E Z 9 7 7 7 8 6 8 8 9 9 9 Q ^ ^ ^ ^ ^ ! W [ %.:.T.wX(.(.8XOX).).)._.~.~.~.~.n.x.h.h.d.m z m H H d.h.b.b.n.~._.~.~.~._.~.I.Z.Y.v.I.P.R.s.. O u K.aXdX2X#X$X#X[.w.J.J.0.<.8.0.%X:X$XK.$X;X:.}.KXIXP.|.uX|.9XeX X9XeX9X8XhX}.O e u L.,X{.;XK.J.J.J.w.7.=.0.J.J.<._ *.1.8.8.F.=X=Xu u BXLXjX8X(.I.c.x.g.y.y.b b b b b x b b b b b H H n b m n Y j.h.x.c.n.n._.~.~.I.I.y X X R.BXkX$XH.$.o. .o.^ ^ ^ W E E W 9 8 6 8 q 6 6 6 6 6 8 q 8 0 P P A 9 8 A ;.F.;.u . s.AXKXZXu.y.g.n b g.x.g.v.v.t.N.T.L.;.8.0.<.=.o.] ) ^ ^ ~ Q Q ~ Q E Q W 9 9 9 9 E / E E ~  .| 3.5.6.6.6.q.q.9.>.<.*.:.a.(.I.y.c.x.g.x.c.b.n.n.n.h.b.h.h.x.g.h.d.d.d.K b.)._.~._.).tX_._.tXtXtX8X XrXtXtXOXg.  i s.s.M.K.K.K.H.J.H.8.8.0.0.7.<.w.%X3X3X3X3X1X1X>XyXPXHXqXmX9X X9XeX XeX9X^.^.gXqXP.o . ;.2X$X8.J.H.J.8.-.8.J.7.<.<.1.8.8.J.J.H.K.K.e o R.PXJXrX8X~.).~.~.Q._.~._.Q.n.n.x.c.b.x.n.x.x.b.m.j.h.n.~.~.~.~._.).).).)._.).).(.u.@ . L.:.F.0.7.O.) o.^ ! W E 9 9 9 9 9 8 8 8 8 8 6 8 6 8 8 q q q 0 A A 7 A =.0.$X{.:.",
"i fXKXZXx.Y g.c c z b x x b b x b r X   u L.;X[.7.#.` Q | @.>...X.X.' ~ Q E 9 9 7 6 6 6 6 6 8 8 Z E ^ W W ! ! W ) W _ ;.p.E.a.P.rX8X).).(.(._.(.(._.~.n.x.x.y.b b b y.b y.n.~.~.~.(.8X(.~.(.).~.Z./.I.Y.(.Y.OXR.@ O e p.K.$X=X=X;X;X$XJ.0.J.J.J.H.8.H.J.$X;XK.L.F qXKXqXY.uX8XU./.^..X X X|.Y.qXjXF   F s.}.{.}.H.F.H.J.J.0.8.K.J.$X{.K.;X>X>X>X,X0XW.1 E.HXKXCXrXgX8XI.(.i.x.u.y.b u.u.u.u.y.i.u.u.g.g.g.u.y.y.b Y g.v.n.n.n.v.D.c.v.n.V.+   p kXGX>X;X8.W 5.E o.^ E / W 9 9 W 9 8 6 8 8 6 6 q 6 6 8 q 0 0 P W 0 , 6 _ 1.L.;.< o qXLXLXrXy.b y.g.h.g.d.g.c.g.t.t.T.}.L.H.[.0.=.$.$.O.] ^ Q `  .^ Q E ^ ^ 9 9 E 9 E ^ W 9 E  . .,.3.3.3.6.6.6.5.7.<.*.:.&.t.T x v.i.i.x.c.c.c.v.x.g.x.g.x.x.g.c.c.h.h.g.I.tXtX XtXiXcX X).rXtXtX XrXuXrXtXgXrX> + U t.:.M.F.F.;.8.;.*.-.8.1.=.8.8.J.$X&X3XvX2XaXT.kXKXjXrXxX/.eXeXeX^..X X^.I.rXzX8Xr   1 M.=XH.=XK.=X$X8.J.;XJ.8.H.K.{.$X>XaX0XaXG.o i fXLXSXtXtX8X_.(.).).).n.)._.~.I.D.D.D.v.n.c.c.n.n.c.n.~.8XOX_._.).8X8X(.(.(.OX8XI.@   i L.%.J.J.$.=.^ W ^ ^ ! E 9 9 9 9 9 8 6 8 8 6 8 8 6 6 8 q q 0 0 A A , [ 0.J.;X=Xw ",
"R.HXKXtXu.Y l n n b b z k k b y.y.t.X   a p.;X$X8.7.7.~ E @.@...X.| | | ~ W E 9 9 8 6 2 4 8 9 L W Z Z ! ^ ^ ^ ^ ! ) _ *.;.M.a.p T x.I.Y.R.I.v.g.v.v.u.y.t.u.u.a.u.u.u.z.I.Y.v.i.u.n.v.i.u.u.u.z.u.u.u.u.a.v.v.P.X o O O u L.F.L.K.,X:X$XK.8.;.8.F.K.F.L.L.F.F.u G.IXHX7XY.|.I.C.C.U.^.Y.^.|.Z.U.uX|.X ; p + G.p.:.;.;.:.u w 5 < < e < e %.;.M.G.p.o a s.CXLXjX7XrX9X7XE.v.a.t.x x t.u.u.u.i.u.u.u.i.a.i.a.a.i.u.x u.u.u.v.I.(.7X9X(.v.v.G     }.IXdX>XJ.O.o.o. .W ^ o.^ E E L 9 8 6 6 4 6 6 6 q 7 7 6 6 0 ( _ ( ( 0 ( 8.;.K.u   t.HXLXAXi.x.Y y.d.m m b y.y.u.z.x a.0XyX;X>X8.<.$.O.o.o.^ Q ` >.` ^ Q E E Z 9 9 9 9 Z 9 9 Z W ^ X.4.3.X.3.3.,.3.5.o.*.%.%.u + + i t.a.v.v.I.I.v.v.v.v.v.c.u.b x x y.b x i.Y.(.I.I.Y.I.I.I.I.I.v.I.I.V.(.(.7X8Xp   r i 1 . e ;.w ;.F.F.F.1.;.H.K.{.{.{.K.$X;X;XK.T.PXLXuX8X X/. X XeXeX.X|.|.|. XzXrXa.X o . o < e &.;.F.:.%.;.:.;.L.,X}.T.=X-X,XW.. 1 E.LXKXzXzXZXzXrX8XrX8X(.D.I.(.(.(.I.I.P.a.x.u.x u.x.n.I.I.(.R.I.Y.(.Y.Y.Y.V.a.v.u.+ X   -XF.;.{.0.) o.W o.E W W E L L 9 9 6 6 6 6 6 8 8 8 9 9 6 8 0 0 A A A A O.$X$X2XF.< ",
"CXKXDXD.x.c m m c z z k f f z z b G # X   &.=X>X8.7.e.5.4.9.>. .3.3.X.~ ~ Q E L 8 8 2 , , 6 9 9 E 9 9 W W W W ^ ! ^ W ( %.:.U o   X X @ @ X               @ + + # # r y r + X                         X X X     X + a u &.1 u 1 w %.%.:.p.M.F.K.}.=XG.s.p.G.W.s.jXKXAXI.I.i.I.v.C.U..X^.U.U.Z.U.^.uXi.X + @ . 1 e u U &.:.:.:.:.;.&.e u u 1 u + 1 a i E.E.a.@     X                           X X               X           @ p p i p +     u kXSX>XH.=.) ^  .^ W ^ ^ / E 9 9 9 8 6 6 6 6 6 6 8 7 7 6 6 q I P 0 ( D 8.L.M.G.e + qXLXKXtXx.Y y.m m z z m m m y.g.u.s.-XaXyXaX$XO.<.$.O.O.] ^ ` +.^ / E E W W W E E 9 9 9 9 W ! /  ...X.,.5.3...5.4.] ( ( %.u O     X ; r r # ; r + # # # + X               X                           X     @     @ u t.t.u e 1 1 e e :.F.L.=X,X,X=XL.G.G.L.L.K.BXKXZX8X9X X.X XeXeX X.X X|./.^.uXgX Xp + + r F &.&.&.t.&.&.&.u u u e e 1 1 1 +   + U fXqXa.t.x x i r r p r @ @       X       X X X X           @                       X   p.sX;.;.J.=.W O.^ W W W E L 9 9 9 9 6 6 6 6 6 8 8 8 9 9 8 8 0 W A W A ( w.$X:X>X%.;.",
"JXKX8Xz Y g m c z k f f f f f f x x u.X   1 T.aXJ.7.7.@.5.e.#. .5.6.3.| ~ / / L 8 6 6 6 6 6 8 9 9 9 9 Z 9 9 W ^ o.] W ) *.:.%.O   O r &.&.u u &.1 1 1 + O o .   .     .       . O o o o O a 1 + O o . . . . . . . . r E.jXkXfX0X-X-XT.T.T.T.T.}.7X0X7X-XqXfXfXCXLXLX8Xv.i.v.I.I.C.C.^.^.C.C.C.U.U.eXrXx + a.R.qXBXBXCXCXSXCXCXCXSXAXBXbXBXCXUXfXfX7X7X7XP.U u u 1 1 r r u u i u i &.&.i i u i u r 1 1 i t.s.s.s.&.&.i u u 1 O O . . . .   o =XGX>XF.;.=.) ^ ^  .W W W W L 9 9 9 6 6 6 6 6 6 6 6 7 7 8 q 0 0 0 q 0 _ H.H.G.&.o s.DXKXFXc.c.Y y.z g f g z z z b y.v.s.P.yXdXdX2X-.8.=.O.o.] ^ ^ ` o.^ E E W ^ E 8 L 9 8 8 9 E W W  .| | ..4.X.| @.~ ^ ) ( %.u O . O + 1 r r r 1 + @ X   . . @ O + + . . + + O O + + @ O + + O O + + o o o     o o   1 R.fXCXbXsXwXwX-XT.R.}.T.}.-X-X-X7X0XyXfXBXIXKXLXqX^. XU.^. X XXX X X|.U.U..X XxXiXl.p t.E.fXSXSXSXCXSXAXSXCXBXkXsXfXfXlXwX7XR.R.R.E.r o               . O r r r u &.t.&.s.s.&.&.s.E.R.T.a.&.U i u u u i U i F &.&.1   u BXK.*.*.-.O.^ W E E W L 9 L 9 8 8 9 6 6 6 6 6 6 8 8 9 9 0 0 0 W A W A [ %X$X>XK.1 0X",
"LXDXg.b l m c c m z y t f f f d z H x.y     s.,XK.8.o./ @.5.$.@.3.6.6.,.| | W 8 8 8 6 6 6 8 8 9 9 9 9 9 9 9 E ^ o.] E W _ *.%.5 < %.,XkXNXdXdXBXBXBXBXBXBXkXsXaX-XG.G.G.G.L.-X-X}.T.}.}.K.T.=XT.T.T.T.T.T.T.T.T.T.G.&.T.CXKXPXLXKXKXPXHXIXSXSXSXIXHXPXKXKXLXJXKXLXZXI.I.v.I.V.I.V.l.B.U.C.U.U.Z.B.n.8X(.x (.KXKXLXLXLXKXKXKXKXKXPXKXKXLXPXKXHXKXAXE.R.kXSXBXBXsXkXkXkXkXkXkXkXkXkXBXBXkXkXBXBXkXkXkXkXbXBXbXdXaXdXkXdXaXaXaX>X=XK.=X=XG.L.>XBXdX%.0 ( [ ) W 9 L E E W ^ W 9 8 0 , 4 6 4 6 6 6 6 7 7 7 0 0 0 0 q 2 -.F.;.L.1 @ qXJXJXrXu.x.g.c g f f g l k k z H i.u.s.-XsXaXaX8.8.=.O.] o.] ^ ^ o./ E 9 W W 9 6 9 9 6 6 8 9 9 9 W E E / ~ E E ~ E ^ $._ *.*.w 1 o p.aXdXkXkXkXsXkXsXyXsXkXkXkXkXsX0X0X0X0X-X=X-X}.L.L.K.T.=X}.T.}.L.L.L.K.K.M.G.G.p.R.bXHXKXLXPXLXLXHXIXAXCXSXAXHXHXPXLXKXKXLXLXAXuXV.U.(.l.Z. X^.|.|.|.^././. X).cXxXeXC.|.gXHXLXKXKXLXLXKXPXKXLXPXKXPXJXLXHXJXCX7X7X-X0XsX-X-X-X,X>X>X0X>X,X0XaXaXaX0X0XkXBXBXBXBXBXBXBXBXdXsXdXdXaX>X>X0X0X>X-X>X=X,XaXdX=Xq _ _ Z ) o.L E W E 9 9 W W 8 6 9 6 6 6 6 4 6 6 6 0 0 0 0 0 A A A ! 1.;X;X=X%.u SX",
"KXgXu.y.l d.m z n z y t t f f h f g.y.c.#   a M.K.H.#.o.5.7.#.+.3.6.6.3.X. .E 6 8 6 6 6 6 6 8 8 8 q 0 0 9 9 9 W $.#.^ W ) ( _ w *.%.*.;.*.8.=XaXNXBXBXVXVXVXVXBXBXbXNXkXdXdXkXaXaX>X>X>X;X;X;X$XK.K.=X,X;X$XK.K.>X0X1 &.kXPXKXAXAXAXIXAXAXIXJXLXHXIXAXFXhX7X8XY.|.V.V.i.l.B.V.U.B.i.i.C.U.^.^.Z.g.z.U. XV.I.gXzXDXAXAXAXFXJXJXJXJXFXHXKXLXJXJXJXt.  G.GXIXVXBXVXVXVXBXBXBXBXBXBXBXBXBXBXGXBXGXBXGXGXGXVXBXBXaX;XK.H.8.1.8.8.J.:XvXNXBXNXNXdX2Xq -._ _ _ O.r.o.E E E E ^ W 9 8 9 4 4 6 6 6 6 6 6 7 7 7 9 0 0 q q w 8.L.M.:.. t.AXKXDXn.c.u.y.f d f f f g f f k z b i.t.P.sX>XaX$X0.<.O.O.$.$.o.` Q E E L E W W 9 9 9 8 6 2 2 6 9 8 8 9 8 8 9 E 9 ) ) ) _ *.8.-.D w {.dXBXBXBXBXBXBXkXdXaX0X=XK.L.K.oX=X>XaXaXyX>X,X,X;X>XaXNXBXBXBXVXGXGXPXPXPXPXGXp.u kXHXKXHXLXFXLXPXLXLXPXJXHXHXFXDXDXFXAXgX|.7Xa.i.V.U.Z.l./.^.^.Z.C./..X(./.z. XpXrX^.|.|.9XrXuXgXrXrXuX9XiXhXSXHXHXHXLXKXLXU o E.GXKXGXIXVXBXaX=XK.K.K.K.K.K.$X;X:X2XvXVXVXGXVXVXVXBXvXaX>XK.K.F.1.1.F.8.;.;.;.%.;.;.;.5 *.0 O.W W ^ ^ O.9 9 8 9 W W 8 6 8 6 6 6 6 6 6 6 6 9 9 0 0 9 9 S A [ [.$X;XF.e R.KX",
"JX(.g.b z Y n f m z y t t d h f f H y.x.v.  . 1 L.J.7.o.=.$.O.+.6.6.6.5.X.' E 9 6 6 6 6 6 6 6 6 2 6 8 0 8 8 9 9 #.5.` ^ ) A _ _ -.( ( _ 0 0 _ _ _ *.*._ %.*.-.*.( *.8.H.H.$X;X$X{.J.H.H.J.J.J.8.8.8.H.K.J.0.8.8.K.=X&.+ G.wXfX8X(.|.7X|.R.7XfXgXqXrXqXqXI.Y.fX(.rX8X8Xl.G V.l.l.i.i.l.C.Y.U././.B.l.Z.C.V.l.v.P.G u.i.I.8XhXmXZXZXzXZXFXFXDXKX|.  . -XsXF.F.;.8.:.%.%.D _ *.*.*.;.*.;.K.>X$X2X2X>XaXaX2X2X1X;XJ.J.[.J.w.J.J.J.J.1.0 7 _ *._ *.0 D D _ 7 0 _ W 9 9 9 E W W 9 8 8 6 6 q 8 8 q 6 6 S 7 9 0 0 0 0 0 -.8.K.F.= o qXJXKXgXg.g.y.f f f f h d d f h f f k u.t.N.0XaX2X;X0.<.O.O.#.=.O.^ / / W E E 9 9 9 8 8 8 6 , , 6 7 , 6 8 6 6 ^ O.) W ( _ W ) -.[ ( _ D q 6 3 3 5 , 5 q w w 5 5 w %.-.;.8.F.J.J.J.H.H.J.8.-.-.-.-.-.-.0.$X;X>X2X2XdXkX%.  P.jXDXSXZXDXFXZXmXSXSXmXhXuXgXgXiXiXiX9XY.9XY.Y.l.v./.B.C././.V.S.U..X^.~.n.^.9X|.Y. X^.I.(.|.8X8XeXuXuXgXrXZXrXuXgXjXHXjX@   0XGX>X=XJ.$X$XJ.J.J.H.0.J.J.$X$X:X1X:X;X;X;X;X;X;X1X2X2X%XJ.J.0.0.0.H.H.1.*._ 0 D _ q *.;., 9 ) Z ! W E ) 9 8 8 9 W W 9 8 8 4 6 6 8 8 8 8 8 9 P 0 0 9 0 A A =.$XJ.K.%.i CXKX",
"gXy.T k z z z f f f f y t t h h f k g.b 8X+ X o M.J.7.O.O.) } +.6.6.6.6...' E E 6 6 4 , , , 6 6 , 4 6 6 6 8 8 9 W ^ E W ! 0 0 _ O.W ) [ ( [ -.( [ *.*._ [ -.-.-.*.=.<.=.=.=.7.<.7.<.=.=.7.0.7.<.<.<.7.0.e.7.0.w.%X1XdX:.1 a.fXAXgXgXgX9X9XiXjXgXgXhXgX9XY.(.rX9XeX|.I.l.G I.S.B.i.S.l.Z.U.Z.U./.U.i.i.H H B.V.B.B.V.I.|.iXmXDXDXDXZXDXJXJXLXAX;   &.,X;.1.$X#X=.-.-.*.-.;.H.J.J.{.J.[.$X1XJ.:X:X;X1X2X1X1X1X:X%X:X3X3X3X5X3X%X7.0.w.0.8.<.0.*.A 2 A [ ( P W 9 W 9 9 L 9 9 9 0 8 6 6 q 8 0 q 6 6 S Z 9 A A 0 0 ( 8.J.{.%.o s.AXLXDXI.g.y.y.f f z f d t t f h f f f x u.s.T.aX>X;XH.8.-.O.$.$.] ! ` ^ ^ W Z 9 8 6 8 8 6 6 2 2 2 2 6 4 6 q 6 ( *.} 6 9 ) 0 7 A ! ) ) _ _ _ ( q 0 *.( I I w q 0 *.8.*.*.*.O.*.=.=.r.7.7.7.=.=.=.=.7.r.r.8.8.8.0.8.8.>X=Xe a P.uXAXDXDXFXZXZXDXDXZXnXxXnXnXgXrXeXeX9X9X|.Y.i.l./.C.C./.Y.C.C.U./.~./.A.A./.l.V.Y.|.Y.^.|. XeXuXiXnXnXiXZXhXnXZXjXqXr   1 kXdXH.:X#X&Xw.e.w.w.7.e.&X3X3X3X3X3X1X:X:X1X%X:X1X1X:X1X3X3X1X%X%X%X%X[.0.O.) =.7.=.8.-.*._ W 7 Z ] E 8 9 9 6 8 8 9 9 8 8 6 6 6 8 9 0 9 8 8 9 9 9 9 9 A A ( 0.$XK.F.u R.PXKX",
"I.k x y.m l d g - y f f f d d f t z l g.(.u.  o :.K.0.7.=.) O.o.6.6.q.6.4.| E E 8 6 4 4 4 2 6 6 6 6 4 , 4 6 8 9 9 ^ E ^ ] 0 0 _ [ W ( W , 8 ( 0 0 ( _ _ _ *.[ _ ) ) ) ] =.<.$.$.O.<.$.] $.$.] +.^ ` $.7.7.7.0.w.&X2XdX>Xu E.SXDXxXhXgX9X8XrXrX(.|.Y.|.Y.v.i.i.C.C.i.l.l.Y.i.C.U.l.V.i.B.U.Z.A.U.A.C.i.H i.S.C.l.l.V.Z.^.eXxXmXnXmXnXmXFXJXLXV.  a 0X>X;.*.J.0.J.8.1.-.*.*.*.*._ _ 8.8.=.0.<.%XJ.J.[.[.J.J.0.0.w.[.#X*X<X3X4X*X'.0.w.0.7.7.0._ _ ( W ) A W P 8 W 8 9 9 8 6 9 8 6 4 6 8 q q 6 6 2 9 7 8 0 0 0 D ( H.=XK.< 1 lXLXKXzXl g.y.b z d f f d t t f f g f f f i.s.p.0X=X=XJ.0.=.-.=.=.o.^ ^ ^ W E 9 9 6 6 6 , , , , 6 6 , q , 4 q 4 6 I 0 6 8 W 0 W ] ! ) A W W W ( ( ( 0 I 0 q 0 ( _ _ } ( ) } [ } ) } =.=.} } $.=.=.O.$.r.r.8.w.w.w.#X%X2XNXM.O N.V.xXJXZXDXDXFXFXmXhXuXeX X^.U.Z.B.l.l.u.s.i.l.C.C.C.A.|.U.B.C.^./.A.A.A.S./.U.Y.C.U.I.Y.|.(. X^.|.rX9XuXqX9X8XuXfXa.  O ,XBX,X;X%X%X*X*Xw.e.e.5.#.7.7.7.0.w.w.w.[.[.0.w.w.w.w.w.J.[.[.[.0.7.0.w.0.<.] <.<.w.0.8.8.) 0 Z Z ] ^ 8 9 W , 6 8 8 6 6 8 8 6 8 9 9 9 9 9 6 6 8 8 0 0 9 A W _ J.$X=Xp.u UXKXLX",
"y.m l z c l d : t t : t t f g l h f c g.v.n.+ . e ;.{.8.[ <.$.+.5.6.6.5.3.| E E 9 8 4 4 , , 6 2 2 , 6 6 6 6 6 8 9 Z W W E E W ) ( P P 0 6 8 I 0 I I I I I ( _ [ _ ( A A ( ) ) ] ) ] ) W W ! ! S Q ! o.=.-.-.8.w.$X1XaXaXT.p.jXHXDXuX|.9XuXiX9X9X XY.U.Y.V.i.i.l.V.l.i.l.l.l.B.Y.C.C.B.l.Y.Z.C.A.S.Z.Z.i.i.V.C.i.i.l.B. XiXiXnXmXmXxXmXJXJXZX  @ G.BXH.0.=.=.:X1XJ.8.*._ _ *._ _ _ _ _ D 0 0 ( _ _ -.[ A 0 ( _ [ o.] 7.q.q.q.q.5.>.7.7.>.#.#.) 9 W W W W 9 9 8 9 8 8 8 8 9 8 8 6 8 6 6 8 0 8 4 , 0 0 7 0 A 7 A ;.{.,X%.O a.HXKXJXc.c.g.b l g f d f d : t f f d t - y G i.s.T.0XL.{.H.J.8.=.#.r.E ^ / W W 9 7 6 , , , 6 6 4 4 6 8 q q 6 , , , 6 6 0 q 7 9 W ) ) W ( ( 0 0 I _ ( 0 ( 0 0 I I 0 0 I 0 0 0 0 0 0 W ( ( _ ( ( W ( _ _ *.*.=.8.0.0.[.%X#XdXaX= F E.tXJXFXnXnXZXmXgXeXXX9X X|.C.V.C.l.l.i.i.l.l.B.C.C.C./.U.C.A.^./.A.A.Z.Z.C./.Y.A.C.Y.C.C./.|. X9X9XuXnX9X9XuX9X(.  o p.BX$XH.[.J.:X1X%Xw.7.#.$.] ) ( ) ) ) ! ! ] ] ] ] o.o.o.o.$.#.O.] ! S W ) ) W W ) o.#.=.=.O.W 9 W W W 9 8 8 8 8 6 6 6 6 6 8 8 6 6 9 A 9 7 8 8 6 q A 6 7 0 7 _ <.J.;XK.1 -XKXLXgX",
"x.j.g.g.Y c d t % % % : t f f l c c l f H x.G   . F F.F.<.O.$.+.5.6.5.3.3.X.~ Q 9 8 6 4 4 , 2 2 2 , , , 6 6 6 8 8 9 W W E L W W ) W ( P q 0 I 0 0 0 I I I ( ( ( _ W A A W ) ) ) W ! W A W W W S W W ( _ ( I _ =.7.%XdXdX,XG.sXLXAXnXuXiXiXrXpXXX9X^.U.U.V.v.v.V.V.l.l.l.l.l.B.U.l.l.u.H C.Z.C.U.B.C.U.B.l.l.l.i.G i.B. XpXpXgXmXMXnXnXFXJXi.X s.kXdX8.0.0.#X2X:X[.8._ ( ( 0 0 0 %.%.*._ ( 0 q 7 7 0 0 7 q q A ) ] o.>.9.5.5.5.5.@.+.` Z 9 E W E W W P 9 8 6 6 8 6 6 6 8 9 9 8 8 6 6 8 9 0 9 8 4 P W 0 A ( A _ 8.{.=Xu a kXHXKXtXY b b c l l c g g h d d h f d t % - x u.u.N.T.p.K.L.J.J.=.$.$.) ^ W W A 9 7 6 , 2 6 q 6 4 , 4 4 6 6 4 , , , 6 6 6 6 6 8 0 A A 0 P 0 0 0 ( _ _ ( I 0 0 I I 0 0 I I P 0 0 8 8 0 P 0 0 0 q q 0 I ( _ ( ( *.=.<.0.[.[.3XvX;.O P.I.fXnXnXhXhXzXiX X X9X|.^.C.V.V.l.l.C.Z.B.B.C.U.C.l.B.B.S.B.A.A.Z.Z.Z.U./.A.A././.C.C.C.U.^.|.|.|. XuX X9XrXgXy @ s.kXaXH.J.#X%X1X$X&Xw.#.) ) ) [ O.( ( ( W W W W Z ^ ` o.] o.$.$.o.) ! W ! ( W A W W ! ! ! ! W W 9 W W P 0 8 6 8 q 6 4 4 6 6 8 8 6 6 7 9 7 9 9 9 8 6 ( 0 A W 7 O.J.=X>Xe s.AXLXJXg.",
"h.x.c.x.y.z d : t : : : : t t d g c m z b u.v.@   1 %.H.0.O.#.$.,.4.....4...~ E 9 8 6 4 6 2 2 2 , , , , , 6 6 8 8 Z W Q W E L W ) ! ) ( 0 0 W 0 0 0 P W W P W W A 0 0 0 A W W W W A W ! W W W ! ! ! W ( 0 q ( [ =.0.:X2XaX,X-XHXAXnXxXxXiXrXpX9X|.U.V.S.i.l.v.v.V.l.l.l.l.l.B.C.B.l.i.H Z.Z.B.Z.C.C.U.Y.V.l.i.u.x H Z. XeXeXpXmXMXnXnXJXrX  F -XIX=XJ.w.0.:X2X:X0.[ 0 0 ( 0 q 0 0 ( _ _ _ ( 0 8 0 0 0 0 0 8 8 ( ) ^ @.>.....4.5.@.+.` Q W E E W W E 9 8 6 6 8 8 6 6 6 8 9 9 9 9 4 6 8 9 P P 0 8 W 0 0 0 A A -.J.{.F.O P.JXKXzXy.b l z c g z z d g h d d d d t t t f k u.u.s.a.&.u ;.H.J.[ -.O.) ^ W W 9 9 7 6 2 6 6 q 6 4 4 4 4 6 6 4 , , , , 6 6 6 2 6 0 0 0 0 0 0 0 0 ( _ ( W P 0 0 0 0 0 0 0 P 0 0 8 q q 0 0 0 0 0 8 8 0 0 0 0 0 0 ( ) ) <.0.'.%XvX2X= &.a.I.hXZXhXiXnXhX X X|.U.C.B.V.B.l.B.l.B.C.C.A.U.U.U.C.C.B.B.Z.B.B.A.B.A.A.Z.A..X^.Z.^.Y.^.|.|. X9XeX|.9X9XgXP.X i 0XkXF.8.0.0.J.J.0.w.7.o.) ) ) ( ( ( ( ( ^ ) o.] ^ o.o.o.o.` o.) ^ ! W W W W A W ! W W E Z Z Z W W 0 9 0 8 6 6 6 8 4 4 4 6 6 8 8 8 8 8 8 8 9 W 9 9 6 D 0 W A 9 7.$X:XF.+ sXKXKXrXx ",
"Y d.g.g.b g t : t t : % % % : t d f m y.y.y.v.G   . 1 ;.H.*.$.#.4.,.X.X.5.4.~ L 9 8 6 6 6 2 2 2 , , , , 4 6 6 8 9 E ! ! W E E E W W ) ! W W W 9 9 9 0 0 0 A A A 9 0 0 0 A W W W ( W W ) ) W W ! ^ ! W W 0 0 ( [ 7.=.0.%XaXaX7XSXAXrXnXuX9XeX X XU.Z.l.i.u.i.z.i.l.i.i.l.l.l.B.Z.C.B.l.i.B.Z.B.C.B.B.C.Y.C.l.i.H G i.U.|.XXeXpXnXmXnXnXDXy   P.kXdXF.[.0.0.&X:X$XO.A 6 0 0 0 0 0 0 0 0 ( _ ) ) W ) _ ( ( W 7 8 A W ^ o.@. .X.4.5.@. .^ ` ^ W 9 9 9 9 9 8 6 8 8 0 8 8 8 9 9 9 9 9 6 8 9 9 9 0 P P 0 0 0 0 0 ( 8.=X}.e e CXKXJXD.x y.z z z h f l t d t t t d d d t d z x H u.s.s.&.. e ;.H.-.-.*.} ) ) W A 0 9 7 6 2 6 q q 6 6 8 8 6 6 , , , , , , 6 6 6 8 7 0 0 0 0 0 0 9 W W W 9 0 0 0 0 0 0 0 0 0 0 0 0 0 0 0 0 ( ( I 0 q 0 0 0 A q 0 A A W [ <.w.[.1XvXM.o a.V.|.hXhXuXgXrX/./.Y.B.B.l.l.l.z.l.i.B.Z.V.B.V.C.A.A.C.B.l.B.Z.Z.A.C.C.Z.A././.U.U.^.Y.U.^.|.|.9XuX8XuXgXuXX @ T.sXL.1.0.=.7.7.7.8.o.^ ^ ] ) W 8 4 0 0 9 9 W ] o.] o.o.o.+.o.^ ^ ! ^ ! W W ! ! ) ) W ! ! ! W W E A 9 9 8 8 6 , 4 6 6 4 4 6 8 8 9 9 7 7 8 8 9 W W 0 0 A 7 0 A _ H.;X;X< p.HXLXZXu.b.",
"n Y Y n c g d d % $ $ % % t t t f f g c c d.y.I.+   o F 1.-.) $.7.>.X...5.5.| L 9 8 6 6 6 6 6 2 2 , , 6 6 6 q 8 Z W Q Q W E E E Z Z W W 9 E ! W A 9 9 9 9 9 Z Z 7 7 7 0 0 A W W 0 0 0 A 0 0 W ( ! W A 0 0 0 ( [ [ ] $.[.$X>XsXbXAX7XgX9X.X X/..XY.U.C.S.i.i.l.z.i.i.i.l.l.B.B.B.l.l.i.i.l.Z.B.Y.B.S.B.C.C.V.l.H i.B.^.^. XpXpXxXnXnXZX|.  p R.SX}.8.0.<.0.%X%Xe.W W 0 0 0 0 0 0 0 0 0 W W ) W 9 W ) ) 9 9 9 9 0 W / o.@. .X.4.5.5.` E E W E E E 9 9 9 8 8 8 8 8 8 8 8 9 9 9 9 9 8 8 8 8 9 9 0 P W W W A 0 _ H.=XF.  7XLXLXrXT y.Y z f f t t f t t t t t t t t t t m z x u.s.s.s.1 O w F.K.-.*.=.} ) ) W A A 0 7 , 2 6 6 6 6 6 8 6 6 , , , , , , 2 , , 2 6 8 8 7 9 9 9 9 Z W W 9 9 9 0 0 0 9 9 0 0 0 0 0 0 0 0 0 0 W 0 0 8 0 0 0 0 9 0 0 0 9 W ] <.8.J.aX=X. u N.a.7XgXuX8X.X/./.U.B.S.l.l.l.i.l.l.l.i.l.B.C.C.B.S.S.l.l.Z.A.A.A./.U.A././.Z.C.U.^.Y.U.^.^.|. XeXuX9XnXa.  p yX,X%.1.=.( <.7.=.O.! ! ! ) ) W 0 8 0 0 8 6 9 W ! ^ ^ ^ ` o.o.o.) ) o.^ W W ! ) ) ! E W W W W E 9 9 9 9 9 8 8 6 6 6 6 4 4 6 8 0 9 9 7 9 7 8 7 9 A A W ) A A A *.$X>XH.= sXKXHX(.x.g.",
"m m m z g f h d : % : : : t t t f k f h l b.Y n.x   . e ;.8.[ $.7.>.X...5.4.~ E 9 9 8 8 8 8 6 6 6 6 6 6 6 6 q 8 9 Z Z S E 9 9 9 9 9 Z Z 9 Z W Z Z 9 9 9 9 9 Z Z 7 8 7 7 0 0 A W 2 6 6 , , 6 0 A S Z Z 9 0 P W ) ! ! [ 0.F.}.aX0XjX9X9XrX XI.^.^.Y.U.U.C.l.z.l.z.l.l.l.l.B.B.B.B.H H i.i.l.Z.l./.C.B.B.B.C.U.V.i.l.I.^./. XeXpXgXzXxXZX; X P.kXBX;.8.<.) 7.[.[.O.9 W W W W P P 0 P 0 0 W W W 9 9 ^ o.^ 9 9 W 0 0 W W } +.{ | ..2.$.^ Z E W W W ! E L 9 9 0 9 8 6 8 8 6 8 9 9 9 9 9 9 8 8 8 9 0 0 W A ( A D -.H.L.w e SXKXzXi.u.Y b z f t % $ & & % : t t % t t t t m z k b u.a.s.&.O O w L.8.;.-.O.} _ ( W W A 0 , , , , 4 4 4 4 6 6 , , , , , , , , , , 2 6 6 8 7 9 9 9 Z W W Z 9 9 9 0 9 9 9 0 0 0 0 0 0 0 8 6 0 0 0 0 0 0 ( W A 9 A A 0 0 0 W O.=.8.{.=X%.= F a.|.gXgX X(. X^.U.B.S.l.V.V.l.l.l.l.l.l.B.C.A.C.B.C.B.Z././.A.Z./.|.|./.U./.U.A.^.^.^.|.|.|. X9X9XhXhXX + }.yXM.;.*.W W ) *.r.0 W W ! ! ( W 0 0 W W 0 8 9 W ) o.W Q ^ ^ ^ ^ W W ^ W 9 9 Z W W 9 Z 9 9 9 9 9 9 9 9 9 9 0 0 8 q 8 6 6 6 6 8 0 9 9 7 9 7 6 6 7 9 9 9 ) W A A =.$X;Xw s.HXKXgXi.c.n ",
"g c c l f h d d d d t t t t t t y f z z m j.h.j.u.# X O %.1.=.O.>.>. . .....~ ~ W E 9 9 q 7 7 7 6 6 6 6 6 6 6 8 7 7 9 Z E 9 9 9 7 7 Z 9 7 7 9 8 0 7 7 9 9 Z 9 9 8 8 8 8 q 7 0 0 , 6 , O O < 6 q 9 9 9 9 0 W W ! ! ! ] -.1.K.,XG.R.R.Y.eX X/.^./.U.C.A.C.l.i.z.i.l.l.l.l.B.B.B.l.i.i.i.i.i.B.H Z.U.B.l.B.C.U.C.l.B.U.U.^. XXXpXiXxXxX8X  r 0XIX}.:.8.O.! <.7.e.) Z E E ^ W W W W 9 9 9 E W W E 9 ) o.^ 9 P 9 0 9 W L /  .~ ~ | { E E E E W E 9 9 W W P L P 9 8 8 6 6 6 6 9 9 9 9 9 9 8 9 9 9 9 9 A S A A _ F.L.;.+ R.JXLXR.b g.b z x f % t * @ @ & $ $ % $ % t t d l g k x t.a.s.t.u o o %.8.1.[ *.O.) ) ( W A 0 6 2 4 4 4 4 , , 6 6 6 , 4 , , , 6 6 6 2 2 6 8 7 7 7 7 7 7 9 9 9 8 7 7 6 8 0 9 8 q q q q 0 q 8 6 q 0 0 q 7 0 W W Z Z A W P 0 0 0 ! [ <.8.{.;XD 1 s.P.9XiX8X).)./.U.B.B.l.l.Z.l.l.S.C.C.B.l.l.l.B.U.^././.^..X/././.|..X/.U..X|.A.U.C.U.^.^.^.|.8X(.nXa.  t.sXK.-.8.[ ! [ ( [ -.A 9 E W W W 0 8 6 q 8 8 6 6 9 ! ] W W W ^ W L 9 9 9 9 9 8 9 9 0 9 W Z 9 9 9 9 Z Z 9 9 9 0 0 8 8 6 6 6 6 8 8 0 9 9 9 9 8 6 7 9 9 9 7 W A A _ H.$XH.1 0XKXHXP.c.d.n ",
"d l m c g f h d d t t t t t t t y t z m v j n.f.b.k     e %.1._ =.>.+. ...X. . .^ / P 9 0 7 7 7 6 6 6 4 6 6 6 6 6 8 9 Z E 9 9 8 7 7 Z 9 6 6 7 2 8 8 7 9 A 9 9 8 6 6 6 6 6 6 q q 6 0 , O o < , , 6 7 7 9 0 W W W Z S ] _ <.H.K.M.u F a.(.|.8XU././.C.C.U.V.l.l.l.z.i.i.i.l.B.l.l.l.i.i.H i.B.G S.U.l.l.B.U.U.C.B.B.C.C.|. X|.eXiXhXSX;   G.kXbXF.8.=.) ) 7.0.7.W ) E 9 ^ ^ 9 9 W W 9 9 9 9 Z E W E L 8 9 9 6 4 0 W 9 L / E Q ~ Q W ^ ^ ! E E E E 9 9 8 8 8 8 8 6 6 4 4 6 9 9 9 9 9 9 8 9 W W 9 9 9 7 A D ;.{.K.&.e fXKXZXi.T y.l f b f t f * X @ * * # $ $ % y t d d d g k x u.u.t.&.< O < :.:.*.*.O.[ _ ( W A 9 6 6 4 6 6 6 4 4 6 6 6 6 6 4 , , 6 6 6 2 2 2 6 8 7 7 7 6 6 6 6 6 2 6 6 , 2 8 q 6 6 4 , 4 8 q q 8 8 q q 6 6 8 7 0 9 9 9 0 0 0 0 0 W A [ -.{.2XH.O F s.Y.rXrX9X(.^.(.U.Z.i.i.S.i.i.J i.i.i.i.l.l.l./.^./.A./.^..X.X^.|..X/./..X^.C./.U.C.C.U.U.^.|.9XfX  + -X-X;.8.=.] A ) _ -.0 6 Z W W 9 8 8 6 6 6 8 8 8 6 9 W ^ 9 9 L E E 9 9 9 9 9 9 8 0 W W W W W W W W 9 9 7 9 9 0 7 8 8 6 6 6 4 6 6 8 9 9 9 Z 9 8 8 9 W W 9 Z A 7 D ;.$X=X:.F CXLXjXx.y.j.l ",
"d h m z f g : d t : % $ $ % t y t y f f c n N f.x.n.@   + u ( *.O.7.#. .@.@.| ~ / W 9 8 8 9 7 6 6 6 6 , , , , 4 8 9 Z Z 9 9 9 0 W 9 6 6 6 6 6 , , 6 6 6 q 7 7 q , 2 6 4 , , , 2 6 4 , < < , 4 q 8 7 7 7 9 W W W Z W [ ( *.H.F.F.u o G 7XrX^./.B.U.Z.U.U.Z.B.l.l.Z.B.l.i.i.i.i.i.B.l.i.i.H l.l.B.U.l.S.l.B./.C.S.C.C.C.^.|.9XuXrXzXqXX r -XBX>X;.1.-.! ] 7.7.] S W W E E 9 9 8 8 9 9 9 8 9 9 Z E 9 9 8 8 8 6 6 6 6 8 9 / ^ / E E L 9 9 9 9 9 9 9 E 9 8 8 8 6 4 4 4 4 6 8 9 9 9 9 8 9 E W W E L 9 A A 2 _ 8.K.L.1 G.HXKXOXb y.l m f f f t t $ * * & # $ $ $ % t t d f f f z x T a.s.U u o . 5 ;.*._ *._ ) ) W ) W 7 9 9 8 6 6 , , 6 4 , , , , 6 6 6 6 6 6 6 6 6 8 6 6 6 6 2 2 6 6 , , , 4 , , , , , , , , , , , , , 6 q 6 6 6 6 6 7 7 9 0 0 0 8 0 W 7 [ [ 8.$X;X%.= F a.9XrX(. X X/.Z.l.i.i.l.l.H l.i.u.u.i.S.B.C.A././././.U.A./.U.A.Z.Z.A.A.B.l.C.l.i.C.C.C.^.^.jXu.  s.yXF.1.[ O.! A [ *.( q 0 A Z Z 9 8 6 4 4 6 6 6 6 6 9 E ^ E 9 9 E W 9 8 8 9 9 9 9 0 0 0 0 W 0 8 9 9 8 6 7 9 9 8 8 6 6 4 , , 6 6 6 8 9 W E 9 9 Z E 9 Z E 9 ! 9 A A 8.K.}.1 P.PXKX(.x.g.n l ",
"f f m l f f : d t t % % % % : t - y f f v n N f.g.g.x X o 1 :.%.O.7.7.+.4. .E 9 L 8 8 9 W W Z Z 7 6 6 2 , , 4 4 8 9 Z E 9 9 8 8 9 7 6 6 6 q 6 , , , , 6 6 q 6 6 , , 6 , , , , , , , , , , , 4 6 6 6 6 7 9 Z E E ! W ! ] -.H.$XF.F o @ t.(.9XC.U.B.Z.U.V.l.Z.B.l.B.B.l.l.l.l.l.l.l.i.H H H B.B.A.U.B.B.l.S.U.C.B.l.C.A.^.^.|.|.rXAXt.  s.kXBXJ.1.1.-.) O.7.<.! S W E E E 9 9 9 8 9 9 8 8 8 8 9 9 9 8 6 6 6 4 , , 6 6 8 9 E L L E 8 6 8 8 8 9 W E W 9 9 9 8 6 4 4 4 4 6 8 9 9 9 9 9 9 E E W W W ! [ 7 ( ;.1.K.&.1 sXKXDXv.g.b m f t t % t t t t $ # $ $ $ $ % t t d f f g z z b u.g.t.&.e O O u *.*.[ _ ) ( W E 9 9 9 9 8 6 , , , 6 6 , , , 6 6 q , 6 6 6 , , 6 6 6 6 6 6 , , , 6 , , , , , , , , , , , , , , , , , 6 6 6 2 6 6 6 6 7 9 9 0 0 0 P 0 W ! O.=.$X$XH.O p i V.9X XC.C.U.Z.l.i.l.l.l.i.i.l.V.V.B.B.Z.U.^./.U.U./.A.S.l.l.B.A.A.A././.^.^.^.U.U.B.C.^.9XrX@   }.K.1.-.<.] ) ) [ _ A 6 6 9 Z 9 9 8 6 4 4 4 4 4 4 6 7 Z W 9 9 9 9 9 9 8 4 9 8 8 8 8 0 0 0 8 6 6 6 6 6 7 9 9 9 7 8 8 6 4 , , 6 6 6 8 9 W E Z 9 9 Z 9 E W W ) A _ *.F.L.:.e sXKXDXI.g.h.n d ",
"g f z g h h % : : % $ $ $ $ % % $ t t h c v v N h.g.n.y   o &.%.[ -.7.#.9.' 9 9 9 6 8 ^ o.W 9 9 7 8 6 6 2 , 4 6 6 7 Z E 9 9 8 6 6 2 2 , 2 2 , , , , , , , , 2 6 , , 6 , , , , 6 , , 6 6 4 4 4 4 2 2 6 8 9 9 9 Z W W A [ [ 0.>X{.&.+ o p Y.gX/.l.l.B.U.B.S.C.B.l.Z.B.l.l.B.B.l.l.i.H H H J B.l.B.C.B.C.S.S.A.C.B.B.A.C.A.C.C.Y.hXrX  + -XBXaX8.-.-.-.O.$.=.] S W 9 9 9 9 9 8 8 6 8 8 8 6 6 6 8 8 8 6 6 4 4 , , , 6 6 6 9 9 9 9 E 6 , 6 , , 9 ^ ! ! E 9 9 8 6 4 4 4 4 6 8 9 9 9 9 9 9 9 9 9 E W ! _ 2 [ 1.F.L.O a.AXKXrXu.c.b c t f t % t y y t $ $ $ $ $ $ $ % - d h h g z z b u.x.a.t.&.1 o O %.;._ [ _ ) ) W W E 9 9 8 6 2 , 2 , , , , , , , 6 , , , , , , , , , , , , , , , , , , , , , , , < , , , , < < < < < , , 2 2 2 2 2 2 2 8 0 0 0 0 W 9 W A [ [ 0.{.;Xu 1 r t.8XuX(.Z.B.l.l.i.i.l.l.l.u.l.C.C.V.l.B.B.C.A.Z.Z.Z.l.l.Z.i.l.B.Z.Z.A././.|.B.i.Z.C.C.Y.iXa.  &.aXF.J.0.8.] <.7.=._ ( D A 9 9 9 7 6 4 4 4 4 4 4 , 6 8 9 W 9 9 9 9 9 9 8 , 6 6 4 , , 6 6 6 , , , , , 6 9 W Z 9 9 8 8 6 4 , 4 6 6 6 8 9 W Z Z 9 9 9 9 9 W W W 9 _ 8.F.F.1 p.AXKXgXx.g.x.m C ",
"h d d d d : $ $ & & & & & $ % % % t h g m v v n j.g.n.v.@   r %._ _ O.o.e.` E E 9 8 9 ^ o.W 9 7 7 7 6 6 6 2 6 6 6 7 9 Z 9 9 8 6 6 2 , , , , , < , , , < , , , , , , 6 , , , , 6 , , 6 6 4 , , , 2 2 6 6 8 9 9 L Z W W ) A =.%X>XL.e O + i 9X8Xl.l.l.Z.A.C.B.l.B.Z.B.B.B.B.B.l.i.i.i.i.z.i.B.i.i.B.l.B.B.B.A.A.C.A.A.B.C.C.l.8XhXi   a.BXkXH.8.<.*.=.-.[ ) W S S 6 8 8 8 6 6 6 6 6 6 6 6 6 8 9 0 8 8 6 6 4 , , , 6 6 6 8 9 9 9 E 4 4 6 , , 9 ^ W E 9 8 9 8 6 4 6 6 6 6 8 9 9 9 E 9 9 9 9 9 9 9 9 7 2 [ 1.K.&.O fXKXJXI.x.y.b f f z f t t t t % # $ $ $ $ $ $ % % t d h g z l z Y g.a.t.t.u < o e -.( _ _ W W E W E 9 9 7 6 6 2 2 , , , < , , , , , , , , , , , , , , , , < < , , , , , , < < < < < < < < < < < < < , , , , 2 2 2 6 6 8 8 8 8 9 P 9 E ^ ! -.[ H.>XL.e = i a.|. Xi.i.i.i.i.i.i.i.i.J i.l.l.l.l.i.i.i.l.l.l.l.l.B.U.l.l.S.Z.U./.Z.l.l.i.C. X^.Z. X9X  O }.=XH.H.7.$.] 7.8.*.D D D 0 9 9 0 8 6 6 4 4 4 4 , , 6 8 9 W 8 8 8 8 0 0 6 < , , , < , , , , < , , , , 8 W W W 9 9 8 8 6 4 4 4 6 6 2 8 9 W Z Z 9 Z Z 9 9 9 9 7 7 _ 8.1.%.1 qXKXLX8Xc.h.d.l h ",
"h d : d d % $ $ & & & & $ $ % : t f l m d.d.n d.n y.u.(.t.  + :.%._ ) ^ 7. .E E 9 E W ^ ^ Q E 9 7 7 6 6 6 6 6 6 8 7 9 9 9 9 8 0 q 6 2 , , , < < , < < < < , , , , , 4 , , , , 6 , , 4 , , , , 6 , 2 6 6 8 7 9 L 9 W ) A W [ 8.1X{.&.1 + r i.8XI.l.i.l.B.C.Z.l.B.Z.B.B.B.B.B.l.i.i.i.z.l.i.B.z.B.Z.B.B.B.B.A./.C.B.C.U.Y.U.C.iXI.X + wXBX>X8.8.7.=.7.<.) 7 A A 7 6 6 6 6 6 2 2 , 2 , , 6 6 7 9 0 8 6 6 6 4 6 5 , , , , 6 7 8 7 9 6 6 6 6 6 L ^ W E 9 8 8 8 8 6 6 6 6 6 8 9 9 L L 9 Z E W W E 9 7 Z A *.F.p.O s.HXKXgXu.c.b b d z f f d t : % $ $ $ $ $ $ & $ $ % % d d f g g l b T i.t.t.:.F O O %.( _ [ ) ^ W E L 9 9 8 8 6 2 , , , , , , , 4 6 , , 6 , , , , , , < , < < , , , , , , , < < < < < < < < < < < < < < , , , , , , 8 6 8 0 0 0 P W E ! ] ! *.D 8.>X>Xp.= r i V.eXC.i.i.i.l.i.i.i.u.i.i.l.l.i.i.l.l.i.i.i.z.B.v.z.l.z.z.z.S.A.U.Z.z.B.^.|.^.U.^.gXs.  :.>X$X$X0.0.7.<.0.<._ q 0 0 2 7 9 8 8 6 4 4 4 , , , , 6 8 9 9 4 , 4 , 6 6 , < , , < < , , , , , 4 , , 6 9 W W E 9 7 8 8 6 4 4 4 6 6 6 8 9 Z Z Z 9 W ! Z Z 9 7 7 _ *.1.;.e s.SXKXZXI.c.h.n h l ",
"f f t f h % : $ : : % % % % % : d f g m H m c m b b u.Y.R.+ @ u :.=.O.) $.@.~ E /  . .^ Q Q S 9 7 7 6 6 6 6 6 6 8 9 9 9 9 8 8 0 0 7 6 6 , , , , , , , , , , , , , , 4 4 , , 6 6 , , , , , , , 6 , 2 6 6 8 7 9 W W W ( 0 [ -.[ $X{.K.F 1 i i Y.^.l.i.i.i.B.U.A.Z.V.B.B.B.B.l.l.i.z.i.i.i.H l.i.B.C.Z.l.l.l.B.^.A.S.U.^.Z.V.(.uX#   a.BXaXH.J.7.<.0.0.<.( 6 A ! 6 7 7 q 8 6 6 6 6 6 6 2 6 6 8 0 0 6 4 4 4 , 5 5 , < < , 6 7 7 7 9 6 4 8 9 9 E ^ W W 9 9 9 9 6 6 6 6 6 8 8 9 9 9 9 9 Z W ^ ^ ^ ! W _ D 1.F.w O kXLXJXI.y.b b z f f g g f d % & & & $ $ $ $ & & $ % % d d f g g l b x u.t.t.p.p.w 3 %.*.( _ $.o.) W L 9 8 8 8 6 , , , , , , , , , , , , 6 6 , , , , , , , , < , , 3 , , , , < < < < < < < < < < < < < < < , 2 , , , , 2 6 0 0 0 W ^ W o.! O._ _ -.=XaX,XF 1 i i.8X|.B.S.l.S.l.i.H G i.l.l.l.i.u.l.V.l.z.J H J i.z.B.z.l.l.l.Z.A.C.C.9X XY.B.A.9XuX  o K.=X=X[.w.7.$.0.0.-.( 0 0 0 6 6 8 6 6 4 4 4 , , , < , 4 8 0 9 6 , , 6 6 2 < < , , , , , , , , 3 4 4 8 0 9 9 Z Z 9 8 8 6 6 4 4 4 6 6 6 7 9 Z 9 9 9 W ^ W ! ^ W W -.;.;.%.u qXPXLXuXn.b.x.n g l ",
"l l d l g $ : $ : % % % % % % % - - d g c g t f y.b c.v.(.T X O :.0.=.O.o.7. .~ @.+.^ ^ Q E Z 7 7 6 6 6 6 6 8 8 7 9 9 9 9 6 6 6 6 6 7 q 6 2 , , , , , , , , , , , , , , , , 6 6 , , , 2 , 2 2 6 , , 6 6 8 9 W W W _ W A [ =.<.0.=X,Xp.1 p P.9X|.V.i.J J B.^.C.S.B.B.V.B.B.l.l.l.z.i.i.i.G i.H l.B.B.z.i.J l./.A.C.U.Y.l.l.9X(.  r fXSXK.8.$X0.7.w.7.*.( 0 ( ) 7 7 7 q 6 6 2 , , 2 2 , , 2 6 6 7 4 4 , , , , , < < < , 6 7 7 9 0 0 4 8 P L 9 W W E 9 8 9 9 6 6 6 8 8 8 9 9 9 9 9 9 9 9 E ^ ] o.] [ *.J.;.O p.PXKXgXg.y.z b k f f l g f d : % & & & $ $ $ $ $ % % - d d f l g l b b u.s.t.a.M.L.=X$X$X_ 0 O.^ o.W ^ E 9 8 6 6 2 , , , , , , , , , , 6 6 6 , , , , , , , , , , 6 q , , , , , , < < < < < < < < < < < < < , 6 , , , , , 4 8 9 9 E W ^ ^ W o.( _ *.F.>X>Xp.1 r a.|.^.^.U.B.B.B.l.i.H H u.i.i.H H i.V.B.B.z.H H J B./.A.A.A.A.A.U.^.^.^.|.|.|.|.uXY.  &.aX;X;X%X3X0.<.8.-.( q 2 2 2 2 2 6 6 8 6 4 4 , , < < , 6 9 9 9 q , , q q 2 , , , , < < , , , , 4 , 6 0 P 9 9 Z Z 9 8 6 6 6 6 6 4 6 8 8 9 Z E 9 9 7 9 Z Z ! ] ) O.1.8.1.%.G.AXKXZX(.I.n.g.y.z f ",
"z c h c l $ : $ & & & & & $ $ $ & % % g m z f z x b v.v.I.R.X . w 0.=.$.! 7. .~ 4.~ L W ^ E 9 9 8 6 6 6 6 6 8 8 7 9 9 9 7 6 , , , 2 6 7 7 6 2 , , , , 2 , , , , , , , , , , 6 6 , , 6 6 2 2 2 6 , 2 6 6 8 9 W ) W } W ( ) -.w.0.{.>X-Xt.t.ZXFX^.Y.i.G i.C.A.i.H B.B.Z.Z.B.B.l.B.i.H i.i.J l.H i.i.B.l.l.i.l./.A.C.B.Z.V.v.uXz.  P.SXkXF.%X$X#X0.J.-.( ( ( ) ) S 7 6 6 2 , , , , , , , , , 2 6 6 4 4 , , , < < < < < < , 6 8 9 0 W 6 8 W L 9 9 W 9 8 6 8 8 6 6 6 8 8 8 0 9 9 9 9 8 6 6 8 Z ! o.O.[ H.{.w O 0XLXLX(.g.g.b z z f k g f d d t : $ & & & $ & & & $ % t h f g c g z Y y.u.u.t.a.G.yXVXGXVXJ.[ <.O.7.+.o.^ E 9 8 8 q 6 , , , , 4 , 4 4 , 6 6 4 , , , , , , , , , 2 6 q 2 2 2 , , , , , , < < < < , < < , < , , 3 , , , , , 6 0 9 9 E W / 9 W 0 _ D *.;.{.{.K.&.t.fXSXxX9X^.A.C.C.Z.B.l.G G G G H i.i.i.Z.B.l.l.B.Z.Z.U.C.A.A.Z.A.U.U.U.^.|.Y.l.C.xXV.  G.kX{.H.&X3X=.0.-._ q 2 2 2 2 2 6 8 8 0 8 6 4 4 , , , 6 7 9 E W 7 , , q 0 , < , , < < < < , , , , , 6 ( W 8 8 W 9 9 6 6 6 6 6 6 4 6 8 8 9 Z E 9 7 6 6 6 8 Z ) [ 8.8.J.F.&.0XKXLXrXx._.n.H m z d ",
"z d d d % $ $ & & & & & $ & $ % % t d f z z k z z j.b u.I.a.  . u $X:X8.] ^ 9 E ^ #.^ E ^ Z 7 9 2 8 9 8 6 6 6 6 q 0 0 7 6 2 2 , , , , , , , 6 6 6 q q 4 , q 6 , , , , < , 6 6 2 2 2 6 , , , 6 6 6 2 6 6 0 9 P W ) W ^ ! W $.w.%X{.aX=Xu wXLXFXqXB.G G S.B.U.i.i.B.B.Z.A.Z.B.B.l.i.i.l.i.i.l.i.l.l.B.B.l.i.l.C./.B.S.Z.Z.I.gXi.X wXBX=XH.%X:X&X#X8._ 0 _ 9 ! 7 7 6 6 6 , , , 4 6 6 6 , , 2 2 2 6 6 , , , < < < , < , , , 0 0 8 8 6 , 6 9 Z 9 9 W 9 8 8 8 8 8 8 6 4 6 6 8 8 0 8 6 6 7 9 7 0 6 8 A _ H.;Xe O sXJXzXg.d.Y n z f t t n c g - d d & & $ & $ $ $ $ : t % d f k g f z b u.x u.a.a.E.sXPXPXPX;X0.$.+.` +.@.` / W E 8 6 8 2 2 2 6 6 6 , , 4 , , , , , , , , , , , , 2 6 7 6 2 2 , , , 6 6 6 6 6 6 , , , , , < < , , 6 , , < , 6 7 Z W Z 9 W 0 _ 0 2 w -.{.;XvX>X-X-XJXKXDX9X XS.l.A.S.i.J l.i.i.i.i.J i.l.C.C.l.C.B.C.I.Z.^.U.l.B.B.B.U.V.I.I.Y.C.8XhXV.X &.>XK.1.;X2X[.[.<.*.w w , , , 2 2 8 7 8 6 , , , , , , , 9 W E Z 9 6 2 6 0 q 2 < < < < < < < < , , , 2 9 W E E E 9 7 6 6 8 7 6 , , 6 8 8 0 0 0 9 9 7 6 8 0 6 6 0 [ J.H.K.p.wXJXFXn.n.n.I.g.b t - ",
"t f f d t % $ & & # # & & & $ % % d d h k f f k m j.c.g.v.r     e J.:X0.$.` 9 9 W #.^ ! ^ 9 7 7 8 9 0 0 8 6 6 4 6 6 8 8 2 2 2 2 , , , , , , , , , 6 q 4 4 q 6 , , , , < < 2 6 6 2 2 6 , , , , , 6 2 2 2 8 0 P W W W P W W ] 8.[.;XdX:.F sXLXJX8XY.G p G u.V.l.Z.C.Z.C.C.C.C.Z.B.B.l.l.J i.l.l.B.V.B.B.l.l.l.C.A.C.l.B.|.uXgXi.  t.-XF.H.1X3X1X&X8.( q ( A ! S Z 6 4 4 4 , , , 4 , , , 2 2 2 2 2 4 , < , < < < , < < < , 8 8 6 8 8 , , 9 W W Z W 9 8 8 9 0 P 8 6 4 4 6 6 8 0 8 4 , 8 7 7 0 0 0 _ -.;.F.w o s.9X8Xx.d.y.n c f t $ f M h d d % & # & & $ $ # $ & $ % % d f f y f z b Y u.u.a.G.sXPXPXGX;XJ.<.] '  .X.' Q E Z 8 4 6 6 6 6 6 6 6 6 6 , , , , , , , , , , , , 2 6 6 7 6 2 2 2 2 2 2 6 7 7 7 7 7 q q q 6 , , , 6 6 , < , , , 6 9 Z E E 0 P _ q q _ 1.[.2XdXbX-X0XPXKXzXhXeXB.l.S.i.l.S.i.i.J J i.i.u.G p J H S.i.l.S.V.C.l.H i.l.l.V.i.V.V.G V.9XqXR.+ O &.;.$X1X1X:X{._ w 3 5 < , < 6 6 8 9 7 6 , , , , , , , E ~ Q Q E 7 6 7 9 7 2 < 2 , < < < < < , , , 2 9 W W W ^ 9 8 6 8 9 9 7 6 , 4 6 6 8 9 9 9 6 8 6 7 0 0 0 [ -.<.;.;.u F (.7Xn.I.n.~.g.b - & ",
"$ z z t t % & & & # # & & & & $ : d d h f f t f n g.Z.x.x       w H.;X0.=.o.Z 9 E O.^ W ! 7 6 7 8 9 W 9 8 6 , , , 6 6 8 6 , , , , , , , , , , , , , 6 , 6 q q , , 6 6 , < , 6 7 8 7 0 0 q 6 4 , 2 2 , 2 6 8 0 P P P 0 0 ) ) -.0.;X}.1 G.SXKXAX|.iXl.x G i.V.i.B.C.Z.Z.C.C.Z.A.Z.B.l.l.i.l.l.l.l.V.B.B.l.z.l.B.C.C.Z.l.U.iXiXY.+ @ &.p.K.3X3X3X%X0._ 0 P ) W Q Z 6 4 4 , , , , , , , , , 2 2 2 , , , < , < < < < < , , , 0 0 8 9 8 2 , 7 A W W A 9 8 6 8 P W 0 6 4 4 4 4 6 8 8 6 , 8 7 7 0 0 ( *.1.1.;.u O r P.(.c.x.g.d.y.z y $ d m g M l - d - & & $ & & & & & % % - t t t y l x u.u.u.v.P.jXPXPXNX%XJ.<.` Q +.X.' Q / E 9 8 6 6 6 6 6 6 6 2 , , , , , , , , , , , , 2 6 6 6 8 6 6 6 6 6 6 6 6 8 7 7 7 7 7 7 7 q 6 6 6 6 6 , , , 4 4 8 9 E E W W _ ( 2 q _ *.8.1XaXaXT.kXKXDXgXhX9XC.C.V.S.V.C.S.l.i.H u.i.H x x H H C.B.V.B.V.i.H G i.i.H i.i.l.i.y i.|.|.Y.i . O %.;X2X$X$X8._ w w w , 0 , 9 8 9 9 0 6 6 , , , 6 , 6 W ^ ~ ~ E Z 9 Z A 7 2 , 6 , < , , , , , , , 6 9 E W ^ ^ 9 8 8 8 9 0 0 q , 6 6 6 8 9 9 9 2 6 6 7 0 0 ( -.8.-.;.%.F + i v.n.n.n.I.c.H f - ",
"$ z z t d % * & & & & & & & & $ : d d d f t t f n x.c.u.+     e %.H.$X8.O.] E E W o.E L Z 8 7 7 8 9 P 9 6 , , , , 6 q q 6 , < < , , , , , , , , , , , , , 6 q 6 q q q 2 , , 6 7 9 9 9 9 0 8 8 8 , 2 6 8 8 8 9 9 0 P 0 I [ *.=.H.=Xe 1 qXKXJX9X9XuXB.i.B.U.U.l.l.B.B.Z.C.Z.C.C.Z.C.l.l.l.l.S.l.l.C.V.l.i.i.l.C.A.C.C.l.l. XuX8Xi.  O &.H.1X3XvX:X[.-.( 0 ) 9 S 7 6 4 4 4 , , , , , , , , , , , , , < < , < < < < < , , 6 0 0 8 9 0 6 6 7 0 9 0 9 9 8 6 8 9 0 8 4 4 4 4 4 6 q q 6 4 6 2 6 0 0 0 _ *.8.;.%.1 + s.I.n.c.g.d.y.y.z t h K M m m d l t % $ $ * * & $ % % % - t t t f k Y u.y.u.a.7XAXPXGX2X$X8.$.! ~ @. .' Q W E 9 8 8 6 6 6 6 2 2 , , , , , , , , , , , , , 2 6 6 6 6 7 6 6 6 6 6 6 8 6 6 6 8 q 7 7 8 7 8 8 6 6 6 6 , , 4 6 9 9 Z E E W _ 0 , w ( D ;.;X>XG.}.IXKXuXhXeXU.C.U.C.S.B.B.B.l.i.H G G G G l.i.G l.C.B.l.J G H i.i.u.G i.V.B.x G G V.|.P.a.@ O w M.;X{.H.8.-._ ( 0 0 _ , 9 9 9 9 0 q 6 6 6 6 8 6 8 W ~ ~ ~ E Z 9 E W 7 2 , , < , , 2 , , , 2 , 6 8 9 E E ^ 9 9 9 9 9 9 7 6 6 8 8 8 9 9 Z 9 6 8 2 2 8 8 0 _ =.-.;.%.%.1 r v.n.n.n.n.b.j.b z ",
"t g f f z t & t $ & & $ $ $ $ % C h h f f d d z Y c.x.y   X . p.;.H.J.=.! ! Z Z E W 9 9 9 9 9 7 8 9 9 8 4 4 4 , 4 6 q q 6 , , , , , , , , , , , , , , , , , 6 6 q q q q 8 8 8 9 9 8 8 8 8 8 9 9 7 7 8 8 9 9 9 P P P 0 I *.;.H.K.p.o G.SXKXzX^.xX9Xl.l.U.|.^.B.B.B.B.Z.Z.C.Z.Z.B.U.B.l.i.i.B.B.C.C.Z.B.l.l.l.B.C.Z.l.l.Z.(.rX9X|.x   = :.J.:X3X&X#X0._ A [ Z ! Z q 6 6 4 4 4 , , , , , , , , 2 2 , < < , , < < < < < < , 8 9 8 8 q 6 6 6 8 6 7 9 8 8 7 9 9 9 8 4 4 4 4 6 q 8 8 q 6 6 , , 7 7 7 A -.1.;.F.&.. r v.x.g.y.n y.y.b l j d.g l g % d & t t % & & & % % % % % t y y f z g.u.u.u.U jXKXPXBX%X[.$.] ` `  .' Q E E 9 8 6 6 8 6 6 2 2 , , , , , , , , , , , , , 4 6 6 6 6 6 7 7 6 6 8 6 7 7 7 7 9 9 9 9 7 7 8 8 8 8 7 9 7 9 6 6 8 9 9 9 E W W W 0 q ( ( D 8.>X=Xp.kXKXZX8XzX|.l.l.Z.i.J l.l.i.H G G G x G H B.i.G u.l.J G x x i.l.i.H i.i.V.i.G i.G a.9XU.V.F o = D F.F.1.H.8.*.q 6 9 o.9 E 9 9 9 9 8 6 6 6 6 8 6 9 ~ | | | E 9 9 E W 9 2 , , 2 q 0 7 6 6 8 6 2 6 8 9 9 W ^ E E 9 9 9 9 7 6 9 9 9 9 Z W W Z 9 9 6 2 7 7 7 A =.<.1.;.%.u + u.n.n.D.n.b.h.d.n ",
"c z f z b f $ f % $ $ $ $ $ $ % C h g g g f f m y.c.g.X     r T.F.8.0.[ W ! Z 9 9 9 6 9 P 9 9 6 9 9 9 8 4 4 6 6 4 6 q q q 6 6 , , , , , 4 4 , , 6 , , , , , , 4 , , 6 q 0 0 9 Z 9 9 8 7 7 8 9 W E Z 9 7 9 9 9 L P 0 I I %.8.K.L.O u fXKXHX8XrXzX8XS.V.V.^.^.C.U.V.B.B.B.S.B.Z.B.B.l.l.i.l.B.l.B.B.B.B.B.S.l.z.i.l.i.l.V.I.eX9X|.(.r   e ;.0.%X[.[.w._ A ) ! O.! 0 q 6 6 6 6 4 4 4 , , , , , 2 2 , , , , , < < < < < < , 8 9 8 8 , , 2 2 2 6 7 9 9 9 9 9 9 9 8 6 6 4 4 8 8 8 8 q 8 8 6 8 A A A A -.<.8.K.F.1 + i t.u.y.b b y.y.m v f.c M g % % & % t d % % % % & % % % t y f k x u.u.a.T t.AXKXPXaX[.w.] ] o. .~ ' Q E 9 9 8 8 6 q 6 6 6 2 2 2 2 , , , , , , , , 6 6 6 q q 8 6 6 7 7 7 7 7 7 7 7 9 9 9 9 9 9 7 7 7 7 7 9 9 9 Z Z P 9 9 9 9 Z E ^ / 9 0 A _ D _ J.,XM.T.IXKXrXiXxXU.i.l.C.l.i.l.l.l.G x G H x k x H H i.i.H p G G x H J x J i.u.i.G G G x i. X|.l.E.+ O e D %.-.1.$XJ.) 9 W o.^  .E E L L 9 0 9 9 8 8 8 E X...X.,.| ~ ~  .o.Q 9 7 9 A W ) W 9 9 9 8 6 6 9 9 L /  ./ E E W W E 9 9 9 E E E E W W Z W E 7 7 A A 9 A <.<.8.H.p.&.O i v.v.I.n.b.j.d.n ",
"c z l z z f t - % $ $ % % $ % % d g g g g f z y.g.c.f     o s.T.F.8.<.) W ^ E 9 8 8 6 0 0 8 9 8 9 P W 9 8 6 6 6 6 8 0 0 q 6 6 6 q 6 , , 6 6 , , , , , 6 , , , , , , 6 q 8 8 9 E / E 9 9 9 9 L / Q Q ^ ^ / W L 9 P 8 ( %.%.F.F.F o E.AXKXzX8XzXrXV.i.C.B.U././.^.B.l.B.B.l.l.l.l.J i.S.S.B.B.z.l.l.S.B.B.l.z.i.i.i.l.V.l.l.|.gX^.(.V.o O F 1.[.$XJ.[.) 0 W ) O.^ W 0 8 6 6 6 6 6 6 6 6 4 2 2 2 2 , , , , , < < < < , , , 9 9 8 9 , , , , , 6 7 9 9 9 9 9 E Z 9 8 6 4 6 8 0 8 q q q 0 0 0 W A 9 W 7 [ 8.F.F.p.e + i G u.b b y.y.m c N d.n m h % % & % d d d h d C d - % - t f z b y.c.u.t.wXPXKXVX;XJ.0.] ] o.X.' ' ~ E 9 9 9 8 q q 6 2 2 , , , , , , , , , , 2 2 q q q 8 8 9 9 7 9 9 9 9 9 9 9 9 9 9 9 9 9 9 9 9 9 9 9 9 Z E E W W W / E E E / ^ ^ 9 W ) ( _ ;.{.L.s.fXLXAX9XzXiXU.l.C.U.C.C.l.l.l.i.H J J G x G x G G G G y G G p x x y G i.p G i G i x u.V.|.V.Y.p . = e D :.1.$X%XO.) o.+.@.4.~ ~ / / / W E E L E E | 3.3.3.3.,.| | @.@.` E 9 ^ ! ^ ) ^ E 9 L 0 q 8 9 9 L /  ./ Q Q Q ! W Z 9 9 9 9 9 Z E Z 9 9 Z 9 7 A A 9 0 ) [ ;.8.F.p.u + x u.n.b.n.f.d.n ",
"- t f g f f f - % $ $ % % $ $ % d j M g g f z y.c.x.X X   r T.L.F.-.[ A Z ^ E 9 9 8 4 8 6 6 0 9 9 W W 9 8 8 6 6 8 0 0 0 q 6 4 6 q q 6 , , , , , , , 6 6 6 6 , , , 4 8 8 4 , 8 E ^ W E E Z 9 9 Q ~  .>.5.5.+.W 9 9 8 [ -.:.F.:.. t.fXJXJX8XrXzX(.i.i.^.C.C.C.l.l.l.l.l.B.l.l.i.J l.l.Z.B.B.B.l.l.l.B.B.B.l.l.l.l.i.i.V.V.B.V.hX|.U.uXi   3 *.0.[.w.#X) 9 8 W ) Z W L 9 8 8 8 8 8 6 6 6 6 6 2 2 2 , , , 4 , , < < < < < , 8 9 6 8 q 2 , , , 6 6 6 9 9 7 9 W W 9 6 8 4 6 8 0 8 6 6 , 8 0 0 0 6 2 7 9 _ <.1.K.{.%.+ 1 i t.b x b c g C c d.N m g t d & % d d h M v M g d % - t f x u.T v.T t.SXKXPXdX$X[.7.] ^  .@.X.' ~ E 9 8 9 8 q 6 2 2 , , , , , , , , , , 2 2 6 8 8 8 8 8 7 7 7 9 9 9 9 9 9 9 9 9 9 9 9 Z Z 9 9 Z Z Z Z Z E E Q E ^  . . .~ / / ^ 9 ) ) _ ;.J.,Xp.P.SXKXnXxXmXrX|.C.Y.U.C.Z.l.l.i.i.i.H G G J i.i.G y - G G G y p x x x H G y G G J G G x u.^.|.V.Y.X o e e %.-.-.J.! ]  .~ ..@.~ ~ ~ Q Q E E E ~ ~ ~ X.6.6.3.6.3.| ' ..@. .9 7 ^ W W ^ ^ W E E 9 0 8 9 8 9 L / ~ ~ ~ / Q W E 9 8 9 9 9 9 Z 9 7 , 8 8 6 q 6 6 q 7 _ 1.-.F.L.p.+ r i v.v.n.f.f.n ",
"& t y.l % g f $ d % & & % t t % n g n m % z z y.n.y     o a.=XM.F.8.[ A 9 ] 9 9 8 6 8 8 8 9 A 7 9 L W W 9 8 8 8 8 9 9 8 6 6 6 , , 6 6 6 2 6 6 , , , , 6 6 6 6 , 4 , , , , , 9 #.7.7.$.@.@.~ E | X.| ..5.4.,.@. .Z ^ O.-.F.p.O 1 R.IXKXgX8XzXxXv.l.B.^.U.l.l.k l.B.B.l.l.l.l.B.B.Z.C.S.S.B.l.i.l.S.B.B.l.l.B.l.i.x V.C.V.l.l. XrX(.8X|.o O D 0.J.[.[.O.2 W O.W Z W W E 9 9 8 8 9 6 9 9 A 9 9 7 6 2 6 6 6 q , < < < , , 6 ) W 6 W 8 6 6 , 6 8 , W E 9 9 E ! W L 9 8 4 6 9 0 6 4 6 6 4 6 6 8 8 9 A 6 0 *.8.F.K.L.u o p p x b k z h & R n.n.x.j.n g % d d d h j v v n N g & t k x u.v.g.y -XKXPXIX>X%X0.O.o.o.+.+.` ~ ~ E 9 9 9 8 8 6 6 2 , , , , < q 6 , , 2 6 8 8 9 9 9 9 9 9 9 9 9 Z E 9 9 E E Z W E E E E E E E E E E E E Q ~ ~ ~ {  .@. .^ ~ ^ E ] W _ *.H.;XK.F fXLXJXuXZXgX8X|.|.Y.U.B.l.l.V.V.i.G H H H V.l.x x x x k y p k p p G J G i p y x G G x x G U.iX|. Xa.  r u F 1.H.J.$.5. .~  .E | ' E E ~ ~ ~ | ~ ,.' | 6.3.3.3.X.X.| X. .E 9 9 E E 9 E ~ ~ ~  .8 9 8 9 L 8 9 Q { ~ ~ ~ / / W W L 9 8 9 0 9 8 8 6 4 , , 6 q 0 ( 6 A -.1.1.L.L.u O y r n.~.b.k.v ",
"z f c f % f f f d t % $ $ $ t f c g g z f z x u.y.#   @ r T.T.F.F.1.[ ) ! $.Z Z 8 6 8 9 6 6 7 8 8 9 E E 9 8 8 8 8 9 0 8 6 8 6 4 6 q q 6 6 q q 6 , , 6 q q q 6 6 6 4 6 q 6 , 9 ) ^ ^ / ^ +.@.5.q.,.,.3.6.5.5.4.@.+.^ =.*.;.1 o &.bXKXSX8X9XxXeXv.Z.S.C.C.i.H x C.Z.B.B.S.B.B.B.Z.B.Z.B.l.l.l.l.l.B.B.B.l.l.l.l.l.i.l.l.B.V.V.|.rX XZ.R.a.  < :.8.J.#X0.W W ) 9 7 ^ ^ / E 9 8 7 9 9 W W Z Z Z 9 6 7 0 q q 0 3 , , < , , q W 9 8 E W 0 9 2 6 9 7 W E 9 9 E Q E E 9 8 6 6 9 0 6 4 6 4 , , 6 8 8 9 A A 0 _ ;.1.H.K.F.1 + r i x x z f % m d.n l c c g h g j g j v B B n N m l z z x b x.x t.BXKXPXBX;X#X7.o.]  .+.+. .~ ~ E 9 9 9 8 8 8 6 2 2 , 2 , 6 2 , , 2 6 8 7 9 8 9 9 9 9 9 9 9 Z E E E E Q Q E E W W E W E E Q Q / ~ ~ ~ ~ '  . . . .+.+.o. . .! ! ) [ %.F.>X&.P.AXKXZXhXzXeX X|.^.U.C.B.v.B.V.V.l.i.i.G l.^.B.G u.u.x y y y - x y x G x p i x G i.u.G G G V.8X|.Y.R.; X e e D 1.$X[.w.X. .9.4.2.5.3.| ~ |  .4...3.| X.@X6.3.3.3.X.| X.| E 9 9 9 E E E E Z E  .^ W 9 9 L L Q ~ ~ ~ E E E E E 9 9 8 6 6 8 8 4 , 4 , , , 4 6 q 0 D 0 [ -.;.F.K.G.1 + r u.n.n.m.N ",
"l % d z c c c m d t % % % % f m d g g k c k u.z.y   + r p.=XL.;.%._ D A ^ $.Z E 9 9 9 W 9 6 7 7 9 L E E L 9 8 6 8 9 9 8 6 6 6 6 6 6 6 6 6 q 0 0 6 6 6 q q 0 0 0 q 6 6 q 8 , 8 W ^ 9 9 9 9 E  .>.,.,.5.q.q.q.q.9.9.<.8.;.w o = -XPXKXfX8XhXgX/.Z.C.C.U.S.G i.z.Z.Z.l.l.l.B.B.B.Z.l.B.S.l.l.S.l.l.C.B.B.B.B.B.V.V.v.l.C.Y.U.V.B./.8XrXuXuX= o F L.J.%X[.$.W ! ) o. .+.+.` E 9 E W W ! W Z S ! S 7 7 0 q q 0 q , 3 < < , 7 W W W ) W 9 E 7 7 Q E E E Z 9 E E E L 9 9 8 6 9 8 6 4 4 , , , , 6 6 q 0 ( 7 ( -.;.8.K.{.:.O r p y u.b l % d l f & & d % d g j h j N k.f.f.f.f.d.m x u.t.t.r E.PXKXGXaX$XJ.>.` `  .+.@. .~ Q E 9 9 9 8 6 6 6 7 9 0 6 6 8 6 6 6 8 7 9 9 9 Z E E W W / W W W ! ^ Q / ^ ^ ^  . . . . . . . . . . . . . . ...>.@.+.@.$.o.} ) ) W _ *.;.}.}.u uXKXJXgXmXiX|.|.^.C.S.l.v.v.v.V.V.Z.B.l.i.i.B.i.k x p - y x x y x y p G i y p G x H H G H H l.^.^.Y.9Xa.X + e e -.$X<X&X9.7.q.5.6.@X6.X.~ ' X.,.3.5.X.3.+X@X6.6.3.X.X.2.| ~ / E 7 E / / ~ E E  .$.E L E L Q | Q | ' ~ E ~ Q E E 9 6 4 6 6 6 4 , 4 , , , , , 3 q ( q ( -.-.8.K.T.&.o r r u.D.b.j.",
"n f f n y.m f d z d $ $ t d g g C c m z x f g.u.@   p i -XT.F.*.w 0 A ! $.#.~ ^ / 9 E ^ E 7 7 Z E E E E E Z 9 8 9 9 9 8 6 6 6 6 6 6 , , 6 q q 0 0 0 q q q 0 0 0 0 6 6 q 8 6 8 W [ E E E 9 E @.>.....5.+X'.q.q.q.7.0.1.;.O O u kXLXDX9XhXnXrX/.U.Z.A.|.B.i.C.C.l.Z.l.z.l.l.l.l.B.l.S.l.l.B.B.S.l.C.B.B.C.C.B.l.V.l.i.V.C.C.U.^.rXiXMXxXnXR.  e 1.H.$X%Xw.O.) #.7.`  . .^ E 9 9 E E W W E W ) W 7 7 0 7 q q q q 0 , < , 7 9 E ) O.o.^ $.^ ~ @.@.~ ~ ~ ~ ~ ~ ~ ~ ~ 7 6 6 8 8 6 , , , , , , , , 2 2 0 2 A -.8.0.J.K.L.w 1 r p T b z h d c b d % d $ C g g h j f.m.m.m.h.f.H z H i.u.y p kXKXPXBX>X#X7.$.`  . .+.+. .Q E E L 9 8 6 6 6 7 W o.) 9 8 7 9 9 9 9 9 Z E E / / / ~ ^ ^ ^ ^ ^ ^ ^ ^ `  . . . . . . . . . . .X.X.+.+.@.@.@.@.4.@.@.#.#.o.) ) ] W [ ;.K.>X&.T.AXKXDXhXZXrX(.(.U.B.i.i.l.v.v.v.l.C.l.l.V.G p i.l.x - p G G x i x p G G x x x G G H G G J i.l.^.|.9X9X7Xp   u F 1.$X3X3X*Xq.e.@.q.q.6.X.| X. .,.3.3.3.6.+X@X@X6.6...2.4. . . .E ^ o.+.+.@.@. .@.>.^  .@.{ ..4.| | ' ~ ~ ~ ~ ~ E 9 8 6 6 6 6 4 4 4 , , , , , , , q 2 ( -.1.8.K.K.L.1 r + x n.n.m.",
"h.n f g n m c g c d % % t d t : f c m c x b z.y   @ i a.,XK.F.-.0 0 A A ] o.Q Q Q 9 9 ^ W 9 7 9 E E L E E E 9 9 E 9 9 8 6 6 8 0 6 6 6 6 6 q 0 0 ( A 0 0 0 0 0 0 A q q q 0 q 0 0 *.( ) ) W ^ #.>.4.4.q.+X+Xq.q.9.9.J.8.%.. 1 P.IXKXhXrXZXxX9X X^.U.l.C.A.U.Y.U.B.Z.S.l.l.S.l.S.B.C.l.i.l.Z.C.S.B.V.B.B.C.Z.l.i.i.z.i.I.V.C.|. XpXpXeXrXnXjXr O F F.#X:X&Xw.$.` $.+.+.o.^ W E L E 9 W W W ) ) W 8 7 0 0 0 q 6 0 _ D 6 6 7 9 9 ^ o.^ ~ @.| ~ 4.4.| ~ ~ ~ ~ ~ ~ ~ ~ 9 9 9 9 8 6 , , , 4 , , , , , 2 q 6 0 [ 1.J.J.J.K.M.1 + r x T z z f m y.z f h $ h M j g M f.m.m.m.k.h.n c y.u.x r E.PXPXGX1X;Xw.<.o. .+.+.X. .~ E E E 9 9 8 6 8 9 Z ^ $.o.E 9 E L E E E E Q / ~ ~ ~ `  .{ { ^ ^ }  . . .+.@.@.@.@.@.@.@.@.@.@.@.@.@.@.@.@.@.@.@.X.+.@.#.#.o.) O.] W 1.J.>XT.F CXKXDXzXnXnX9X X|.U.V.i.i.S.V.v.v.l.l.i.i.i.G G i.i.G y x H H G G G G i.u.G G H G u.i.u.H i.l.B.Y.eXgXuXuXR.@ o &.;.H.1X5X&X7.5.5.5.5.5.4.2.X...5.,.4.5.3.6.6.6.6.q.4.4.5... .+.Q ` $.@.@.#.@. . .+.{ @.@.' ..5.X.' ~ ~ Q ~ Q E E 9 9 6 8 6 , , , , , , , , , , , 2 6 D [ <.0.J.K.=X:.1 ; r g.n.b.",
"j.y.f f n n n n f d % t t % t d m c c z b i.G X @ G s.-XK.K.1.*., 6 A 7 Q Q E E E 9 E ^ E 9 Z Z E E E E ~ ~ ~ / Q E Z 9 9 9 9 W 0 0 q 7 0 0 0 ( 0 0 ( ( ( A 0 q 0 q 0 0 0 q q q [ _ ) W Z E ! Q 4.4.q.+X+Xq.q.9.w.J.H.5 O r lXKXJXrXgXSXgX9X9XU.C.i.i.S.U.Y.U.Z.Z.Z.B.B.S.S.S.B.C.l.H l.A.C.S.C.C.C.C.A.C.B.i.u.z.v.I.C.U.^.Y.A. XpXxXZXDX}.  e F.$X:X1X*X7. .@.#.#.$.o.W L W W P P ( _ _ W 0 6 7 A 0 0 q 6 q _ ( 0 q 7 W E W `  .| X.~ | 4.4.X.' | | | ~ ~ ' ~ ~ Q E 9 9 6 , , , 4 4 , , 4 q 6 0 0 q 0 [ 0.{.{.K.K.u + r y b z b f l z f t d - d f g j v k.m.m.k.m.m.f.g.g.t.y i jXKXPXBX:X%X0.$. .+.@.+. . .~ E E E 9 9 8 8 8 9 E Q / / 9 9 E E E E Q ~ ~  . . . .X.X.@.+.+.o.+.o.o.+.@.@.@.@.4.4.4.4.4.4.>.>.@.@.@.@.@.@.@.@.@.@.>.=.$.[ _ [ [ _ J.;X,XF 7XPXKXnXhXZXgX9X9X|.Y.C.S.l.S.l.z.i.l.G i.G y H l.G p G G G G H H G G u.i.G G u.i.G H i.i.i.V.C.C.^.uXuXhXuXgXt.  u :.-.w.&X&Xe.#.7.4.5.9.6.4.|  .7.4.,.4.~ X...3.6.q.4.4.5.4.>.5.$.o.7.7.>.#.+. .@. .|  .X.' ..5.3.| | | | ~ ~ ~ ~ ^ W 9 9 8 6 , , , , , , 4 6 6 q q 0 0 A [ 0.K.$X=XL.u p # b n.n.",
"b.b.m n n g g c f d % d f f d d m n z z u.i.#   r a.R.-XF.F.*.D 2 0 [ 9 ` ` ` ` E E ^ ^ Z Z Q Q E E Q ~ '  . . . .^ ^ ^ W E P W A 0 0 0 0 0 0 ( 0 0 0 ( ( ( A 0 0 0 0 0 0 q q q _ _ _ W ) ] ] #.7.5.q.*X*X+Xw.w.0.0.;.. a p.CXKXSXuXnXnXxXiXeX|.U.C.B.i.U.C.A.Z.Z.C.C.B.l.S.S.l.B.l.i.l.Z.Z.B.C.C.A.U.A.C.V.l.i.v.V.v.l.C.|.9XeXhXFXJXDXFXjXr . ;.K.%X%X#Xw.5.7.o.o.O.^ 9 8 0 _ I 0 ( [ [ P q 0 8 0 0 0 w q 2 0 q 6 6 0 } ) ^ $.5.4.4.2.6.q.5.4.4.5.6.4.2.2.2...` ` Q E 9 9 6 4 , 4 4 , , 6 q 6 q w q 2 A =.J.#XK.K.p.r + y x x m b b z z f f g d d d j B k.m.Q.m.b.m.c.c.u.x i R.HXKXGX1X$X#X9.$. .+.+. . . .~ E E E 9 9 8 8 9 9 9 E E L 9 E ~ ~ ~  . . . .........@.@.@.@.#.@.+.o. .o.@.@.@.@. . . ...@.@.@.@.4.>.@.@.>.>.#.@.4.>.#.#.-.O.O.*.-.<.{.;XL.G.AXLXZXzXnXzXiXrX9X9X^.U.V.B.v.i.u.H H G i.G G l.i.x i.l.i.J G H G G G t.i.G G G i.H G i.i.B.Y.^.^. XuXgXxXhXzXqX; O D _ $.7.%Xw.7.7.5.9.q.9.5.{ ^ @.>. .@.~ ..4.5.6.6.4.4.5.7.7.7.7.>.e.e.7.9.7.5.9.4.5.4...5.q.q.5.3.3.4.4.X.X. . .` ^ W W Z 9 6 6 , , , , , , 6 q q 0 0 8 W =.0.$X{.T.p.F r x c.I.",
"n.n.m n y.f c y.y.g - d z c d % g g.n b x.u.  @ F N.0XK.M.;._ q 6 ( -.9 ! ` ` Q E ~ +.` 9 9 Q ~ ~ ~ ~ ~ ~ |  . .@.X.+.o.) W 9 0 A 0 0 0 0 7 0 0 0 0 0 0 W ( _ _ ( D w w w D ( _ *.-.[ _ O.O.O.7.e.e.w.*X#X+Xw.w.0.K.:.. r lXKXKXnXhXSXiXzXxXpXuX9X|.U.U.|.l.l./.Z.U.Y.C.S.B.B.l.l.l.i.l.B.Z.Z.C.C.A.A.C.C.C.V.l.i.I.U.(. X9XxXmXDXDXZXDXFXDXwX  w F.{.J.#Xw.5.>.] =.=.O.W 9 _ -.I 0 ( *.*.0 q ( 0 A ( ( _ w 2 2 , 6 , 9 =.$.^ @.4.4.4.4.+X+X5...3.5.5.3.X.X.X.X.' ~ Q E E 9 8 6 , 4 4 , , , 6 , , q 0 6 q _ <.J.$XH.L.&.+ r x x y z b b z f t f z f g v K k.b.Q.n.m.d.g.c.G i t.kXPXKXBX{.J.'.>.+. . . . . .+. .E E E 9 9 8 8 9 9 E E E E ~ ~ ~  . .@.@.@.@.@.@.....@.@.@.+.+.o.o.^ ^ o.+.+.o.+.@.@.@.@.#.#.7.7.5.#.#.#.#.#.=.#.#.o.] O.=.=.<.8.<.J.K.}.p.fXLXLX9XxXDXiXgXiXeXuX|.Y.U.C.l.i.H H p i.l.i.|.^.G i.C.H x G G G G G G H i.i.u.u.i.u.i.l.V.Z..X X9XeXiXmXnXmXnXZXN.  3 %.1.<.#X[.e.e.5.9.9.7.7.#.o.o.@.~ @. .9.q.q.q.9.5.@.@.5.$.] o.] o.] ] <.7.5.>.5.7.@.4.q.+Xq.3.3.3.6.4.X.| | | ~ Q E W E 9 8 8 6 , , , , , , 2 2 q 7 7 A _ <.J.K.$XT.&.i p x.~.",
"~.b.d.j.d.m c m b x y t b f % d c z y.b v.#   r i K.>XK.K.*.5 w q 3 q ( ( Z 9 9 E Q / ~ E 9 E ^ E E E ~ ~ | X.4.3.5.| Q o.o.) 9 W 7 9 A 7 0 0 ( _ A A _ _ ( _ -.-.-.*._ ( _ *.-.=.-.-.-.*.[ =.0.0.w.J.#X%X#X[.J.F.K.1 . P.JXKXAXgXzXzXhXzXxXiXuXeX8X X X(.^.U.B.Z..XY.C./.B.i.C.S.i.l.B.S.V.Z.U.A.Z.U.Y.Z.l.l.i.l.C.Y.8XrX9XuXnXZXzXZXDXDXJXDXp . M.K.[.[.e.q.9.<.J.%X#X0.0.7.7.( _ [ *.-.*._ *._ _ ( _ *.*._ ( A _ -.[ A ! [ ` ~ E  .,.q.q.5.X...6.6.3.| | X.| ~ | | Q E Z 8 6 0 6 , , 4 4 2 2 9 9 0 0 q w *.0.J.J.K.M.u i y z b b Y b f t t $ t g l j n h.k.k.h.h.j.v.I.p t.R.GXKXGX>X%X7.w.>.+. . . . . .` ^ W E E L 9 9 8 9 9 9 Z E Q ~ ~ | X...X. .@.@.+. .>. . .@.$.o.o.o.o.) } O.O.#.=.$.=.$.O.O.=.=.$.O.=.-.-.O.O.[ [ [ O.( _ ( [ 8.8.H.H.H.,Xp.R.HXLXhXuXxXgXgXxXgXiXuX8X XY.I.V.v.v.G x G G B.l.i.i.G G G G G x H y u.H l.l.V.B.V.V.l.I.^.|. XeXrXiXnXmXnXDXZXmXmXhX; . %.8.H.0.7.w.q.'.*X<X*X+X+Xw.e.w.$.+.] 7.w.$.9.7.>.>.<.$.=.<.*.O.-.<.<.<.<.+.^ W o.W +.9.q.3.6.| 3.q.3...X.~ | ~ ' | ~ E 9 9 9 8 6 , , , , 2 2 7 9 A 0 0 0 *.0.0.{.{.K.N.t.y.I.",
"I.b.h.j.f.n n n z f y $ x d % d t b y.y.u.@ + &.&.;X$XH.1.%.w 5 , , 4 0 ( Z 9 Z Z E Q Q E 9 E ~ Q ~ ~ ~ ~ X.4.3.X.3.,...5.=.*._ 0 ( _ ( 0 _ *._ _ _ *.*.*.[ [ [ *.-.-.-.;.-.;.-.8.1.8.8.8.8.F.J.{.$X$X$X%X%X{.K.{.L.  &.SXKXJXzXhXxXgXuXgXgXiXiXuX X^.^.I.Y.^.C./..X^.Z.C.B.B.U.l.i.B.B.S.B.Z.U.A.C.A.^.U.i.H i.l.B.U.U.|. X|.9X9X8XhXDXDXmXDX|.. u F.J.w.0.9.0.8.J.$XJ.J.J.w.J.-.<.0.J.J.H.H.J.J.J.K.$X{.H.8.0.8.1.8.1.<.8.J.[.w.9.$.Q 9.q.6.5.,.3.6.3.3.....X.X.| ~ Q Q E 9 P 0 6 , , 6 6 2 6 S 9 0 0 q q %.1.0.8.8.1.F p x b Y y.y.b l f y % d g g g m K K K h.b.h.n.u.p a.kXKXPXaX=X[.[.7.+.+. .` ` ^ ^ / W E E L 9 9 9 8 9 9 9 Z E Q ~ ' | X.....@.@.@.#.#.#.7.7.#.o.[ O.( [ _ [ [ [ [ =.O.[ *.*.*.*._ *.-.*._ _ _ _ _ D w %.-.-.( *.J.H.H.K.=XG.p.jXKXDXhXZXZXhXiXgXgXgXiX X(.U.C.V.i.i.i.G G G t.G y x G t.s.G G H l.u.l./.A.l.B.^.Y.l.i.v.Y. X9XeXeXiXnXhXrXmXFXZXuXxX7X  e 1.J.0.0.w.w.#X4X5X3X&X*X#XJ.0.0.%X$X#X:X%X1X3X&Xw.J.%X$XJ.J.K.{.$X$X%X%X$X[.0.=.$.#. .q.q.5.3.3.6.3...4.| X.| | ' ~ E E 9 9 8 6 4 , , , , 2 6 7 0 0 q q _ <.8.w.[.}.T.a.u.I.",
"n.n.n.j.d.R m l f y t t b z l c t y.y.g.y   r &.F.2XK.8.*._ w < , , , 0 W A W ! Z E Q / E E E E ~ ' | ~ | ..4...X.,...@.$.$.*.*.w %.%.( ( :.;.;.:.;.;.;.;.8.8.;.;.;.;.;.M.M.;.;.M.;.;.;.:.%.:.;.M.M.8.8.F.F.F.M.M.e O -XHXKXZX9XnXZXZXZXnXhXgXhXgXiXuXeX9X|.Y.I.|.^.Y.A.B.l.l.l.l.l.C.B.l.B.C.Y.U.Y.U.Y./.v.i.v.v.I.8X^. XgXgXZXnXzXZXFXJXnXJXHXo o M.{.H.J.J.J.K.K.$XH.8.H.8.8.8.J.$X,X2X>X;X>X;X>XdXBXdX>X,X>X=X=X$X{.$X$X=X:X%X%X0.) e.9.4.5.3.3.3.3.5.3.....X.' E E Q 9 8 P 0 6 , 4 6 6 2 6 9 9 0 0 q 5 I *.0.8.8.F.p.p i.u.Y y.x.y.z z f t d g g l n n n N h.n.b.n.x i 7XGXKXIX=XK.<.7.o.o.o. .` ~ Q W E 9 9 9 9 9 8 8 8 8 9 9 Z E ~ ' | X.X.X.@.@. .o.=.r.=.=.=.*.*.-.;.*.:.*.-.;.-.*.-.*.:.%.%.%.%.%.%.%.;.:.:.:.%.%.w e w ;.F.F.$X>X=X{.L.=Xp.-XHXKXCXnXZXZXzXhXzXhXhXgXhX9X(.Y.P.i.p i G G i t.i.G x G x B.V.U.U.I.C./..X|.Y.l.Z.C.l.Y.|.rXgXhXiXiXhXmXDXnXZXFXJXzXnXqX  O ;.{.K.$X;X;X%X3XdX3X:X%X%X$X{.=X2X1X:X2X>X;X1X2X:X,XaX>X=X>XaXaXaX2X2X2X2X1XaX;XJ.8.) e.q.5.5.X.3.3.3.3.,.X.| ' ~ E E E 9 6 6 6 , , , , , 2 7 7 0 0 q q ( [ <.<.8.{.}.a.t.u.",
"g.b.n.x.f.R v d d t y y b z m n z y.y.y.*   i &.T.,XH.8.*.q 3 < 5 , , 6 0 0 W ` ^ / ~ ~ ~ E E E ~ |  .X.......X.3.X.| E W [ %._ %.%.%.&.&.&.&.:.:.:.%.u e 1 1 < 1 1 1 1 1 1 1 1 O O o o . . . O = < O O o .         u wXfXP.@ # u.t.N.wXCXAXZXnXCXnX|.s.G p p i.^.Y.Y.Y.Z.l.l.l.l.l.C.B.l.B.C.Y.C.C.Y.|.(.V.v.V.Y.7XgXqX|.R.s.t.i.a.a.v.P.u.a.a..   F L.K.K.H.H.L.F.F.;.;.1.;.;.F.F.p.;.:.%.u w u %.:.M.G.L.,XsX=X=XK.L.K.F.1.F.L.{.J.8.J.J.e.q.4.3.3.3.6.6.5.4.' ' ~ E E 9 6 6 0 6 4 6 6 6 6 6 7 9 9 0 0 q 0 ( 8.8.8.F.G.F G u.x y.c.g.b m z d d f f M n K K f.m.n.n.z.i a.kXPXPXdX{.8.[ 7 ) $.o. .` / E E 9 9 9 9 8 8 8 8 8 9 9 9 Z E ~ ' X...@...@.+.o.#.=.[ *.%.w %.:.:.%.%.&.&.&.;.:.:.:.%.&.&.&.&.:.:.:.&.< < 1 1 1 O o . o O O < w %.%.p.G.&.p.fXlXa.t.wXZXAXAXAXAXCXnXjXjXuX9X|.Y.V.t.i.H i.H G G G G G Y.9X9X9X|.V.B.U.9XU.Y.C.U.V.i.Y.fXgXhXjXnXnXZXFXSXAXZXnXhX9X7Xa.. o w L.L.K.;X$X>X>X,X$XK.K.K.K.L.F.L.F.M.L.M.%.L.,X}.;.%.u u u u u F F F F w w e %.( ;.0.#Xe.7.5.| 4.6.5.5.5.,.| ~ E E E 9 8 4 6 4 , , , , 6 6 6 7 0 0 0 q 0 ) 7.<.8.K.}.P.s.x ",
"f y.b.n.m.j.n g g y y y x f g z b b g.x X @ &.p.K.K.F.*.%.3 < 3 , < < , , 7 W ^ ` ^ ^ ^ ^ W E /  .|  .2.4.@.@.4.4.X.` E _ -.I w 1 u t.a.G.s.i i r r r r e e u u 1 r r r 1 1 a a r u &.s.s.t.s.s.s.p.a.p.s.&.&.&.i i a.qXP.p p @         . X + +   .     X X   @ G U.Y.V.l.l.l.Z.l.S.U.B.l.C.U.Y./.C.^.(.i.r ; ; r ; X             X               o O &.K.T.T.oXT.K.L.F.p.G.G.G.&.;.p.G.T.E.p.&.1 u u r 1 1 e u e e = = e e u &.p.F.L.L.:.-.8.0.5.9.6.5.5.q.q.9.~ @.+.Q E 9 8 6 8 6 4 6 6 6 6 6 7 9 9 P 0 0 0 A [ 8.1.1.L.p.r t.z Y c.c.y.b m g d g g M n d.d.f.n.~.n.x i R.GXPXBX,XL.*._ q _ [ ] o.` Q E Z 9 9 9 8 8 8 8 8 9 9 9 9 E Q ~  .X.@.4.@.o.o.$.=._ q e u &.p.p.&.r r i r r u u u U u t.s.p.t.i u r r a 1 r 1 1 ; 1 r u u r 1 e u &.p.p.e i a.r +           X X   X                 X F C.U.u.G B.|.9XhXiX.X^.(.B.Z./.|.V.^.V.s.r @ + ; + X X X X       o     @       . O e p.L.K.aXaX>X-XT.G.G.G.p.p.p.s.p.s.&.s.p.p.p.G.G.s.&.t.t.u i U &.&.:.:.&.&.:.s.%.%.*.0.w.w.e.>.5.q.6.5.q.6.|  .^ / E 9 8 4 4 4 , , , 4 6 6 6 6 0 0 0 7 0 A <.7.0.J.{.T.N.x ",
"y b h.n.n.h.n c z f f f x f z z b b x.y   @ &.G.K.L.H.w q 3 3 , < < < < , 6 W ^ ^ Q / / / W / ^ X.~ ~  . . .@.q.@. .o.W *.%.5 u R.fXjXCXDXAXjXrX7X7X7XqXqXwXqXqXfXfXqXqX7X7X7XwX7XwXlXfXfXfXfXfXkXjXCXCXUXzXzXUXCXR.s.wXUXAXAXCXBXsXT.s.r + o . O . 1 &.s.a.a.i @ I.8XV.i.l.l.l.S.B.U.B.V.U.Y.^.^.|.Y.x @ # r + @ @ @ r F &.N.G.s.p.&.1 + . + u &.G.u :.0XbXSXIXIXSXSXBXBXBXBXBXCXAXHXPXKXPXCXfXqXqXqXwXwXqXqXqXR.R.R.7XqXsXfXkXjXBXSXsXu O *.[.w.+X'.5.,.4.4.@.~ >.@.E 9 9 9 8 q 6 6 6 8 6 6 7 7 9 9 P W W W W ] 0.0.8.L.G.1 i z b x.b.h.d.n c h c M M n j.f.f.n.~.x.y t.sXKXPXaXK.8.%.5 q w D ^ o.` W E E 9 9 8 8 8 8 6 8 9 9 9 9 E ~ `  .X.X. .+.] [ -._ q e T.sXUXCXCXkXqXqXOXE.P.E.E.R.R.OXfXfXlXqXwXwX7X(.(.R.I.P.v.v.P.E.R.wXqXfXfXjXSXCXqXu 1 R.sX0XE.E.t.F r u u r u r 1 1 1 r u u r     i V.i.l.|.9XuXeX9X|..X9X/./. XU.Y.^.; @ ; r = O O O + 1 1 1 1 e u = o .   + 1 &.G.G.T.0XsXSXGXPXPXPXHXIXIXIXIXCXCXjXjXjXBXSXAXIXIXLXKXPXHXDXCXFXHXHXJXJXHXHXHXAXAXSX0Xw w 8.0.#Xw.q.q.4.X.5.4.~  . .^ E 8 6 6 6 6 4 , , , 2 2 8 8 7 0 0 0 A ! ] <.w.J.K.}.G.F ",
"x x Y n.D.x.n m c f z z x z b Y y.u.u.@     &.G.K.L.;.w 3 , 3 < < < < < , 6 0 E Z Z E E E E E / | ~ ~ ~ Q Q  .5.@. .o.( %.w 1 E.IXJXHXDXHXFXZXUXZXDXJXLXKXKXKXKXKXKXLXJXHXHXJXJXKXKXKXKXKXKXKXKXKXKXKXLXLXKXKXKXCX+ i CXHXIXkXBXkXkXaXT.&.e e 1 u u F p.P.P.s.i p I.9X XI.B.V.l.B.B.U.V.C.^.|.^.I.|.u.@ y 7XfXqX0X0XyX0X-XT.}.=X=X=X,X=XG.p.p.G.aXsXL.:.wXHXKXKXKXKXKXLXLXKXKXKXKXKXJXAXAXSXCXzXhXCXDXJXJXJXJXHXJXJXJXJXJXLXHXAXAXDXDXkXu   O ;.[.#X+X9... .~ E / +.o.E 9 9 8 8 8 6 6 8 8 6 6 7 9 9 9 0 W ( W W ! 8.0.8.L.L.&.r y f b v.b.h.y.n g n m c n h.c.h.n.n.x y T.IXPXBX=XH.;._ < 5 < q W ^ ^ W Z E 9 8 8 8 6 6 6 8 8 9 9 E W /  . . . . .o._ [ *.w w G.CXHXHXAXZXZXCXDXZXmXzXnXzXzXZXZXzXhXgXgXzXDXDXZXJXFXDXZXZXZXDXHXKXKXKXLXDXAXHXZXi + &.fXGXIXGXIXSXBXkXkX0X}.}.L.T.G.p.E.E.G.p.. X ; V.Y.Y.|. X X XeXpXeXpX X|.|.|.(.G   G }.-XG.:.;.&.:.p.p.p.F.%.L.F.;.u u G.T.jXBXkXsXGXKXIXPXHXHXIXAXAXDXFXJXLXLXLXLXKXKXKXKXKXKXLXJXDXDXDXJXFXDXFXFXDXAXZXSXAXAXSXqXO o ;.=X$X#Xe.9.>.' | ~ E / ^ ^ E 8 6 4 6 6 6 4 , , 2 2 9 7 7 0 W W ! ) ] <.[.[.K.}.T.p.",
"t.y k c.D.m.d.Y n k c x b z Y Y y.x.y       p.K.F.8.w %.q , 3 , < < , < < , 4 6 9 9 E E L 9 9 E ~ | | ~ E E ~  .#.o.O._ %.e &.CXJXAX8Xn.v.g.g.D.OXrXgXuXrXrXrXrXtXrXgXxXzXxXgXgXrXrXtXrXrXrXrX8XtXtXtXrXgXxXnXZXr   i jX0Xp.u w u w %.%.u %.%.w e ;.u u G.s.1 i P.a.Y.|.I.l.C.I.Z.B.U.Z.I.|.|.^.|.Y.+   E.BXSXGX0XT.T.p.%.M.F.K.=X{.;X2X>XaXdXdXdXaXp.. i lXjXgXkXfXrX8XwXqX8X8X8X8XI.u.y.u.y.y.v.I.(.8XtX8XtXrXuXtX8XtXrXuXrX(.8X).(.(.t.o   w {.[.'.q.>.` / ~ E ^ ^ ^ ^ 9 6 8 8 6 6 8 8 6 6 7 9 9 9 9 W ) ! W 7 O.8.1.F.F.G.1 y > f x.n.c.d.n g K n c H b.n.b.b.x.t x qXPXGX>XJ.;.*.5 < 5 < , 9 W ^ E 9 9 9 8 8 8 6 6 6 6 8 9 9 E W ^  . . . .$.$._ *.*.1 &.fXHXZXrX~.I.n._.iXuXrXgXiXrX8XtXrXOX(.~.I._.8XrXuXtXtXtXrXcXzXZXDXzXxXxXZXgXtXtXR.    s.SXPXIXGXkX,X,X=XT.;.u %.F :.%.e &.u u W.1 ; ; s.V.l.B.^.uXiXpXpX.XpXiXeXeX|.v.+ @ R.N.&.p.p.;.%.:.8.F.H.J.J.J.8.{.=XT.,XyX0X0X-XG.kXAX(.(.(.I.x.y.T y.c.D.(.8XtXrXrXrX9X9X9XrX(.v.c.x.y.c.v.c.c.x.g.y.b t.z.i.v.V.r   = M.K.J.7.7.7.X.| Q E Q ^ / E 9 6 6 6 6 6 4 4 6 2 6 0 7 6 7 0 W W ! 9 ] 0.J.H.K.}.L.",
"P.x f y.n.D.h.f.n H f k g.x y.y.u.z.  X   + T.K.J.;.( w q q 3 < < < , , , , , , , Z E Z 9 9 9 E ~ ~  . . . . .^ O.O._ ;.u u wXPXFXc._.I.n.~.b.n.n.c.g.g.g.y.y.y.u.u.c.I.I.I.I.~.I.n.x.x.v.n.D.n.Z.g.Z.I.8X9XzXI.X   R.T.1 :.%.:.%.%.:.%.%.%.%.%.D :.F F F :.u O P.V.t.Y.8XV.V.Y.U.U.|.U.(.8X9XY.|.u.  i fXCXkXp.:.%.%.;.L.{.$X{.:X2X1XaXdXaXdX1X1XK.K.1   i a.8XR.P.u.t.t.y.t.b b x b u.g.u.y.g.d.Y n n y.d.d.y.x.c.x.x.n.~._.~._._._.).(.X . . 1.%X%X0.7./ +. .^ ^ ^ W E 9 8 6 6 8 0 0 8 8 q 0 9 9 E E W ^ W Z 7 ) [ 8.8.F.L.u p x > b I.c.j.m.d.m n d.b.b.g.n.n.b > P.IXPXBXH.H.;.w 5 , < < , 8 W ! 9 9 9 9 2 6 8 8 6 8 0 0 9 W / ^ ^ ^  . .o.) [ _ *.w 1 R.SXJX~.I.8X).)._.Z.~._.).)._.~.~.~.I.~.(._.~.I.n.c.c.D.~.~._.tXxXxXtXiXcXcXtXuXzXx @ @ R.HXsXT.;.u F e w D w %.;.%.F %.%.%.:.;.p.p.r F i.^.Y.|. XXXXXpXeXXXpXiXrX X|.i   t.0Xu p.;.8.1.;.8.K.=X$X$X1X%X$X:X>X>X=XK.L.F &.&.t.rXtX(.I.I.v.x.c.c.x.g.Y y.y.y.y.y.y.g.b b b y.g.g.y.y.Y y.g.g.g.y.H b u.c.u.v.v.  . u L.H.J.$.7.@.~ | ` / W E E 8 6 6 6 6 6 6 6 q 6 6 8 7 0 0 0 W W Z 9 S ] 8.H.H.K.{.",
"R.a.x x x.D.x.n.h.j.H H u.u.Y x.x.p     . %.=XK.8.*.I 0 6 6 6 , < , , , , , , , 9 ^ ^ E E E E E  ...4.@.+. . .^ O.*.*.;.1 a.UXKXgXn.n.n.I.~.n.n.h.j.y.y.y.b b b y.y.y.y.g.y.y.g.c.x.g.x.c.c.c.g.v.x.c.I.(.(.I.> X a.yX&.;.*.*.*.*.%.( D ( _ %.%._ *.%.%.;.;.;.e t.R.t.P.9X^.Y.|..X^.(.Y.|.9X9X|.(.#   P.BXBXG.%.;.%.%.;.H.{.$X{.#X&X%X:X1X$X%XJ.J.1.;.F   + i v.I.V.v.v.x.c.u.c.c.g.y.g.g.Y Y d.d.N n R d.j.j.j.h.x.h.h.n.~._.).~.`.~.).).x   . %.;X:X%Xe.#.$.#.o. .^ ^ ! W W W 6 8 q 8 6 6 6 7 6 7 9 L W ^ ^ W S ! ) <.8.F.L.:.r u.i u.D.x.b.m.f.f.d.b.~.~.~.~.c.# t.qXPXGX;XJ.8.*.q , < < < , 6 9 9 7 7 9 9 8 6 8 6 6 6 8 0 8 L / ^  . .` o.O.) *.%.:.O F fXJXgX_.~.).).).)._.~.~.~.n.b.h.g.h.y.y.g.g.d.d.d.m d.h.c.h.n.~.).).tXiXxXiX).).v.X X P.SXCX:.%.u %.w w w D w _ *._ w D %.%.%.%.%.%.u F i.7XhX9X9XeXeX^. XiXiXiXgX8XP.@   wXE.%.%.:.-.-.-.8.J.$X$X%X[.[.J.J.J.H.H.F.;.:.:.&.t.R.rXtX(._.D.v.b.b.b.h.b.x.d.y.h.h.y.H y.n b m n n n n c m n n n b c c j.h.g.v.v.#   o p.=X$X[.7.7.X.>.@. .^ ^ W E 9 9 6 6 6 6 6 2 2 2 2 6 8 8 9 W ^ W E W ] <.8.H.J.{.",
"R.E.t.p u.n.x.~.n.b.c.g.y.c.Y v.i.@     < F.;XH.-._ 0 q 6 6 6 , , 5 4 , < < , 6 W ] ^ E ~ E E E | X.2.@.+.+.+.o.O.*.;.%.1 7XJXJX(._.c.n.I.n.c.c.g.d.y.y.y.b b b y.m b m m b m y.b Y d.g.c.c.c.c.c.n.c.n.Y.Y.y   i kX,X%.8.8.*.[ *.*.*._ *.*.-.-.1.8.8.;.F.;.;.%.r E.P.i.8XrX^. X9X X9X X9XrX7X9Xu.  + qXSX,X%.;.:.%._ *.8.0.0.0.e.9.7.0.w.0.#X#X<.-.*.1.=   + p v.u.v.c.x.c.y.x.c.j.Y Y n m m n n n N N N d.d.f.N f.h.h.m.n.~.~.Q._._._.).I.    = L.>X2Xw.#.o.#.` ` ^ Q Z 9 9 L 6 8 9 8 6 6 6 6 8 9 9 9 9 E E Z S 9 9 _ -.1.F.F.1 s.v.u.D.c.n.b.b.Q.n.~._._.).I.x # E.BXPXBXH.0.-.( 4 < < 5 , , , 6 6 6 6 8 7 0 6 8 6 6 4 6 6 6 8 P ^ o. .] o.$.*.-.;.F + P.CXAX8X8X_.~.)._._.~.Q.n.m.h.d.d.d.j.g.d.d.d.d.g.h.d.d.h.c.b.n.~._.)._.).tX8X).).y @ a.jXPX-Xe %.w w w w %.*._ *.-.*.-.;.8.F.M.:.%.u u G s.wXSXuX9XgXgXxXiXiXnXpXrXrXr   u kX&.;.:.%.-.=.=.=.7.8.8.0.0.9.7.=.8.J.H.=.%.;.%.:.&.G (.8XOX)._.I.n.n.b.x.j.h.d.n H H n n H n m c c c c c m m n n n n n H j.j.c.c.x.x X   e T.;X;X0.$.@.@.@. ./ W E 9 9 9 8 8 6 6 2 , , , 6 6 8 8 9 9 Z 9 9 9 W ) -.0.J.[.",
"T.T.P.t.u.c.c.n.n.Z.n.x.u.v.x.v.p   . O u L.{.8.[ D 0 0 q 6 6 , , , 4 , < < 4 8 W ^ / E ~ ~ E Q | | X...@.#.>.=.-.-.;.< t.jXKXxX_.).n.I.n.c.y.y.m z g z z z k f g f g l z z z c l c n y.g.c.n.n.n.n.c.c.Y.v.+ + -XkX;.;.*.0.=.[ -.8.0.J.0.0.w.J.J.J.H.8.8.*.:.%.1 F 7Xt.Y.gX|. X8XeXiXiXuX9X9X(.+   t.jXBX;.;.;.*._ _ O.$.O.-.<.>.7.>.e.e.<.7.7.O.] *.*.%.  . o t.u.u.x.c.v.c.y.b c c c c l g c M c m n n n K d.n N N n n d.h.m.n.~.~.~._.).#   . :.>X1X%X$.+.+.5.@.+.^ Q E 9 9 6 8 8 8 6 , , , 0 9 9 9 9 9 9 9 W Z W ( *.1.8.L.&.r 7Xg.n.I.c.n.n._.Q._.).).OXv.# i 0XPXGX>XJ.=.*.D 4 , 5 3 , , 4 , , 6 6 , 4 8 8 8 8 6 4 6 6 , 6 9 ^ ) o.o.O.$.-.:.;.1 &.qXDXgXtXtXn.n.~.Q.n.k.d.K n n n H n n n m m m c m m c H d.j.b.n.~._.)._._._.).).I.@ y qXIXIX:.F u w w %.*.8.0.8.8.0.8.<.8.H.H.8.%.w e s.F i E.ZXnXuXiXxXmXmXxXmXgXxXl.    -X,Xu ;.8.[ -.=.$.O.$.o.) o.+.>.$.o.<.0.8.O.[ *.F &.t.p P.(.(.(.(.~.D.n.x.j.v d.K m m m c m c c m c c l l l g l l c c m n n d.h.d.x.g.g.r   . :.=X;XJ.` +.+.4.@.+.^ Q E 9 9 6 6 6 2 , , , , 6 6 6 6 8 8 9 7 9 L Z W O.0.J.[.",
"K.T.T.a.i u.n.n.Z.~.Z.c.n.b.I.g.@     = ;.8.8.-.[ ( 0 0 0 0 9 6 , , 3 , , , 6 9 E ^ / /  .| ~ ~ 4.2.....>.5.7.7.8.8.:.O R.HXLX8X_.I.c.n.g.d.c m g d % d g k f t f d d h f d f f g c m m m y.h.c.c.g.b.x.I.x   i BX=X:.;.*.-.7._ [ =.8.0.7.7.7.0.8.0.<.8.*._ ( u u + R.P.V.iXrX XeXeXiXhXgX9XuXu.  + R.BX0X%.:.%.[ [ $.#.O.] o.<.+.>.+.7.>.] o.O.] _ [ q :.O   . r u.u.u.i.g.I.y.m z g l l f f g f l m m m n d.j.K n l d h c n H g.g.n.~.~._.Y     e }.1X1Xw.7.@.5.>.@. . .^ E 9 8 8 8 6 4 , , , 8 8 9 9 L E ^ ^ W ) [ _ *.8.H.L.G.1 E.P.v.I.b.n.Q._.Q.).8X8XOXu.+ a.bXKXdXK.8.-._ 0 6 , 3 q 6 , 4 , 6 8 8 , , 6 q 0 8 6 4 6 6 , 8 0 W ) o.O.O.[ -.;.&.+ R.CXAX8X8X~.d.b.n.d.f.n n v c c m m c z m m n n m c m c m m n d.h.b.n.~._.).).).(.y   s.jXIX0X%.I 5 w %._ *.1.8.<.<.<.<.8.8.0.H.8.*.%.u u &.t.E.wXfXgXgXnXDXhXiXDXnXhX;   r fXp.:.w *.O.) o.o.} O.O.o.$.Q +.>.#.o.o.O.O.O.( _ %.p.F s.I.n.I.I.I.b.x.j.f.N d.N n d.d.v g g g g g g g g g g g g c c m m m n h.n g.y.g.x X   1 T.:X%X<.+.>.4.4.@. .` Q E 9 6 6 2 , , , , , , , 6 8 9 9 E W W ) ) ) $.0.[.[.",
"K.K.}.a.r x n.~.Z.~.Z.c.I.n.I.f     . u H.8.<.[ O.( W ( W W 9 6 , , 4 , , , 6 7 9 ! / ~ | X.| | 4.4.....4.7.7.8.0.8.w &.fXKXZX).(.x.h.h.m m f g f d % f z z g d f h d d d d f g g c n m m n d.d.x.g.D.n.v.+   p.BX=XK.;.-.*.O.) ) ) ) ! ! ^ ) ] O.=._ *.D D w w u 1 &.7Xa.9XzXeXrXrXrXiXgXuX9X;   F kXBXp.:.w *.[ [ O.#.$.` o.7.` ` ! ^ ^ ] O.=.#.<.*.D %.:..   X t.u.u.G x x.b z f t d h f g c g l c c l l c m z l g g g g g g z k h.n.n.~.I.#   o %.;X:X&X9.>.4.@.X.X.@.+.^ E Z 9 9 9 8 q q 6 0 0 9 L E / ^ o.E ) _ ( _ -.8.F.G.&.i R.u.v.n.n.~.~.~.).8X).I.p r -XKXGX{.H.-.*.0 q 6 6 q 0 7 6 , , 6 0 0 6 6 6 q 0 8 6 6 6 4 , q q 0 W ) O.$.O.;.*.e s.jXLXgXn.D.y.n b.j.c m v n v M l c m m m g g m n c g g g c c m N d.m.n.~.Q.~._.).I.@   E.SXIXp.%.q %.w _ ( _ _ _ ( ) ) [ ) _ _ *.%.w q w &.u r s.R.hXhX^.9XxX X9XFXhXI.@   T.sXu %.w ( [ ) o.^ ^ o.o.} o.` ` +.+.o.` +.>.O.( *.%.p.&.G v.x.c.n.b.c.x.h.h.h.b.m.k.k.N c c n c g h d h g M m m n n K K n n m h.n h.g.y.y.#   . &.=X$XJ.o.5.X...@. . .^ Q 9 Z 9 9 q 6 6 , , 6 6 8 9 9 E ^ ) W ) W W ) =.8.0.",
"L.L.T.p.p x x.~.Z.I.I.n.I.~.g.@ X @ 1 ;.H.8.=.O.) W W ( 0 0 9 6 , , , , , , 6 7 Z ^ / Q ~ ' ' | X.X.X.2.4.5.7.w.J.*.w -XAXJXtX_.I.j.d.n c f d h % % % d f g f f d d d d h f j M M n N n n f.h.h.b.c.D.I.x X O ,XsX=X=X8._ *.W ) [ ) ! ! ! ^ ) ! ) ] ( _ ( w w 5 e u + R.E.^.nXgXrXpXeXuXiXhXv.X @ }.SX0XF %.D -.O.) ) o.o.` o.>.Q Q ] ] o.o.) W =.<.-.*.%.M.O     p a.a.u.u.u.b l y t y d f k c k k g h d t d f - f g l l f d t y y b x.b.n.~.b @   O 8.$X<Xe.>.5.4.,.>.>.>.o.^ W W Z 0 0 0 0 q 0 0 9 9 L 9 E ^ L W 0 ( 0 D 1.;.F.G.r a.t.v.Z.n.~.~.). X).(.c.# a.BXKXaX1.F.-.( q 0 q q q 0 q 7 , 6 q 0 0 8 6 6 6 q q 6 6 6 6 , 6 6 q A ) O.-.-.1.D u qXPXFXn.b g.n j.j.n c g v M h d h g z c z c l m n m M c M g j c v n f.b.n.~.~.~._.i X + wXIXBX;.*.5 ( I *._ [ _ W W ! ) ] ) W _ [ *._ ( %.F &.i &.N.9XhX9XC.^.rXhXZXrXp   r sXE.e w %.[ ) =.$.^ ^ o.o.Q W ` Q S Q  . . .o.$.) [ *.%.&.F u.u.g.c.c.c.c.b.m.k.n.Q.Q.k.v v f.f.K v j j j c c m v m n n n v v n g.y.g.c.y.u.x X   = F.J.[.7.@.,.4.4.,.@.+. .^ W E 0 0 q 6 2 2 q q 8 9 9 9 L W P L 0 0 A W O.<.",
"1.F.L.p.t.i b Z.~.I.~.~.I.).x   @ + F H.;.=.[ O.A 0 0 W 8 2 6 6 , , , , , 2 6 6 W ` ~ Q ~ ~ ' | X.X.4.5.4.4.7.0.J.e &.kXKXZX_.~.n n c d c % d d d d f l z g z c m m n n n n n v N f.d.n n d.m.b.m.b.x.v.#   u BX=XH.$X-.A _ [ ) W W ) ) ! Q ! ^ ! ) _ ( *.( *.w e r O t.7XV.xXzXeXiXrXuXuXhXr   p jXSXp.%.%.-._ =.` Q `  .` ` +.` Q Q Z W o.o.o.O.O.8.1.1.F.%..   X s.a.v.v.x y.f y t f f f f f f t t t t t f f f f f t % % t f y t y z Y b.n.v.y   o w {.%X[.7.5.4.,.@.X.` ~ W Z 9 9 0 0 8 8 6 8 6 8 8 8 8 8 9 ^ W 8 } 0 q 8.;.;.F.F u s.z.n.Z.~.~. XtX8X(.c.r qXPXGXL.8.-.=._ 0 0 0 0 7 0 7 7 6 9 0 0 8 8 6 , 6 q q 6 6 6 4 , , , q 0 ( [ -.1.;.e G.CXKXrXx x.m y.j.m v m h c M g g g g z g f c f g c g f f d j c v m v d.h.h.Q.Q.~.I.  X u BXGX>X;.w ( ( w w 0 ( W A A Z Z W W A A _ _ ( w w u &.&.u p.|.CXDXDXDXDXzXDXrX    E.kX&.%.w I _ -.<.$.^ ~ @.$.o.^ ` `  . . .`  . .o.] ) *.%.:.s.s.x y.g.x.x.h.j.f.b.b.b.n.n.f.N f.m.f.N N N N n v n v n n n n v j n m y.b h.y.y.i.+   o %.$XJ.'.o.@.,...X. . .^ W 9 9 8 6 6 , , , 6 2 6 8 6 6 8 9 W 9 0 0 9 A O.7.",
"<.8.L.G.s.x y n.I._.(.I.).(.X @ 1 1 T.K.;.0 [ ) P P P 0 7 6 2 6 6 , 4 4 4 4 2 7 9 Q ' ' | | ..,.q.6.4.q.q.w.=.H.;.O R.JXJX(.g.g.m c g g g l g g m g f z n n M h h h l m m l g g d.j.H f.d.n b.c.m.b.D.b   o T.dXK.$XJ.[ ( [ [ ( W ^ ) ! W W W W ) ) ) ( _ _ 0 w 5 w u r P.V.9XmXiXhXhXrXgXY.  X }.GX,Xu L.;.*.$.` ~ ' X.@.X.@.4.' ~ Q ~ ' |  . .@.o.#.=.[ 8.;.< .   r v.i.x.y.b f f f f t d z g t t f f t $ t y f t $ & % t t t t t t f z d.x.v.i.#   . F.H.J.w.9.4.X.@.+.~ Q E 9 8 6 8 8 8 8 8 8 8 8 8 9 9 9 9 E E W W 0 W O.7.1.1.M.u s.t.I.n.n.).8X8X8X(.# a.SXPX2X-.-.*.-.[ ( ) ( A 0 7 7 2 9 9 9 9 9 9 9 8 8 8 q 6 6 4 , , 5 < , q 2 *.;.F.&.r qXKXzXk g.x H d.K c h h g M c f d h f f f g g f g c c j h h M c c c n j.b.b.D.I.~.p     7XSXBX;.;.;.0 ( *._ ) ) W A A W W W W ) A 7 0 A A D %.%.%.&.i E.CXFXzXDXFXzXZXp   1 kX}.e %.-.D -.) o.) ` o.+.+.+. . .X.@.@...X...@.+.o.O.*.*.:.;.s.T x.x.d.x.m.j.f.m.b.b.Q.f.v v k.f.f.B M M v v M v v v B N v v n n n n H d.d.g.v.f X   e L.0.w.7.7.@.@.4.@.` Q 9 7 6 , , 6 6 6 2 2 2 , 2 6 7 9 9 9 W ( W 9 9 ) =.",
"0.J.H.F.s.a.x.y.~.).8X(.OXx X @ O %.=XL.-.q W ) P E L 9 6 2 2 2 8 6 6 6 6 6 6 7 Q ~ ' | X.4.4.2.5.5.5.5.9.e.w.H.w U jXLXzXc.c.b n n m m c c z z g t t f f C & & h t % % % d g m v l c j.d.m g.n.h.b.g.@ X u kXaX$XJ.7.) W ( _ ( W W W W E E E W W ! W A _ -.*.( 0 3 e u s.P. XZXDXhXhXgXhXy   p kXSXM.K.H.*.O.=.+. ...4.4...@.>.' ' ' | X.X.X.X.X. .o.) ) =.;.w .   o t.u.b x.z y f f f d f c g d t t t $ # # - y t % % t t t t t t t t f b g.x.v.x X   w J.$X[.7.5.>.@.+.+.^ W 0 8 8 0 P 9 9 9 6 6 8 8 9 9 9 9 E E E W W W ) =.7.1.F.&.t.u.b ~.I.).tXrXrXv.i sXPXBX$X1.-._ A W 9 W 0 9 7 9 9 7 9 9 9 9 9 9 9 8 6 8 q 6 4 4 , , 5 5 , 3 w *.F.;.1 a.ZXJX~.H u.H H H m l h h g g d C % C d d C d h d h g M g g g M m n n n d.j.c.b.~.u.  X i kXVX,X$Xr._ [ ) ) O.) ! A Z 9 9 P P 0 A 0 7 A _ _ A D w :.p.&.s.7XCXzXFXDXZX8X    P.BXK.:.H.8._ } W ^ ^  .^ ~ ~ Q Q ~ ~  . . . ...@.@.#.$.*.*.:.:.:.i T Y g.b.k.f.k.m.m.f.m.f.B v B N N v j j M j h j h h j M M v v m m n K d.K d.g.g.@ X o M.J.J.e.7.>.@.@. . .` E 9 8 6 6 6 q 6 6 2 2 , 2 6 8 7 7 0 0 A 9 9 W O.=.",
"w.J.H.T.p.a.I.u.D.8XtX9XY.@ X + O F.L.:._ W W ^ W E E 9 9 7 6 6 9 8 8 0 0 8 7 7 ~ ' | X.,.4.4.2.2.5.q.4.7.e.J.;.1 R.HXLX~.c.g.z n n n m z g f d f t d g d % & $ & & & & % % d h g d n f.d.n y.b.c.n.y     -XdX;X:X8.[ [ ) ( ) ( W W P 9 9 9 9 Z A ! ) A ) 8.0.*._ q w u u P.Y.xXFXmXnXCX|.  X E.GXyXu K.*.[ =.o.+. .@.4.4...X.X.` ' '  .X.......@.@.$.] [ =.8.;.O     r u.y.x.x k f f f d g g d t $ & $ $ $ # # $ - t t t t t t t t t % t k H j.c.g.r   o L.2X1Xe.7.9.X.+.7.o.) P 8 8 0 P 9 8 8 6 8 8 8 9 9 9 9 E E E W W ) ) [ 0.H.K.;.u s.t v.n.~.OX8X8Xx E.AXPX=XH.8.[ ( 6 W E W E 9 9 9 9 9 9 9 9 9 9 9 9 8 6 8 q 6 4 4 , , , 5 5 , ( %.F.u 1 wXLXzXf u.u.u.H K m M g h g h d % % % d % % % d : C d h g k z g j m n n d.j.x.n.n.@   @ 7XSXBXM.K._ q O.W W ^ ! W A 9 0 0 9 9 0 7 0 0 A *.*.A _ D ;.F.:.u U wXCXgXZXZXy X @ kXdXF.;X:X-.[ ) o.W ^ o. ./ E E E E ~ ~ |  ...@.@.+.o.O.O.*.*.:.:.i y l y.h.f.f.m.R d.n K v N v v v v M g h g h C h C C h g j M v j M c n K H n n c.y X   %.K.%X[.7.7.7.@.+.>.>.^ 9 8 6 6 6 q 6 2 2 2 2 6 6 8 8 8 0 0 9 A W ) } O.",
"w.w.0.=XT.s.R.I.v.8XrXrXt.X   + e L.1._ ( ) ) `  .^ ~ W E E Z 9 9 9 9 9 9 9 9 9 Q ' X.X.X...2.2.2.4.5.5.9.0.J.w &.jXKXhXx.c.m l n m c g f d % $ & $ $ % % C d d & % C d d d d h h g h.d.m d.y.j.g.x @   r BX,X;X;X-.W [ ) ( _ W W 0 0 8 8 8 9 9 S Z ! W A 7.J.=.=.*.%.F 1 s.P.9XZXDXCXZXp   r kXGXM.%.;._ *.#.^ ~ ~ | X...| ~ ~ Q Q ~ ~ '  . . .@.5.7.#.<.=.-.8.%.  o @ i v.y.b x k f f d f g h t % $ $ % $ # # & $ t t t t t t t t t % - f c H g.z.u.    %.aXdX[.7.9.@.>.9.^ ^ W P 0 P P P 9 9 9 8 9 8 9 9 9 9 E E W W ^ ) ) ) 8.[.{.F.u t.y t n.I.(.8XE.s.jXKXdX0.0.8.W ) Z E E E E 9 9 9 9 9 9 9 9 9 9 9 9 9 6 6 6 6 6 6 4 , < , 5 3 ( :.:.< s.UXKX(.l z u.g.d.K m M g g f h d C % C d : % % : % % C h g g j c j M m d.j.h.c.~.y X   a.BXGXK.F.-.0 ( ) W ) ! ! W 9 7 8 8 9 9 0 6 7 0 0 [ -.D D [ 8.;.;.F 1 a.jXnXhXqX    s.BX=XL.aX;X_ [ $.) W ) o. ./ L L E / ~ ~ ~  .X..... .o.o.O.[ %.*.:.t.y y T Y f.f.f.n d.N N g j j v j g g d C h d d C C C h j j M v j M v n K d.d.d.g.c.X . O F.2X&X7.7.7.5.>.5.>.W Z 9 8 6 q q 6 6 6 6 6 6 6 8 8 6 9 9 A W ) ^ ^ W ",
"<.J.J.H.}.p.R.7XV.8XgX|.+     O :.K.0.<.9 W @.4.4... .' ~ Q Q E 7 9 9 9 W E E Z E ~ | | X.2.2.....2.2.9.e.J.;.5 -XPXJXn.n.m n m Y m g f f h t $ & $ & * & g c f j j j h g j M v h j f.n c d.d.g.x.*   X wXsXL.{.J.) W ) W W ) 9 0 9 8 8 6 8 7 9 9 7 W W 9 [ 0.8.8.7.-.*.w u a.|.jXAXAXrX    G.IXkX%.F.F.8.) ^ ` ~ ~ ~ ' ' ~ ~ Q Z E E E ~ ~ ~  . .5.5.#.7.$._ *.;.O .   # v.u.u.x f y f f g j h t t % % $ & * * # # % % % % : t t t t t - t k c y.x.v.r   O K.vX%X9.7.>.>.>.9 9 ^ W P ( W E 9 9 L 9 9 9 9 9 9 9 E E W W W W ) ) =.[.{.{.:.i t.# g.I.7X(.a.-XHXGX$XJ.0.-.Z W ^ Z 9 9 L Z 9 9 E E Z 9 9 9 9 E 9 9 8 6 4 6 q q 6 , , , w w _ ;.e 1 -XHXAXy.b d n j.n m c g h h d d d C % % % % % % % : t d d h h g n m m n d.j.b.n.c.* X + sXHXdX%.8.0 W o.! ^ ^ ! W A 9 8 6 8 8 6 6 , q q 2 _ -.*.W [ 1.1.H.F.e u t.fXjXt.  @ lXIX{.=X:XH._ [ O.9 L E / W E 9 9 9 E E E E ~ ' | |  .+.o.O.[ _ _ %.s.i i x Y h.h.n f.f.d.h.M h s v v M g d d d h h C d d d d h M v v N N d.d.f.h.m.x.I.y X   F >X2Xw.7.@.@.@. .Q 7 W E 0 0 0 0 7 6 q 6 6 6 8 8 8 8 9 9 W W W E W W ",
"! 0.[.H.=X:.P.fXR.I.qXx   . O w 1.8.<.<.E ^ @...5.5...| ~ Q E Z 9 9 Z E E W E Z E Q Q | 4.5.4.X.4.5.4.e.w.J.w %.BXKXrXc.c.l d.j.d.n g h d d $ # % % & * $ g c h j j j h h j M v B v N N n d.c.n.u.@   &.CX}.L.H.-.) W W E W W 9 0 8 8 6 6 8 8 7 7 8 W ) A ) <.0.w.8.-.1.M.e &.R.qXCXPXs.  1 kXGXT.L.K.H.-.Z ] o. .' ' ' ' ~ ~ Q 9 9 E E E / ~ {  .#.#.$.=.o.) *.;.%.    X i u.v.H z k z g f h : & $ % $ & & # * # & $ $ $ $ % t t t t t t t f l b g.x.s.    %.aX3X#X7.+. .` Z Q ^ W P P W 9 9 9 E L 9 9 8 9 9 9 9 E E L P W ) ) #.w.J.;XL.u G.a.u.R.R.a.a.SXPX>XJ.[.7.] ) Q ^ / ~ ~ ~ ~ E E E / E E E E E E L 9 8 6 4 6 q q q , , , ( %.%.:.O &.kXLXrXy.m g n d.c c M h h h h d h C % % % % % - % % t d d g h h g z m m n g.n.I.f X   E.SXIXp.;._ 0 O.) ! ^ 9 W W 0 7 6 6 6 6 6 , , 8 7 6 ( -.1.$.] =.0.$X$X%.1 i E.SXr   i CXyX{.;X[.1.) W ) W 9 9 9 9 9 9 8 8 L 9 9 E ~ ~ { { |  . .o.O.O.*.*.&.U U T u.b.b.N m.f.N m.d.v h M N m f d d d d d C C C % % d j M v N N N N d.f.k.n.c.v.X   = H.aX$X7.^ `  .' Q Z W E 9 8 0 7 6 2 6 6 6 6 8 8 8 6 9 9 9 9 9 E ^ o.",
"E >.J.$X;XL.&.lX7Xt.t.X + &.&.;.H.-._ ) E  . .X.6.5.X.~ Q E Z Z 9 E E E E W E E E ~ | | 4.4.2...5.5.e.e.J.;.w -XHXDXD.~.m n d.h.n n l f d % & * $ & * * $ t d % s h h j j v v v K B N f.f.f.b.x.@   X 0XbXL.K.J.) ! W W W W W 9 8 8 6 6 8 8 8 8 7 9 ! ) A W -.0.w.w.7.8.{.:.u N.P.fXfX@   P.GXsXF.K.H.-.! ! $. . . .' ' ' ~ ~ E 9 9 L E E E Q ^ ^ $.#.o.o.^ o.$.-.;.< .   + u.v.u.H x z g h h C % : % $ & $ # & # & $ $ $ $ % : t % - t t t h k c y.g.I.r   O K.NX1Xw.>. .' ` +.^ E L L L 9 8 8 9 9 9 9 9 9 9 9 9 9 9 9 W ) ) ) O.7.J.{.;XM.s.-XE.P.G.a.aXPXBX{.[.#X<.$.>.$.@.@.4.X. .| ~ E ~ ~ E E E E E 9 9 9 6 6 8 q q q q q 6 3 _ %.:.e 1 T.AXDXI.g.l m n n c c c g f f h d d % % % : % $ % & $ % % t g g h d k c m y.c.b.x.+   r sXPXT.:.F._ O.#.o.` ^ Q ! 0 7 6 2 6 6 8 8 8 8 8 0 0 D *.8.0.>.<.0.#X%XF.e &.a.a.X . -XPXT.{.$X0.=.) 9 ) ] E L L 9 9 8 8 8 9 9 9 E Q / ~ ~ ~ ~ ~ o.$.=.-.*.:.s.t.t.u.c.x.j.h.d.m d.N N M M N c d % % d d t $ % % % d f f h h v R f.R f.f.k.m.j.I.r   o u >X:Xw.$.+.+.` ' ~ Q Z 9 8 8 8 2 2 6 6 6 6 8 8 6 6 9 9 9 9 9 W ^ o.",
"Q o.0.[.>XdX&.G.lXi     u -XL.K.J.8.=.W E  .| 5.6.4.X.~ E E E Z E Q Q E E W E Z E | 3.4...X.2.2.2.4.w.7.K.*.u CXKXOXv.c.M v f.n g g g f d % % % % & # t d d C d C j j M V B f.f.B k.h.h.j.h.c.f   X t.SX0X;.8.-.! ! W W ! W 9 0 8 6 6 6 8 8 8 6 8 W ! W S Z ] 7.J.#Xw.=.$XK.1 &.P.E.@   + jXIXF.L.;.8._ $.o.Q  . .| ' ~ ~ ~ E 9 8 9 9 9 9 9 E W ^ @.#.o.~ / ` O.*.:.%.o   . i a.i.b x k f g v v c l d $ & $ & * & & # $ $ % % % t % $ - t f f l c n c.I.u.    u aX2X#Xw.7. .` E ^ ^ E E E 9 9 9 8 9 9 9 9 9 8 8 9 9 9 L ^ O.} ^ Z #.#XJ.aX>Xe T.wXi i -XGXBXK.2X%X#Xe.7.9.5.4.5.4.X.| ~ ~ E ~  .~ E E E 9 9 9 8 4 8 0 0 q 6 q 0 q D *.:.p.O u sXLXgXb g.g m d.c m m c g h d d - % % $ $ $ & & & # & & $ - g g g c m m m h.D.c.x     G.SXBX:.F.8.O.! Z ] E Z ` 7 0 6 6 2 6 8 8 9 W 9 9 W ( A _ 8.w.7.7.9.w.:X;X%.u t..   1 GXsXF.%XJ.8.[ W ) ) 9 E E E 9 8 6 6 8 8 9 9 9 E E E E ~ ~ ~  .$.#.$.[ 8.G.p.&.t.u.g.b.c.f.c M h j j j v d $ & % t % % & & % d g m f % h B m.n.b.b.Q.Q.k.n.b.c.  . O L.dX%X0.7.>. .' Q ~ W 9 9 9 9 8 6 2 2 2 6 8 6 6 6 8 9 9 W W ^ ^  .",
"+.#.<.&X2X>X}.:.7Xr   + G.T.M.H.H.-.( 9 E ~ ..5.4...| ~ E E E / ^ Q E E E E E E | | ..3...4.5.@...@.e.J.K.%.7XLXZXI.~.Y v j.v v n j j c f % % % % % $ $ % t d f h j M N k.!.!.k.m.f.Q.f.c.n.y.@   O kXSXF.H.0.A ! ! ^ W W W A 9 6 6 8 8 8 8 6 6 9 7 9 ! W 9 ! #.0.w.#X#XJ.$X;.u a.i     t.IXkX;.K.8.8.[ ) $.`  . .| ~ ~ ~ E E 9 9 9 8 9 9 9 9 9 E o.+.@.7.@.~ #.O._ ;.w     + t.a.x x x d h R k.m m d $ : & * $ $ $ # & $ % t t % $ $ t t t f g g Y j.x.v.#   . F.BX$X7.9.@.@. .^ / E L L E E E , 8 9 9 8 8 8 8 L 8 8 W ) ) ) O.^ ) 7.2X2X>XT.&.E.+ t.BXGX>X2X2X&X#X9.9.9.9.5.4.3.X.| ~ ~ | | ~ E E E 9 9 8 6 6 6 6 6 8 0 0 7 0 6 _ *.;.u O G.SXLX(.g.m n n n v c c g h d d t % $ $ & $ & & $ % $ $ & % g l h h f c n d.n.D.b.@   1 sXPX,X;.8.=._ ^ ^ ^ ^ ^ Q W 0 0 7 8 8 8 9 E 9 9 W ( W 0 ( O.9.'.9.q.#X#X:X>Xu r     G.IX>X=X1X{.<.) ! ! W Z W E 9 8 8 6 6 6 8 8 9 9 E E E ~ E ~  .+.@.#.>.=.-.;.p.G.a.g.x.g.h.n m m m h d h t t t % % % $ & % % t d d d d C s v b.k.N Q.)._.Q.h.n.I.y   o &.2X1X0.7.7.@.>.' ` / E 9 9 9 9 A 6 6 6 6 6 6 6 4 8 9 W ) o.+.$.@.",
"^ #.$.%X2X2X=Xp.N.s.p G.sXG.;.F.H.-._ O.o.+.@.5.X.' ~ Q E E E ^ Q Q E E E E E Q X...3.5.4.4.5.@.@.9.7.H.L.G.CXLX8Xv.x.Y R f.N v N M M c h : t - $ $ & & % d g c h v N k.m.Q.m.k.m.k.f.j.d.v.y     G.GXBX$X8.=.) ! ! ! W W W 9 8 6 6 6 6 8 6 6 6 9 9 Z W W Z ! $.e.w.%X%X[.$XF.1 r t.@ ; sXBXp.L.{.H.=.O.$.$.+.'  .| ~ Q E E 9 9 9 8 8 8 8 9 9 9 E ^ Q ` 5.5.X.` =.-.*.%.<   . p u.t.b x f h m R v c d % : & * % $ $ # & & % % $ % $ % t t t t f l v R x.v.x     F aXdX[.0.9.9.5.@.+.o.^ ^ W W W 9 9 9 9 9 9 9 8 9 9 9 ^ ) W W ) W ) 7.2XdXaX,XG.t.u E.SXGX2X2X:X*Xw.9.9.q.6.5.3.X.X.| | | | | ~ ~ E E 9 9 8 8 6 8 q 0 ( ( ( _ _ ( *.:.p.+ u wXLXZXx y y.b.v M m.v l d C - % % $ $ & & & & & $ % - t - d l M g g m l y.y.g.I.f     L.GXdX;.-.-.-.) ] o.$.$.$.] ) ( 0 7 6 6 8 8 9 9 9 9 W W 0 W [ 7.'.*X+X+X:X$X;X&.r . r sXBX=X1X1X[.=.) ! ! W W W E 9 9 8 6 8 q q 0 9 9 9 E E E ~  .....+.@.@.$.*.:.;.p.p.u.u.g.h.d.n m c g h h d d t % % % % % % % t t t % % % s C v v h v m.k.k.R h.n.b X   e =XaX{.<.<.>.>.>. .` ^ W 9 9 9 7 8 8 8 8 8 8 6 6 9 9 W ^ ^  . .+.",
"o.#.+.#X1X:X}.G.&.E.-XfXkXF.M.F.8.-.[ -.=.+...4.X.| ' ~ / E E W E Z E 9 L E Q ~ ..3.6.6.5.5.5.@.@.e.8.J.G.0XKXzXc.n.n d.h.f.k.N N c M M d : t t - $ & * & % t d % h v N f.f.B B f.N m g.g.i.*   O BXGX>X$X-.) ! Q ! ! W E L 0 6 6 6 6 6 6 2 6 2 9 9 Z W W W ^ o.7.[.%X#XJ.F.M.&.+ U t.P.CX0X:.;X$XJ.*.<.7.$.#.~  .' Q E E 9 9 8 8 6 6 6 6 6 8 8 Z E W / @.9.5.~ >.7.[ *.u     + t.a.i.x f f g v M g t % % $ & % $ $ $ & $ $ $ $ $ $ % t t t t d l d m h.x.v.@   o F.dX%X0.7.7.4.@.+.o. ./ E 9 9 E 9 9 9 9 9 8 6 8 9 W ) W E W ^ ^ W 7.;X2X;X=XL.u &.R.BXdX1X:X%X#Xe.9.9.q.5.4.X.| X.X.X.X.| ~ E ~ E 9 9 Z 9 8 6 6 8 0 ( _ _ _ *.[ *.;.:.O a.SXKX8Xy t n n.f.v f.n M d % % % % & & & # & & & $ t % t d h l l g g l c g.g.g.u.*   1 kXPX2X;.-._ -.] o.$.#.#.o.^ W 0 6 6 2 8 9 9 9 9 9 9 E W 9 W ) =.'.&X4Xw.#X1X$Xp.r s.-XIXsX=XdX3X[.$.] O.^ Q ^ W W E 9 9 8 8 q q 7 0 0 9 9 E E  .@.@.@.@.@.@.o.O.*.%.:.p.s.y.x.g.x.j.m l g g d f d d : % % t t t t % % % % % % h s C g C d M v N N f.b.c.>   o ;.>X=X-.$.>.@.>.+.+.o.^ W 9 9 9 9 9 9 0 9 0 8 6 8 9 E ^ `  .@.@.",
"=.O.<.[.#X[.=XL.r a.fX0XT.M.F.;.1.-.[ [ o.`  ...X.X.|  .^ W L L 7 9 9 9 L E ~ | X.,.5.6.5.5.5.4.7.7.J.K.L.SXKX(.b.n.n m.j.f.k.R N M j j d % t t t % & * * * & & * & s h j M M v v c d.y.n.x X   p.GXBXK.J.*.) ] W ! ! E 9 9 6 , 2 2 2 2 2 , , , 8 9 9 E W ^ ` ` #.#X%X[.[.*.:.p.a T 7XwX-X=X=X2X{.0.*.<.7.>.>.+... .~ E E 9 9 8 8 6 6 6 6 6 6 6 8 9 ^ ` ~ 5.q...#.0.-._ %.=   X i a.i.x f f g m j h d : % & & $ $ $ $ $ $ % $ & & & $ % t t t d l C v R g.D.y   . e >X1XJ.e.7.5.2.>.@.+.^ W W W 9 9 9 9 9 9 8 6 8 9 9 9 L W ^ o.) 0 <.J.{.H.K.G.1 s.7XsX=X=X%X#Xw.9.9.9.4.>.,.| | X.....X.{ ~ E ~ E Z E W W 9 6 6 8 0 ( W W ( _ [ :.F.e i qXKXZXx.x z z h.n.N v n M d - % % % % & & # & & & $ t $ t d h l k g M m j.y.c.v.# X   G.GXBXaXH.-._ $.o.o.o.o.o.W 9 2 2 , , 2 9 E E E E 9 9 E E 9 9 W ] #X&X5X&Xe.&XK.&.r qXfXsX>X>XdX3Xw.$.$.#.] ^ o.^ W 9 9 9 0 q 6 2 6 8 7 9 9 9 E {  .@.@.@.@.@.+.+.=.*.%.p.t.x u.x.c.g.H c g g f f h d d t t d d t % % % % % : C g C h M g g c c N N d.x.v.x @   = F.{.1.[ <.@.@. .X.+.` W E 9 9 9 9 9 9 0 0 8 8 8 9 E ^ `  .@.@.",
"#.O.w.w.J.J.;X:.1 E.fXP.s.:.F.-.;.;.-.) ^ +.4.4.X.| ' { ^ W 9 9 8 7 9 9 E /  .......3.6.5.5.7.7.e.0.$XG.0XKXZXn.n.d.n b.n N f.B n j g h % % t % % $ & & & & & & & & & C h j c v m m c.x.v.#   o 0XGXdX$X1.( ! ^ ! ^ / E 9 8 6 , , 2 , , , , , 2 6 9 9 E ^  . .^ ! 0.$X#X{.;.;.u o P.fXR.u G.=X>XJ.-.*.*.=.7.$.5.@. .~ ~ E L 9 8 8 8 6 6 6 6 6 6 6 9 o.o.Q 4.q.>.@.<.=._ :.u .   + x u.x k f g n g h h d : $ $ $ & $ $ $ $ % $ & & & $ $ - t d f g h v m g.c.u.#   . p.2X$Xw.e.9.4.>.@.o.^ W E Z E E E 9 9 8 8 8 8 9 9 9 L ^ } ^ ( 0 8.0.0.K.K.u + E.jXwXG.K.$XJ.0.7.7.>.| ,.5.| X.....X.| ~ Q E E E E / ) ) 9 6 8 0 W ( W P ( _ -.F.;.1 R.HXKX8Xx z f z d.h.v v M f d : % & $ % $ & & & # * # % % d h f M M g c g.c.b v.u.X   + sXGX1X=X*.-.[ ! ^ ^ ^ ^ E 9 6 < , < , 8 E ! E 9 E E E E W E 9 A A 0.3X5XNX1XJ.L.e a.AXR.&.,XaX2X:X0.] ] $.^ W ) ) E 9 9 0 9 8 , , 2 6 6 8 8 9 9 E ~  .@.4.4.4.@.$.<.[ %.p.&.y x g.g.g.d.m g f g h h h h d d t : t : % % % % : C s C h g g l m c n n R d.u.i.i X   e L.{.<.<.7.>.@.@.+.^ W 9 9 9 9 9 9 9 9 8 8 8 9 9 E ^ ^ | ' ' ",
"O.7.#X7.w.{.K.= &.jXjXa.G.&.1.8.*.-.-.$.o.@.5.5.4...| ~ Q E 9 9 7 9 9 E / ^  ...3.3.5.6.5.5.5.7.e.#XK.p.CXLXOX_.n.c N n.n N R n v j g h % % % % $ & & & $ $ & & $ $ % d j c c v n g.c.v.y X   &.VXNX=XJ._ W W Z ^ ^ ^ E 9 8 6 4 6 2 2 , , , 2 2 6 8 9 W ^  . .` O.*.[.$XH.J.F.. r qXSXE.o :.{.K.1._ [ _ O.$. .5.@... ./ / E 9 9 8 8 6 6 6 6 6 6 8 6 W ^ Q ..5.4.@.` -.*.:.&.O     r t.u.b f f c g h g l d % % $ & # $ & $ % $ & & & $ # % y f f l l v c y.y.c.x     1 K.$X#Xw.9.5.>.+.{ / E 9 7 E E E E 9 6 6 8 8 9 9 9 W o.) 9 0 [ 0.8.8.{.M.. &.fXLX-Xu F.{.[.7.>.7.>.' >.q.4.4...X.| ~ Q E E Z E ~ ^ ) ^ 0 8 8 0 0 ( ( W ) *.8.H.w &.kXKXzXx.z x g z n f.N v g h d d % & $ % $ & & & # # # % t f h h j g g l n h.x.v.+     E.VXdX>X0.( _ W 9 9 9 9 9 9 9 6 , < < 2 9 ^ ^ / E E E E W ! W W W _ -.1XNX5XNX2X:.r fXLXs.O -X:X$X[.7.] ] o.^ W ^ ) E 9 8 9 0 8 , 2 2 6 6 6 6 8 8 9 E ~  .@.4.4.@.>.<.=.*.:.&.p y u.d.d.d.n l g z h f h h d d t : t : % % % % % % C h h d d l m m v c n n b z.x.r   . p.;XH.$.7.9.5.4.@.` W Z 7 7 9 9 9 9 8 8 6 8 9 L W ^  .X. .| ",
"=.J.w.7.w.J.%.< -XHXCXr s.&.%.;.%.*.=.<.$. .,.6.q.5.X.~ E 9 7 6 9 9 9 L / ^ { ' 4.3.6.6.5.5.5.7.e.J.F.T.JXzXn.~.d.v d.m.d.n f.N M g h d % % % % $ $ & & & & & # $ $ t f g j M m d.g.g.y.@   r 0XGX2XH.-._ O.^ ^ ^ ^ ^ L 8 8 8 6 6 2 2 2 , , 6 6 8 8 9 ^ ` ` ` ^ <.*.8.J.H.{.;.o P.CXJXP.. u H.8.:.%._ _ ) ^ ^ @.@. .{ ~ / / E 9 9 8 6 6 4 4 , , 0 6 9 ^ ~ | 4.4.4.` O.*.*.;.F o   + i a.u.l f l j g M m g d d : $ % $ $ $ % % $ & $ $ $ - y f f l h c c m y.x.x.+ . o :.$X%Xw.w.e.7.4.@.o. .W Z E 9 9 E 9 8 6 6 9 P 9 9 W O.o.9 ( 7.8.<.0.F.e = 0XHXKXR.o %.F.$X0.<.7.9.X.,.9.5.4.X.' ~ Q E E E E Q ' ^ ^ E 9 8 0 8 0 P ( _ O.-.8.;.w 7XIXZXI.y.f H c z g d.N v M h : d % $ $ % $ & # # # # # % d f h h j j g l m h.n.x     t.CXBX;X$X<.A A Z 9 9 9 9 9 9 9 8 6 , , 6 Z ^ ^ ~ Q E E ~ / ^ ^ ^ ) -.-.%XNX<XNXdXw W.AXKXx   p.K.1.0.7.=.o.] ` ^ ^ ) W 9 8 8 8 6 2 2 2 6 2 6 6 6 8 8 L E ~  .@.@.@.>.<.7.-.:.s.t.x y.y.g.y.n b c l g g g h d d d : : : : % % % % % C h h : f g l z j c m c b u.i.t.+   1 =X$X=.7.5.5.4.@. .^ Q Z 9 9 9 9 8 8 6 8 8 9 L W ^ +.@.....",
"7.#X7.7.J.8.3 p.BXLXSX  1 G.%.*.*.*.-.7.$.Q X.q.6.3.| E 9 9 7 7 7 7 7 9 W / Q Q 4.3.6.q.6.5.7.7.w.0.F.kXLX(.b.j.j K d.N d.j N N j g g d % % t % % % $ $ $ $ % % $ % d f f g v n g.b u.y X   a.IXkXK.F.( [ [ 7 ] `  .^ L 8 8 8 8 6 6 6 6 6 6 6 6 8 7 E ^ ] ^ ~ ^ =.-.-.0.$XK.1 1 7XLXLXi . = &.1.*.-.( [ } E  .~  . .{ ~ ^ ^ E E 8 8 6 4 , , , , 0 6 E ^ E E ..9.4.>.O.[ w p.L.+     r u.u.k z m l h c n z f g t t t : % % - : $ & % % % t f f d g : g l g g.b v.t.@   = =X$X7.w.7.5.#.@.$.o.! Z W 9 9 E W 9 9 7 9 W 9 6 9 o.o.W $.0.<.8.J.*.O G.AXKXLXR.  u %.$X[.7.e.'.>.X.5.5.4.X.~ E E E E E Q ~  .^ E 9 8 8 0 8 0 P ( [ -.-.F.%.p.CXKX8Xf g.f c l b g n N v M d $ % % & & & & & # & & # $ % f g g g c v c n h.n.c.@ @ . qXGXdX;X8.*., ) $.E W E E W W P 0 8 7 7 9 E Q / Q E E ~ ~ ^ ^ ^ ! ) =.8.:XvX:XNX;.1 sXLXLXt.  e =XH.8.7.<.] ^ ] ] ^ ^ W E 9 6 6 6 7 , 2 2 2 6 6 8 9 8 9 9 L Q  . . . .>.7.-.:.p.a.t.b u.g.y.n y.b g c l g h d d d d % % : : d d d d : : % t f f t d h c g g b x x u.i     L.>X8.<.@.4.@.X. . . .~ E 9 9 9 8 6 6 8 8 9 L E /  . .X.X.",
"+X*Xw.0.J.;.e 7XHXPXjXi   e :.:.*.-._ =.7.` X.5.4.X.~ E 9 7 8 9 9 9 8 6 6 8 W { | | 3.q.q.>.r.8.L.;.=XHXSXt.n.f c H f.K N N n v j j g d C s : : % % % $ $ $ $ $ : d g g f l n d.y.b T     r BXSX=XK.1.[ _ W W W ^ ` ^ E 9 9 9 8 8 7 8 6 6 6 6 6 9 9 W o.o.) ^ o.=.-.0.H.L.K.o a.SXLXrXP.    e :.;.*.*.*.} o.+. . . .{ ~ E E E 9 9 0 8 , 2 2 6 A 6 6 9 Q / Q  .5.4...+.! _ ;.;.G.. . + t.u.k z c c g g g g f d C d d h d % % & & % C d d t : d f f f h g c n y.y.u.#     %.8.$Xw.7.7.o.W ^ W 9 W ^ ! W 9 9 7 7 2 Z ! 7 7 6 ! W ! 7.0.0.J.1.O F kXJXKXHXlXo O w L.$Xw.'.q.9.q.4.4. .^ ~ E E E Q Q ' ' ' / E 9 8 q q q ( 0 ( <.;.F.:.u sXKXhXx v.f f m n g g n n j g d C % % $ $ & $ $ # # # # # $ h g f f f g m g.j.~.x   X p.SXIX=X:X8._ _ _ _ 9 Z E E Z 0 0 8 , 0 9 9 9 ^  .~ E ~ E ~ +.) ! ( _ <.<.1XaXaX}.O N.AXKXDX7X  . p.K.F.*.7.=.o.$. .^ o.^ W 8 8 8 6 6 6 6 6 6 6 4 6 6 8 9 E E /  . .' X.+.] _ :.M.G.G.t.u.u.y.y.y.n c z l g g h h d : : d d d d : : : C C d d d d f f g g z l z b b x x @   &.>X$X=.>.5.4.X.|  . .' E Z W 9 8 9 9 9 9 9 8 ^ @. .#.7.o.",
"*X#Xw.0.L.u s.kXHXAXUXqX  a s.:.*.1._ -.$.W  .@.@.| Q 9 9 9 Z Z 7 7 9 9 0 P E E X.| 3.6.9.7.8.F.G.p.kXKX|.u.y.b m d.d.N n n v M j g h d C s s s $ $ % % % : t t t d g z c m n d.y.b #   . T.SXsXK.F.-._ ( W W ! ^  .` E L L L 9 9 9 8 8 8 8 8 8 9 9 W ) o.^ ) o.$.<.[.J.L.u a qXJXCXI.7Xi X . u ;.%.%.-.=.#.>.5.2. .~ { ~ E 9 9 9 W 0 6 6 6 6 A 7 6 9 Z E E ~ 4... .@.o.O.;.M.L.a   o y t.y.d.H c z c z M g g h h h h d d C % % d d d d C % : d f d f f z m Y y.u.b     O ;.J.$X0.e.o.W ^ W 0 A ! ^ ! Z 7 7 7 6 Z ! Z S 7 S S O.0.0.[.{.w e 7XHXLXKXCXjXN.  1 ;.$X*X'.w.#Xq.+.Q ^ ^ ! W W Q Q Q Q Q Q E 9 0 8 0 q W 0 ( -.;.1.F.u a.HXHXE.v.l y.c n m g g v n m g h C % % $ $ $ & & & & # # $ $ f j f g c m y.h.I.I.#   + wXPXdX%X#X7._ 0 0 0 6 9 9 9 8 8 0 6 , q 9 8 9 ^ | Q E ~ E ~ ` ! W ) _ ] [.%XaXL.= r fXLXLXjXCXr   1 :.F.;.r.=.O.$.o.^ ^ W L 9 8 8 6 6 6 6 6 6 4 , 6 6 9 P W E ^ +.+.' @.>.] _ *.;.F.P.a.t.x b b b n c l l g g h d d d : t d t : t : d d d d d d d f f g g l g l z m x H +   + oX:X0.7.q.5.4.4.4.@. .' ~ ` E 9 W W W W /  .~  .9.>.o.w.",
"'.9.7.H.;.e 7XHXLXjXCXkX&.. t.F %.F.-.-.O.! #.@.@.X.~ 9 7 9 L 9 7 9 9 P W ( / E ..,.5.9.7.7.0.F.p.7XPXAXa.v.x y.n d.d.N B B v j M g d C s % C % % % % % t t t y t y d z m n y.y.u.p     &.BXBX}.F.-._ _ W Z Z Q ^ `  .Q E E L 9 9 9 9 9 8 8 8 8 9 9 E ^ ) ^ ) o.] [.:XF.;.1 a.AXKX8Xu.(.v.@   1 %.%.%.*.=.$.+.4.2.{ ~  . .E 9 9 9 9 0 8 7 6 6 9 W Z 9 W E E { @.5.>.>.o._ _ *.F.p.  . + x u.d.d.c z c z M l j g h h h h d d d d d d d d d d d f d f f f g c n y.u.v.+     %.F.$Xw.e.O.^ ^ W 0 P W W W Z 7 8 8 8 W ) W [ A 7 ! 8.0.<.J.;.o s.CXLXKXHXhXjXlXO o e 1.1X#Xw.'.>.! ! W W ) ! W S S S E E 9 9 0 0 0 0 q A 0 *.<.1.F.:.r sXKXfXu.I.b y.g j j h h j c c g h d : % % % % & & $ $ $ $ $ : g z g l n d.d.h.~.y.    s.IXGX>X%X0.7.O.0 0 0 9 7 7 6 6 6 6 6 , , 8 9 L ^ ~ Q E ~ E ~  .^ W ) ) $.%X$X;XF   E.DXKXAXrXFXE.  @ i ;.;.-.=.=.$.#.o.E E E 9 0 8 8 8 2 2 6 2 , , 6 6 0 9 9 9 /  . .~ ..>.+.] [ *.;.G.a.x x y.y.n n m c c z g d d d f d d d t - - d d d d d d d h f g g g g f g z z z b r X   :.>X$Xe.q.5.4.5.5...X.X.,...~ E E E Z Q Q X.' X.9.X.+.*X",
"9.0.0.J.F N.BXKXIXfXfX7X7X@ r &.%.;.8.-.[ =.<.7.>.@. .Q W W W Z E Z 9 P ( ) ) ^ @.5.9.9.7.0.H.M.a.CXKX(.I.v.y.d.d.d.N N B N v M c j h d C C C d d t t t t t t t f t d z b n y.g.u.+   . 0XIX0X{.F.*.( ( ( Z 9 E W ^ ^ W E E L 9 8 8 9 9 9 9 8 8 9 Z W ) ) ^ ^ ] <.:X:XF.%.e fXLXAXI.x.v.E.r   O u :.*.*.=.O.^ +.@. . .@...~ E E 9 A 9 0 9 7 6 7 Z 7 7 9 9 9 E '  .~ +.O.[ _ %.;.K.1   @ p y.n g.m c l l M M j g j g h h h d d d d d d d d d f g d h f g k z H u.g.v.t.  . 5 K.$Xw.7.#.o.) W P ( 9 9 0 9 0 0 8 8 W _ ( _ 0 A [ J.J.J.J.w 1 0XLXLXJXSXzXqXqXs.. = D $X$Xw.0.$.! ) A W ) ) A 7 7 7 Z 9 9 9 0 0 0 0 0 0 [ 1.-.8.F.< E.HXLXa.g.b y.d g j j j j g h g g g f d d t t t $ $ $ % t t t - g c l l n d.j.b.b.y   + sXPXdX>X#X<.7.-.0 ( ( 0 9 9 8 6 6 6 4 , , 8 9 W ^ ~ E Q ~ | 4.7.o.W W W 0.$X>X;.O u CXJXKXhXgXgXlX@ X 1 :.;.*.-.=.O.7.o.E E W W 9 9 7 0 2 2 , , , 4 6 6 8 9 9 9 E ~  .' ..>.>.$.-.*.:.M.p.i x i.g.d.d.n m c g f h h f f f f f d d t d d f h d d h f g k z k g f k z z x k x @   O ;X2Xw.7.4.5.q.5.4.4.,.4.>.' Q E 9 Z ' ~ Q >.5.| | q.+X",
"w.[.{.;.u qXHXLXjXuX|.E.|.t.  &.u %.H.;.*.8.=.7.#. .^ o.O.) W ) ! Q E W ) ) ^ ^ X.5.7.7.w.J.F.:.wXKXzXa.(.y.h.d.d.f.N N N N B v c l f d d h f f d d f t t t d f z g z b b b y.i.x     s.BXdX{.=X8.*.0 A W A 9 Z Z ! ^ W L L 9 8 8 8 8 8 8 9 7 7 9 W ! ` ^ ! ^ ] [.:X{.1.w p.AXKXOXv.I.x.I.a.X   1 :.;.*.-.r.$.@.@.4.5.5.@.| ~ E Z W W 9 W 9 7 9 9 7 7 9 E E Q ~ Q E o.=.=.*.( *.H.;.    # u.g.h.d.m z M m v c g j j g g g g g g c l g h h d d h d f k k k c H g.v.z.V.+ . O =X1Xw.7.7.7.$.) W ) P 0 9 P W W 0 0 0 ( 8 0 q [ 1.[.J.:XJ.O G.CXKXKXnXZXnXqXR.7X@ O e ;.;X{.H.0.$.A A ( ) ( A q 7 7 0 0 0 0 0 0 0 0 W ( 8.8.8.8.%.1 fXKXCXx u.f Y Y d.d.N N v j h h f g g f f d t t - - t t t t t - d M c c N h.b.n.x.@   a.IXVX>X1X0.$.<.) 9 } _ 9 9 8 8 6 8 6 4 , , q A W ^ ~ ~ ~ ~  .9.9.+.W W ) J.;X{.O . R.JXLXZXOXrX(.gXt.  + %.;.*.-.-.O.#.o.! W W E 9 9 9 9 2 2 , , 4 4 6 6 8 9 9 9 L ~  ...>.4.>.#.=.-.;.M.p.i y b g.c.h.d.n z h d f h f t t d h f h f d d h h d f f f f k z k f f k z x b k x # .   ;.dX#X7.7.q.'.5.9.e.5..... .^ ~ E ' 4.4.| 6.6.| 5.*Xw.",
"[.[.$Xw p.CXKXDXzXrXR.R.R.7X+ + u u L.F.;.0.-.7.$.^ ! o.o.E 9 W ^ ^ ^ ^ ^ ^ W E @.7.7.0.$XJ.;.:.AXLX(./.c.m x.h.f.f.K N B N B v c l g g g c c c h h h f f f k k c m m b b H u.u.r   O sXbX=X=X$X-.( 0 0 W W Z 9 9 W ^ W L L L 8 8 8 8 8 9 9 7 7 Z W ^ ` ^ ^ ] $.J.%XF.%.w 0XLXZXi.c.D.c.x.Y.+   O %.;.;.-.7.7.#.@.4.5.4...| Q E 9 E 9 9 9 9 7 9 Z 9 E Q ~ ~ ~  . .^ o.o.O.) W ( *.L.1   X u.b.h.h.d.m m m n c j M j j M c v v m m l g g f h h g h k l z z c y.g.z.z.v.i   . K.dXJ.0.e.0.7.O.) ^ ) W P W ) _ ( P 0 ( q 0 ( 8.H.K.{.;X%.O 0XHXPXDXhXnXgXuX7XjXt.  1 F ;X;X0.0.<.] ! ! A A 0 q q 7 0 q q q 0 0 0 0 ( -.<.8.J.%.O p.SXKXE.u.b x g.b.f.f.N n v v j g f g g g f f t t y y y t t t t t t c n n h.n.Q.~.u.  @ 0XGXaX2X{.<.>.>.W 9 ) ( 8 7 6 6 6 8 4 , , , 6 7 A ^ / Q ~ ~ X.5.5.^ E ) -.J.>Xe   F CXKXLX(.n._.(.8X8X  X u :.;.-.-.$.$.o.^ ^ W L 9 9 7 7 6 2 , , 6 6 6 6 6 9 E 9 9 E  .,.,.4...` o.=.-.;.G.&.r ; H b.b.h.d.c f t h f d % $ - h g l g f h f d f f h f g f k f f k k z c H b x x @   < >X:X8.e.w.q.4.5.9... .+. .^ ^ ^  .5.5.4.4.4.q.#X*Xw.",
"[.$XL.:.sXPXKXnXnX9X7XY.7XfXa.  u u M.L.F.8.<.7.=.] Q ! W 9 9 W ^ ^ ^ W W E E W #.7.7.J.{.:.%.7XLXzXI.).x.h.b.k.f.f.K K B B v v v c c c c c c g f f f g l l c m c b n n y.g.u.t.@   &.bX,X$X$X0.( ( 0 A W W E 7 9 W / E L E 9 8 8 8 8 8 7 9 9 9 W ! ^ ^ ! ] $.<.8.$X8.w p.AXJX(.u.c.c.c.T I.x X . e ;.F.;.=.=.$.4.@.@.4.,.X.~ E 9 L 9 8 9 7 8 9 7 7 9 E E E ~ ~ ^ E W E W [ ) *._ 8.;.O   y v.h.n.m.f.K n n v v v v M v v n n v c g f g g g g c f g l c c n d.h.j.z.u.u.@   %.dX$Xw.0.w.w.7.@./ ) W W W ) ) ( ( W _ 0 _ =.J.J.J.;X}.< :.SXKXJXZXzXgXeXuXrXSXqX  o e T.:X0.<.8.$.] ) A 7 q q q q 0 0 0 q q q A ( ] <.<.H.F.< 1 wXKXJXx x.b z y.n H K N n n B m M g z z z g f f f f f y t t t t t t c n d.n.~.~.~.y   u kXBX1X1X7.+.q.#.Z W W W W W 9 8 8 6 4 , , < 2 6 7 W / ~ | X...4.@./ ! =.8.H.M.  1 qXLXKXzXc.n.I._.~.rXx   O u ;.*.-.=.o.o.o.^ W E E Z 9 7 8 6 6 6 6 6 6 6 6 8 9 Z 9 E ~ | ..4...~ ` $.-.-.F.p.r # x v.b.b.h.H c g g g h - % d f l c l g g h h f g g g g g l f g l z c b y.y.b u.; .   ;.>XJ.7.e.7. . .@.~ ^ o.) W ^ ) ) o.+.@.@.9.*X%XJ.#X",
"H.{.:.L.CXKXAX9XuX|. X|.|.fX|.@ r u &.L.F.-.8.<.<.$.^ W W ! ) O.^ ^ W 9 9 9 W ) ] 7.8.J.L.e &.SXJX).8Xn.~.~.m.R f.f.f.K N B v v N n v v v c g h j g g g M c m n v Y R d.x.n.v.u.  . }.yXK.1XJ.-.A ( _ W W W Z 7 9 E W E 9 9 9 8 9 8 8 9 9 9 9 Z W ! ! Q ! ] <.8.8.H.;.u 0XKXZXx u.c.I.n.y.u.Y.@   O &.F.;.-.=.#.5. . .4.5...~ ~ E W 9 8 9 9 9 W Z Z E E E Q ~  .^ ^ O.o.) o.W W O._ K.e   @ g.n.~.Q.n.k.d.n N N v v v v v v v M m c g g g g g l f g l c m n d.j.j.c.H z.i   O ,X:XJ.0.w.'.q.5.' ! E E W ^ ! ) ) W W 0 O.8.#XJ.H.,XL.1 0XIXLXFXmXxX9XiXeXrXAXZXr   1 M.>X$X0.0.] >.] E 7 7 7 0 q 0 0 0 q q 7 ( ] <.<.8.{.%.. p.jXLXrXi.x b u.y.d.j.m.m.h.f.j.n j c c c z g g g l f f f t t t t t f c y.h.Q.~.~.D.X X G.dXaX3X'.+.' '.+.9 ^ 9 P O.O.) 0 0 8 4 , , < 2 2 8 W ~ ' X...4.5.@.^ ] <.8.M.o = s.AXKXJX_.n n.~.~._.gXrX+   1 &.%.-.1.) O.o.) W W W W Z 7 7 6 6 6 6 8 6 6 6 8 9 E E E Q ~ ..6.5.X. .@.O.[ %.F.s.r x g.c.n.b.j.n m c c g h d f c m c c j g g g g l M l l g l g g c m n H j.g.g.u.x @ . . >X$X8.7.7.^  .@.E / ) W P ) } } o.o. .7.*X4X#X8.J.",
"F.F.p.fXPXJXrXgX^.U.^.|.|.|.jXx . i u K.H.-.8.-.$.<.<.$.o.) W W ^ E E W 9 8 9 ) ) 8.0.J.%.e 7XLXZX~.~.D.~.x.m.b.k.f.N N N N B B f.R n c M c M g j j c M c n n n R R m.Y _.I.x.r   F -X;.$XJ.8.( ( ( ( W W E 9 9 9 9 9 9 9 9 8 8 8 8 9 8 8 9 9 9 Z ] 9 ! ! <.0.<.8.F.w p.PXKXY.u.x.c.I.I.c.v.v.u.  o e %.:.1._ 7.7.e.4.4.4.X.....E E E 9 9 Z S E E Z E ~ ` ~ ~  .E E ^ o.) ! ! ] ) _ %.;.o   x ~.~.~.~.n.m.f.f.d.n N N n N N N v n n m l g f h h d : f n R d.h.h.f.b.c.g.u.X   %.$X%Xw.#X<X*X'.5.@.o.! W ^ ] ^ Z ) S O.0.0.J.$XJ.=X&.&.CXLXKXnXZXzXuXzXxX9XgXnXs.  1 :.,X2X1X#X'.>.$.^ E W W W A 7 ! [ ) ) ] =.<.8.J.H.F.O + wXJXKXP.x x x b z y.g.h.c.n.n.h.m h g c m m c l g g d d d f g f f f z b n.b.Q.n._.f   e ,X:XdXvX'.Q X.q.@./ W O.) ) W W 9 0 q 6 , < , 2 6 9 E ~  .X.X.5.q.$.#.7.[.H.1 o i kXKXLXxXy.d.~. Xn.~.tX(.i.  . 1 %.;.1.-.) ) ) W W W W W 9 8 8 6 6 6 6 6 6 8 8 9 9 E Q `  ...6.| ..5. .#.#.*.;.p.a.i i.n.n.b.n.b.f.n n c M d h c n n c c v M j j c v c c c d.z f c n m c c m y.g.i.y   . u K.J.8.7.7.o. .$.O.$.) W =.=.) ^ #.$.w.1X<Xw.7.J.",
"=Xp.E.SXKXnXrXuXI.^.|.|.|.8XzX8X  u u L.}.J.1.=.O.$.$.$.O.] _ ( 9 9 W ) O.O.$.-.-.-.;.L.< s.CXLXxXtXOX).~.n.n.d.m.h.f.f.f.f.f.h.h.d.v c v N R N N d.d.N n n f.f.f.n.b._.v.n.v.  X p.G.L.K.J.*.W ) ) ) ! W E Z 9 9 9 9 9 9 8 8 8 6 8 9 8 8 9 Z Z S ! Z Z W <.0.8.8.;.u sXPXAXi.g.g.x.n.n.g.y.x.v.@   O u ;.;.=.7.7.q.5.9.6.4.4.4.~ ~ ~ E Z Z E Z Z Z E ~ ` ~ ~  .W E / ) o.^ ^ ^ ) A *.:.e   + b _._._.~.~.n.j.n Y n n n R f.j.d.y.n m c l g l z m z m d.j.h.b.b.~.n.h.g.v.t.. O F.{.J.&XvXNX5X4X<X*X'.w.[.#X[.0.7.] 7.%X%X[.$X$XL.u }.PXLXAXnXxXxXpXhXiXrXuXzX7X. 1 u K.aX1X*X<X#Xw.7.O.) ^ W A [ -.=.-.-.<.7.0.J.0.J.3 < P.CXKXAXv.t.u.y.y.x x y.y.g.j.g.d.m c c m Y n m l g h g g g g l z c c x y.y.n.~.).g.X   M.=X1X5X4X>.X...q...Q L ^ P P W 9 9 0 8 6 , , < , 2 7 Z ~ | X...9.9.7.=.J.J.:.. u R.IXKXFXn.b.b.h.~.~.~.~.n.Z.y   o e ;.;.-.( ( W W W W ^ Q E 9 8 8 8 8 6 6 8 6 8 9 E W ^  .X.| 5...5.q...4.#.$.8.F.G.a.v.n.n.~.~.n.n.c.h.j.d.R v M v R f.R n m c v m v c M g m m Y d.d.n n d.c.u.g.i.t.+   O p.K.J.-.0.%X*Xw.w.0.0.0.J.#X0.>.$.+.&X5X&Xw.[.[.",
"T.&.wXKXPXuXxXiXU.9X9X X9X8XuXnXi o F F ,X=X0.0.7.<.O.[ [ [ _ _ _ _ [ O.=.8.8.8.8.:.F.< 1 7XPXLXrXxXgXiX).~._.j.n.c.j.h.h.j.d.n d.N R f.j.f.R m m R j.d.f.d.h.x.b.b.n.~.D.I.y   r G.;.K.H.0.W W ) ! ^ W W E 9 9 8 9 9 9 8 8 8 8 4 8 8 9 9 Z Z Z ! W A 6 ) <.8.1.1.u G.HXLX8XT g.g.d.h.b.d.m y.x.x     r :.%.8.-.7.7.2.5.5...2.5.| | | ~ Q Q E E Z Z Z E E E E E E E E ^ } ) W Z W 9 _ %.&.o   r v.I.(.(.~.I.n.v.g.g.g.d.y.n n n y.y.b b b z m y.y.b y.g.h.b.D.D.b.n._.D.c.v.o   ;.K.%X1XNXNXNXNXNX5X3X3X3XvX3X&X%XJ.$X:X$XJ.$X>X;.r jXLXPXgXmXiXpXrXpXeXrXrXiXzXi O u F.aX3X%X&X1X&X#Xw.8.8.7.=.-.=.=.=.-.<.8.1.1.1.F.O 1 lXKXJXhXv.u.x x b b y.b H y.H b m m n m m b m c c b n c c z l m y.Y c u.D.D.D.n.D.#   1 {.$X3X5X+X| ..3.9.| E 9 9 8 9 9 8 8 8 7 8 6 , 2 2 6 9 E ' X.,...5.7.7.0.$XF.1 O a.CXLXKXrXg._.b.h.n.n.n.n.b.n.v.X   O %.;.;._ ( W P W ^ ^ W W 9 7 8 9 8 6 8 9 8 9 9 E E E Q Q ' 4.X.4.5...4.7.7.=.8.G.R.E.P.n.I.I.I.n.I.Z.n.b.f.j.h.h.h.j.R n d.n n n n m m m Y n n n j.c.n.n.~.n.~.Y.R.s.  . &.L.F.-.H.:X1X3X&X#X#Xw.%X3X<X#X'.'.3X5X*X#X%X#X",
"s.p.BXKXzXrXhX9X X9X X9X9X8X|.hXqX  r e K.>XK.J.J.0.<.O.[ *.*.*.*.-.-.-.8.J.$XK.L.$XL.o &.kXLXCXtX8X8XOXI.c.I.n.n.c.g.g.x.h.g.d.h.j.d.h.h.h.g.h.h.x.x.g.g.x.b.b.~.I.(.D.(.v.    p.M.;.H.8.[ W ) W W W W E 9 9 9 9 9 9 9 9 8 8 8 6 8 8 9 9 9 E W ! A S 0 =.8.H.;.:.u fXLXJXu.g.n j.Y Y d.d.n b x v.#   O u %.8.O.#.@. ...4.X...6.X.X.X.~ ~ ~ ~ / E Z E E E E E E E E W ^ ) ) ! Z Z A _ ( :.1   + I.I.I.I.I.Y.P.i.x.i.x.v.c.g.g.x.u.y.y.y.u.x b u.u.y.u.u.y.g.c.c.x.n.~.I.I.(.t.. u F.,X2XdXNXNXvX3X3X2X3XdX3X:X$X%X$X#X[.{.;X1X>XF a.IXKXZXiXnXpXeXeXeX.XeX9X9XnXR.  1 ;.;XdX2X:X:X%X$X[.J.J.H.0.8.8.8.8.8.8.8.1.1.{.3   u kXKXKX8XV.v.u.b u.x x x b y.b x b b y.y.y.Y b b z b b y.Y b Y c.I.b.y.u.g.n.v.D.T X . ;.H.&X6X3X5.5.| 4.5.~ E 9 8 6 9 6 6 6 8 8 6 6 , , 2 6 9 Q ~ | X.|  .7.7.%X=X;.. &.qXLXLXzXv.I.I.j.n.n.d.d.n.I.v.I.x   . < ;.:.-._ ( W W ^ ^ W W Z 7 8 9 9 6 6 0 9 9 9 9 9 9 9 9 ~ ..~ X.4.4.6.q.7.7.8.F.}.P.v.I.n.I.~._._._.~.D.~.~.~.n.x.x.h.j.y.n n n n n n y.c.g.y.b y.c.n.n.I.I.(.R.(.R.r   u M.K.$X>X>X;X1X1X&X%X'.[.1X<X#X'.<X3X4X4X&X#XJ.",
"u -XHXPX9XiXeX(. X|.^.9X X X/.eXzXi   u :.yX{.H.H.0.8.-.*.*.*.-.;.H.J.J.J.%X:X;X>X=X= 1 s.SXKXzX9X(.8X(.(.n.v.D.c.g.g.y.b b m y.y.y.y.x.x.y.y.g.x.g.y.y.g.n.I.I.v.Y.Y.I.v.r X o G.%.F.H.-.W W ^ ! W W E 9 9 9 9 9 9 9 9 7 8 8 8 8 8 9 9 9 9 Z W Z W 0 *.J.H.K.:.e G.HXKXgXx c.m d.d.N n d.y.b x u.x     1 :.F.-.=.#.4.5.5.2.2.q.4.4.X.| ~ ~ ~ ~ Q Q W W W W / / E ^ o. .} o.) ^ W ) A q %.&.  . t.a.P.v.a.V.P.a.P.V.a.a.a.a.a.v.u.u.a.i.u.t.u.u.a.i.v.v.v.v.I.D.I.I.I.D.I.E.P.+ o :.,XaX2X2X:X;X;X;X:X1X2X1X;X$X$XK.J.F.}.>X;XF.u fXPXKXqXhXeX X.X.X X.X X X|.uXhXp   e ;.>X;XH.H.J.L.K.K.K.$X$X{.{.K.K.K.=X=X=X,XF.o + a.SXLXzXR.P.a.t.x x x p p x z x k f y y x x b T b x x x x x x T x.I.I.v.v.D._.~.v.#   e F.J.5X6X*X6.q.X.4.,.E ~ 9 8 8 L 9 8 8 7 7 6 6 6 6 8 9 ~  .| X.| X.@.7.$XaXaXF   P.AXLXJXI.y.c.b g.d.n m H g.c.c.g.I.@   . w :.;.*._ ( ) ) ^ W W W 9 9 9 9 6 8 9 9 9 9 9 9 9 Z E E  .| ..6.6.6.6.5.7.w.H.L.t.t.a.n.I.(.(.(.~.I.I.D.I.D.n.D.D.x.b g.y.y.y.y.Y y.u.T u.g.i.u.x.n.I.I.I.I.R.OXqXE.  O &.G.p.H.K.J.0.J.J.[.w.J.:X:X[.9.%X&X{.$X{.J.J.",
"s.kXLXCX(.iX^.^.|.U.U. X^.^./.|.hXrXX + u T.=XL.F.F.H.F.1.;.:.:.F.$X>X2XaXdXdXaXdX;.. i fXKXSXgXgXrXhX8XrX(.I.n.c.I.8X8X(.I.~.(.(.I.I.Y.Y.I.I.(.Y.~.(.(.).).(.I.Y.Y.v.v.p     M.F.:.H.H.) ) ^ ^ ^ ! W E 9 9 9 9 8 8 7 9 8 8 8 8 9 8 9 9 9 9 Z W S ( ( 1.K.K.F.w e kXKXJXv.u.g.n m f.d.m n y.y.y.b g.;   . &.;.;.=.#.7.9.5.4.X.5.5.3.,.| ~ Q Q Q E E E E E W / / E ^ o.^ ^ ) } ) ^ ) 6 q %.;.O   r s.E.T.G.a.p.p.s.s.s.s.s.s.s.t.t.t.s.s.s.a.a.a.a.a.a.a.a.a.a.s.v.v.a.V.R.E.(.i   u T.=X=X,X;X,X;X;X=XK.F.:.w w w w w w u &.u 1 N.AXKXZX X9X^././././.^./.|.^.|.iX|.X O F M.T.M.F.p.;.%.u w e e w w w %.p.T.,X0XL..   e sXKXLXlXfXqXR.a.a.s.t.u.t.t.y.u.u.u.x x u.t.T u.u.u.u.i.b u.u.u.v.I.(.(.a.v.D.D.>     M.<.3XNX5X6.q.5.2.5.4.E ^ 9 8 8 9 9 9 9 9 7 7 7 7 W W ^ @.5.4.,...4.7.7.2XvXaX= O qXKXLXfXu.u.b z m c d f z b g.g.z ~.x   . O :.8.*._ ( _ ) ) ^ ^ ! W E 9 9 9 9 9 9 9 9 9 9 9 9 9 ^  .~ X.6.6.3.6.5.5.e.8.L.:.r + v.I.I.I.V.v.v.v.i.c.n.I.I.~.I.I.v.v.x.g.u.u.u.u.i.i.u.u.u.u.i.v.v.I.v.P.I.OX7X; . i :.u w :.F.K.8.0.J.H.{.1X2X1X$X[.[.J.8.F.L.p.",
"fXHXLX9X^.|.C.A.Y.U.U.|.U.U.Y.U.9XzXa.X r F T.K.K.K.K.oXK.K.K.L.L.=X,X1XaXdXdXaXp.o u t.fXqXr r x y #   @ X @ X @ $ x u.u.b u.u.> X         @ # v.v.v.v.v.u.y # @     X     1 yX;.F.H.<.) o.^ / ^ ! W E 9 9 9 8 8 8 8 9 9 9 9 9 8 8 9 L Z 9 Z W A A -.8.J.K.%.1 T.HXKXgXx g.Y n v N N n n H n g.b g.u.@   e ;.8.=.#.7.4.4.4.| 4.3.3.3.| ' Q Q E Z E 9 9 9 9 E E 9 ~ ^ E L / ) ^ W W 7 0 %.%.u . . O &.-XkXkXsXyX0X0X-XL.G.N.s.F &.t.t.&.t.s.a.s.s.t.t.i r r 1 + + @ X + r r i     . e 1 O = O O O < < O O . o O O 1 1 1 1 1 i s.jXPXLX|.|.^././.A.A.B./.U./.U.C. XiXx X X + u e u i F F F F &.:.&.u e 1 1 r 1 + o o 1 a.CXsXr @   @ X + r r r p r r r r y r # # @                 X @ X @ @ # r r # @ @ X @ u F.<.4X5X+X3.@X5.2.5.4.~ { L 9 9 9 W 9 9 9 7 7 7 9 E E ~ @.4.3.X.X...7.0.:XdXF.. s.AXKXZXx.g.b b b f z t t d z y.b m n.v.+ . o %.8.-.%._ _ ) ^ ^ ) ^ ^ ^ 9 9 9 9 9 9 9 9 9 9 9 7 7 ^ ^ Q ~ 3.3.3.6.5.2.o.r.F.M.r       X X         X X X     X # x x x x x p y y p i ; @ X X X       @ X X   X +       r &.u F p.L.F.F.L.F.L.=X=X=X;XK.K.K.L.G.a.t.",
"IXKXFXi.Y.Z.^.U.Z./.U.U.Y.U.Y.V.(.gXrXr + u s.T.-X-X,X0X0XsXsXsX0X>X=XK.K.K.F.:.1 e W.wXa.+ + @   @   @ + @ + + # + @ X       X X   @ r i r + +                 . . = O   O >XK.%.J.8.Z ] W ` E Q W E 9 9 9 8 8 8 7 9 9 9 9 9 9 6 6 9 W W W A W A 7 8.F.H.=Xw u CXKXJXv.y.y.y.n v v c n j.H z n y.b c.#   + :.F.-.=.7.+.@.4...6.4.3.,.X.' ~ E Z E E Z 9 8 9 9 9 9 Q / 9 9 W ) W W W ( 0 w 5 %.O o e K.BXGXBXBXVXBXbXaX>X>XdXbXkXBXBXkXsXaXsXsXyX0X0XsXsX0XsXsXsX0X0X7XG.a + 1 r a r s.p.p.G.p.p.W.G.E.T.T.R.7XqXsXsXwX0XlXfXjXCXJXKXCX^.^. XU.^.A./.z.Z.U.A.B.B./.rX8Xy ; a.qXfXfXjXCXCXCXCXCXSXAXCXUXjXjXkXqX7XE.s.a.sXE.+ . + @ + .   O .   o . . . . X X X X   . + u i u r r a + + + + o .       @   . 1 L.8.8.q.6.| 3.6.q.X.4...~  .L L W 9 W 9 9 8 7 7 9 9 E E ~ ,.5.3.....4.e.:X;XdXe O wXKXKX(.y.u.z b l f z d f f f Y Y d.y.I.y   O e ;.;.*._ _ _ ^ ^ ^ ^  .^ 9 9 E E 9 9 9 A W W W E E 9 E / ~ 4.5.3.6.4.@.+.r.;.M.U O . O 1 u u i p r X     . .                                     @         X     @ @   O &.p.L.T.G.T.-X0X0XfXkXkXkX-X-XG.p.N.a.P.lX",
"KXJXY.i.I.V.^.U.B.C.Y.Y.U.U.U.I.Z.8XgX(.p V.jXCXjXCXAXHXLXKXKXLXPXIXIXbXbXkXsXfX7Xa.7XjXfXqX,XT.T.=X-X-X-X0X0X0X0XwX-XT.T.G.T.R.-X-XwX0XsXsX0X0X0X}.L.G.L.L.L.K.L.}.,X;X;X2X;X[ O.) W ^ / / /  .^ W E W P 9 8 9 6 9 W E E E E L 8 L W E E W W W A D H.K.K.;.o }.PXKXhXx u.b Y m c v m c m m b b n n H u.  . u ;.-.-.0.7.#.o.7.+.>.5.#. .^ ) ^ 9 9 8 6 8 9 9 8 8 W ^ Q 9 9 W ^ W 8 9 0 0 q q q q , 8.dXVXGXVXGXGXGXGXVXVXVXVXGXGXVXBXBXBXBXVXGXGXGXGXGXGXGXGXGXGXGXGXGXGXkX-XwXwX-XqXqXfXBXAXCXCXSXAXSXAXHXAXHXPXJXJXJXPXPXLXLXLXKXnX|.^.|.^.U.U.Y.C.C.Z.C.C.V.B.V.8XuXI.i.gXKXKXKXKXKXKXKXKXKXKXKXKXKXJXKXKXKXLXa.i 7XsX0X0X,X-X-X0X-X-X,X=XT.=X=X}.K.K.T.T.=X-X=X,X>XyXsXsX0X>X-X}.T.=XT.L.L.G.p.:.L.T.T.=XF.( $.` ,.3.6.6.,...X. .{ / W W E Z 9 9 9 9 9 E E / ' | 6.q.5.5.5.5.q.[.2XaX>X+ &.SXLXCXc.y.u.b f x x f y y y y y f m l x u.  . O %.F.%.-.[ ) ] ) o.~ ~ / E 9 9 E 9 8 4 8 W W 9 9 ) E E W / ` X.>.4.+.>.7.7._ *.;., < :.F.K.=X=X=XK.K.L.L.L.}.=XK.G.u u e 1 1 1 r u i u i s.a.G.P.T.P.G.p.p.p.p.p.p.G.p.u P.jXCXIXPXKXKXLXKXLXKXKXLXKXHXSXCXnXCXCXDX",
"mX|.i.v.C.I.I.Z.V.V.C.C.C.U.C.Z.v.I.rXuXY.^.hXDXnXCXZXZXZXZXnXjXLXLXKXLXLXLXKXHXs.i 7XIXKXGXGXGXSXGXGXGXPXPXPXPXPXPXPXPXPXGXGXGXGXPXGXGXGXGXBXaX=X$XK.K.L.K.{.=XBXNXVXGXBX&X7.7.=.#.@.@.@. . .+.^ W E 9 L 9 9 9 7 Z E Q E E E E 9 L / E L W W A A -.1.L.M.e F bXKXJXI.u.b z m c m m m c z m m m K H b u.#   1 F :.-.;.=.O.) ) / o.o.) W 9 L 9 8 8 8 8 9 9 9 9 9 E W W 9 9 W W E 9 W W P P I I q ) <.J.%X&X:X:X:X:X2X2X1X1X2XdXNXGXGXGXVXVXVXGXGXGXGXGXGXGXGXGXGXGXGXGXPXGXGXPXGXGXSXE.bXHXHXPXKXLXKXLXKXKXKXKXPXKXLXLXLXLXLXLXLXgX8XI.C.U.Y.Y.^.C.B.l.B.C.Z.V.V.i.Y.rX|.V.|.uXuXuXhXhXhXjXzXnXZXZXCXCXZXCXzXCX7X@ p sXHXBX,X,XdXkXkXdXBXGXVXVXVXVXVXVXGXGXGXGXGXGXGXGXVXGXGXVXVXGXGXGXGXGXGXGXVXVXBXGXBX:X0.-.[ O.>.q.6.6.6.3.3.~ ~ E E 9 9 9 9 9 9 9 9 9 9 9 E ~ | 6.@X3.X.,.9.'.1X:X>X&.o wXLXLX8Xy.b y.z y k y t t y t t y f z f z u.r   o 1 ;.*.-.*.) ] ) o.^ ~ ~ / L 9 9 8 9 6 8 W W 9 9 W 7 8 7 9 Z Q ` o.Q ! W W 0 P *.q D _ ( _ *._ -.;._ *.;.F.J.{.$X=X>XyXdXBXBXBXBXBXkXBXSXGXIXSXBXSXSXIXGXBXdX>X>X,X=X}.u G.AXKXnXhXnXnXjXjXfXgXuXgXgXhXSXHXKXKXLXKX",
"eXI.I.v.l.I.Z.I.V.Z.Z.Z.C.I.C.Z.C.V.^.9XU.i.l.Y.U.Y.^.|.9XuXuXqXgXfXfXfXzXSXKXwXo @ wXGXkX}.L.F.L.K.0XBXBXBXBXBXBXBXBXBXdX>X,X=XT.>XaXaXdXBXdXH.1.1.1.;.:.-.:.-.*.1.-._ <.#X#Xe.#.@.@.@.@. .' ~ ~ Q 9 9 9 L L 9 Z E E ~ ~ Q E E L / / E E W W D _ 8.1.L.u O -XPXKXfXy y.k z g c c c c c m H K d.K H c u.t.  o < :.;.-.=.O.o.E W ! W E 9 8 6 8 8 8 8 9 9 9 9 9 E 9 Z 9 9 9 E E 9 W W W P P I I 0 O.O.) <.=.8.=.-.=.8.0.8.=.=.8.0.#X:X&X%X1X2XdXNXNXNXNXNXNXNXNXNXNXNXNXBXBXBXBXBXBXkXp.-XSXPXHXJXJXHXJXAXhXhXhXhXuXuXuXrXqXqXqXqX9X XY.V.Z.U.Y.U.Z.B.B.B.B.B.B.V.i.v.|.|.V.B.I.Y.V.^.|.|.9XuXhXhXnXrXjXzXjXzXjX+   1 fXBXT.%.:.;.H.8.8.J.[.J.&X3XNXNXNXNXNXNXNXNXNXNXNXVXVXVXVXVXVXVXVXVXVXVXBXdX$X0.8.1.-.<.=.) 9 +.9.4.4.6.3.| ~ E E 9 9 9 7 7 9 9 9 9 9 9 9 E ~ ~ 6.@X3.| ..q.*X1X$XK.o u SXKXZXc.Y Y Y b b l y t t t t t f l l l y y.a.  . O %.;.-.*.[ ) o.o. . . .o.^ 9 8 8 9 8 8 9 9 9 9 9 9 9 7 8 7 9 Z E Z 7 6 0 0 0 ( ( _ _ _ -.-._ ( _ ( *.*.*.%._ _ %.-.F.$X>XdXNXNXNXdXNXBXVXNXaX,X;X;X$X$XK.0.K.:X=XK.=X&.i sXHXfXwX|.|.7X|.Y.9X8X9X8X7X9X9X7X7X|.7X",
"|.|.^.i.v.Y.l.^.I.I.C.C.Z.C.Z.Z.l.l.V.I.C.V.C.U.I.Y.^.7XqXgXhXhXjXjXjXZXAXAXhX+   r kXIXM.p.;.:.;.%.w w w w %.F.F.F.F.L.F.F.H.L.F.F.K.K.K.:X2X:X:X%X$X{.[.J.0.-.D *._ *.%X3X%X@. .X...X.X.' ~ ~ Q E 9 9 9 W E L ~ E Q ~ | ~ ~ { ^ / E E W W W ( ;.8.F.M.O u BXLXJXx.x z z z h m c c M M c n K j.n n z y.v.@   o %.;.1.=.-.$.^ ^ W W E 9 8 6 8 P 0 8 8 8 8 8 9 9 8 9 9 8 9 9 9 9 W W P 0 0 P I 0 ( ) ) O.) O.[ [ =.7.8.8.0.0.0.0.0.0.<.O.$.=.=.=.O.O.O.[ O.-.-.*.-.*._ *.;.;.;.;.F.L.F.e R.kXfXjXhXuXjXfX9XuXhXnXnXnXhXhXhXhXgXgXiX9X^.B.V.U.U.Z.Z.B.B.B.B.B.B.V.V.i.V.V.i.l.I.|.|. X|.9XgXnXnXnXnXSXZXCXHXHX7X@ . s.jXoXp.F.F.8.=.$.<.w.q.'.3XVXNXNXNXNXNXNXNXNXNXNXNXNXNXNX6X5X3X5XNXvXvXvX3X#X0.0.J.J.[.%Xw.^ E o.#.@.4.q.4.~ ~ / / E 9 9 9 9 7 9 9 9 9 9 L E ' ' 3.6.6.4...9.&X%X$X;.o -XPXLX(.Y y.Y Y g.g.f t y d y y d l b l l y x v.@   . w ;.;.*.-.) O.^  . . .+.o.E 9 L 8 8 8 8 8 9 0 9 W 0 9 9 7 7 9 9 9 9 8 W [ _ I ( _ _ D *.-._ _ *._ _ *.*.-.-.;.-.-.-.*.*.*.*.*.[ *.[ _ *.-.-.8.8.[.0.0.J.0.$X%X8.K.=X}.r s.wXgXhX9X|.uX9X|.hXnXhXnXzXnXhXuX9X7X8X",
"V.v.i.z.Y.I.l.U.C.C.C.C.B.B.B.Z.B.V.l.i.i.V.I.V.Y.^.|.|.|.9X9X9X9XuXrXuXfXfXa.X r }.GXyXF p.;.*.-._ _ *.-.*.*.;.H.J.H.H.8.8.H.H.H.8.8.8.=.0.$X$X&X$X[.J.[.J.8.[ _ *.-.0.&X&Xw.#.X.X.X.| | | | | E E E 9 E ~ ~ E | ~ ' | X.| |  .+.^ E E ^ ! ) _ 8.H.L.e + -XPXKXfXy T k l l c m v c j j M c m n n c m b x.i   . e ;.F.-.=.$.o.^ W W E 9 8 6 8 0 0 8 4 4 6 8 8 8 6 6 8 6 8 9 9 9 9 9 0 8 8 0 P 0 0 A ( 9 A 9 ) [ ) ) ) O.=.7.7.<.e.>.o.#.O.7.w.=.7.7.7.=.=.=.=.-.=.*.-.1.8.8.8.H.{.aX,Xu t.P.fXFXZXfXgXgXuXgXuXuX9X9X8X X|.(.Y.U.|.U.S.l.B.C.C.C.S.S.S.S.B.C.C.C.B.i.l.i.u.B.I.U.|.^.Y.|.eXuXuXgXiXhXuXnXjXgXr   1 kXdX;.F.8._ 8.7.9.e.'.q.'.<X4X6X6X6X6X6X5X3X5X5X5X5X5X6X6X5X5X6X5X5X5X3X<X#X9.w.'.'.w.w.[.0.] ^ ^ ^ ` +.+. .E / / / W E Z Z Z 9 9 E Z 9 9 E ~ | X.5.6.5.5.4.9.%X#X{.e e BXLXDXx y.m Y m y.y.d t t d d d d g l l z f z u.p   . 1 ;.;.-.-.O.$.^ `  .`  .o.E 9 E 8 8 8 6 6 8 8 q 6 8 8 8 8 9 9 9 7 9 8 0 O.[ 0 q ( ( 6 0 ( 0 ( _ [ _ ( _ _ _ _ ( [ ] [ [ -.=.=.=.=.=.<.8.w.0.<.O.$.$.w.#X'.*X%X0.$X>XaX&.r V.rXZXhX|.gXrX|.iXgX9X9X X9X|.^.Y.I.I.",
"i.i.i.V.V.V.Y.C.B.V.C.C.Z.B.B.Z.l.B.l.V.V.Y.^.^.V.I.Y.Y.Y.|.7X8X8XrXrX9XuXY.X   t.CXGXp.;.M.F.J.8.*._ _ _ 0 0 _ _ [ _ *.[ _ [ _ 0 D _ [ [ O.-.! O.[ O.O.$.[ ! A 0 *.7.7.e.e.5. .| X...| | X.X.X.~ ~ ~ ~ ~ | X.| X.| X.X.X.X...2.@.^ E W ^ ! [ -.F.=X;.  s.SXLXLXi.k k m f g n v v c j M c c m m n M n b T u.X   O %.F.;.8.O.O.W Z A 0 9 8 6 6 8 0 6 , , 6 8 q 8 4 4 6 6 8 7 9 9 8 9 8 8 8 0 P 0 0 8 0 , 0 6 0 0 ) ) ] ] ) ) ] ] <.o.o.>.^ O.w.O.#.#.#.O.O.$.O._ =.[ -.<.8.-.*.0.{.>X>X;.O t.R.AXZXgXfXgXgXiXeX9X9X9X X|.|.^.U.C.V.B.B.Z.C.B.B.B.l.S.S.l.l.B.B.B.S.l.l.i.i.U.U.V.|.^.^. X9X9XeXhXnXeXiXhXnXV.X O T.BXF.F.8.<.8.#Xq.+X+Xq.q.9.+X+X'.'.+X+X+Xq.q.q.+X'.'.q.'.'.q.'.'.9.q.+X+X'.9.7.9.7.5.w.'.9.` 2 9 Z 9 E 9 8 9 9 9 E E E 9 9 Z W W ! ^ ^ W Q ^  .3.6.+Xq.6.6.9.#X&X;X*.O G.HXKXrXl j.l n l f g f d d d d d h f g g z z b b t.@   O %.;.-.-.$.$.^  .@.+.^ o.W 9 L 8 9 8 6 4 4 6 4 4 4 6 6 6 8 8 8 6 8 6 , W } q q 6 A 0 _ *._ ( 0 0 0 ( ( ( ( _ [ W ! ) ) ] ] ) ) [ _ ( W ) [ -.<.>.>.w.w.q.'.#X'.[.2XaXG.1 t.I.ZXZX8XuXiX9XeXiX9XeX9X XU.C.I.v.v.",
"l.C.C.B.i.l.U.V.B.B.Z.C.Z.B.B.B.B.l.l.V.V.V.C.C.V.I.U.U.Y.(. X8X9X9X X^.9Xu.@ t.qXPXsX%.;.;.{.:XJ.=._ ( _ _ } [ W ) W ) ) A W 0 ( W 0 7 9 W ! Z 9 9 W ] ] W Z W W 7 9 W ^ ^ ..5.| 3.3.,.X.3.3.X.| | | X.| | X.3.X.3.3.X.X.X.2.4. ./ / ^ ! ) -.H.;X=X1 + qXPXLXfXy x y z g z c c M g g M v m m n m l m b x u.;   . e ;.F.8.-.O.W 9 W P 8 8 8 6 , 6 4 , , 6 6 6 8 4 , , 6 6 8 9 9 8 9 9 8 8 0 0 0 q q q 7 0 0 7 6 7 0 W ! W W ! ) o.o.^ o.^ o.0.o.o.o.} ^ } } ) W o.] $.-.<.<.-.0.<.J.2X}.= G u.8XZXZXhXgXiXuXiXeXeX9X9X8X X|.^.Y.U.U.Y.^.U.B.l.l.B.Z.B.l.l.l.l.l.B.l.B.l.S.Y.Y.^.U.U.Y.|. X XeXgXhXxXgXrXZXr o G.BXaX( 8.O.8.&X#X&X4X#Xq.5.X.,.5.5.3.5.6.5.,...4.,.4.4.5.5.5.>.5.9.>.>.7.>.+. .` X. .Q +.+.E Q ^ 7 Z 7 Z 9 8 W E 9 9 9 9 9 7 9 9 W ! ^ ^ ^ ^  .@.6.6.+Xq.q.q.w.<X:X{.< e fXKXJXx.Y Y m m l f h g h f h d h g g g f c z b b u.p X . e p.1.-.=.$.o.` 5.@.^ o.^ 9 9 8 6 8 6 4 , , 4 q q 6 6 , , , 2 6 2 6 , 6 0 q 0 8 0 8 P ( P W ( P W ( _ ( 0 0 A ( ( D 0 0 0 ( ( 0 0 0 0 0 0 ( _ Z E ` >.7.q.'.9.w.1XaXyXe i i.gXzX9X8X8XeX9XeX9X|..X X|.^.(.U.I.",
"V.I.l.l.C.l.i.B.B.l.B.B.V.B.l.l.V.l.l.V.V.V.U.U.U.I.I.I.U.^.|.|.9X XuX|.9X# @ R.SXPX;.;.8.1.$XH.J.r.) W _ _ ( W O.O.^ ) ) ^ ] ^ ) ( 0 W W W W O.] W ^ #.=.) W W ( A ! ^ E | ..| 3.6.6.6.3.6.3.,.X.X.X.X.| | X.3.3.3.3.,.| X.3.4.| / ^ ^ ! ) <.K.dXL.  t.SXLXJXx f x z : c n t c j h h j M j g g m g c m z b p     O %.L.;.-._ W W ( ( 0 0 0 q , , , , 4 4 , 4 6 4 4 , 6 6 8 0 9 8 9 9 8 8 0 0 0 0 0 q 0 , 0 q 0 0 9 9 W W W S E ) $.E Q ^ ^ 7.W $.o.o.^ ^ ) ^ L o.] O.! O.=.] <.7.[.;XdX&.. G u.nXZXiXrXiXgXgX9X X.X.X.X.X|.^.U.^.Y.U.C.C.C.C.Z.C.C.Z.B.l.l.B.V.l.i.l.B.B.I.U.|.U.U.A.U.|. X9XuXpXiXnXFXV.  p.yXBXH.-.-.7.#X4Xw.+Xq. .~ ,.,.X.X.q.6.6.6.5.4.5.q.5.9.9.5.5.4.@.5.9.@.+.@.+.o.$.$. .@.Q `  .Q ^ E W W 8 9 Z 9 W 8 9 9 9 9 8 6 6 6 6 9 E E E E {  .6.5.5.6.q.w.w.1X;X8.O W.AXKXzXk y.g Y g l c z h d h d d d g g h g c l b b y.x.+   + M.F.-.<.$.o.E >.+./ o.^ 9 9 6 4 6 q 6 , , 4 3 , , , , , 6 6 6 , 0 6 , 6 , 0 8 0 6 0 W 8 8 0 W 0 0 ( _ ( W W 0 0 w 0 0 0 0 0 0 0 q q w 0 0 0 ) ! ! ` +.>.7.9.9.0.dXBXF r G V.hXxX9XY.eX9X X X|.|.|.U.C.U.C.C.",
"C.Z.B.l.l.B.B.l.B.l.l.l.l.l.l.l.l.v.l.l.B.B.B.Z.l.B.C.C.V.I.Y.|..X X.XuXi.X F 0XPXyXw 8.*.0.%X8.7.O.) ) O.) ^ W o.o.o.^ ^ ^ o.o.) } [ ) W W W ^ W ^ ) ) ^ ^ L 8 0 A ^ ^ /  .,.X.6.6.3.3.3.3.3.X.X.| | | | ..3.3.3.3.3.X.,.3.3.X.~ E Q <.9 _ {.$X>Xo 1 sXPXKX8Xy b z z z z g g c h h h f g j g g g c z l b y.x ;   O O F.F.-.-._ ( P 0 0 0 0 6 4 4 4 4 , , 4 , , 4 4 6 6 6 6 q 0 8 8 8 8 q q q 8 0 0 q q q 0 q 8 7 9 A A W ) ) W / } o.^ / ^ +.#. .o.o.} o.} / ^ ] o.o.) o.#.<.$.<.<.J.>X}.o i i P.zXhX9XrXrXrXeX X.X^..X.X.X|.^.U.^.C.U.U.S.Z.B.C.B.B.i.B.B.B.Z.l.i.i.C.B.S./.Z.C.B.H l.U. XeX|. XxXzXhXX O L.BX>X-.<.<.7.<X3X<X+XE 5.q.5.6.5.....X.X.q.q.4.4.5.4.5.9.5.>.#.@.{ #.o.$.7.>.o.o.o.^ ^ ^ ^ ^ ^ ! W Z Z Z 9 9 Z Z Z 9 9 9 9 8 8 6 6 9 8 6 9 9 L Q X.5.| X.q...5.#X$XJ.%.1 qXKXKXD.f Y n m l g g f d f f d d d g g g l c m n y.x.x.i.  . &.=X8.=.<.$. .+.+.^ ! W E 9 9 6 4 , , , , , 5 5 , , , , , , , , , , 6 6 6 q 8 8 0 9 0 P P P P P P W ) W W W 0 0 q 0 0 q q 0 q q 0 q q q w ( ) W ^ ^ W ! ] >.>.<.1XBX}.  p i I.uXhXI.Y.^. X/.|.^.U.A.Z.Z.B.B.",
"C.Z.B.l.l.l.B.B.l.B.B.B.l.l.B.C.g.l.l.l.B.B.l.B.S.B.V.C.Y.Y.Y.Y..X^.U.8X+ + G.BXGXH.*.-.<.[.0.8.O.^ W ) ) ) ^ ^ ^ ^ ^ ^ ^ ^ ^ ) W ( _ ( W L W W W ^ W 9 9 9 9 0 8 6 9 E E ..5.6.6.5.3.3.3.3.X.X.| | | | X.3.3.3.3.3.3.,.3.3.3.X.` Q ! S ) 8.:XdXG.O a.AXKXgXT x b z z z z g g c h d d d d h h f g z c z c b x y X   O F F.;.;.*._ _ ( P 0 0 6 , 4 4 , , , , , , , 4 4 4 6 6 6 8 6 8 6 6 6 6 6 q q q q q q q q 8 8 9 A A A ! ! W ) } } ^ / ^  .+.{  . .^ } ^ W W ^ ^ ^ ^ ] $.#.$.] =.0.H.=X&.o F p 7XjXrX X9X X.X X.X/./.^.|.^./.^.^.A.U./.A.B.l.S.B./.A.B.l.l.S.l.l.B.A.B.B.U.l.i.l.l.Z.A.^.9X X XeXrX|.  &.0XBXJ.[ <.7.w.3X6X3Xq.X.+X+X5.5.5.5.3.....6.q...2.4...4.4... . . .~ @.~ ^ @.o.^ ^ ^ ) ) ^ ^ ^ W W W W E Z Z Z Z Z Z 9 9 9 8 6 6 6 6 8 , 4 8 9 9 E | | | | X.>.9.J.:X{.< s.AXKXgXY z n n c f d f g g h d d : d f g f l M c c Y g.c.v.+   1 F.F.<.8.O.^ ` ^ ! W W E 9 9 8 6 , , , , , , , , , , , , , , , , , , , 6 6 6 8 8 8 8 9 9 0 P 0 P W W W W 0 0 q q 0 0 0 0 0 0 0 0 0 q q 0 ( ( W ( ( ) ( ] $.>.o.[.;X2Xe 1 r p Y.hX^.U. X9X^./.U.Z.C.A.A.C.V.",
"B.Z.Z.B.l.l.l.l.l.l.l.l.l.B.V.l.B.Z.B.l.B.B.B.B.Z.V.l.B.C.Y.^.^.(./.|.P.  p 0XGXaX:.;.-.7.[.8.7.W W ^ ) ) ^ ^ o.^ ^ ^ ^ ^ ^ ^ ) 0 P ( W P L P W L ) ) ) W P 9 0 q 2 6 9 E  .4.6.3.3.3.3.X.X.X.| ' ' ' X...3.3.3.3.3.3.3.3.3.4.| Q ^ ] 9 _ 8.>X>X< u jXKXDXn.y y.b z z z z g f g d d d d d d f f h l c c z z z x #   . = ;.8.;.-.*.[ ( ( 0 0 6 , 4 , , , , , , < , , , , , 2 6 6 2 6 6 2 , , 6 6 q q 6 q q q 7 q 6 0 0 9 0 A W W } } ^ ^ ^  . .~  .+. .^  .^ W / W ^ ^ W ^ o.$.o.] <.<.-.{.K.o r p i.uXgX9X X^. X^././.Z.A.U.U.C.^./.U.A./.U.l.l.l.Z..X.XZ.S.z.l.l.B.Z.C.B.B.C.i.i.l.l.B.C.Y. X|. X9XuXr   N.kX>X1.=.9.q.+X5X6X<X6.3.+X+X3.5.6.5.3.3.3.6.6.,.3.3...X.X.X.' ~ ~ ' X.~ ~  . .~ ~ ^ ^ ) W W E L E Z W W Z Z Z Z Z Z 9 9 9 8 4 4 6 6 8 8 8 9 E E ~ X.~ | 3...+.0.%X>X;.= qXKXJXn.b m n n c g h d d d d d d % d f f f g M c m n d.b.n.x   . %.L.8.0.$.o.o.^ ^ ^ ^ W 9 0 8 6 , , , , < < < , , , , , , , , , , , , , , 6 6 6 6 6 8 8 8 0 0 0 P W 0 9 9 0 q q 0 0 0 0 0 0 0 0 0 9 7 9 0 0 0 0 I ( ( _ ] ! >.[.J.2X:.. i r G 9X9XU.|.^..XY.C.B.Z.Z.A.Z.B.",
"l.B.Z.Z.B.B.l.l.l.l.l.l.l.i.i.i.Z.U.U.Z.Z.Z.Z.Z.Z.B.B.l.S.C.^.|./.(.iXp   p.bXBXH.8.<.-.=.8.[.<.W / ^ o.) ^ / ^ ^ ^ W ^ ^ ^ ^ W 0 P P P 9 9 9 9 6 9 W W P 9 8 4 q , 6 9 9 E  .....X.X.X.X.X.| | ~ ~ ' | ..3.3.3.3.3.3.3.6.5...~ E ! ] [ ( H.2XF o R.LXKX(.u.y.y.z z z z k f d d t % % % d d f g f l z c z z z x p +   o e M.;.;.*._ ( ( 0 0 8 q 6 6 , , , , , < , , , , , , 2 6 6 6 2 , , , 6 q q 6 6 q q 0 0 0 6 7 0 9 7 7 9 W ) ^ / / ^  .{ /  . .^ / ^ / W ^ ^ ~ ^ / ^ o.o.) o.$.] -.H.K.:.= i i Y.9X9X X^..X^./.A.B.C.U.U.C.U.A.U.Z.Z.Z.l.Z.l.l.A.^.l.Z.l.i.l.l.B.B.l.l.l.i.l.i.i.l.B.U.|. X(.hXrX  1 -XdXH.8.e.q.'.*X3X4Xq.3.X.6.3.X.3.3.X.3.3.3.6.3.X.3.3.| ' ~ | ' Q ~ | X.~ ~  .' ~ ~ E W P 0 9 9 9 9 9 W Z 9 9 7 9 9 9 Z 9 7 6 4 4 6 q 0 9 L E Q ' X...| 6.'.5.>.w.2X$X< p.HXKXrXy.d.m m c c c z g d % d d d % t d f f h l m m n R h.b.x.+   e F.F.0.-.=.O.o.) ) ^ W Z 9 8 6 , , , , < < < , , , , , , , , , , , , , , 2 6 4 4 4 6 8 8 0 8 8 0 0 0 9 0 0 6 6 7 0 9 9 9 9 0 0 9 9 7 7 7 0 0 0 0 I ( _ ) ! 7.9.0.;XK.o 1 i p V.9XU.U.U.|./.A.Z.Z.Z.Z.B.l.",
"l.l.S.B.B.B.B.S.l.l.B.Z.V.i.i.B.l./.^./.A.Z.Z.Z.B.B.B.B.C.C.U.Y.I.eXY.  1 -XSX>X-.0.-.<.$.<.w.] W W ^ ^ ^ E 9 9 E 9 9 9 E E 9 9 9 0 0 7 8 6 8 7 E E 9 8 8 0 0 q q , 6 0 9 E ~ X.| | | | | | ' ~ Q Q ~ ' | ..X.3.3.3.3.6.5.4. .Q W W ) [ 1.aX,XO s.BXKXCXx.y.x.c z k g k f f t - $ & $ % % t d t l f l z c z z b x p X   O :.;.;.*.[ ( ( 0 0 0 0 7 8 6 , , , , , , , , , , , 6 6 2 2 , , , , 6 6 6 6 6 6 8 7 7 q 6 q 0 7 6 6 8 0 E E W E / ^ ~ ~ ~ ~ E E W E L E ^ ` ^ ^ ) ) ) ^ ^ ! ) -.8.{.$Xu + i a.7XrX9X X/..X.X/.C.A././.A.U.A./.Z.Z.Z.l.C.Z.S.A.^.B./.A.B.i.i.l.l.i.H i.l.i.H i.l.l.C.|.eX^.nXG X t.dX;X8.7.9.9.+X<X4X*X3.3.| | X.X.,.| | | X.| 3.3.| X.X.~ E Q ' ~ E Q '  .Q Q ' ~ Q E 9 9 0 8 8 7 9 9 9 E L 9 9 8 8 9 9 9 9 7 6 2 6 q q 0 0 E E ~ | ..2.| *X'.9.*X%X>XF.e fXKXDXn.b Y n z g g l c z f t - t - % % t d d d f g M M v f.b.I.y   O :.H.0.=.$.O.) ) W E Z E 9 7 6 6 , , , < < < , , , , , , , , , , , , 2 2 , , , , , 2 6 6 q 6 6 7 7 8 6 8 7 6 2 7 9 7 7 7 7 7 7 7 7 7 7 7 S 9 q q 0 ( _ ) ^ >.7.0.0.K.w . p G i.|.Y.Y.|.U.U.U.C.Z.Z.B.l.l.",
"S.l.l.l.l.S.B.Z.B.z.i.B.C.V.l.l.A..X|.A.Z.B.Z.Z.Z.B.B.B.C.U.U.I.|.gX;   s.sXBX8.8.7.=.7.7.7.` Q Z E 9 E E 9 9 6 9 9 9 9 9 9 9 8 8 8 8 7 8 7 7 9 ^ ! W A 0 0 0 q w 6 6 8 6 9 ~ ' | ' ~ ~ ~ ~ ~ Q Q Q E ~ ' X.X.X.3.3.3.6.4.| ~ W W W _ [ =XdXu O R.LXJX(.c.Y d.z g g f f f t - % $ $ $ % % - % % f f f l c c c c x x r   o 1 ;.;.-.*.[ ( W 0 0 0 0 7 8 6 6 4 , , , , , , , , 6 6 , , , , , , , 6 6 2 , 2 6 6 6 6 6 6 q q 6 2 6 8 8 9 L 9 E E / Q Q ~ E E E E 9 E ^ ^ ^ ^ ) ) ^ W ! ! $.! 8.$X{.F.O i V.uXgX9X X^.^.^./.A.A.U.U.A./.A.A.C./.A.l.l.C.Z././.Z.U.A.A.l.i.i.i.u.H H B.V.H i.V.V.I.Y.|.rXqX  + -XaXH.7.7.q.q.+X<X4X+X3.5...| X.X.| | | | X.| ..X.| | | Q E Q ~ ~ E Q ~ ~ E Q ^ Q E Z 9 9 0 8 7 9 9 9 E E 9 9 8 8 8 9 0 9 9 8 6 6 6 q q 0 P E E ~ X.2...3.+X9.'.3X2X>XF p.HXLX8Xy.n j.n n c g g g f t % % % % & & % t t d d d h g v f.n.~.u.    w H.H.8.O.} ) ) W E W W 0 0 6 6 6 , , < , , , , , , , , , , , , , , 2 2 , , , , , 2 6 6 6 2 2 6 6 6 6 6 6 2 2 6 7 6 6 6 6 6 7 7 7 7 7 6 Z 9 7 q q I ( W ! ` 9.9.7.8.F.. r u.a.7X|.U.Y.C.Z.Z.Z.Z.V.B.B.B.",
"S.S.l.l.l.l.B.C.B.B.l.l.V.C.B.i.A./.U.S.l.B.Z.A.A.Z.B.B.Z.U.U.Y.rX(.  r -XBX2X-.H.7.e.e.w.7.Q Q Z E 9 9 9 9 8 6 8 9 9 9 9 9 9 9 9 9 9 9 9 9 9 9 7 9 9 9 7 8 6 , w q 6 2 , 9 E E ~ ~ Q Q Q Q E L E S E E ~ | | | X.3.6.6...Q E ! W W _ ;.>XL.  e fXKXCXg.x.b n m g f f f f t - % - % % % % t t t d f l l g c c c x G t.@ . O u ;.-.-.[ _ ( A 0 9 9 0 q 6 6 4 , , , , , , , , , 6 , , , , , , , 4 , 2 , 2 2 2 , , 6 2 6 q q 6 , 6 6 8 9 9 9 E E E E Q E Z W E 9 E E S Z W ) W W P ^ W O.W =.%XJ.;X&.r s.qXuX|.|..X/././.U.U.U.U.A././.Z.Z.U.Z.B.S.S.l.C.l.S.S.S.B.l.i.l.z.z.z.i.Z.I.u.i.v.C.I.V.I.hXu.  s.kXK.8.8.9.q.+X+X+X+X6.3.,...| | X.~ ~ X.X.X.~ X.X.~ | ' ~ E Q ^ ^ W W ^ W E W W 9 9 9 9 9 8 8 7 7 9 9 9 9 9 8 8 8 8 8 8 8 9 8 6 6 , 6 6 q P E E { @.2.X.5.5.q.<X3X3X{.e 0XKXZXx.y.h.k.N K n c l f - % % & % $ & & $ - t f f g c v B f.b.~.I.y   O ;.J.0.-.O.) ) ) W W ) 0 0 6 6 2 , , < , , , , , , , , , , , , , , , , , , , 2 2 2 2 2 2 , , 2 2 2 , , , , , 3 6 , , 2 2 2 2 2 2 2 2 2 7 Z 7 6 q 0 P P o.Q $.#.w.K.oXe + t.i.R.7XY.V.I.Z.B.Z.V.V.V.B.V.",
"l.l.S.B.l.l.l.C.B.|. XU.l.l.l.l.H l.S.l.C.U.A.C.B.C.Y.U.U.C.I.U.uXp   s.sXIXH.8.0.w.#X9.+X>.+.` W W W Z 9 9 8 8 8 8 9 0 0 0 P W 9 9 9 7 7 8 8 6 9 9 9 6 , 6 0 0 , , 2 , , 9 E E E E E E E E E L E Z E E ~ ' | | X.3.6.5.| Z Z ^ ( ( 0 H.=XO o G.PXLX(.g.g.Y c c l k f f f d t % % $ & & $ % t t t l z f g l c c x H g.r   O O ;.*.*._ _ ( 0 0 0 0 0 q 6 6 2 , , , , , , , , , , , , , , , , 4 6 6 6 2 2 2 2 , , , , , 6 q 6 6 6 6 8 6 6 9 Z E Z 9 Z 9 9 Z 9 9 9 9 7 9 9 W W P P W 9 Z ] ) %X%X2X}.= F R.|.eXrX.X/././.^.^.U.A.A./.^.Z.Z.C.S.A./.A.S.B.z.Z.Z.Z.Z.l.l.B.l.V.I.l.C.V.G i.l.v.V.v.^.7X@ @ -X0X;.*.7.5.q.*Xq.q.'.,.3.~ | E E X.~ ~ ~ | ' E ~ ~ ~ | Q / W E E E L E W 9 7 9 9 6 6 0 9 8 6 6 6 8 8 7 7 8 8 8 6 6 4 4 6 8 7 8 6 6 , , , 6 9 W /  .@.2.X.3.5.'.4XvX2X%.&.AXKXrXg.g.h.n f.v m n n l d t d % % % & & % - d g z m N d.f.f.m.h.(.g.  . w F.8.=.*._ ) ) W W W 9 9 8 6 6 , , , 2 , , , , , , , , , , , , , , , , , , , 2 , , , , , , , , , , , , , , 3 , , , , 2 , , , , , , 2 7 7 7 6 q 0 0 0 9 ^ #.7.0.K.K.L.o t.s.t.R.7XU.U.C.Z.B.B.V.B.l.l.",
"l.l.l.l.B.B.B.l.Z.Z.U.C.Z.^.|.Z.A.l.l.U.U.Z.C.|.|.l.C.C.^.I.V.uXY.  + 7XBXdX;.0.#.#X*X+Xw.7.@.>.! ^ ! Z Z W Z 7 A 0 0 7 8 6 8 6 q 6 2 , , 2 6 6 6 q q q 6 , , , , , , , , 2 7 9 E E E E E E E E E E E ~ ~ | | | X.3.,...@.^ Z ) A A :.=Xu   ; kXKXJX(.u.u.b Y l g f f f d d t - $ % % % % % - t d f f f k z z k x u.i.v.    o %.-._ [ _ 0 0 0 ( 0 0 8 q 6 , , , , , , , , , , , , , , , , , , , , , 2 2 2 , , , , , , , 2 6 6 , 6 , , 2 8 9 9 9 E 9 9 9 9 9 8 8 8 8 8 9 9 9 W W W W P _ ( -.;XaXL.:.1 t.R.uXrX XA.Z./.|./.A.A.A././.Z.Z.U.A.B.A.Z.B.l.U.B.B.S.Z.B.i.l.B.B.Y.Y.i.l.i.G v.v.u.V.8XV.. &.0X;.;.-.7.7.*X+X'.6.6.6.| ~ Q ~ ' ' Q E Q E E E E ~ ~ ~ Q E 9 9 9 9 8 8 9 9 7 8 7 7 6 6 6 6 6 6 6 4 8 8 8 6 6 6 4 4 4 6 8 8 8 8 6 4 4 6 6 6 9 9 E +.#. .| ,.6.<X3X3X$Xe wXKXHXR.x.Y j.B f.R d.n m m g d h t d d % % f f t g l h h M m n d.b.n.I.#   . ;.F.-.*.( ) ) ^ W ^ L 9 8 6 4 4 , , , , , , , , , , , , , , , , , , , , , , , , , , , , , , , , , , , , , , < < , , 2 6 2 , , , , 2 2 7 7 7 8 0 0 0 9 ) O.<.O.=.;X>Xe O P.t.a.qX|.V.V.U.U.V.B.l.l.B.",
"B.l.l.i.l.B.V.Z.B.l.B.B.B.C.U.Z.A.S.S.Z.C.B.V.U.C.B.C.V.V.V.8XuXr   a.kXSX=X8.w.7.#X#X9.>.@. .` Z Z 9 7 7 7 7 2 7 7 6 6 2 2 2 6 6 6 , , , , 6 6 6 6 q 6 4 , , , , , , , , 2 6 9 9 Z Z E E E E E E E Q ~ ' | | | | .... .^ E Z ! ) _ F.p.o   P.HXKXCXI.u.y.c c l g f f f h d d t % % % % % % % % h f g f f k z k b H u.R.#   O w *.[ [ D ( _ P 0 0 q 8 8 6 , , , , , , , , , , , , , , , , , , , , , 2 2 2 , , , , , , , , 6 2 , 2 , , 6 8 7 9 7 9 9 9 9 8 8 6 6 4 6 8 9 A W W W 0 9 0 W ( ( H.aX>XM.&.u P.rXgX XZ.B.C.A.U.A.A.C.Z.A.Z.Z.U.B.z.S.Z.A.A.A.Z.Z.l.l.l.i.l.l.l.Z.I.B.u.G u.v.v.i.^.|.+   -X-X1.;.O.$.7.*X+X6.5.6.q.X.~ E E ~ ~ Q E Q Q Q Q Q Q Q Q E E 9 9 9 9 9 9 9 9 6 6 6 6 2 , , 4 6 6 4 4 8 6 6 6 6 6 4 , , 4 6 8 8 8 6 4 4 6 8 9 9 9 9 ^  .o.>.5.].4X3X:X*.&.CXKXjXI.x.j.f.f.R N n v g f d % % $ % % $ $ % % % d h d d g l c n g.Z.I.G   . u ;.-.*._ W W ^ ` ^ L 9 8 6 6 6 4 4 , , , , , , , , , , , , , , , , , , , , , , , , , , , , , 4 , , , , , , , , 2 6 , 2 2 2 , , , , , 2 7 7 8 9 W W W ) O.O.*.<.J.2XL.o u N.G |.eXU.I./.U.Z.B.l.i.i.",
"l.l.l.l.l.l.l.l.l.l.B.V.B.B.Z.B.i.i.i.S.C.U.Y.^.V.U.U.U.V.V.rXI.  r 7XBXBXK.J.=.[.&X#X>.~ ` ~ E Z 7 6 8 7 8 6 8 8 8 6 6 6 6 8 8 6 6 2 2 6 6 6 6 6 6 6 6 , , , , , < , , , , 6 9 9 9 Z E E E E E Q ~ ~ ~ { | | | | X.X.~ Z 9 W W A [ K.w   r jXKXLXrXz.u.y.m M M g g f f h d t - % % % % $ $ % - d d d h f z c c b b u.|.t.  + e _ *._ A ( ( 0 0 0 9 0 q 6 6 2 2 , , , , , , , , 6 6 , , , , , , , , 6 6 , , , , , , , , , 6 6 , , , 6 6 8 9 7 8 8 9 9 9 8 8 6 6 4 6 8 9 W W E 9 9 0 0 q ( _ -.2XdX=XT.&.a.qXhXrXU.l.l.B.A.U./.A.A.U.Z.Z.Z.B.v./.Z./.A.z.l.B.v.l.B.l.l.l.B.Z.C.C.v.u.V.i.G i. XV.  u 0XF.F.H.8.] '.4X*X3.,.6.6.| ' Q E ~ ~ Q E E Q ~ ~ ~ E E E E 9 9 9 9 9 9 9 9 9 6 6 6 6 , , , , 4 6 4 6 6 6 6 6 6 6 6 4 4 4 6 8 9 8 8 6 6 8 8 9 8 9 W E /  .@.| ].3X3X:Xw ,XKXJX(.D.x.c.R h.n n v M h d % & & $ $ % % % % % % % d d f g l c H j.n.I.(.r   O K.F.*.( ) ^ ` ` E E 9 8 8 6 6 6 4 , , , , , , , , , , , , , , , , , , , , , , , 4 , , , , , 6 4 , , , , , , , 6 6 , 6 6 6 , , , , , 2 7 7 6 0 W W W ) O.) =.<.8.>X,X1 + t.s.P.hX(.U.C.V.B.B.l.i.l.",
"l.l.l.B.B.l.l.l.l.l.B.V.B.B.B.S.i.i.l.B.A.U.U.U.U.^.U.U.V.Y.9X;   P.kXGX>XH.H.8.&X&X'.@.~  .` E Z 8 6 7 9 8 8 9 8 8 6 6 8 8 8 8 2 2 6 6 6 6 6 6 6 6 6 , , , , , , < , , , , 6 9 9 9 Z E E E E Q / / ~ { | | | | | '  .~ 9 E ^ Z A <.H.O . E.HXJXAXY.u.g.y.m l l g g f h d d t % % % % $ $ % t d d h d d h l c c z b y.Y.P.@ o u ;.H._ 0 ( A 0 W W L 0 8 8 6 2 2 , 6 6 , , , , 6 q q 6 , , , , , , , , , , , 6 6 , , , , 6 q 6 , , 6 6 8 9 9 7 8 9 9 9 9 9 9 8 6 6 6 8 9 A A 9 7 A W A 6 ( -.-.K.dXaX0XG.a.hXzXgX XC.l.S.C.A./.^.Z.U.Z.Z.Z.B.Z..X.X X/.i.B.v.B.B.Z.Z.l.l.C.^.I.V.l.u.^.V.G i.|.r   T.T.;.%.*.0.9.4X4X+X,.3.6.3.| | ~ E ~ ' ~ Q Q E Q ~ ~ E E E Q 9 9 9 E Z 9 9 9 9 8 8 q q 6 , 6 4 4 6 6 6 6 6 6 8 8 8 8 6 6 6 6 9 9 0 8 8 8 8 8 8 6 E ! E Q  .~ ,.+X5X3XJ.%.BXLXZXI.b.h.x.Y j.n n v c g d % % & % % % t % % % % % d h h g l c K x.I._.rXP.  o ,X2X-.0 ] o.` ~ E L L 9 9 8 6 4 , , , , , , , , , , , , , , , , , , 2 6 , 6 6 6 6 , , , , 4 6 6 4 , , , , , , , , 6 6 6 6 6 , , , 2 2 7 0 6 8 A W W W O.O.<.8.8.$XaXG.  = a.I.nXrX(.I.v.B.B.S.S.B.",
"l.l.l.l.B.Z.C.U.l.B.Z.B.Z.Z.B.l.z.J l.B.A.A.Z.Z.^.U.I.V.V.8X9X  i qXIXGX$X$X0.#X<X#X9.@.+.@.+.^ 9 6 6 7 0 7 8 9 8 6 6 6 6 6 6 6 6 6 6 6 6 6 6 6 6 6 , , , , , , , < , , , , 6 0 9 9 9 E E E W Q / / / ~ ~ ~ ' ' ' ~ ~ ` E / ^ E ! 0.8.o 1 kXKXKXrXg.u.g.b b l g g g f f d d t % % % % $ % % d f h g f h g c m n m Y y.c.OXy   1 T.aX8.0 ( _ E Z W E 9 9 8 6 2 , 6 6 6 6 , , 6 6 q q 6 6 6 , , , , , 2 2 , , 2 6 , , , 2 8 0 7 6 6 8 8 9 9 9 9 9 9 9 9 9 9 9 8 6 8 6 8 8 9 9 9 7 ! W 9 0 A _ 8.8.aXdXyXG.R.HXDXgXuX^.C.V.C.C.U./.Z.U.A.A.Z.l.v./.^.^.A.l./.Z.Z.A.S.C.l.i.V.U.I.V.V.u.V.i.G V.7X+ + -XM.p.;.=.0.#X3X*X6.3.6.6.3.3.X.~ E ~ ' ~ Q Q Z E Q ~ E E / ^ E Z 9 E L 9 9 0 7 8 6 q q 6 6 q 4 4 6 6 6 6 6 6 8 8 8 8 8 6 6 q 8 8 8 8 8 8 6 6 6 8 E E 9 ^ ` Z '.4X5X3X;.G.KXKXrXD.c.d.d.d.n j.N m n m d t % & % $ % t % % % % & d h h f g c N h._.OX).qX+ @ p.NXJ.[ ) Q Q ` ~ L L L W P 9 8 6 6 , , , , , , , , , , , , 4 4 6 6 6 6 6 , 6 6 6 4 6 6 6 6 q q 6 6 6 2 , , , , 2 6 6 6 2 2 , 2 2 6 2 0 0 6 8 9 L W ^ ) -.=.8.[.H.aX0X. t.7XnXAXxXeXU.B.Z.B.B.V.l.",
"l.l.l.B.C.Z.A./.B.U.A.B.C.C.Z.B.z.z.l.C.C.Z.B.B.V.l.V.V.Y.rX X  a.jXPXBXK.2X%X%X3X#X9.>.@.$.o.E 9 8 8 8 0 0 9 0 9 7 7 7 8 8 6 6 6 6 6 6 6 6 6 6 6 6 , , , , , , , < , , , , 6 0 0 0 9 E E E W E E E E E E Q Q Q ~ E ~  .~ ~ ` ` o.J.8.< 1 qXZXnXv.H g.j.H H z z z g g f f d t - t - % % $ % t d d h g g c n d.d.Y Y y.y.7XT   O =XGX>X*.A ) ^ ! W W Z 9 8 6 2 , 6 6 6 6 6 6 6 q q q q 6 6 6 6 6 8 8 7 8 6 6 2 6 2 2 2 2 6 7 0 8 8 9 0 9 9 9 9 9 9 9 9 9 9 9 8 6 6 6 8 8 7 9 9 9 W 9 8 ) W W J.#X>XvXaXs.qXKXLXhXrX^.Z.C.A.C.A.U.Z./.U.A.U.Z.Z.^./.Z.l.l./.U.U.^.l.B.B.i.i.B.C.C.Y.u.G G v.^.(.+ u p.:.;.$X#X#X4X3X'.5.3.6.6.3.3.| Q Q ~ ' ~ Q Q Z E E Q Q / ~ ^ W E 9 E 9 9 9 0 8 6 6 q 8 6 6 q 6 4 6 6 6 6 6 6 6 6 6 8 6 6 6 6 8 8 6 6 8 6 6 4 8 9 9 9 9 W ` Q q.+X4X3X;.L.LXLXI.D.h.f.d.h.H h.d.m n m d % % & $ % - - % % % C % h h h g l v f.m.~._.~.hXr   = >X$XJ.=.Q ~  .~ E E E W W W 9 9 6 6 6 6 6 6 6 6 , , , 4 6 6 6 6 6 6 6 6 , 6 6 6 6 6 6 6 6 q q 6 6 6 6 6 6 6 7 9 7 6 6 2 2 2 2 , 6 2 7 A 9 9 E E ! ^ ! $.-.8.%XJ.yXG.. E.CXKXKXnX9XZ.l.A.Z.B.V.l.",
"l.z.l.Z.Z.Z.Z.A.A././.A.U.A.A././././.C.Z.B.l.i.i.i.i.V. XrX|.X i sXGXaX{.1X1X1X<X#Xe.>.o.o.^ 8 9 0 8 8 0 0 9 8 9 9 9 0 9 7 8 8 8 6 6 2 6 6 6 6 6 6 , , , , , , < < , , < < 6 0 8 9 9 9 9 L L E E E E L L E E E E E Q ' ` ~  .7.w.[.{.%.. u s.G x g.c.j.j.H k z g g f f d d - % % % % $ $ % % d h g j c m K d.d.Y d.g.g.I.>   . G.GXdX8._ ! ^ o.Q W Z 9 8 6 6 6 6 6 6 6 6 6 6 8 8 8 8 8 8 8 8 8 0 9 0 0 9 0 9 9 8 8 6 6 8 0 0 7 9 9 9 E 9 E E W 9 E E E 9 9 9 9 6 8 9 9 7 7 9 Z 9 9 Z ) [ O.0.;X;XdX=Xp.bXKXDXgXrX^.B.Z.A.C.U.U.A.U.Z.Z.U.A.A..X X.X/./.U.A.Z.U.l.l.B.S.i.i.C.U.V.i.G i.^.|.v.@ O u &.;.K.[.%X3X<X'.].6.3.6.3.X.' Q Q ~ ' Q Q / E E E Q / / / ^ W E 9 9 9 9 9 0 6 6 8 q 6 6 6 q 6 4 4 6 6 4 4 6 4 6 8 8 6 6 6 8 8 8 8 8 8 8 6 4 8 9 9 9 9 E ^ @.9.'.*X%X;.&.wXrXn.D.f.f.d.j.j.H N c v M % & % & $ t d % % t d d d g g f l c n f.n.n.b.~.8X+   o ;.J.[.7.+. . .~ ~ Q W W W W Z Z 9 8 8 8 8 8 6 6 6 6 6 6 6 6 6 4 4 4 4 4 4 6 6 6 4 6 6 6 6 8 8 8 6 8 8 8 8 9 9 W 9 9 9 9 9 9 8 2 6 2 7 W Z E E Z W ^ ) ] -.8.[.$X=Xo . W.AXLXPXzXeXV.l.Z.B.B.V.l.",
"B.l.l.l.B.Z.A./.U././.U.U.Z.A. X/..X.XA.C.A.A.S.B.l.G l.9XuX9X; o p.,XsXdXdX:X3X#Xw.7.+.Q ^ ^ 6 6 8 8 6 8 0 9 6 9 9 9 9 7 8 6 6 q 6 6 2 2 2 6 6 6 6 , , , 6 , , < < , , < < 4 0 8 8 9 9 9 9 9 9 / W E L 9 E E E E ~ Q ~  .Q  .w.&X[.:XF.o + G p k c.c.j.g.b y k g f d d t - $ $ $ $ $ $ $ % t d v v v v m m m c Y d.x.n.x   X   p.VX;XH.8.O.Q  .Q E 9 9 8 6 6 6 4 6 6 6 4 6 6 8 8 8 8 8 8 8 9 9 9 Z W W W W W W 9 9 8 6 8 9 9 9 9 9 E E E E W ^ Z W ^ W 9 8 9 W 8 9 P 9 9 7 9 9 9 ! ) Z $.8.=.J.2XaX:.G.AXKXgXrXhX|.V.C.Z.Z.C.C.B.Z.B.Z.A.Z.l.Z.U.U./..XU.U.B.B.l.H i.Z.l.i.V.C.I.S.G i.I.I.i.i   e e F.=X;X3X<X+X'.+X6.,.6.6.| ' Q ~ ' ' ~ Q ~ Q E E Q / / Q W E L 9 9 9 9 9 9 8 8 q q 6 , 6 q 6 4 4 6 6 , 4 6 6 6 8 8 8 8 8 8 9 9 8 9 9 8 6 6 6 8 8 E ^ 9 W 7.+X*X*XJ.1.w t.I.D.n.h.m.j.d.g.k m h j f & & d $ & t t $ $ t d t d g h d g c n f.n.~.b.D.Y @ X . %.8.0.7.@.X.X.@.` ^ W E Z Z Z 9 9 0 0 8 8 8 8 8 0 8 q 6 6 6 4 6 4 4 4 4 4 6 6 8 4 6 6 6 6 8 q 6 6 8 8 8 7 9 Z E Z Z W W W W 9 6 0 2 7 W W E E 9 9 W o.) =.8.8.;XF.. 1 }.PXKXnXuXhX/.v.Z.l.l.l.l.",
"l.A.A.Z.Z.S.B./././.A.A.U.U./. XZ.^.|./././.U./.Y.I.l.i.Y.iX|.Y.o u :.K.aXaX1X1X%Xw.7.@.^ ^ ) 9 9 9 8 8 6 6 6 6 8 9 9 9 8 6 8 8 6 8 6 , , 6 q 6 q 6 , , , , 2 2 < < , , , , , , 6 6 6 8 8 9 9 9 9 L E E E E W ^ / / ` X. . . .@.'.%X[.H.%.O p v.u.x n.d.b z k y d d d d d t $ & & $ $ $ $ % d f v v N N n n H d.Y n n.g.@   @ 1 >XNX:X*.=.#.Q  .E E Z 9 6 4 4 6 , 4 6 6 6 6 8 8 8 8 8 7 8 7 9 9 9 E L E E W W W E E L 9 9 9 9 9 9 8 9 E W E E E 9 E W E 9 8 9 9 8 9 9 9 9 9 Z W E 9 W 0 -.O.=.H.dXL.u 0XHXLX|.rXgXU.S.C.V.B.C.Z.Z.Z.Z.Z.Z.B.S.Z.B.U././.Z.l.l.Z.S.i.G S.l.l.i.V.V.i.i.G i.V.i.s.@ . e F.;X:X&X3X*X'.+X6.3.6.6.3.| ' ~ ' ~ ~ / ^ ^ Q E E Q E Z Q E 9 9 9 9 8 8 9 8 8 8 0 8 6 6 q 6 6 6 6 4 4 6 8 6 8 6 4 6 0 9 8 9 9 9 9 8 8 6 6 9 8 8 9 E E ^ $.'.*X1X{.1.u p P.I.n.j.f.m.b.j.H m v j h d % % % $ & & & & % : t f g g g g l v N Q.Q.b.D.X @ @ 1 :.0.0.=. .@.4.@. .~ W E E E Z Z 9 9 9 7 9 8 8 8 8 8 q q q 6 6 4 6 4 4 4 4 , , 6 8 6 6 6 6 8 9 9 8 8 9 9 9 9 9 E E E E E E E E E W 9 9 9 9 9 E Q E $.Z -.8.[ H.=XF   &.CXKXPX7XuXiXU.B.V.l.B.l.i.",
"A././.A.A.B.B.A.A.^.^.A.Z.A./. XpXeX.XA.Z.A.A.U.^.C.l.i.I.9X8X8Xt.o &.F.L.;X2X<X<Xw.5.@.+.o.] E 9 9 8 6 6 8 8 9 6 6 8 8 8 8 6 6 6 6 6 2 2 q 7 q q 6 , , , , 2 2 < < < < < , 4 6 4 6 6 8 8 9 9 8 9 9 L L 9 9 E W W / ^  ...X...@.+X#X%XJ.1.e o s.v.g.c.j.y.b k y h d d t % % $ $ & $ $ $ % t d g v v N n n n H H Y g.v.y X   @ L.VX2X8.-.=.) E +.Q E E 9 6 4 4 4 , 6 6 6 6 6 6 8 8 8 7 7 7 7 9 9 9 9 9 E E E E E E W E E 9 9 9 E 9 9 9 E E 9 Z E W W E L 9 8 9 9 8 9 9 9 9 9 Z W ) W 9 ( _ *.( $XaXF &.BXKXjX(.nXrXU.B.U.C.C.U.Z.Z.A.A.Z.Z.B.l.Z.B.A.Z.z.z.l.l.S.l.z.H i.l.Y.l.H B.i.H x u.v.i.i.p . 1 %.F.J.%X<X<Xq.6.3.3.].3.| | ' ~ ' ~ Q E E / Q Z Z E E Z E E 9 9 9 9 8 8 9 8 6 8 8 6 6 6 q 6 6 6 , 4 4 6 6 6 6 6 6 6 0 0 7 9 9 9 9 8 8 8 8 0 8 8 9 E E W ^ q.<X4X1XJ.;.e t.I.n.f.f.b.b.j.y.n n v g d % % $ & & $ % % % % & % h l k d h m h.n.b.b.y X   + &.H.J.0.#. ...@.X.' / E E 9 9 Z 9 7 7 8 8 8 8 8 8 8 8 8 q q 6 6 6 6 4 4 6 6 4 6 8 6 6 6 6 6 8 8 7 8 9 9 9 9 9 9 9 E E E E E E W E W E E W W E 9 9 o.^ o.[ <.-.H.K.O . G.IXKXZX|.iX|.C.U.U.B.B.C.U.",
"/./.A.Z.Z.Z.Z.A.Z././.A.Z.Z./.^. XXXeX.XA.A./.|././.U.V.U. XrX9X|.+ 1 p.;.J.1X3X3X'.>.$.@.#.o.^ E 9 8 6 6 8 9 9 6 8 8 8 8 8 8 6 6 2 6 6 8 6 6 7 q 6 , , , , 6 2 < < < < < , q 0 4 6 6 8 8 8 8 9 9 9 9 9 9 9 9 9 9 9 E ~  . . .X.9.*X:X[.J.;.+ r v.v.H d.u.H k y d d d t % % $ $ $ & & $ % d f g v v B n n n n H y.b.g.X   X 1 kXNX$X8.7.$.^ o.^ / E E 9 8 6 4 4 6 6 6 6 6 6 6 8 8 7 7 7 7 7 9 9 9 9 9 9 9 L 9 9 9 E L Z 9 9 L E L E E E 9 9 9 E ^ ^ E 9 9 9 9 9 8 8 9 9 9 9 W W ) 9 0 _ _ -.-.>XL.1 -XPXKX9XeXzX|.C.Z.U.U.U.U.V.B.Z.Z.Z.Z.l.l.Z..X.XZ.z.l.S.l.l.l.B.B.J i.Y.B.l.l.i.G G u.v.I.a.a.@ O w %.1.$X1X3X+X3.3.6.@X6..... .' ' ` Q E Z / / E E Q Q S Q E L 9 9 9 8 9 9 8 8 8 8 8 6 6 q 6 6 4 , 4 4 6 6 6 6 6 6 8 9 0 9 9 9 9 8 8 8 8 8 8 8 8 9 E ^ W 9 9.4X<X3X[.F.e r v.b.h.k.n.b.y.y.d.N n v g d % $ & & % - t % % & d g c l d d c d.m.b.g.X X   1 G.K.J.7.$.+.>.@.X.~ E E 9 9 9 Z 9 9 9 7 8 8 8 7 9 9 9 9 8 8 6 6 6 6 6 4 6 6 6 6 8 8 8 6 6 8 8 7 9 9 9 9 9 9 9 9 9 E Z Z Z 9 9 9 9 Z 9 E ^ ` ` ^ /  .Z O.O.8.;.J.:.  a 0XPXLX9X9XiX^.V.I.U.B.Z.C.I.",
"/.A.B.S.Z.A././.^..X/./.^..X/./.A..XpXeX/.Z./.^.^. X XC.U. XhX8XwXN.  F M.F.%XdX3X#X5. .+.#.#.o.^ W Z 9 9 9 9 9 9 9 9 9 9 9 8 6 8 6 6 7 7 6 2 6 q 6 , , , 6 6 , , , < < < , 6 q 4 6 6 8 8 8 8 8 9 9 9 9 9 Z 9 9 E E W ~  .....,.+.#X%X#X$XH.%.  G v.x y.y.y.b x d d d t t t - $ $ # & $ % d h g v v v v m m b b y.v.y     o G.BX:XJ.J.8.) o.O.E E L 9 9 9 8 6 6 6 8 8 8 8 8 8 8 8 7 9 9 7 7 9 9 E E E E E E 9 9 9 9 9 Z 9 Z E E Q ~ ~ ~ E E E E ^ ^ E 9 9 9 9 9 9 8 9 9 9 W W W W 0 [ ( [ -.$X>Xe &.CXKXZX9XxXiXU.V.C.A.C.A.A.Z.l.Z.Z.Z.Z.l.B.A..X/.Z.l.l.l.z.l.l.l.C.i.H l.i.V.i.l.H u.u.v.Y.V.Y.r . e %.:.J.1X3X*X6.3.6.q.6.3.,. .~ ~ ~ / E 9 E / Q Q ~ Q Q Q ~ E 9 E E 9 9 9 9 9 9 9 9 8 8 8 8 6 6 6 6 6 6 6 , 6 6 6 6 8 8 9 8 8 8 6 6 6 6 8 6 8 8 8 W ) ^ E 7.5X4X3X%X{.:.e t.x.b.b.Q.b.y.y.n m m m c f d - % $ $ % % % d d g c c g h g m n x.n.y     @ u K.H.8.$.o.@.>.@. .Q E Z 9 9 9 9 9 9 9 7 7 8 7 9 9 0 0 9 8 8 6 6 4 6 6 6 8 8 8 8 9 9 9 7 9 9 9 9 9 9 9 9 9 E E E E 9 9 9 9 9 9 9 9 E 9 E ~  .@.#.#.` o.^ =.8.8.$X< o t.CXJXSXY.gX9X^.V.C.C.B.Z.I.Z.",
"A.Z.Z.A.A./.^.^.^././.^. X.X/./..X^..X.XA.A./././. X XC.V.^.hXiX XwX+ o p.F.{.2X<X%Xq.` ~ @.@. . .^ ^ E E 9 9 9 L E E E E E 9 8 8 6 6 7 7 6 2 8 q 6 , , 6 6 6 , , , , , < < , , 6 6 6 8 6 6 8 9 9 9 9 9 9 A 9 7 9 Z W Q ~ | X.@.+.e.[.&X$XH.1.1 ; s.u.u.y.y.u.y.c g d - - t - - $ $ $ $ $ % h j v v v v m m c b b y.X X   r kXdX:XJ.<.$.O.^ / W E L 9 9 9 0 q 6 8 8 9 9 8 8 8 9 8 9 9 9 9 9 9 9 E E E E E E E E E E E E E E / / ~ ~ ~ { ~ ~ Q E E Q W E 9 9 9 9 9 9 9 9 A W W W 0 _ *._ *.H.:X;.e R.HXKXrXeXzXrXZ.Z.C.C.Z.C.A.Z.B.Z.Z.Z.Z.Z.A.^..X X/.l.z.z.i.J i.l.Z.i.J i.H H i.i.G H G l.(.Y.Y.a.  1 u %.1.$X1X<X'.,.4.6.6...X.~ E 9 E E 9 8 9 E E Q ~ ' Q ' ` E E Q E E 9 E E 9 9 9 9 8 8 9 9 8 6 6 6 6 6 4 , , 4 6 6 6 8 7 8 8 8 8 6 6 6 8 6 8 8 8 9 W ^ W ~ 4X3X5X4X&XJ.e r t.x.n.Q.b.y.y.v v v v c g d t d % % % % % d l g c c g g c K d.b.c.@ X   = p.L.H.=.) ] @.>. .~ E E 9 9 9 9 9 9 9 9 9 9 9 9 9 9 9 9 9 8 8 8 6 8 8 8 8 0 9 9 9 9 9 9 9 9 9 9 Z E 9 L L L E E E E E E E E E E E E E E Q ~  .@.@.@.#.7.o.7.;.K.K.O r 7XPXLXrX|.hX|.C.C.U.Y.B.C.^.^.",
"A./.^. X.X X X.X/././..X.X/.A..XeX.XA.Z.B.Z././.A.U.^.^.U.C.rXzX9X8XV.  u M.K.[.%X<X#X>.'  .X. . . .^ ^ Q W E E 9 E W W W W E 9 8 6 6 7 7 7 7 0 7 6 2 2 6 6 6 , , 3 3 6 , , , , 6 8 8 8 6 6 8 9 9 8 8 7 9 0 7 7 8 9 E E E ~ X.X.+.o.#X*Xw.[.H.;.O G u.u.b H y.y.j.n g % $ % - - $ $ % $ $ % h M v v v v m b c x H p   @ . p.BX>X:Xw.$.] o.^ E ^ / E L 9 9 8 8 8 8 8 9 9 9 9 9 9 9 9 9 Z Z 9 9 Z E E E E E E E E E E Q Q Q / / ~ { { { |  . .~ E E E / W 9 9 9 L 9 9 P W W W W W 8 _ ( *.-.$XK.< &.jXKXHX8XxXgX.XA.A.C.C.C.C.A.A.Z.Z.Z.Z.Z.Z.A.^..X9X.Xz.H z.z.H B./..XB.i.z.Z.V.v.l.u.G G i.Y.|.I.(.+ . 1 F :.0.<X3X*X5.4.6.6.~ ' Q Z 9 9 E 9 9 9 E / ~ | | ' |  .~ ~ ~ ^ E E E W E 9 9 9 9 9 9 9 9 6 6 6 6 6 , 4 4 6 6 6 4 6 8 8 8 9 9 8 8 8 8 4 8 8 8 8 9 E E 7 w.<X4X3X&X%XF a p y.n.b.h.g.d.m v v m c z f d d t % t % % d c g v n c g c d.h.c.f       e K.H.8.-.! !  . .| ' E E 9 9 9 9 9 9 9 9 8 8 8 9 9 9 9 9 9 9 9 9 9 9 8 8 8 0 9 9 9 9 L E 9 9 9 E E E W E E E E E E E Q ~ Q Q E E E E E Q ~  ...@.@. .#.7.7.8.8.;Xw O &.jXKXJX(.rXrXI.I.I.C.U.Z.U.|.U.",
"Z.Z.^.XXXXeXeXXX^..X X X.X/./. XeXXX.X/.A.B.B.Z.A.Z./..X^.Y.|.xXiX9X9XF O F F.1.[.<X<Xw.>.X.X.@.+.+. .^ / E E E 9 W ^ ^ W ^ W 9 8 7 7 6 7 0 A A 0 8 6 6 8 q 6 , 2 3 q q 2 , 6 q 8 8 8 8 6 6 8 9 9 9 8 8 8 8 8 6 9 W ^ / ' X...,. .o.w.w.#X1X$XK.e p u.y.b x b b j.d.m g t % - - - % $ $ % d g M v v v m n b c z H #   + 1 ,XdX=X[.9.<.+.o.) ) ^ P L 9 8 8 6 6 8 8 9 9 9 9 9 9 9 9 9 E E E E E E E E E ~ ~ ~ ~ / ~ / ~ ~ ~ ~ ~ `  .X. . . ...| ~ ~ / / E E E W W L W W W W W W ( P _ _ %.1.K.%.e 7XHXKXxXrXzXeXZ./.U.C.C.C.C.A./.Z.A.Z.Z.Z.Z.B.Z.l.B.l.G G i.z.z.l.|.|.U.B.i.|.|.V.i.i.G G i.V.|.(.7Xs.o = w %.8.%X3X4X+X5.q.q.' | ~ Q E Q ^ W E 9 ~  . .X.X.| X.X.~ ~ ' ^ ~ E E ^ W E E E E E E W Z 9 7 7 8 6 4 6 6 6 q 6 4 4 6 8 8 9 9 8 8 8 8 6 6 8 9 9 9 9 W ` >.*X3X3X<X1XH.1 y y.c.d.d.c.j.d.R n m m c g f d % % - % % d v j n n c g c d.h.g.*   @ + :.K.F.-.[ ! !  . .| ' E E 9 9 9 9 8 8 8 9 9 9 9 9 9 9 9 9 9 9 9 9 9 9 8 8 8 0 P P W W W E E E E E E E ^ / E E E ~ ~ Q ~ ~ ~ ~ ~ ~ ~ / E ~ | | X.,.,.@. .$.e.8.$X$Xo e 7XHXLXjX(.fX(.C.^./.Z.C.C.U.^.l.",
"i.J C..X XeXpXeX^. X.X^./././..X^..X.X.X X/.U.^..XU.C.U.^.|.^.iXhXuX9X|.o 1 *.-.J.<X3X#X9.>.@.7.>.@.+.` ~ E E Z E ^ o.^ ^ ^ E 9 9 0 9 8 7 A W A 0 8 6 6 q q 6 6 , , 6 , , , 6 q 8 8 8 8 8 6 9 9 9 9 7 8 6 6 6 6 6 9 9 E ~  .X.|  .+.Q +X5X3X:X$X:.u t.t.y.b b b n R f.n g - $ - - % $ % t h M v v v v n n n c x x @ X + F BX>X;X[.>.+.>.o.) ) E 9 8 8 6 4 4 6 8 8 9 9 9 9 9 9 9 9 9 E E E E E E E ~ ~ ~ ~ {  . . . . . . . . . . .@.@.X. . . . . .^ W E W W W W L W ) ) W W W ) [ *.8.%.H.;.< p.SXPXHX9XuXgX^.A./.U.C.V.C.C.Z./././.A.Z.Z.B.z.l.B.z.H i.l.H G i.G i.l./.^.i./.Y.l.i.i.H u.u.i.(.rX(.R.+ = 1 3 1.J.1X3X&X9.9.q.X.` ` ^ ^ ) ] ^ E 9 ^  . .....| X... ./ ^ { / E E ^ ^ W W ^ ^ ^ ^ ^ Q Z 9 9 9 8 6 8 8 q 0 q 4 4 6 6 8 9 9 8 6 6 6 4 , 6 0 9 9 9 W @.~ '.5X4X&X1X{.u i u.x.b R n.h.j.f.R n n m c g d % $ % % % f n c c l g c d.h.g.y.X X 1 e K.F.8.[ ] ] ] +. .~ E E Z 9 9 9 9 8 8 8 8 9 9 9 9 L E W E L 9 9 8 8 8 8 8 9 L W W W ^ W W W W W W W /  .^ ~ / ~ ^  .' ~ ~ ' ^ ^ ^  . .`  . .| | ..,.>.@.7.7.8.;XF.O p.CXKXLXY.rXuXI.U.U.^.^.Y.B.B.U.i.",
"l.l.B.B.C./..X X X X.X.X/.Z.A.A./..X X^.A..X/./.A./.A.A.^.Y.^.eXuXuXrXrXs.  e 1.H.:X%X&X*X` >.7.>.>.@.@.@.+.` S 7 ` ^ E ] o.W Z 9 W [ 0 9 W O.W 0 0 0 0 0 q q q 6 2 , , , , I _ 0 9 9 8 6 8 9 9 6 7 7 8 6 , 6 8 9 9 9 E E ~ ' | @.~ ~ +XNX5X3X:X$X;.u t.x b b n v v n R n g d f % % % & % h j c l n n n n n c b y   + r ,X2X$X$X0.5.+.+.@.+.^ Q 9 9 8 8 9 9 9 9 7 7 9 Z 9 9 9 9 L E E E E E ~ ~ ~ ~ { {  . .+.+.o. . .` ` `  . . .@.>.@.+.+.+.+.W ^ ^ ^ ^ ) ) W ) ) ^ W E W / ^ r.r._ %.G.1 r qXLXLXfXiXmXrX X.X/.C.V.B.B.C.U.Z.U.C.C.A.Z.B.B.C.C.l.i.u.i.i.i.i.l.l./. X Xi.|.l.l.l.i.i.i.u.l.U.(.Z.gXG @ u 1 *.H.:X3X3X&X9.~ #.#.o.W Z ) $.O.W W ! ^ ^ `  .@.@.5.#.o. .$.o.^ / } ^ ^ ^ ^ ) } } ` ~ ~  .o.W E 9 9 9 9 0 6 4 3 q 6 8 9 0 8 8 6 6 6 6 8 6 6 6 9 Q @.4.9.<X5X4X&X:XK.1 s.u.x.n.f.f.f.n n n n n n g f f f d C C d h g h d.d.d g.b.n.>   r 1 F.;XH.8.W / ^ o.o.^ / E L 9 9 9 8 9 8 8 8 9 9 9 9 L E E E E E E 9 9 9 9 9 E E E W / ^ ^ ^ ^ ^ ^ ^ ^ } o.^ ^  . . . . . . . . . . . . . .o. . .+.....@.5.@.0.8.H.,Xe 1 wXLXLXnXgXiX9XY.|.I.|.^.^.C.Z.^.i.",
"i.l.V.Y.|. X^.A..X.X/..X.X/./.A.U. XeX X^..X/.A. X X^.^. X X|.9XuXrX8XuXwXr o :.K.:X1X3X3Xw.o.o.#.+.+. .+. .^ E ` $.` ! $.#.) W E ) ] 7 9 W O.] 9 9 8 0 0 0 0 0 q 6 6 3 5 , 5 q 0 W 9 9 8 9 9 9 7 7 7 8 6 6 6 6 W W E W / ~ |  . . .' q.3XNXNX3X%XF.e i i u.h.R j.n m Y Y c h - t t % % % h j j n m m m n n z y +   + &.aX2X:X#X7.@. . . .` Q E E 9 9 9 9 9 9 9 7 7 Z Z E E E E E E E Q ~ ~ ~ ~  . . . . . .+.+. . .+.+.@.@.@.@.X.@.@.@.@.@.+.` ^ } } ) ) ) ) ) ) ) ^ ^ / ^ o.#.=.J.8.;.:.1 t.SXLXZXuXhXZXgXrX X/.C.C.C.B.C.U.B.U.U.U.U.Z.l.l.B.v.i.H H u.i.i.H u.z.C.I./.B.9Xl.i.i.i.l.l.l.S.U.rX8X8XY.X r u w 8.%X2X3X1X0.^ ] $.O.) ) O.$.) A E 9 Z ^ ` Q ` >.#.o.^ ^ o.) E E } ) ^ ^ ^ } }  .@. .` ^ ^ W W W 9 9 9 9 8 q q q 6 8 9 9 8 6 6 6 , 6 6 6 2 6 7 S X.>.4.#X3X3X:X:X>X%.i s.g._.~.f.h.Y m m c m m g g f h d d h j c g K j.n g.c.n.c.@   1 U K.;XJ.=.W / ^ ^ ^ ^ W E L 9 9 9 9 9 8 8 8 9 9 9 L L E E E E E E E E E W ^ ^ ^ ^  . . . . .o.o.^ ^ ^ ^ ^  . . . . . . . .@.@.@.@.+.+.@.+.+.+.+.@.@.@.>.5.e.0.H.;XG.+ t.SXKXAXuXzXiX^.|.|.|.|.^.|.Y.V.U.i.",
"u.i.i.B./.|..X/./././.^..X/././.v..XrX.X|.|././..X X X|.9X9X X XiXzX9XgXgXR.  1 F.%X3X3X3X#X^ o.#.o.] ^ ^ ! W S ^ ] ^ ! O.[ W 9 9 ) ) 2 9 9 W ) ) W 0 0 0 ( I 0 0 6 6 3 3 5 , , P W W 9 9 E 9 8 9 7 7 8 8 6 6 6 W W W W ^ ^ `  .Q @.X.5.*X6X6X&X#XK.;.u y f h.j.b.f.n Y d.n z d g f d - C h j j n m n m n y.b t   X u L.aX2X1Xw.>.@. . . .` / E E E E 9 9 9 9 9 9 9 Z Z E E E E Q Q ~ { {  . .........@.@.@.@.@.@.@.@.>.@.@.@.@.@.>.>.>.4.>.@. .o.o.o.) ^ ) ) ) ) ) } o.o.o.#.e.8.0.F.F.e u 7XKXLXgXiXSXZXzXgXeX^.A.C.B.l.l.C.U.B.C.U.C.B.l.B.B.l.i.G x G u.i.H i.i.i.U.Y.V.^.i.l.l.i.i.l.C.Y.|.gXgX9X|.i   &.w :.K.:X1X3X[.$.] o.) ^ ! ) ) W 9 9 9 W ^ Q E Q ` #.$.^ ^ +.o.Q ^ o.} ) ^ ^ ^ ^ /  . . .^ / ^ ^ ^ Q E 9 9 9 0 q 6 6 8 9 9 8 8 6 6 2 6 6 6 6 6 7 Z Q | ' 9.*X4X4X:X2XK.u s.v.I.~.m.h.n c l g c c h d d d % : h c m h n m c c.h.v.y   + r p.=X$X{.=.E W ^ ^ ^ ^ W E L 9 9 9 9 9 9 9 9 0 9 9 L E Q ~ E Q Q ~ / ^ ^ ^ ~ ~ ^ ^ `  . . . . .o.o.o.o.o.o. . ...@.@.@.@.@.@.@.@.@.@.@.@.@.@.@.@.4.,.,.4.9.w.7.{.aX%.= 7XKXKXhXgXCXuXY.9X8X X|.^. X/.l.V.i.",
"i.i.i.i.l.C.^..XA././..X/.A./.^.C.XXrX^.|.|.Y.^.^.9X9X9X9X9X X X8XZXrXgX9XCX&.. %.H.%X&X*X#X>.5.#.o.^ W Z 9 9 9 W ) O.O.[ ( 0 W 9 O.$.E o.W E ! ) W 0 0 P ( I 0 0 q 2 2 5 5 5 q 0 W ^ W W W W 9 9 9 7 8 8 8 8 6 9 9 9 L E / ~ `  .5.5.4.q.3X3X*X#XJ.}.u y # Y h.j.j.j.j.Y c g g z g f d d g j j m c H n n b x t   + p.=XaX:X&Xe.@.@.@.@.+. .~ / E E 9 9 9 9 9 9 9 Z E E E E Q ~ ~ ~ { {  ...@.@.@.4.4.4.4.4.4.5.5.5.>.@.X. .X.X. .X.@.@.@.@.+. .+.o.o.} ^ } o.o.O.o.#.7.7.=.7.0.#X0.L.;.o t.BXLXSX9XhXmXzXnXcXeX X|.U.V.l.B.C.U.Z.A.U.B.B.B.V.B.Z.z.G p x G u.u.i.G G I.Y.C.Y.i.G i.l.V.U.Y.Y.^.rXxXhXqXuX+ = %.*.H.[.%X:X#X7.$.#.o.! W W W Z 9 6 ! o.^ ! o.` Q  .^ E Q ` Q Z E ] ^ ^ ^ ^ ) ^ ^  .4.7.#.o.o. .` ~ ~ E 9 9 7 6 6 9 9 9 9 9 8 8 6 6 6 6 6 6 6 7 Z S  .~ X.'.*X<X<X1X2X&.t.R.I.b.n.j.n c l g z l d d d % % % d g c n g m d.g.n.I.+   r &.L.$XH.J.=.E W ^ ^ ^ W W E 9 9 9 9 9 9 9 9 9 9 9 9 E E ~ { ' | | |  . . . .^ ` `  . . .+.+.+.@.@.@.$.o.+.+. .@.@.@.@.4.4.@.4.4.>.>.@.@.@.@.@.@.>.4.4.5.9.q.[.0.;X;Xe s.jXKXDX9XmXhX X|.|.8X X^.U.(.U.l.B.l.",
"l.B.V.B.l.B.Z.A.A./././.A.C.U.U.U. XXXU. X X|.|.|. X9X X8X9X X^. XmXxXxX(.ZX7Xo 1 1.0.[.#X*X'.9.<.<.$.] ! W W W ) ) O.[ W 0 0 0 7 [ -.) -.) 9 A 9 0 0 0 0 0 0 0 0 q q 3 5 , , q 6 0 ) ^ ! W W E Z 9 9 8 8 8 8 8 6 8 8 9 9 E E Q X.5.,.X...*X4X&X%XH.K.&.p y l y.d.g.h.g.n g f f f f h d h j v v n m d.H g.x y @   1 T.2X2X:X#X9.>.>.>.>.+. .~ / E E E 9 9 9 L L E E Q / / ~ ~ { { { {  . .+.@.@.@.,.4.4.4.>.>.4.@.@.@.@.@.@.>.>.>.>.4.>.>.@.#.>.@.#.#.$.O.#.r.7.7.7.7.w.w.0.0.0.0.J.L.e 1 7XKXLXuX9XiXiXxXDXmXiXeX9X|.^./.U.Z.Z.Y.Y.U.B.B.Z.C.Z.Z.i.x p x G G G p G G i.C.|.|.V.G i.V.I.^.|.|. XiXmXzXhXjXE.  u :.F.H.J.J.w.7.>.<.$.] ! ! ) W 9 9 ] $.] ] $.$.` >.+.o.$.<.$.` +.^ ^ ` ` ] ] ] ^ $.9.e.7.$.o.$.#.~ ' ' E 9 9 9 9 9 9 9 9 9 8 8 6 6 6 6 2 6 6 8 9 Q 4.@.X.9.'.&X4X1XaXF.i R.(.D.b.h.Y v g f g g d d d d d t d f g n d n c.g.I.u.X   u p.K.H.8.<.O.E Q ^ ` ^ Q E E 9 9 9 9 L L 9 9 E E E E E ~ | X.............+.+.#.#.>.>.>.>.>.>.>.>.>.#.$.+. . . .+.@.@.#.>.>.@.>.>.>.>.>.>.>.>.@.4.5.5.6.q.w.'.%X$X>X%.e 0XHXLXzX9XnXuX8X9X X9X8X(.^.^.Z.l.B.l.",
"a.l.v.V.C.U.A.Z././.A.A.A.Z.A.C.C.Y.|.U. X9X|.|.|.|. X9XuXgXiXeXgXgXmXmXrXhXhXt.. %.J.&X#X#X*X'.w.[.#X[.0.0.0.7.=.O.O.O.) [ [ ( ( [ -.) -.) W W ) O.[ ( ( ( I 0 q 3 3 5 5 < , 4 , 6 W ) ) ! W W Z 9 9 8 8 8 8 8 8 8 8 8 9 9 9 Z ~ | ..X.X.q.+X*X&XJ.L.G.r t.y y.j.j.g.g.d.n c g t d d d g c n N n n d.d.I.y.#     u ,X2X1X%Xw.9.>.4.4.>.@. .` ~ Q E W E L L L L E E E ~ ~ ~ { { { { {  . .+.@.@.@.>.4.>.@.@.#.>.>.7.7.9.9.9.9.9.9.9.9.9.7.#.=.7.#.7.7.=.=.7.8.0.w.0.w.J.#X[.J.0.8.;X;.. G.AXKXSXqXrXrX9XxXFXZXxXuXeX.X^.^.A.v.l.Z.Z.Z.V.B.Z.U.U.l.G p p x x i i y i G U.Y.C.S.H u.i.v.l.I.|.9XrXhXmXZXnXgXfX1 + :.F.H.H.0.0.7.7.7.0.w.w.w.J.w.7.7.7.7.7.<.$.#.7.<.>.$.7.0.7.>.<.7.7.<.<.=.$.[ ] #.7.7.#.o.o.7.9.@.4.>.X.~ E E 9 9 Z 9 9 9 8 6 6 6 6 2 , 6 6 6 8 E >.@...>.5.+X<X3X2X>Xp.a.(.tX~.n.j.n c d h g f d d d d d t d f d M n c.n.c.@     u L.=XH.<.] ^ E ~ `  .^ W E 9 9 9 9 L L E E 9 E E W E ~ ~ | X.2.3.4.4.4.2.>.4.5.>.>.#.@.+.$.$.$.$.$.$.o.o.$.$.o.$.>.#.7.7.7.#.5.5.5.5.5.5.5.5.9.9.e.q.'.+X#X#X#X%XK.< p.SXLXHXxXrXrXeXrX9X9XrXeX|.(.Y.v.l.l.i.",
"i.i.i.i.V.U././.^.^.U.U.A.C.A.C.^.|. X.X|.|.U.U.U.U.^.|.9XuXiXrXhXrXmXDXZXZXzXfX+ 1 L.;X$X#X:X&X*X3XvX3X1X1X&X#X[.[.$X%X#X%X%XJ.J.J.J.H.J.0.0.0.J.J.H.8.1.8.;.:.%.D e 5 1 < 5 5 , , 0 ] $.) W W 9 9 0 8 6 6 6 8 6 8 8 8 8 9 9 9 E | 5.5.9.9.5.'.%X$X$X=XU t.u.u.x.g.g.j.d.y.m z d d f f j m N N n K j.j.~.x @   o ;.=X1X&X[.q.>.,.>.,... . .` ~ E E E E E L E E E E E E Q ~ { { { { {  . .+.#.#.#.5.7.7.7.7.7.0.w.w.w.w.w.w.w.J.w.w.w.w.0.7.7.7.7.8.8.8.8.0.J.J.J.J.J.J.[.$X{.H.K.K.u e fXKXSXwXuXrX X.XxXFXZXxXgXuX XY.^.C.l.v.l.l.V.C.V.B.Z.U.l.G y x G p y i x x i.|.|.H y p y G i.v.C.^.(.(.9XgXZXDXCXfXP.  u p.K.K.H.H.0.0.w.&X3X3X3X3X2X%X$X%X:X1X%X[.[.%X&X%X&X1X3X1X&X:X:X:X:X%X$X#X[.J.[.w.7.<.=.#.7.9.5.9.6.4...X.` E E E E Z 9 7 8 8 6 6 6 6 6 6 8 8 9  . ...,.,.9.#X4X1XdX-Xt.v.8X(.D.b.j.n g f g g d d d d d t d f h d.b.n.Z.y   X O :.K.=X0.=.] ! ~ ~ ` ^ / E E E 9 9 9 E E E E Z E E E E ~ ~ X.X...,.2.4.4.4.5.5.#.=.#.$.O.O.O.$.#.$.#.-.=.=.=.7.=.7.8.8.8.0.8.7.7.7.7.7.e.e.e.e.w.w.w.#X*X&X&X%X:X$X%.u fXLXHXCXjXfX9X9X8X8X8X9X9X|.|.^.Z.l.i.u.",
"i.a.v.i.l.B.U./.^. X.X^.C.B.A.U.A.U..X9X^.|.Y.|.9X9XrXrXrXrXgXhXhXhXnXFXDXHXfXnXt.o :.L.$X2X2X2X&XvXVXNXvX3X2X%X%X1XdXNXvXNXNX2X2X>X>X>X>X:X:X;X>X:X;X$X=X=X=XK.K.M.&.u e 1 1 5 3 < 6 O.<.O.W W 9 9 9 8 6 , 6 8 6 6 6 8 8 9 9 9 9 ~ 5.,.9.,.X.w.#X$X;X,XG.t.R.u.c.c.x.d.m l f f g c c c c n n n N h.b.y.v.#     < L.{.%X#X9.9...X... .' ~ ~ Q E E E 9 9 L E E E E Q ~ ~ ~ {  . . .{ {  .o.$.#.=.7.7.8.8.8.0.J.K.$XK.J.J.J.K.$X%X;X%X%X%X%X$XK.K.8.H.H.H.H.J.K.{.J.K.H.F.J.=X=XK.M.1 . E.AXKXCX7XjXfX9XrXmXJXFXDXhXhXrX9X9X^.V.V.l.V.Y.^.C.l.v.C./.z.x H G x i G x G V.U.I.G p p x a.V.V.I.(.|. XuXhX XzXAXfXkXr O &.T.oXK.J.J.H.J.1XdX3X1X2X:X$X:XdXBXBXNXdXdXNXvXvXvXBXVXBXNXNXNXNXNXvXvXvXvXdXvX1X$XJ.w.8.7.7.X.>.4.,.,.,.@.| ~ ~ Q E 9 9 9 9 8 8 8 8 q q q 9 E +. .>.4.| ,.9.*X#X$X,X&.p u.c.b.b.b.h.n c j f f f g g f f g z c d.n.~.x.X     e F.L.{.<.] o.` ~ ` ` ~ E E E E 9 9 9 E E E E E E Z E E ~ ~ | X.X.......@.@.>.=.7.1.1.<.<.1.8.8.8.8.8.;.-.-.=.;.8.F.J.J.J.J.H.8.8.8.8.0.0.w.J.J.w.w.J.#X&X1X2X:XvX,XO W.AXKXSXrXnXjXzXfX8XrX7XqX8X^.|.7XY.V.a.i.",
"i.i.i.i.l.l.B.A.A.^. X X^.U.Y.^.^.U.|.9X|.|.P.E.R.E.E.(.Y.t.i i s.N.}.wX7X7Xa.s.+ . < ;.=XL.H.F.8.J.J.H.H.H.F.1.J.K.$X$X,XaX>X=X;XaXdXdXaXaXaX>XdX2X=X=X=XK.;.%.%.u u = = e 1 5 , < 2 A 7 W 9 W 9 9 L 9 8 6 6 8 8 8 8 8 9 9 9 9 9 ~ Q | 5.>. .7.[.$X%XK.L.&.P.P.I.g.c.y.z m g f m c l c m m n n d.c.c.n.r   o O :.K.$X[.'.7.' X.| |  .' ~ Q E E E E E E L E E E E Q ~ ~ ~ |  . .{ +.^ ^ $.O.O.8.;.H.H.8.8.%.;.;.%.w O o O < ( :.F.;.;.F.F.;.:.:.%.%.%.F 1 O o O < O < < O . =       u sXHXAXR.wXjXjXhXhXjXCXzXhXfXlX}.Y.}.a.x V.l.V.V.l.B.^././.|.Z.V.H y p x i.i.x H (.V.x t.G I.qX9X7X9XrX9X8XgXzX|.qXZXCXjXP.X 1 p.p.G.T.K.K.{.;X1X1X>X>X,X;X>X=XK.K.K.L.8.;.%.K.K.K.=X=XK.=X=X}.}.=X}.L.F.M.H.F.-.*._ $X0.7.>. .,...4.4.| X.~ ~ ~ / W L 9 8 8 8 8 6 6 6 6 6 W @.@.,.4.X.| 9.+X[.%XH.G.F r u.c.n.b.j.n m M g d g f f g f f c n n.I.I.*   + + G.K.F.0.=.+.Q  . . .^ Q E E E 9 L 9 9 9 9 9 9 9 9 9 E Q ~ ' X.X.| ..4.@.@.$.7.7.-.w %.%.w %.*.:.;.8.F.F.M.;.;.:.%.%.:.;.:.:.;.F.K.K.K.H.H.K.$X{.$X$XK.$X>X2XaX=XT.e o -XPXjXE.(.qXfXgXfXqXqXqX7XqXfX7XR.R.a.a.N.",
"G i.i.u.l.C.C.V.Z.Z.U.^.|.|.^.Y./.(.9X Xu.+ r + X + + + r i i r F e e O . + @ + + O O u :.&.&.&.w w w e e w u w u &.&.&.:.G.G.p.p.p.:.:.&.u %.&.:.%.u u u u u u u u 1 r 1 o O 1 3 , 2 7 2 7 9 W E E L 9 8 6 8 8 6 6 8 8 8 8 8 7 9  .~ Q  .X.|  .0.J.J.K.L.&.s.R.I.x.g.y.b b g z n m m n K K d.d.f.h.c.u.+ X + u }.>X;XJ.9.>.' X.|  .' ' Q Q E E E E E 9 L E E E ~ ~ ~ ~ |  . . .o. .O.O.-.8.8.*.( u u %.e O < o o O O 1 1 O + O . O < < 1 e u u e u u &.&.i &.&.:.:.p.s.t.&.u F &.i P.kX7Xr   @ o o o o @ @ + +             X X ; i.B.U.C.^.|..X.XU.|.(.l.x x V.U.i.I.v.y + X + r r # # + @ + X X p ; p G i i +   O r a u &.&.:.;.;.;.%.%.%.;.;.F F F %.%.&.u e u = 1 1 o . O o O O O o o o O O O o O 3 w < *.7.$.>. ...4.,.X.| | ' ~ ~ E L 9 8 6 6 6 6 6 q 0 9 9 ^  ...5.,.| >.'.'.%X$XT.p.i x u.c.b.c.d.n m g h g f f g f g b n.n.).y   @ &.s.}.{.0.<.#.#.` '  . .` Q E E L 9 9 9 9 9 9 9 9 9 9 E E ~ ~ | X.X.@.|  .o.#.7.$.0 e 1 O O O O O O 1 1 u u e e e u e 1 1 = O O 1 u &.&.&.&.p.L.T.K.oX=X,XL.;.:.%.e   + u kX7Xi a r u r r i i r r i i p t.s.s.s.F + ",
"X G V.i.u.V.C.V.V.B.V.C.Y.|.|.Y. X|.|.x r t.P.E.R.0XkXSXHXKXPXIXBXBXBXdXyX0X-X}.0XT.&.G.sXfXjXCXCXjXkXkXkXkXkXfXfXkXkXkXjXCXSXCXqXqXsXsXqX7X-X-X-X-X7X7X7X7XqXfXsXCXjXSXqX+ o e w q q 2 6 7 ) ] W W L 9 9 8 8 8 6 6 8 8 7 7 7 7 8 W E 9 ~ X.` ` 7.J.J.=XK.M.F P.I.x.u.y.y.n c n n n v n N N d.d.h.g.c.y   . e F.>X2X%X0.7.+.'  . .' ~ Q Q E E E E Z 9 9 9 9 E E E ~ ~ ~  . . . .} ^ ) *.*.*.I 5 &.p.G.0XsXsXwXR.E.E.R.R.-X-XwXwXwXqX0XwXqXsXfXfXkXkXfXfXlXqXqXwX7X7XqXqXlXqX7XfXE.s.7XfX7XP.G.s.F e 1 1 1 1 1 e e e 1 u F &.t.p   r I.Y.U.^.^. X X^. XeX^.u.u.|.Y.i.z.> + y ; ; @     + + + r + X + X       .   a 1 U s.R.qXfXBXbXbXkXsXsXsXkXkXBXSXHXPXKXKXHXSXfX7XwXfXsXfXjXkXfXsXqX7X}.-X-XR.7X-XsXsXT.< %.H.[.#X5.4.5.4.5.@.X. .` ~ E 9 9 8 6 6 6 4 4 6 8 9 , E Q ' 4.>.| X.9.<.0.{.K.L.F r x u.c.x.j.d.n g h g f f g k b g.n.~.c.@   r t.-X=X{.8.[ $.+. .Q  .` ~ E L L L 9 8 8 8 8 9 9 9 9 9 E W ~ ' |  .X.@. .$.$.=.=._ %.T.qX7X-X0X-X-XT.T.R.-X7XwXqXsXfXUXjXfXqXwX7X-X-XR.-X-X-X7XwXwXwX-X-X0XT.G.T.T.R.-Xs.P.qXlXkXqXE.-XG.p.L.T.G.T.0X0X}.sXsXsXkXP.+ ",
"@ i I.I.u.i.I.V.C.C.U.C.C.U.|.|.Y. Xv.# E.CXIXPXGXPXPXPXPXPXPXPXGXGXGXGXGXVXGXGXGXaXu E.CXAXSXAXJXDXZXZXZXzXzXhXzXZXZXZXZXDXDXDXFXJXLXLXJXLXLXLXLXKXKXKXJXHXJXKXJXKXJXHXqX@   u p.;._ 2 7 7 ! Z W E 9 9 9 9 9 9 6 6 8 9 0 0 0 0 8 8 8 E  . .` $.$.w.[.$XK.}.%.&.V.g.y.y.y.y.n d.d.n m n n n n d.j.j.y.@   . &.K.;X%XJ.7.#.+.`  .` ~ Q E E E E E Z Z 9 9 9 L E E E ~ ~ '  . . .^ } -.[ ;.;.1 O p.sXIXPXKXKXLXHXKXHXJXJXLXLXHXJXHXDXUXhXjXCXZXSXAXZXCXUXzXUXUXUXUXjXfXjXhXUXjXzXjXr X qXAXSXBXkXBXkXaXaXaXsXsXaXaX0X=X0XaX,XL.p.s.r # (.Y.^..X.XXX XXXeXeX XC.Z. X^.z.y @ t.qXjXyXwXwX0XyXsXsXkXqXwXwX-XW.u 1 u :.p.U a.fXHXKXKXLXKXKXKXKXKXKXKXKXKXKXLXPXLXLXLXJXDXLXJXDXJXLXJXLXKXKXLXJXJXLXLXLXKXPXPXAXp.< < H.:X&Xq.4.4.4.5...@.X.` Q E 9 9 9 9 8 6 6 , 6 6 8 8 Q ~ Q | .. .| @.^ [ J.K.}.p.a p H z.c.h.d.n c c c g g g z y.n.n.(.*     1 G.0XL.J.0.] $.` X.' ~ / E 9 9 8 8 8 8 8 6 8 8 9 9 9 9 E / ^  .|  . .+.o.=.*.-.%.%.-XSXPXPXPXKXKXKXLXKXKXLXKXKXKXKXPXJXJXHXFXDXDXDXHXHXHXHXHXJXPXPXPXLXPXLXKXKXKXLXKXfX+ t.sXGXIXBXSXBXBXkXbXBXBXBXSXVXSXGXGXPXIXE.o ",
"t.i I.|.l.l.^.U.C.Y.^.Y.U.^.|. X|.9X+ i fXHXKXGXGXGXVXdXaXaX>X>X1X:X1X2XaX>XdXvXBX=Xo F wXfXqX8X8X(.D.c.y.b b Y b y.j.g.g.x.x.x.(.rXzXZXZXZXZXnXZXCXjXrX(.I.D.I.I.I.v.v.u.+   u G.L.*.2 9 7 ] S W E 9 9 9 9 9 9 9 9 9 9 9 0 7 q 9 8 8 W ^ ^ Q ^ ^ =.[.{.K.=XM.u s.c.u.H y.d.j.g.j.d.n n n N d.h.g.u.y     o p.}.J.J.7.$.o.o.` ` ^ Q E E L L L 9 9 9 9 9 9 E E E ~ ~ '  . .+.+.o.} *.*.;.%.o u kXLXHXCXjX9X9X8XrXgXzXzXZXCXxXhXgXrX(.I.I.I.v.i.i.v.i.u.T T T T x y.x u.u.I.D.7Xx   1 7XL.:.F.F.8.;.8.H.8.;.8.F.F.H.K.8.F.dX>X1 s.R.G V.9X8X XeXeXXXpXpXrXrX X|.8X8XG @ # wXSXPXGXIXGXBXBXBXdXsXsXyXaXdXsX>X}.L.K.G.1 u kXHXKXDXUXtX8X8X9XrXgXhXzX7XI.u.b x y > y f (.I.y.n.I.n.8X).(.).tXgXhXzXCXZXZXCXjXr O . ;.=X%X#X7.4.9.@. .@. .` ~ E 9 9 9 9 8 8 8 9 9 W W ^ @.@.|  .X. .~  .] -.J.K.;XK.u r x g.n.b.h.d.n d.N v c m m g.I.).x.X   @ r 0X>XJ.J.w.$.#. .@. .~ E E 9 8 6 6 6 6 6 6 6 8 9 9 9 L E / ^  . .` ` o.] _ %.:.%.W.SXKXZXzXzXzXzXzXZXzXzXCXZXZXgXOXv.T T T b u.x.I.(.Y.I.P.V.I.Y.(.8XrXfXfXZXSXCXAXSX&.  &.BX0XF.;.L.8.F.H.F.8.1.;.;.;.;.:.:.F.G.&.o ",
"G p V.9XY.V.^.^.^.^.(.|.|.|.|.^.|.G @ wXHXPXBX=XK.H.K.%X1XdX2X2X1X3XdXNXdX=X$X{.=XF.O . i v.R.OXI.n.x.y.b k l x m b Y n Y Y g.h.d.Y y.g.g.g.v.~.c.g.u.y.y.y.x.v.v.c.D.c.c.x   . W.}.F._ ( ! $.] ^ ^ W E 9 9 9 9 W W W 9 0 7 6 6 6 9 P 9 E ^ ^ Z ! ] #X:X=X{.L.F G z.u.b u.g.h.j.j.d.N K d.f.b.n.n.u.@     = G.K.J.0.=.o.^ ^ ^ ^ W E 9 9 9 9 9 9 9 9 9 9 9 E E E ~ ~ `  . .o.o.o.} ( :.u . + -XAXLXE.x u.x u.u.l y.g.g.c.n.c.n.n.x.c.n.v.c.c.c.v.v.v.g.g.c.n.n.n.y.T g.D.8X8XgXi   r p.F.;.%.8.8.7.J.J.0.8.H.J.H.0.8.$X=X$XK.%.1 wXR.p 9X9X|.pXeXXXeXeXpXuX9XrXuX|.@ X a.BXBXsX>X>X>XK.{.;XK.K.,XaX;X=X;X>XaXdXaXdX;.1 T.qXgX8X(.)._.I.n.v.u.y.y.T k z y.c.g.g.c.d.n.n.x.h.y.b y.y.b b g.u.z - $ # x b n.y   . w $X:X<Xe.#.7.+.@. . .^ ~ E E E E 8 8 8 8 9 9 W W Q  .@.+. . . .^ Q o.7.J.J.=X=XM.r y b v.n.b.j.d.f.f.N d.j.x.n.).8X# + X   G.kXK.{.J.7.o.#.+. .` ~ E 9 9 8 6 4 8 6 8 8 8 8 8 9 9 L E / ^  .` ` ` ) [ %.%.%.&.qXKXhXt.y p y t # y f f y f x T u.x.y.y.y.b b y.x.c.n.c.c.x.g.g.c.n.n.I.u.v.Y.|.qXP.    T.yXp.M.J.-.8.8.<.<.-.*.*.:.*.*.;.F.;.;.;.O ",
"+ ; t.Y.|.I.U.|. X X X|.8X8X|.^.Y.X i jXPXGX>X$X:Xw.J.#X:X1X#X&X&X3X1X3X:X$XJ.H.H.H.;.O o p v.(.I.Z.n.v.i.u.u.H b H y.y.y.y.g.g.h.f.d.x.x.d.d.c.c.h.g.g.h.h.b.D.x.x.n.y.y.u.+   :.>X;XJ.-.A ) ! o. .` ^ E E E E E Z 9 9 7 8 6 8 4 8 0 9 9 W ^ E W ] 0.$X%X{.K.:.p u.x x g.j.h.h.d.d.d.h.h.b.n.I.I.k     o &.L.L.J.8.=.o.! ! ! W E L 9 9 9 9 9 9 9 9 9 9 E E W W ~ ~ ' `  .o.o.} *.%.%.<   a.CXJXfXt.x u.b y.g.g.y.d.d.x.h.H y.n f z b b z z z z n n b m n y.y.m Y u.y.c.I.(.Y.  @ G.L.F.-.=.J.7.0.0.7.<.=.8.0.8.#Xw.$X:X=X;XH.O P.qXx V.9X XpXrXeXeXeXiXuXuXhXhXu.  r sXGX0XL.;.H.1.*.8.J.{.;X2X$X;X1XaX1X:X1X:X2XL.1 r E.8X8X8X).).).)._.n.n.I.n.g.Y d.b.n.n.Q.~.n.Q.~.~.n.c.y.d.y.h.n.I.c.H c j.b.g.c.u.@   . 1.:X2X[.$. . . . . .^ / W E L 9 9 9 8 8 8 8 8 7 9 E ~  . . .+.^ W W [ 8.J.J.;X{.F y y y.n.n.b.n.n.m.h.n.~.~._.8Xc.X r r r kX0XM.J.0.[ ] o.+.~ ' ^ E 9 9 8 4 4 8 8 8 8 8 8 9 9 9 E / ^ ^ ` ` ` ] ) *.;.;.e P.AXLXY.b y x y.H x H k x b b x f f y f z b b b b x z b b y.d.y.b Y g.c.n.b u.(.8XR.+ @ u sXL.8.8.0.w.w.7.-.O.-.-.<.8.-.*.-.8.;.8.F.:.",
"+ u p u.|.|.I.|. X X X X8X9X9X9Xp + R.GXKXdXK.%X[.0.0.7.0.#X7.<.7.J.8.8.=.8.0.1.-.;.F.e . @ y i.I.I.V.a.i.i.i.u.y.y.g.c.x.g.g.g.n n n n d.j.j.Y n y.d.j.d.d.j.b.n.c.c.y.c.D.p X O -X>X;X8.[ [ $.@.@.@. ./ E E E 9 9 7 8 8 8 7 7 0 4 8 P 9 9 E / 9 ! 9 ] 8.H.{.F.r x y x x.g.g.b.g.j.h.b.n.n.n.~.c.*     1 L.K.K.8.<.=.O.^ ! ! W L 9 9 9 9 9 9 8 L 9 9 L E E W W ` `  . .+.o.O.O._ ;.u . 1 wXHXLXi.u.u.x u.y.z y.d.d.n d.d.n H n y.m m n m l c n c m m n d.j.d.b g.c.y.x.v.(.u.  G.L.F.8.-.0.0.7.0.w.w.e.7.7.w.$X#X1X&X2X:XK.L.1 &.fXR.p rXgXiXpXpXiXiXxXnXzXnXuX  X s.BXBXp.K.8.K.8.=.8.8.J.$XH.0.H.J.J.w.0.J.8.H.$Xu . E.(.OX8XOX).8X).~.m.b.~.h.d.n d.h.m.k.f.h.h.h.j.n n d.j.c.j.d.d.g.j.d.y.d.b.n.c.n.t.    e ;XdX1Xw.o.@.^  .` ^ ~ / E 9 9 9 9 9 8 8 8 8 8 9 9 E ~ / ^  .^ O.9 8 *.J.J.>X>XN.i # x n.I.~.~._.~.Q.~._._._.).x X p + E.BX=XH.8.<.^ +. .X.~  .' E Z 9 8 6 4 6 8 8 8 8 8 9 9 9 W W ^ ^ ` ` o.] -._ *.&.1 wXKXzXx I.u.b y.H y.k z z z z m m z z k z z z m b m z m b m m c z y.b.).~.x.g.I.(.u.  r kXsX;.8.J.8.0.7.7.<.<.7.0.0.0.0.0.H.H.K.J.*.8.",
"&.O u i I.eX X XpXeXuX9X9X9X8XqX+ p fXPXGXK.$X8._ -.=.-.*._ D ( ( _ [ [ [ [ *.-.[ 1.8.:.. . + p a.a.s.V.t.u.x.g.g.h.h.H d.n d.Y m v v n n c c c z c m y.d.d.h.b.n.b.b.h.y.u.I.# X &.aX>X$X-.] +. . . .' ~ E E E E 9 8 8 8 7 q 6 6 6 8 0 9 L E ^ L E E W *.0.J.F.&.+ i y b x.c.g.j.n.v.x.~.I.n._.k     . :.{.{.J.7.=.) W W W E 9 7 8 8 8 8 q 8 6 L 9 9 9 E W W E ~ +. .o.>.#.) [ ( :.1 . t.ZXLXgXg.H x b y.y.y.d.n y.y.y.n n n n n m m m n n n n d.d.d.d.d.d.y.H x.g.x.y.u.Y.r o }.F.<.<.7.w.w.=.w.*X#XJ.[.[.*X#X%X1X1X2X:XJ.8.%.e }.uXv.9XmXiXcXmXnXnXgXnXmXFXi.  . 7XGX>XJ.%XJ.0.8.8.8.=.-.-.=.=.*.-.-.-.-.7.w.J.J.F.= i R.8X8X8X).tX_.n.~.Q.b.j.d.d.d.Y Y f.R m c c m Y Y y.d.y.d.Y m m g.x.b.m.m.h.y.i.v.i   . L.aXNX#X$.` ` ` ^ ^ ^ ^ ^ E 9 9 9 9 8 6 6 6 8 8 E ` ` W E ~ o.! ` W ! <.H.[.;X=X&.r p x.D.).~.`._._.~.~.8X_.D.X + @ r kXdX8.0.9.X.' | | | | | ~ E Z 9 7 8 8 9 8 0 9 9 9 0 9 9 W ^ P ) o.W ^ O.[ *.;.w &.jXKX|.I.g.x.c.y.b n z z z z z c c c c z k k z c n y.y.d.n d.d.c H c.c.).).I.n.(.8X@ + T.BX=X8.H.8.7.8.8.w.w.0.[.%X%X#X%X%X%X%XJ.8.:.:.",
";.w = F u.8XrXeXpXiXuXqXfXuXuXP.@ N.BXPXaX1.J.8._ -.*._ ( 0 q 0 0 0 D ( ( ( [ O.-.8.;.F.u   o @ t.P.t.t.b x y.m d.f.m.N d.n Y m M g g m n n c g d d g z c c n y.j.f.h.c.g.u.I.x   1 T.,X$X8.o. .X.X.| ' ~ ~ E E E E 9 9 9 8 q 6 2 2 6 9 9 L / ^ / / E W O.8.H.F.;.u U i f g.c.x.c.Z.v.I.c.D.~.b.*     e F.{.w.7.<.O.) W W W Z 9 7 8 8 8 q 8 6 6 8 8 9 9 9 E W / ` $.+.+.$.o.) [ -.%.. 1 wXFXJX(.g.b z c H b m b c c m m m c c c c c z l c m v m n n n n n n b b x y.u.x.x.a.X 1 H.H.0.7.7.0.7.=.=.w.#X#Xw.0.w.0.0.#X%X:X%XJ.H.8.O p.kXrXeXDXmXnXmXDXmXmXnXZXZXx   r jXbXJ.H.#X0.0.8.=.-.*.} _ ) _ ( _ [ O.O.<.0.[.J.1.w O i P.(.(._.(.~.n.Q.n.m.j.n b c z c m l g f f z m m z z n b c l l m Y f.k.m.x.g.x.v.t.;   e ,XaX:X7.+.' ^ ^ ^ ^ ^ W E 9 9 9 8 8 6 6 4 6 6 9 E W E E W Q Q ! S A [ <.w.{.=XW.i p x.~.)._._.)._._._._._.y.  X @ W.kXJ.0.7.9...X.3.3.3.3.,.| ` Q E 9 9 9 9 9 0 9 9 0 0 9 9 W [ P 9 ^ W ^ [ -.-.%.< E.HXFXv.n.y.g.g.b z m l c z l z c c c c g k c m n n m m l l c m b b y.y.b.n._.n.I.u.  r sXdXF.8.0.8.7.) =.8.w.J.#X&X#X[.#X[.[.[.H.;.:.;.",
";.%.O i i ^.xXpXrXgXiXuXhXuXuXp r wXHXGXF.1.0.-.[ *._ 0 0 q q 0 0 0 0 0 0 ( _ } <.-.1.F.F.O     r P.s.x u.y.y.n n j.b.d.R m n M g g g m Y d.n g d d d f g g l c m n d.h.g.y.n.u.  X u T.K.J.#.@.5.4.@...2.4...| E E Z 9 9 8 6 2 2 2 6 9 9 E /  .+. .^ ) $.7.0.H.F.&.U a.g.x.g.n.~.Z.(./.~._.).:     . ;.H.H.7.<.O.! W W W Z 9 9 7 6 6 6 6 6 6 6 6 8 9 9 9 E ^  .` o.o.o.o.) _ -.8.w . t.CXLXmXg.u.b z b y.y.m z z z z z c c c g z g g g l c v m c v m m c m b b y.g.c.v.I.r   u L.$X%Xw.7.#.O.) W ) o.O.) o.=.^ ! #.7.0.0.8.0.8.e 1 -XjXeXDXFXmXMXFXFXFXDXFXuX@ X a.SX=X1.J.w.=.=.-.[ } _ ( W W W W ( ) ) o.=.e.0.0.H.F.+ 1 x b Z.~.I.~.~.n.b.h.d.c g f f g g d f d f f z l g l z g h h d h l m R f.h.g.u.i.a.t.    p.>X2X%X5. .^ ! ! ^ ^ ^ E 9 9 9 8 6 6 6 4 6 8 9 9 W ! ^ Q W ^ W S A ! -.8.H.{.K.&.r u.I.~._._.OX).~.~.n.I.$   . + 0X=X8.J.#X+Xq.q.'.q.6.6.3.@.@. .^ 9 9 9 9 9 9 9 9 9 9 9 9 0 O.W 9 ) o.O.=.*.1.O &.kXKXzXu.g.y.y.y.z z b z c l l l c c c z f g c m n n m c l c c m y.y.y.y.b.D.tX~.u.+   G.BX>XK.H.<.O.7.) ] O.$.$.7.9.7.>.7.7.7.7.=.*.*.-.",
";.%.e a i v.zXxXeXuXuXgXgXrX7X; s.jXKX0X;.H.-._ _ _ 0 q q q q 0 0 0 q q 0 ( ( ) =.) 0.8.H.:.    X t.a.t.v.x.g.d.n d.b.j.f.M M l f g c m d.j.n g f d h g g g g c c n n y.y.b g.u.#   O p.K.J.7.>.9.5.4.5.q.q.5...Q ~ Q E 9 9 8 6 6 6 7 9 E W { o.#. .^ o.O.=.8.H.F.;.u N.I.v.g.n._._.|.(.8XrXn.X X o e G.H.8.7.$.] W 9 ( ( 0 8 9 8 6 6 6 6 6 6 6 8 9 9 9 9 E / `  .o.o.] ^ W _ ;.;.O 1 7XAXLX(.y.b c z m y.y.m z z g g g c c M g g g g g g c c c g c c c c m b H c.c.x.v.u.X o M.;X2X1X[.7.] W W W E ^ ^ 9 ! O.W 9 Z W ) *.=.8.8.F.O &.jXxXZXJXDXZXZXJXFXJXLXv.  + 0XBXF.;.0.<.] ] ) ( ( ( W W W W W W ) ) ) o.<.<.<.;.1.1 o r # b Z.n.I.~.b.m.N m k f f d f g d f t t t d d f l f t : d d d g c v m Y y.b u.u.u.r   < K.:X1X9.+.! ! ^ ` o.^ W L 9 9 8 8 6 6 4 6 8 9 9 E ^ ^ ! W ` W ! ! A ] 8.0.H.K.p.u p v.n.Q.`._._.~.I.n.u.    o &.0X;.J.[.&X*X+X+X+X+X6.5... .o.` W 9 8 9 9 9 9 9 9 9 9 9 Z 8 O.W 9 o.O.-.7.-.%.1 R.HXKX(.c.b b n b z z b c z l l l z z l l f g z z c m m m m m g l H y.b H c.D.).I.#   + yXBX>X:XJ.$.] 7.#.$.+.! Q `  . .+.` ] o.[ _ ( _ *.",
"%.%.%.o p G rXmXuXuXiXhXgXuXv.r -XPXGXL.H.<._ _ A 0 q 6 0 0 q 0 0 0 8 0 0 0 9 9 ) [ 8.;.1.F.O     + a.a.v.g.y.n d.n j.j.d.h h g d f c v n n m f f d d f f f g g g v l c b u.i.u.i     u H.J.0.<.>.4.4.5.q.q.5...~ ~ { ^ / E 9 9 7 7 7 Z W W  .+.+. .~ ` o.O.<.0.8.F.:.i a.x.D.I.~.).(. X8XtX#   p = p.K.H.8.7.` ] E A ( ( 8 6 7 6 6 4 4 6 6 6 6 8 8 8 9 E Q / ^ +.o.o.) W _ *.;.%.. s.UXLXZXg.y.z c m m n n c g g f f g g M j f f f f f f g j j g g z c c c b y.u.v.b i.@   r }.aXaX&X0.=.] W W W ^ 7.7.W W ^ W W W ) ) _ -.=.8.L.u e wXZXnXJXFXMXZXZXDXFXSX+   &.BX-X;.1.*.] ] ) ^ W W W L 9 9 Z S W W W Q ^ ] ] [ -.1.:.O + # # g.c.n.n.m.f.c l f k k f h h d t t % % % % : d h t : d d d f c z l z b x x x T x o   :.$X%Xw.` ^ ^ ^ ] o.^ E 9 9 8 8 6 6 6 6 4 6 6 9 9 E E Z Z ! 9 W ! 9 ! =.8.H.K.L.:.r t.n.n.~.~._.~.Z.I.p     = T.L.;.8.0.w.q.5.5.6.4...X.~ Z E E 9 9 8 9 E W 9 9 9 9 9 E E E } L L ) ) O.1.H.O s.kXKXSXT g.z z m z f l z l z g g g g l l g f f g g g j c v n n c z y.y.b y.n x.I.c.X   &.BXdX>X:X0.<.7.9.+.` ` `  .>.@. .@. .o.] ) ) _ _ [ ",
"D %.%.O + p I.nXiXiXhXhXfXfXt.x jXPX>XH.{.-.[ W 9 9 8 q I 0 0 0 0 0 P P 0 0 9 9 9 <.$.<.-.;.w   .   i a.u.y.y.b n c n n d.d d h d f g c c c z f d d t d h h f g h M f f l u.y.x x +   O ;.H.J.7.#.4.5.5.q.q.6.3.~ ~ ' ~ / W L 9 9 7 9 9 9 E /  . . . . .o.$.<.0.8.0.M.u t.u.n._.).).8X).tXu.  y u &.>X;XJ.<.#.] ^ W W W A 6 , q 2 , , 4 6 6 6 6 9 8 9 Z / ^ ` ^ ^ ^ ^ ) ) *.8.;.1 1 0XPXJXI.y.b c n n n m m c g g f f g j j g f f f f f f g g g d h g g g z c H y.g.x.y   . p.>XdX1XJ.O.) ) ( W 9 E =.#.! ! W E W ) -.) ( [ =.H.K.;.= &.hXnXFXFXZXDXDXDXFXP.  X 7XbX;.1.H.[ W W E E W W W L Z E Z S Q ! Q Q ^ ` ! ] <.J.T.1 O y # b x.b.b.m.f.v g g l z f h d : : : t t : $ & & d t t t t d g z m l z x f k x x t.#   < J.[.[.+.o.] ] ] o.^ E 9 9 9 6 6 6 6 4 , 4 6 8 9 9 9 9 9 Z 9 A W S A [ <.0.J.K.F.u t.P.I._.~.).(.I.I.+     u }.F.8.<.=.@.@.X.X.X.' ~ ~ E 9 9 9 9 8 8 9 9 E 9 9 9 9 E E E ) ) 9 E ) [ 1.F.%.< -XHXKXI.y.y.m m z z l f f f g f h h f g f h d d f g g g g j m n n n d.d.y.y.n g.I.y   + -XBX2X1X%X<.5.q.9.X.~ ' ~  .@...X...+. .^ ^ ! W ( ( ",
"( _ %.u o + t.uXgXiXhXgXgX8Xi R.GXVXH.:X%X-.O.Z 9 9 0 0 ( A q A 0 A W W W W W W W #.] <.-.*.:.O     + s.u.u.g.m m g c g v g f d d d d g g f f g d t % t d d d f f g h f t b x z u.x   . u F.J.0.5.5.5.5.5.q.6.5.' ~ ~ ~ ~ E 9 7 9 7 7 9 9 9 E ~  . .X.+.o.$.<.7.w.7.H.p.p.a.u.~.8XtXgX8X(.X @ s.&.=XdX;X0.O.! o.^ W W W 0 6 , 2 , , 4 4 6 8 8 8 9 E W ^ ^ ` ^ ~ Z E ) ) _ -.8.%.O G.AXJXrXb y.m m n n m m n v j f g g g g g g g f h d f f g g g d d d f f f z b u.x.i.@ @ u }.>XaX$X<.) 9 W W 0 W 9 W L W o.W W W W [ W A _ [ <.$XF.w e }.nXAXJXDXFXFXDXhX@   p kX=X:.L.H.*.Z 9 9 E W ) ^ W W ! ! ! ^ ^ ^ ^ ` ` ] ] [ -.;.u + i x x x.b.m.m.f.N M g z c z g g t % % t t : $ & $ : t : % : d g z b z k k f k z f x p o   ;.$X#X7.$.$.] ] o.` ^ ^ E 9 8 8 8 8 6 4 6 6 8 9 9 9 9 9 9 A A W W A ( -.0.J.=X}.G.t.v.(._._.).).Y.u.X   . p.K.J.-.<.o.+...X.X.X.~ ~ E 9 Z 9 9 9 8 8 8 9 L 9 9 9 L E E W o.^ 9 / O.8.J.F.O G.jXKXzXx x.b b m z z z f d f d d t t t d t t % d d f h h g j h f m n m m c z m y.u.    &.kXdX1X:Xw.>.@.5.5.X.X.X.| ' X.X.X. . .` / ! ! ) ) ) ",
"_ D _ %.O o i (.hXuXgXgXgXP.i kXPXaX%XNX%X) W Z 9 9 7 0 A q 6 7 8 9 P 0 P L W ^ #.^ #.$.=.-.;.%.  .   t.v.u.x.z l g g d c c c % d % % d d d d f d % $ % % - t d h d g z t c b b g.v.    < F.H.J.#.5.5.4.4.5.5.4.X.| ' ~ { / E 9 Z 9 9 9 9 9 9 E Q `  . .`  .@.>.w.8.0.;.s.E.u.v.OXgXuXxXb   r p.p.NX2XJ.w.>.9 ~ E Q W Z 8 6 6 , , , 4 6 8 8 8 8 E ! ^ ` ~ Q E E W ^ } _ ( *.:.1 1 qXLXCXb x.g.g m m m g c n v g d d h h h d d d d t t d d d d d d d f f f f z H y.v.#     T.=XaX1XJ.O.W 0 W ( 0 9 9 W 9 9 E 6 9 ) 9 W A ( *._ *.8.-.1.%.t.qXfXJXDXFXDXFXu.  X -XkX:.K.,X-.( 7 W W ^ o.o.^ E E W ^ ` ` ^ ^ ^ ` ` Q ] ] _ %.;.1 + a.x g.c.h.h.N d.m c c b m m c h $ $ $ $ $ & $ : $ % % & $ h z c z z k f f k z f f x +   w ;X[.w.O.] ! ! ^  .+.+.E L 9 9 9 9 8 6 8 6 6 6 8 9 9 8 9 W A A W 9 7 ) J.$X>X>X,Xp.a.R.(.8X8X).(.y     1 F.;X-.O.$. .@...X...X.~ ~ E 9 7 7 8 8 9 9 9 E 9 9 9 9 E W W E  .Q E ) -.H.K.:.e wXJXJXI.v.z z m z f f z d t f t : % % : : : % % % d d d h j v j g n y.c z b z d b y   @ 0XSX>X2X%X>.>...5.4.| ' | | ~ | X.| ~ X. .^  .$.<.<.$.",
"( <.D _ %.O a P.gXrXrXfXfXG P.GXGXJ.dXdX[.! W ! 7 8 8 0 0 6 6 7 9 7 0 0 W E W ^ ^ o.>.] O._ ;.F.O     ; a.u.u.y.b n m m d.n h d d % % % d d d f % % % $ & $ % d d d f f f f c y.x.v.y .   u =X$Xe.#.7.~ @.5.X.' | | ~ E ~ ~ E 8 9 9 9 9 9 Z E E ~ ' |  . .X.+.@.w.9.8.H.M.G.t.x ~.rXzXgX@ X t.%.aX2X%Xw.7.` Q  .E ~ ` ! 9 6 6 , 6 6 4 4 6 8 7 9 #.#.o.Q 9 9 E  .o.^ W _ *.F.w o s.SXLXD.y.y.c m g v m M g M v v h h d d d d C & % % % $ $ % : d d g f f t c b H y.u.    &.-XK.>X%X=.W W 0 0 ( 0 8 9 9 9 9 9 7 8 W W A A A _ *.[ _ 8.F.;.< G.E.uXFXDXDXfXX   i bXT.L.K.K.=.0 Z ^ ` ` ` ^ ^ ^ W E E Q ^ `  .` ` ` ^ ` O._ %.;.%.. a.v.g.g.x.j.d.j.n n n m c m m f t t t % # # % : $ % % $ $ d g c b l f z z k z z k T r   . F.>X:X<.[ ! ] ! ^ #.` E L L L 9 8 8 0 8 9 9 6 8 9 9 8 8 9 W W W W W A 7.J.2X>X>XL.p v.8XrX).tXI.  X . :.0.0.<.=.$.+.4.4.,...~ Z E E 8 8 8 8 9 9 9 9 9 9 E E 9 / ^ 9 +.@./ W O.8.F.L.1 a.SXLX9Xy.c.z z z l g f f f d d % $ $ $ $ $ $ & % t : % % g j g m g d.y.m y.z f y.u.    t.BXdXJ.3X#X7.>.4.3.3.4...| | | X.' ' | X.~  .+.` 0.'.+.",
"] O.[ *.:.1 o t.7XgXfXzXP.p fXKXaX$XvX:X7.! E ! 9 8 6 0 q 6 2 6 7 6 8 9 9 9 W ^  .+.#.] #.[ -.8.u .   . t.u.u.i.b m z c n m g d C % % % d : t d % % % $ & & % % t d f g g g c y.y.u.u.@   O F.:X[.$.@.@.4.9.5.~ ~ | X. ./ E E E E Z 9 7 7 9 E / ` '  ...4.5.5.4.q.%X0.{.{.L.P.y u.8XgXT   r F L.dX2X#X7.o./ ~ @.'  . .E 9 6 q 0 q 8 6 6 8 7 9 9 o.o.` Q E E Q ^ ^ ) [ ;.;.;.1 O wXHXjXb Y z d.d.n m v j g g h d d h d d d d C $ $ $ % $ $ % % d f d f f f b z b u.#   . T.K.K.$XH._ 0 0 0 0 ( 7 8 6 8 9 9 9 7 8 9 Z W W W [ -.-.-.<.8.%.:.e P.E.ZXHXJXx   X -XBXF.K.K.1.( A W W ` `  .` ^ ^ W Z Z E Q ^ ^ ` ` `  .` o.O.*.;.%.1 i P.u.g.g.h.n d.m c c l g g g t $ $ $ $ & * & & & $ $ & & : d g z f f f f f z z b x i   . u ;X2XJ.[ ] ) W ^  .^ ~ E 9 9 9 8 8 8 8 9 9 8 8 9 9 8 9 9 9 Z W W Z 7 $.J.$X;X>XT.i x (.uXtXtX> X   1 :.8.8.<.<.>.@.4.X.| | ' E E 9 6 8 8 7 9 9 Z Z Z Z E E 9  . .~ 4.@./ ^ =.J.$X;.1 qXLXzXc.b z z m l g f h d d t : & & & & $ & & & & % % $ % d g d f g n n n m g z y.>   @ -XdXK.J.#X'.9.9.6.6.3.4...| ' X.X.| | X...|  . .~ 7.w.>.",
"0.=.-._ *.w o r R.fXzXqXr G.IXPXJ.1X3X[.+.Q 9 W A 8 6 q 7 6 2 2 6 6 8 9 9 E / ^  . .+.^ #.O.-.-.;.1     r s.t.i.y.z g g M m c f d % % : C % % : % % % $ & & $ % % d h g g g c n m y.v.y   . &.>X1X7.o.7.+.5.q...| |  .@.+./ E 9 Z Z 9 9 9 9 Z E ~ ~  ...@.4.4.,.>.&X#X#X$XL.T.a.u.(.8X@ X r F dX2X1X#X7.#.+. .>.....X.~ 9 8 9 W 0 0 9 7 7 9 9 Z ^ Q E E / / / ^ W } *.;.;.u O i CXKX(.y.y.l d.n R m M c v M g h C d d d % % % % % $ % % % % t d d % g f z b b u.y     F ,X8.[.#X=.W 9 9 0 0 A 6 6 6 8 9 9 9 9 7 7 Z W ) ) [ =.8.7.[ 8.;.;.w u a.R.CXwX    1 CX,XF.{.J.*.q A ^ ! ` ' ' ' ^ Q E 9 9 Z E W ! ^ `  .+.^ o.=.-.-.*.%.O a.u.u.y.g.d.n n l k l g f h : # # # # $ & * * & $ $ & & $ t d f f t t t y f g l l p +   o p.aX;X-.O.[ ! o.` `  ./ E Z 9 9 8 8 9 L L 9 9 9 9 8 W W L E W ^ W 9 E J.[.%X=XK.s.i u.OXgXI.X X O F J.J.0.>.>.5.5.5.X.~ ~ ' Q E 9 6 7 9 9 9 9 E E E / ~ ~ ~ ..2. .5.@.+.7.0.J.K.e s.SXKX(.b y.g l z g f h d d : % $ * & $ $ & & & $ & & $ $ % d h d d z z m b z z b p     &.BXaXH.$X9.9.9.9.6.4.X.| | ~ ~ ' | ' | | | |  . .~ +.w.'.",
"&Xw.<.) _ %.1 o a.wXfXs.r kXKXBX$X3X<Xw.+.` W ! A 8 6 q 7 6 2 2 7 8 9 9 9 E /  . . . ./ #.O.-.*.;.&.. . . t.t.u.g.c z z g v n M f d d d C % % d t t % $ & & $ $ % % d g g g M m m y.y.u.X   + K.2X#X=.w.o. .9.2... . .@.@./ 9 9 9 9 9 9 9 9 9 9 / ~ |  .X...4.5.>.w.&X[.%X{.T.-Xa.t.r   U G.,XBX:X%Xw.e.e.7.4.4.4.3...| Q Z 9 9 9 9 9 9 9 9 Z E W W Q ^  .o. .^ O.-.*.;.%.= O R.HXJXc.I.n Y n n d.v M v v M g g % C d % $ $ % % % % % % % t d d d f z f c x x.x.@   . ,XL.1.[.w.^ E 9 9 0 W A 2 6 8 8 8 9 0 9 9 8 Z W W W _ -.0.0.[ =.8.-.M.e &.t.E.+   . -XBXF.{.$XH._ 0 0 Z o.~ ~ ~ ' ~ E 9 9 9 9 9 E W ! ^ `  .^ o.=.=.-.-.;.= u a.y x Y c.d.d.z l c l g h t $ $ $ $ $ # # * & $ $ & & $ t t d h d % $ t f y t f y p     1 T.>X8.*.O.O.$.$.^ @. .~ Q E E 9 9 9 L L 9 8 9 8 8 9 E E W ^ o.o.^ 9 0.%X%X;X{.G.a.y I.rXy   . G.=X$X[.0.<.>.,.,.,.,.~ Q ~ / E 9 8 7 0 9 E W W E Q ~ | |  .4.4.4.5.9.5.e.J.K.;.1 7XJXZXi.y.y.b f f f f h d t : $ & & $ % % $ & $ % & $ % % % d f g d c g z k z g.x +   O -XSX>X:X%X5.4.4.4.4.X.| ~ ~ E E ~ ~ ~ ~ ' '  . . .`  .q.*X",
"&X#X7.O.*.;.%.. + E.t.r G.IXPX2X:X3X#X7.Q ` ^ E P 0 0 q 6 2 2 2 7 7 9 9 L L W ^ {  . .^ #.O.-.-.;.F.O o . p u.u.v.y.n n m n f.n c f d C % % t d d t - % $ & $ $ % % t h h f M m c y.z g.>   . &.;X;X8.w.7.^  .{ ^  .@.+./ 8 8 E W 9 8 6 6 9 W ^  .~ Q | 4.q.q.q.q.q.<X%X3XdX}.-XP.+   X N.kXPXNX3X&Xw.7.7.5.5.6.3.3.X.| ~ ~ E 9 9 9 9 9 9 Z E Q ~ ` o.#.#.#.$.#.=.-.*.;.w o u jXLXgXc.n.c d.n f.n c g j g d % : & % % % & & $ $ $ $ % % t t d d d n c z y.b v.x   X i dX1.0.w.$.W E E L 0 W A 7 8 8 8 8 9 9 9 7 6 9 9 9 A A [ 8.w.7.-.-.J.F.M.u a.1     u IX=XK.;X{.<.A 0 0 9 o.~ Q ~ ' ~ E 9 9 9 9 9 9 E E ^ ^ ^  .+.$.#.=.=.8.F = t.; $ x x.g.d.c l c l f d d % $ # # & # * * $ $ $ & & $ : : d h h t % t y y t f y x + X . &.>XK.[ *.O.^ #.E @.@. .^ E E W W 9 E E 9 9 9 8 8 9 9 E W ^  .+.+.^ #.*X&XdXaX,XT.a.x >   r ,XaX$X$X[.w.w.q.9.6.5.5.| ~  .` W 9 7 8 0 W W W W Q Q ~ ' X.4.5.5.5.q.w.7.7.J.K.e &.UXLX(.u.y.f c f f g h h d t % $ & $ % % $ & & $ t $ $ & $ - d g z g l z z f b v.y     t.BXkX$X1Xw.5.4.,......... .~ E E Q ~ ~ ~ ~ {  .@.@. .' 5.*X",
"*X*X9.<.=.H.L.u   p X u kXKXBX1X3X3X*X9.Q $.$.9 W P 0 0 2 , , 2 6 7 9 E L 9 E / ~ {  ./ o.) } *.-.F.F . . . t.t.v.g.j.d.f.j.j.d.v g d % % % % d d d t % $ $ $ $ % % - h h g c n c n n u.T   . 1 K.1XH.8.7.o.) o./ E / / Z 8 7 9 9 8 8 8 8 9 W ^ +.E 9 ~ 5.q.q.q.'.*X<X<X3XdXaX,XR.X @ i R.IXPXNX5X4X#Xe.7.4.4.5.3.3.,.| ~ | { E 9 S Z Z Z Z E Q Q ` o.$.$.$.$.$.-.*.-.;.1 a a.AXJX~.b.m m n n m M g f h C % % % % t t % & $ $ % $ $ $ $ t d d d f n k b c.v.u.@   @ 0XyX0.w.9.+.+.o.} ) ( W 9 6 6 6 6 6 8 8 8 8 8 9 7 9 W 9 A =.0.w.#X8.J.F.F.:.&.. @   -XBXF.;X:X[.-.7 0 ) ) ^ ' ~ ' | | Q 9 9 9 9 9 9 9 E / ^ / +.+.o.#.7.7.8.p.1 r r @ k Y g.j.n b c l g g d : $ $ # # * * * & $ & & & $ % % C d d d t f f f f y y y p X   O =X,X;.*.O.E @.Q  ... .` Q E W W W E 9 9 9 9 9 9 9 E / ^ ^  .+.+.^ Q #X3XNXvXaX7XP.+ X   &.bXaX>X&X#X'.'.q.'.+X+X6.,...>.#.o.W 9 8 9 W W W E Q Q | X...4.4.4.6.q.q.e.w.$XF.< R.PXDXT n.c f f z f f h h d : % & $ % % % $ & & $ % $ & & % t d f z l g b b k y.u.@   @ 0XGX>X$X#X9.9.5.4...2... .~ E E E E Q ~ Q E Q ~  ... .~ >.+X",
"*X*X#X0.8.J.K.G.O O r E.IXPX2XdXNX3X&Xw.$.7.#.W P 0 0 q 6 2 2 , 2 7 Z W W L E / ~ ~ ~ E } ^ ) } *.-.;.o .   r t.i.x.h.h.b.h.d.d.m g d % % % % % t t - % $ & $ $ $ % - h g g c v m n d.y.a.+   o ;.>X$X=.7.#.#.$.^ W Z 9 E Z 9 8 6 8 0 9 E E 9 L ~ L 9 E X.4.4.X.5.#X'.<X1X:XaX0XE.o + P.jXPXBXdX3X4X#Xq.7.#. .X.3.6.6.X.| X. .E 9 Z Z 9 7 7 Z E Z E Q ^ ^ ^ ) ) [ } ;.%.O &.qXJXgXc.x.M n M c h j g g d : d d d % t t % $ $ % $ % $ $ % t h f g z c z H c.I.k X   t.BX>X{.9.>.4.>.#.o.) ) A 8 6 6 4 4 6 6 8 8 8 6 9 8 9 ) 9 8 ) 7.e.&X#X7.H.;.K.1 o + U kX,XK.:X:XJ.[ A A O.#.^  .' | X.| Q 9 9 9 9 9 9 9 L W ^ ^ +. .o.<.7.<.8.M.%.1 p + y b g.g.y.y.b z l c f t t t $ & # # & & # & & & $ % $ C s % t t t y f f y k y T @   . :.,XJ.-.-.! +. . .X. .| / / Q W W E 9 9 9 9 9 9 9 E W ^ ^ o.+. .E ~ w.3XNX3XaX0X-X+ @ + -XdX>X1X%Xw.5.>...4.q.'.3.X. .@.+.^ W 9 7 9 W W E E Q Q ..,.X.4.,.3.+X+Xq.w.[.J.( %.jXKX8Xy.x.c z f z t h h d C % $ & $ $ $ $ & # $ $ % $ & $ t f f f z z z H b H y.t     s.BXBX>X#X7.9.5.5.4...X. .~ L 9 9 9 9 E E L L E E ~  . .' @.q.",
"+X#X1X&XJ.J.H.L.O r G.kXPXdXaXNXNX&Xw.>.o.+.^ W 9 8 6 6 q q 2 , 2 7 E ^ ^ W E / ~ / / E o.) O.[ *.-.1.w . o X s.t.g.c.c.n.x.d.j.m l h d % % % % % - % % $ & & & & & - h f g g c N m m Y u.x     e =X2XH.8.-.#.^ W ^ ^ W 9 9 9 9 9 0 9 9 9 9 9 9 8 9 Q ~ ~ ~ ' | E  .o.%X&X%X>X,XW.a.G.kXPXPXyX2X4X*Xw.7.#.+.| X.3.].@X6..... .9 9 9 9 7 6 6 7 9 9 9 9 9 E W W W O.*.;.%.O G.CXKXI.b.m m m g c v m v j d : d d % % t % $ & $ $ $ t - % - d g z z y.c d.j.g.Z.#   + 7XdX>X%Xw.` @. . .^ ^ ) W 6 8 2 4 , 6 8 7 9 9 6 9 8 9 [ 0 2 W o.e.w.%X0.8.8.L.&.O u 7XbXK.=X2X:X0.[ ! W ] $.` X.' | X.| E 9 9 8 8 8 8 9 L W / o.+. .+.7.7.<.8.;.;.1 r i r b y.d.d.d.n g g c f % t t % & * * & & $ & & $ % % $ d % & $ % - t y f k z y.u.>   @ O K.=X8.=.o.^ @. ... .' ^ ` / E W 9 8 8 9 9 9 9 9 9 9 E ^ +. .~ Q +.>.3X3X2X2X-Xa.r U -XBXaX$X$X#X7.#.+.~ ~ ' ~ | Q E E Z 9 9 6 9 9 E E Z E Q ~  .X.| X.X.4.*X<X*XJ.8.;.5 T.HXHXu.n.g g g z z f d d d : $ & & $ $ $ $ $ $ % % $ - $ t f z g k c m n H x g.u.@ X X 0XIXkX>XJ.<.5...,... .| { ~ E 9 9 9 9 9 E L 9 / E ~  .| ' X.>.",
"#X[.&X<X#XH.K.&.o P.jXCXGXdX;XvXvX&X9.5.+.7.^ L W P 8 6 8 8 8 2 2 7 Z W E E E ~  . .Q / #.$._ *.=.=.0.8.. .   i t.u.x.y.g.n d.n j j j g d % % % - - % % % $ & & $ & $ t f g g c g m m z y.u.;   . F.=X8.7.$.O.^ } ) W W W E S S S Z 9 9 9 9 L L E E E Q ~ ' ` ` o. .>.%XJ.%X>XF.e s.fXCXGXGXaX;X&X*X0.o.) ^ ~  .X.,.,.| E E 9 8 6 2 2 6 6 6 6 8 8 E E 9 9 W _ _ *.%.F.u u qXJXzXn.u.c z z l g l c c f d d C d d % d t % $ $ $ $ # $ t d d f g c m n g.y.I.a.    F BX>X2X[.~ ..,... .~ W W 9 8 6 6 , , 2 6 7 9 9 8 E W 9 9 9 9 W ! <.J.#X[.8.;.L.&.o :.0XkXL.:XaX:X0.W ^ O.^ E | | | X. .{ Q L L 8 8 8 8 0 9 W W / ^  .@.>.5.>.#.-.;.:.O t.v.x c.d.d.b.d.c c l g t f t & & & * * & & & & & & $ % % % % % t y y f t z m b.g.y.@   . &.=X-.*.=.) o.o.O.o. .^ ~ Q Z E 9 9 9 9 9 7 7 W W 9 E  . .{ @.Q S 9.<X3X1X>X>X&.a.wXBXBXaX[.J.#X0.=.o.] ~ ~ ` ` ` ^ Q E 9 7 7 9 E W E L L /  .~ E Q @.~ @.9.q.0.J.J.w &.fXLXrXu.m z c c z f f d t % $ & & & & & & & & # $ $ $ % % d l l l c n m n d.z g.y     s.BXVXdX$X$.e.7.4.,.,.@.X.` E 9 E 9 9 9 9 9 9 9 E Q ~ |  .X.....",
"#.e.%X3X1XJ.L.O i jXCX7X-XdXvXvX3X#Xw.q.7.>.^ / L P 8 8 8 8 9 9 8 7 W / Q E E ~ ~  .Q W ] [ _ [ O.8.8.8.5 . . + s.u.v.y.Y Y d c v M j g d % $ % - t t t - $ & & # * & - d f g c f z c c H H y X   e F.J.7.=.=.} } ) W ^ W E E E Z Z E 9 9 L L L L E E / ^ ` ` ` #.} 7.0.0.J.K.1 . P.BXSXsXaXaX%X&X%Xw.$.) W W E | ' ~ ~ E 9 9 L 6 2 , , 4 6 8 0 8 L E E W W _ _ _ :.:.1 P.CXLX8Xc.y.x z z f t d g f d d % C C d d d d % % % % $ t t d d d h g g n H c.n.v.# X   -XbX>X#X7.>.9.q.4.X.{ / E 9 6 , 2 , , 2 q 7 9 8 8 L E E ^ ) W W ] <.J.%X;X1.F.F.O + s.G.K.{.dXaX%X<.9 W +.+...4.X.X. . .~ L L 9 8 8 6 6 8 9 P W ^ ^ o.@.>.4.5.7.=.1.;.e u P.v.v.R n f.d.M l k z g c g % $ $ & $ $ $ & & & $ % % : % % % t y y y f l n x.g.Z.f X   e L.J.-.O.) O.) o.$.o.+. .~ E E 9 9 7 7 7 7 7 7 Z Z Q o.+.+.@.! ` '.#X#X$X>XL.O R.kXsX,XH.$X$X$X0.-.) ] $.o.` ^ ^ ^ W 9 9 7 7 9 E W W L E ~  . .E E ^ E #.7.<.0.8.1.1 R.JXLX~.y.c g g z g f h d t $ $ & & & & & & & & & $ $ $ - d f l l k z m m n y.y.T #   O -XVXBX2XJ.$.7.>.,.,.,.@.X.^ E 9 Z 9 9 Z Z Z Z Z E Q ~  ...,.4.,.",
"^ 7.%X3X3X2X;.  G.AXAXU u >XNXvX1X'.w.9.5.+. .o.L P P 8 8 9 9 Z 9 Z W ^ Q E E ~ Q  .^ E ! _ W _ ( =.-.;.:.o     t.s.i.x.y.x.c j.R v c g f d % % t t t t - $ $ & * * & % d f g v c c c c H y.x y   . :.=X8.=.#.O.} ) W ^ / W E E Z 9 9 9 9 9 9 9 9 E E / ^  .`  .#.r.w.8.J.J.;.. 1 fXAXBXT.K.>X$XJ.[.w.=.W W ! E 5.| Q | +.W 9 L 0 2 , , 4 4 6 8 8 8 9 W W ( ( _ _ ;.%.1 qXKXFXI.g.H z z z f t t d d d % % % C d d d d % % % - % t t d d d d d f n j.g.n.x   X u kX2X=X7.$.q.q.6.4.,. .^ E 9 8 6 , , 2 6 q 7 9 9 6 9 9 9 W ! W Z S =.J.:X2X{.K.F . u T.:.:.K.aX>X[.-.! $.#.4.5.5.X.X. . .~ L 9 9 8 6 6 4 6 8 9 L E ^ +.@.@.@.4.7.=.-.;.%.+ a.Y.c.D.b.n.b.d.n m n c n c t % $ $ % $ $ $ $ $ $ $ % % % % t y y f f z h Y h.g.I.u.#   o :.=X1.O.O.$.) o.O.o.` ~ Q Z 9 9 9 7 7 9 9 9 9 9 W ^ ^  .o.^ Q >.#X0.J.{.=X%.U kXkXG.L.F.;XJ.0.8.-.! ) $.$.^ ^ ^ Q E 9 7 7 7 9 E E E E / { +.^ / E / ` 7.7.<.8.H.w u fXKXgXc.b z f f g g f f t - $ $ & & & & & & & & & $ $ $ d d f z c l M m y.m z b #     t.kXVXdX$X7.#.5.4.......X. .^ E 9 9 9 Z Z W S Z 9 Z E Q  .@.4.4.,.",
">.7.#X3XvXNXe + qXAXHXr . ;.>X1X%Xw.e.$.X. .+.o.E P L P 9 9 9 E 9 Z W ^ E E E E E  .W 9 W W 9 0 7 [ [ 1.F.<   . a a.u.v.x.y.b.x.R v M g f d d t - t t t t % $ & & & & % d h j v n c g z b H u.u.+   e T.H.-.O.$.o.) ) ^ ^ / E E Z 9 9 9 9 9 9 9 9 E W ^ ^ ^ ` ] ^ 7.8.8.8.F.< o E.SXSXqXs.G.F.H.8.<.7.=.W W ] ^ 5.@.@.4.#./ 9 W W 7 6 6 q q 8 8 8 8 8 Z W ( ( _ *.;.u p.jXKXrXD.y.x z z z f d d t t d : % % C d d d d % % % - % t t d h d h f g c y.b p +   X 7XkX$X{.[ @.'.q.5.4.4. .^ E 9 9 7 2 , , 2 8 0 9 9 9 9 9 8 9 9 9 9 7 O.J.%XdXaX{.O O T.kXp.w M.>X;XJ.O.=.9.e.7.5.X.X.X.X. .~ L 9 9 8 8 6 6 6 6 8 8 L / o.+.@.@.4.5.7.=.;.;.1 t.R.v.I.n.~.n.f.d.n n n d.m d : % % t % $ $ $ $ $ $ $ & & $ % t y y f g % n h.x.d.y.x X   w K.H.=.<.=.o.o.) ^ W E E E 9 9 9 9 9 9 Z Z S Z W ! E ^ o.^ W 7.'.0.[.$XF.e -XHXjX1 p.M.{.$X-.=.=.[ ) ^ ^ ^ ^ / E 9 7 8 7 7 9 Z E L E ^  . .Q / W ^ $.<.=.=.8.M.< E.AXDXx.c.c z g g g g g f t % % $ $ $ $ $ & & & & & $ $ % d h g l c z c m n c l y X   r wXBXNX1X0.<.>.>.5...X.X.| ' Q E 9 9 9 9 Z S S Z Z Z Z E  .@.5.5.4.",
"7.#.[.3XNX;X. &.jXJXAXt.  = K.2X%X0.9.#.#.` ^ ^ ^ / P P L L 9 9 9 Z W / E 9 9 E E / 9 6 Z W 7 7 0 _ [ -.F.:.o . . t.i.i.g.f j.n n v g f d d % % % - t t t % $ & & & $ % d d g v c g f l c b y.u.y   . &.K.8.-.=.O.o.} ^ ^ ^ / E E Z 9 9 9 9 L L L E W ^ ^ ^ ^ ) O.w.8.-.F.%.. &.fXCXAXR.+ p.p.F.8.-.-.-.) A ! ! E  .5.4./ 8 9 ) ) A 0 0 I I 0 0 W 9 9 W ) ( _ *.;.:.u 0XDXAXI.v.b z f f f t t t - t d t % % C d d d d % $ % % % t d d f f g M c z y.y.#   X t.SXaX$XJ.] 4.9.6.6.,.X.| Q L 9 8 8 2 2 , 2 8 9 9 9 L ^ W W W 0 9 A ) O.0.$X1XdX;.  1 0XSX:.O %.>X:X0.<.7.w.9.>.@.~ X.| | { / L 9 9 8 8 8 8 8 6 4 , E W ^ @.5.5.5.5.7.=.-.;.&.r s.u.x g.~.n.h.h.d.n Y d.m d : : % t $ # # & & # $ $ $ & & & $ $ $ $ % & m d.n.y.y.v.+   O M.;X8.=.7.o.^ ^ Q / / / Q W W W E E E Z 9 Z 7 E ! W ) O.^ ^ 0.<.7.H.F.%.p.BXKXjX  u :.p.=X;.=.=.-.[ ! W ^ ^ Q E 9 7 8 7 9 9 9 9 Z W ^ o. .E W ^ ) O.[ O.-.;.1 &.fXKX8Xg.g.z z z z z l g f % % % $ % % % % & & & & & $ % - f g j l c c c c k b Y #   X E.BXBXdX%X<.$.>.X.>.X.X.| ~ Q E E 9 9 9 9 9 9 E E E E E Q  .>.5.5.>.",
"#.=.#XdXdX< o T.AXLXhXqXp   &.;X:X8.7.7.>.~ Q  .^ / L L E E 9 9 9 Z W Q E 9 9 9 W W 9 8 ! ) A W ( [ -.-.8.K.w     1 a.u.u.Y Y n Y m c g f d % % % - t t t % $ $ & & $ % C d h M g g g c m b b y.g.>   o G.H.-.-.$.O.o.) ^ ^ / E E Z 9 9 L L L E E W ^ ^ ^ ! ^ ) 7.J.J.8.L.1 = R.CXCXPXwX  u G.F.H.<.-.-._ W E W 9 ~ ` Q 9 8 9 9 A 7 7 0 P 0 P P O.) ^ ) _ _ *.-.;.&.s.CXLX9Xv.y.x z f y t t : % % % t t % % % C d d t % $ % % % d d d d h f g c b g.g.# X + fXSX;X%Xw.>.9.5.6.q.,.X.{ Q L 9 8 6 6 2 2 6 8 9 9 9 9 W ) o.O.) W ) [ [ 0.;X;X}.O   &.qXkXG.e e L.$XJ.7.<.7.>.+...| | ~ ~ ~ E L 9 9 9 8 8 8 8 8 4 , 9 E ^ o.#.4.4.>.#.=.*.;.F.1 r r * k I.~.n.b.f.d.m n l : % $ # $ # & # # & & $ $ $ $ & & $ $ $ $ % d R R n.h.d.c.i     F >XJ.$.7.#.o.` o.+.o.^ W } } ^ E 9 E E 7 7 7 Z ! W W W E >.w.O.<.;.%.u 0XPXKXkX@ O &.%.;.F.-.*.O.O.! W W ^ Q E 9 7 7 7 9 9 Z E E ^ o.o.^ W E ) ) [ _ -.1.e = 7XHXzXu.c.z z z z g g g g f : % % % % % % % % % $ $ $ - t d M c c c c c m c z y.y.@   p kXGXdX:XJ.<.$.@...>...X.' ~ Q E Z 9 9 9 9 9 9 E E E E E Q ` +.@.@.+.",
"] 8.:XdXK.. :.fXKXDXrXzX(.    F $Xw.0.9.$. .~ +.^ / / W W E 9 9 9 E / ^ E 9 9 E ^ ^ 9 9 ) W 0 ( ( ( *.*.;.K.p.o .   i a.g.x.y.g.d.n m c g d t d % % t t t - % % & & % % C d g M g j c m m m n y.D.y.@   u F.;.[ $.$.o.) ) ) ^ W E Z E E E E E E W / ^ ^ ^ ^ ] O.7.r.8.8.;.O t.sXSXSXDXfX@ . p.;.F.H.8.-.*.[ ) ! ^ Q E 9 Z E 9 6 6 2 2 6 q 8 0 W ) } ] ) _ [ -.;.;.:.7XPXDXY.x.z z z f y y t % % $ % t t % % % d d d d % $ % % % d d h d d f c m b y.x X   s.BXaX$X#X0.9.q.3.6.6.X.| ~ Q E E 9 8 6 2 6 6 8 0 9 8 6 9 E ^ O.) ) [ ( <.J.;XL.w   1 wXfX7X7Xp.1 D 1.J.7.#.>.5.4.4.@.| ' ~ ~ E 9 9 9 9 7 8 8 8 8 6 , 8 9 E ^  .@.>.>.5.7.=.=.F.:.u r @ # n n.n.n.f.n c m h $ $ $ & # # # # # & & $ $ $ $ $ $ $ - t t : g k.k.b.b.h.g.u.+   + K.;X8.7.9.>.o.+.@.o./ E $.o.W 9 9 W Q Z 6 9 9 W A 7 9 ) 0.0.-.1.-.%.W.CXLXJXCXa.  r &.F 8.-.*._ [ ) ! E ^ W W Z 9 9 9 9 E E E E ^ o.o.^ / W O._ %.-.8.:.1 G.CXLXI.Y y.g z z k f h g l M h d d d d C C % % % % % % t d h c v v c m n y.H Y y.y   @ E.SXBX:X#Xe.>.+.@.5.5...X.' ~ E E Z 9 9 9 9 9 E W Q Q ~ ~ ~  . . . .` ",
"] J.2X2X< O -XSXJXrXrXrXhXG   O 8.[.#Xw.+.>. ./ / / / / E L L E E E / ^ W Z 9 E ^ W 9 9 A 6 , 0 P 4 ( _ -.-.K.w o   + a.g.y.b z n n m m g d d d % t t t t t t - $ % % d d d g v j M M M c m n y.b.n.y   . %.;.[ O.O.o.^ ) } ) W W Z Z Z E E E E W ^ ^ ^ ^ ) ] -.8.-.%.;.O a }.SXHXHXgXfXa.  &.p.F.{.J.-.-.-.) W 9 ! ^ ) W 9 9 9 8 2 6 6 6 6 9 W 9 ! ) ( _ *.-.;.p.p.CXKXlX(.Y z f f f y y t : % & % d d % % C d d d d % % % t - g g g g g c n y.u.i.r   o sXBX>X$Xw.7.7.,.X.6.5.| ~ E E E E 9 8 6 2 6 7 9 0 8 6 9 9 8 9 _ ) [ =._ J.%X{.:.. o P.SXCXE.wXp.F w %.J.0.<.7.w.w.5.@. .| { ~ E L L L 9 8 8 8 8 0 8 6 8 9 W ^ ^  .>.5.>.7.#.-.-.F.%.1 r @ $ g._._.b.f.m m f % : t $ # # # # # & # $ $ % $ $ & # $ $ $ % C m.Q.k.m.b.h.n.y     :.aX$X7.9.>.` ^ o.o.) ^ $.} L 6 9 ^ ` ^ 7 9 9 Z A 8 W 8.w.<.<.H.F.p.7XIXLXZXCXfX@ r s.u %.-.-.*._ [ ] ! ^ ! W E 9 9 9 Z E W W W  .$.o.W ) ) =._ %.;.;.1 i fXJXzXu.g.z c z z g d d g m m j g f h d d d C d C % % t d f f M c v c n d.h.g.Y x @ X i kXIX>X%X[.7.>. . .5.5.,.X.| ~ E E E 9 9 9 9 E / / / E ~  .+.@.@.+.` ^ ",
"<.:XNXF.. u jXLXDXOXrXuXgX(.    3 J.[.w.9.@.>. .@.o.^ E E W E 9 ~  . .^ E E E 9 W ) E 6 8 9 9 9 9 8 0 _ *.-.8.K.O     r v.u.y.z n l d h g g g g f d t d d t - % d d d d d h j c v M g f g c c g.m.h.c.#   u K.1.-.=.] ^ o.} P P W W W W W W W W / ^ ^ ] ) ! $.J.-.%.%.u + s.kXIXHXZXzXhXqXX p s.%.8.=X-.1.=.[ 7 Z A W W Z 9 9 W 7 8 6 7 0 8 8 0 0 W 9 _ [ %.;.;.&.fXLXZXOXn.b Y b z f y t t t % % - d t % t d d f d d d d d d d d d l h m c g.g.i.x   . s.VXaX=X#Xo.$.9.4.3.6.3.| ~ E E / L 9 8 6 6 6 8 9 9 9 8 8 W 9 8 A A 0 D -.$X>XH.O . i fXJX8XP.wXR.s.w :.8.0.e.<.@.@.@.>. . . . .^ E 9 W 9 9 9 9 9 8 6 6 8 9 L W {  .@.>.>.@.7.<.=.H.F.u u r t c.~._.n.k.n l d t : t % * # # # * # $ % t - $ & * * * * * * v k.k.m.n.b.b.I.z @   O >X:Xw.0.9.4. .o.o.) W ^ L 9 9 W ^ ^ ^ W E 9 W ] 2 =.J.7.w.0.K.L.W.CXKXDXDXjXzXY.X t.&.u L.;._ 1.[ =.Z W ^ ^ W 9 E W W ! W W ^ +.o.^ W W ( -.( %.;.w < -XAXJXv.D.g.f n g f f d f g m n v j g h f f h d d g d d f h d j c M n c n g.g.g.x.y X @ E.GXBX2X#X9.>.@.@.,.4.4...X.~ E E E 9 9 9 9 9 E E ~ ~ ~  . .$.+.` $.#.! ",
"$X1XaXw O R.AXKXtX_.OXOXOX(.p   O ;.[.J.0.9.>.@.@.+.^ / W W E 9 E ~  .~ E E E L W ) W 8 9 W L 9 9 9 9 ( [ -.H.K.F.  . + a.v.y.b Y c f h f f f f f f d f g g f d d d d h M v v v c g M g z m n n.~.~.~.b   1 L.J.<.<.$.o.) ^ P P ) W Z E ! ^ ^ ^ o. .o.^ W $.0.8.;.:.:.< u wXAXHXZXCXhXfXrXG @ &.&.;.F.8.-.<.*._ ) ( ( W W W W W 9 7 7 7 0 0 0 0 W ( [ A _ %.F.&.G.CXKX9X(.n.Y Y m z f f y y d t t t h f d d f g m c f d d d d d f h l l m m x.g.u.r   1 0XBXaX;X0.! ` 9.5.6.6.| ' ~ E / / E 9 6 2 2 2 8 9 9 8 8 8 W A 9 A A 0 ( 8.$X>X:.o o P.AXUX(.(.wX-XG.u :.1.w.w.w.9.#. .$.4.@.@.+.^ L 9 9 9 9 9 9 8 8 6 6 8 9 L W ^  .@.,.@.@.>.7.7.H.H.:.u &.x I._._.Q.Q.f.g : % $ $ $ # $ # & & $ : : % f t - $ $ - $ $ & M k.m.m.m.k.n.b.y.y   . :.aX:X%X+X9.@.o.o.O.} E ^ ^ +.#.#. .E E Q ^ W W W =.J.[.J.$XL.M.qXJXKXZXnXhXgXqXr r s.:.F.H.;.8.*.-.=.^ ^ ^ W Z W ! ^ ^ W W ^ o. .^ W ) _ *.%.:.u < p.UXLXrXv.b.Y Y n g k f d t d M n v v c j g g g g f c f d g f f c c j v n m y.c.c.u.@   i kXVXaX:XJ.7.>.@.X.@.4.4.X.| ~ E E E 9 9 7 9 9 E E Q ~ Q +.@.+.o.$.] ! o.",
"{.1XL.  u jXLXDXI.).OX)._.8X(.  . e K.K.w.w.5.>.@.+. .^ W E E 9 E ~  .~ E Z 9 E W W 9 8 E W 9 8 W W W W ) *.8.H.>X<     p v.u.Y c.g.n c g f f f d d d d f g f d h f j v n n n n c c m g f z n n._.~._.v.  o p.=X8.<.<.#.) W W ( W 9 7 9 W ^  .^ ^ ^ o.^ ) w.$X8.;.F.u O N.CXKXDXnXhX9X7X9XR.  i U %.;.L.8.8._ [ _ ( A A W W W 9 A 9 7 q 0 0 0 P W _ -.( *.;.;.&.lXLXAXY.I.b.g.y.c f f y t y d t t t d f f f g c n m g f d d d d l l z n Y y.n.u.r     L.BXaX1X$X-.Z ^ 7.5.5.5.~ ~ E E / ^ L 8 2 6 2 4 6 8 9 9 8 8 E W A W A A _ H.=XL.< o F jXFX(.D.OXI.E.R.p.%.1.w.J.w.0.#.` $.#.+. .{ ^ E 9 9 Z 9 9 9 8 8 6 6 9 9 L W ~  .......@.@.>.7.0.H.F.e s.a.I.8X)._.~.n.n g h t % t t t t t t t t d d f d t - - t t d C v k.Q.Q.k.k.n.c.c.g.@   o ;XdX:X#Xw.5.+. .) ^ E ^ ! W o.7.7.5./ Q  .E S 7.0.#X:X[.>XM.p.CXKXDXnXhXiXuXjXV.  F &.K.aXJ.*.8.=.) o.^ W E W ! ) o.) ! W ^ ) ^ ^ ^ [ *.%.%.;.1 O 7XHXHXu.I.b.d.d.m g k f d t d M n v n m v j g g z g g f f z f f m m m n y.y.g.n.x.>   + -XGXNX:X:Xe.>.@.@.X...4.4.X.| Q E E E 9 9 8 9 Z E / Q Q Q  .@. .o.7.] ! 7.",
"J.>Xw . R.JXLXtXb.).).8X).tXrX#   O F.K.J.w.7.>.@.@.+. ./ E E E ~ X... .E 9 9 Z E E 8 6 9 L 9 9 9 W W W W [ =.=.$X1..   o i x.x.c.j.y.m f t t d d d d d d d d d d g c M g h f g l c m g d g n D.~.~.~.I.#   u ,XH.<.<.=.! Z ( ( W 9 7 7 W ^ o.o.^ ^ ^ ] <.[.J.;.8.F.o u qXAXLXxXxXrXwXuXhXhX# + &.e p.F.8.8.( *.[ _ D 0 P W 0 9 0 0 q 0 q q q 0 ( _ ( ;.;.L.%.G.AXKX9X(.D.h.d.Y c k f y y y y t % - t f g g c m n m g f f f f f l b m g.h.c.I.x X   u sXaX:X:X8.) Z o.#. ...4.{ E L L E E 9 6 , 6 6 6 8 9 9 9 9 8 9 9 A A A _ -.1.,Xu   1 -XHXgXx.I.8Xv.E.wX-XF.H.J.0.7.0.7.o.$.o.^ ~ / / E E E Z 9 9 9 8 8 6 6 9 9 L E / |  .X...@.@.@.7.7.8.H.%.F P.z.)._.).`.Q.j.m g d d f d t d f f t : f c f h f y y y f f h N n.Q.Q.m.m.n.n.c.I.x   . &.dX2X&X#X'.e.5.O.^ ) ] o.+.>.9.9.4.>.~ E  .$.[.[.%X1X%X>XM.0XJXKXzXxXhXrXgXhXhX; a &.;.>X;X1.-.-.=.o.W E W ! ^ ) o.) ! ! ^ ) ^ ^ ! ( _ %.%.&.1 u fXJXrXg._.x.c.n n k f f f d f m R n n n v c g g l l g f g l f g m m n n y.y.c.I.x     s.BXGXdX:X%X7.#.@.>.X...4.4.| ~ Q E E E L 9 7 9 E E ~ ~ ~ Q {  .^ o.<.O.[ 0.",
"K.L.. u CXKXZXb.Q.~.).tXOXtXcXD.  . %.K.J.w.e.@.#.@.+. .^ / Q Q | X.X. .E 9 9 9 W Z 6 4 9 9 W o.W ^ ^ W W ) $.=.8.;X5     + v.I.c.c.j.y.c f f g d f g g g g g g c c c g f d d d d d g g k m g._.)._._._.v.  o =XK.8.<.<.) W W A A S 9 Z W ^ o.+.@.o.] 7.[.J.<.-.F.F . E.CXHXnXgXzXrXuXfXuXnXP.  U U ;.F.1.-.*.-.*._ _ ( ( ( A A 0 0 0 0 q q q 0 ( _ ( F.H.;.u sXKXAX(.(.D.b.d.d.n z k f y y f t t t d g c c m n n n c g f g z z l d.d.x.n.I.v.#   + L.aX$X$X$X=.A 9 ) o.E ` @.~ E L 9 L 9 7 2 2 6 6 8 0 L W W W 9 9 9 9 9 ( *.;.;.L.O   s.UXAXI.d.~.).I.R.7X0XT.J.#XJ.8.8.7.#.o.$. .^ ^ ^ ^ E E Z 9 9 7 8 8 8 8 9 9 9 9 E ~ |  ...@.@.@.@.O.=.0.;.e s.a.n.~._.)._.Q.x.m l m n z d h l c z g g c g g g k f f f h d f.Q.Q.Q.n.b.n.n.n.(.I.+   o K.:X%X*X#Xw.e.#.! W Z S o.5.5.4.4.5.| E w.w.'.#X%X&X:XL.L.CXKXDXxXxXxXiXgXuXAXE.  &.%.F.=X8.*.=.-.O.! W ^ ) ^ ) ) ^ W ^ ) ) ^ W ( ( D *.;.u 1 G.SXLXI.~.I.g.n.g.d.c z f f f l m n n n m m m c c z c g g c c l c m c n n b g.I.x.#   r 7XIXBXdX<X9.>.>.>.>. . .....~ ~ E E 9 9 9 9 9 9 9 E E Q ~ ~  .{ o.$.O.O.<.8.",
"K.<   E.JXLX8Xn._.~.).tX).).tXrX+   1 F.{.J.0.#.o. .{ ^ ~ Q E Q X.X.X.X.~ 9 9 Z ! E 8 8 L W  .7.#.$.o.^ W ! ] $.=.{.F.. . X t.(.I.~.I.n.j.n c m g z c c c m n n d.n c l c c z f t t f g m d.h.~.~.~.~.~.(.@   :.K.H.8.<.=.=.O._ ) ( W W ! ` +.$.#.o.7.$X:X$X8.0.*.. u fXJXLXrXxXnXgXgXrX XhXgX# + s.u L.F.-.1.*.*.*._ ( ( ( A A 0 0 0 0 q q 0 ( *.*.;.F.F.u G.IXKXrXOXD.n.D.j.h.y.c z k y y f t t t t f c c m n R n c g g c c m b x.c.b.I./.x X   p.0X;X>X%X0.) A 7 0 W W ^  .L / E 9 0 9 7 2 2 6 6 9 9 W W ^ ^ ^ W W W A [ 1.1.F.e   1 qXHX8Xy.x.~.D.~.Y.v.R.T.1.J.K.J.8.7.7.O.o. .^ ^ ^ ^ W E 9 9 7 7 8 8 8 8 8 8 9 9 E ~ ' | ....4.4.+.+.=.8.F.u &.v.u.~.~.).)._.Q.f.m j.x.n c l z y.g.d.m g g l M l k f h h j n.`.Q.Q.Q.n.b.h.~.(.(.x     u H.[.[.w.+X'.9.<.] S S +.7.9.5.5.4.X.4.<X&X+X&X<X:X:X;.sXHXLXzXmXxXxXhXuXuXZXfX  e M.L.,XH.*.<.[ =.O.) ) ) ) ) ) ) ) ) ] ) ^ ( _ -.w ;.;.< r qXPXZXv.I.n.b.n.Z.H H b z k l c v v c c g M c m c c c g z z g z m m c d.g.b v.I.x     a.BXGXdX1X#X5.7.>.>.@.~ |  .| Q E E 9 9 9 7 7 9 9 9 E E Q ~ ~ ~ Q o.O.O.<.0.0.",
":.o i UXKXDX~.)._.~.~._.).~._.rXs.  . %.K.$Xe.7.@. .~ ^ ^ ~ / ~ 4.3...X.~ E 9 E ^ E 8 9 E / ^ $.7.#.$.o.^ E W ) =.1.K.F .   # v.~._._.~.n.d.m c n m c c n y.d.d.d.n m c c c z g g f z m g.c.h.n.n.n.c.D.I.y   + F.H.0.0.[.#X[.J.0.8.7.7.7.e.w.w.e.#.#X3X1X%X$XJ.3 . T.AXKXFXuXhXuXgXhXgXrXuXzXP.X &.u F.K.8.1.-.-.%.( ( _ ( W 9 ( 0 0 0 I I _ -.=.-.H.F.;.%.sXKXAX).).n.D.D.b.h.d.b x k f f l f f t t g c c m Y d.R n m m n d.d.x.b.D.D.I.I.#   + -X,X=X2X#X$.S A 6 7 9 E / ^ L E P P W A 7 2 2 2 6 9 P W W W W ) ) ) _ _ <.0.8.;.o   N.CXzXc.Y ~.)._.).(.P.P.-XF.1.H.K.0.8.7.#.^ ^ ^ ^ ^ / Q E 9 9 7 7 8 8 8 8 8 8 9 E Q ~ ' | ....5.5. . .7.7.J.;.u a.i.n.Q.)._._.~.b.d.h.h.b d.m m d.h.d.n m c c c m c c b n N ~._.~.Q.~.Q.b.c._.~.n.g.+ . o :.J.'.'.<X3X&X&X#X[.[.&X4X<X+Xq.q.6.*X3X3X&X3X3X3X=XK.IXKXJXnXDXxXhXhXuXuXgXzXs.. &.M.aX>X1.8.[.7.7.#.o.o.O.O.O.[ [ O.O.O.) [ O.r.%.;.&.a a.SXLXrXI.v.n.I.n.Z.y.j.u.H b c c v v c c z c m m m m c z m c g b y.m m g.I.g.n.I.#   r wXGXBX2X%X7.7.5.#.#. .~ ~ | ~ ~ Q E E 9 9 9 9 9 9 E W ~ { { | L Q ^ o.<.0.J.[.",
"o = E.LXJXrXn.~.).).~.`.tX).~.8X(.@   < F.;X7.9.5.+. . .@.X.X.X.6.6.3...| E Z E ! 9 6 8 E E 9 W o.^ o.$.o.W Z ! -.*.F.=Xo     G (._.).(.~.b.g.y.g.n m c y.g.d.d.j.h.x.j.n m n y.b c b j.n.~.n.I.n.n.c.I.D.T X   :.F.J.[.:X3X3X1X1X:X%X%X&X1X4X4X#X0.1XdX%XK.$X;.o 1 sXPXKXzXxXeX|.9X9XuXeX(.hXgX+ 1 &.u K.F.;.H.;.*._ _ *.*._ 0 _ ( 0 0 I _ -.8.8.8.H.F.u p.SXKXgX8XD.~.~.x.n.h.c.d.H b z z b z z f f z m n n d.h.j.d.d.d.h.n.n.n.n.I.I.I.v.    F 0XF.;X$Xw.+.` W 0 9 9 8 9 W W E L W W W 7 2 2 2 6 0 0 P W W W A A _ ( _ 1.J.1.= O 1 wXDXI.b c.).tXtX).I.(.E.7X,XF.8.K.J.0.8.$.} } } ) ^ ^ / E 9 9 9 9 8 8 8 8 8 9 9 E / ~ | | ....5.5.'  .7.<.J.H.e i R.v._._.).).)._.~.Q.b.d.d.n n n m l m R m n n H d.h.b.n.k.~._.~.~.~.n.h.Z.I.I.y.u.t.    e 8.w.w.3XNXvXvX3X1X1X3XNXNX6X3X*X+X3X3X3X3X3X3XdX;.,XPXKXZXZXmXpXiXrXiXhXuXzXuX  &.p.,XaX=XJ.J.0.0.7.$.O.#.=.-.-.-.-.-.O.O.-.=.;.:.:.w 1 wXLXHX9X8Xc.c.n.~.x.b.g.g.g.y.n n n R n n y.n n m n n n n y.H z y.x.y.b g.~.x.n.v.X   t.jXPXdX2X&X4.5.5.#.@. .~ ~  .{ ~ ~ ~ E E 9 9 9 9 E Q ~ | X.| | E  .~ o.0.0.0.$X",
"o u jXKXFXn.~.Q.Q._.)._.).)._._.rXk   . %.{.w.9.7.+.4.5. .,.5.| 6.6.3.| | ~ E E W 0 6 6 6 8 9 9 ^ ^ o.=.O.Z 9 W ! *.-.K.;.o   p I.).(.Y.I.n.D.n.x.c.n.c.g.u.x.n.n.n.b.x.g.g.v.u.H u.x.n._.~.n.~.I.v.~.I.~.n.r   u K.8.$X:X3X3XvXvX3X4X3X3X3X3X#X#X1X3X1X{.$XK.e . G.HXKXnX9XgX X^.^.9X X(.|.9XhXE.X i i ;.=XK.8.;.*.( w _ -.*._ -.%.*.*.*.<.8.8.8.1.K.M.e 0XKXFX8X_.~.~.D.h.h.n.b.h.g.g.y.m c b b b b d.d.j.j.j.n.b.h.h.m.n.~.~.I.~.I.I.I.r   . G.;.;.%X$X<.>.Q W W 9 8 9 Z Z W E 9 9 E Z 9 9 9 6 6 7 A A A A ) A 2 A q 8.{.L.M..   P.HX9Xu.g.g._._.~.I.n.n.P.P.-XT.L.K.w.0.9.>.$.o.) } o.^ E E 9 9 9 8 8 6 6 6 6 9 E / `  ...,.4.4.5.4.,.>.>.>.<.H.:.1 R.(.c.)._.).).).)._._.n.n.b.k.h.h.h.c.c.j.f.m.n.n.n.b.b.f.~.~.n.Q.~.n.j.c.Z.c.n.v.i.t.  1 u F.$X2XvX3XdX3XdX3X3X3X3X3X*X*X4X3X3X3X3X1XdXL.M.kXPXIXxXmXiXpXpXpX X9XrXrXnXt.o &.G.aX=XJ.%X$XJ.7.=.7.8.7.7.7.<.0.0.-.-.8.1.;.;.M.1 i jXLXgX(._.~.~.I.n.b.n.b.c.x.g.d.j.j.y.y.u.g.u.y.y.g.g.g.g.c.u.b b Y.x c.u.x D.I.@ X X }.GXGX2X%X7.q.5.5.4.>. .~ Q |  .~ ~ ~ ~ ~ E 9 L E ' | X.5.6.6.3.~ .. .o.J.J.J.;.",
"O P.IXKXrXI.n.b.Q._._.`.`._._.~.).~.@ . e 1.J.8.7.#.>.9.q.q.3.| 6.6.3.X.X.| E E L 9 4 , 6 8 8 9 9 9 Q #.#.^ Z W Z ) =.8.F.=   + a.Y.I.I.Y.I.I.n.I.I.v.v.v.v.x.g.c.b.c.c.g.i.v.i.i.u.u.v.I.I.c.c.v.v.n.I.(.(.u.  1 L.L.J.%X3X1X&X&X#X[.#X%X1X<X%X%X%X%X;X;X=XM.. r gXLXJX|.gX9XI.9X9X X^.(.(.(.gXzXr + F e L.F.T.M.;.%.%.%.%._ I ;.;.;.1.8.J.H.8.{.;X=XF F BXKXfX(.(.~.b.c.c.v.x.g.g.y.y.b b m z b x z b m m y.c.n.b.x.c.n.D.I.I.n.n.Z./.z.@   e M.*._ 8.<.` 7.+.E W 9 9 9 E 9 9 9 9 9 9 9 9 9 9 8 8 0 A W A A ( 7 0 q *.K.K.K.e . + 8XUXI.b Y g.D.n.b.c.c.v.n.v.E.E.L.F.0.9.7.>.$.o.) ) ) ^ ~ ~ E E 9 9 8 8 6 6 9 L W / ~ ' | | ,.3.5.3.4.>.>.>.7.8.M.e t.(.v.(._._.).tX).Q.Q.Q.n.n.n.n.n.b.n.n.h.g.h.h.h.h.h.x.x.n.b.b.n.b.d.d.n.n.z.I.I.P.a.@ @ u &.L.;X>X1X1X:X:X&X%X%X&X%X[.[.%X:X:X%X:X:X;X%.T.AXKXZXgXiX9XpXpXeX.X9XeXrXnXwX  r :.T.>XL.F.$XJ.8.-.-.-.8.8.0.0.8.8.;.8.F.;.;.K.G.1 P.LXLXOXI.I.D.n.c.x.x.c.g.g.y.Y Y Y y.Y x G u.g.g.g.x.c.g.x.n.u.u.x I.x y.I.I.D.T     i kXGXNX%Xw.q.q.5.5.4.@. .Q E { | { ~ ~ ~ Q E E E ~ | X.3.3.6.6.6.6.+Xq.#X%X[.{.< ",
"i kXKXFXI.I.n.b.m.Q.m.k.Q._._._.~.8Xy   O %.J.0.7.7.@.4.q.q.3.3.@X6.3.,...' E E L 9 8 6 8 9 9 9 9 7 9 o.$.o.W W E ^ <.-.J.%.. . s.P.P.P.P.P.P.P.P.V.v.a.a.a.v.v.v.v.v.v.P.E.R.E.a.s.s.a.a.a.a.a.P.I.I.Y.(.(.Y.r . ;.K.H.H.J.J.J.{.{.J.J.#X%X:X2X:X;X=X{.L.p.1 . E.IXKXjX|.uX|.U. X X/.Z.|.(.I.9XnXR.  F u r :.p.&.%.%.:.;.:.:.p.F.K.=X;X>X;X=X=XdXaXp.1 0XPXHXfXgXrX8X(.I.(.I.n.x.n.I.v.v.I.I.n.i.z.v.n.v.v.D.I.(.(.~.~.(.).(.(.(.I.I.P.p   . &.%.1.8.8.! 9 >.>.E ^ W 9 E W 9 9 9 9 Z E E 9 9 9 4 6 7 9 Z 7 7 7 7 A q F.}.=XL.o   s.jXqXv.y.b g.h.g.Y b y.x.c.x.a.E.T.F.8.[.9.7.<.$.O.} O.$.@.@.+. .^ W L 9 9 9 L E W Q Q Q ~ ' X...3.3.4.3.>.>.<.=.8.&.1 E.(.Y.(. X).).)._._.n.n.n.n.n.c.x.v.n.I.I.I.n.v.v.v.v.~.I.n.n.D.c.y.y.g.v.x.P.I.R.R.t.  1 u ;.K.K.{.K.K.J.J.H.0.H.J.J.[.%X;X>X:X>X2XK.&.kXLXLXzXhXiXpXiXcXiXeXeXuXeXgXZXN.  r &.G.,XL.K.J.H.H.F.F.H.H.;X1X2X,X=X,X>X>X,XL.1 r jXKXDX8XgXfXrX8X(.Y.I.I.D.I.I.n.v.v.n.v.v.v.I.I.I.~._.)._.(.(.n.c.u.I.x.a.E.V.x +   X 7XSXGXdX$X7.q.q.6.4.@... .E E ~ ~  .~ E E E E E ~ ~ ~ | 3.3.3.6.6.6.q.q.3X2X:XK.O ",
"R.AXKXrXD.n.n.n.Q.Q.m.k.!.Q.Q.~.~.~.n.  o %.F.J.8.<.$.>.5.4.,.3.+X@X3.3...~ E / E 9 7 8 8 9 9 E ` Q E  .@.o.+.@.+.#.0.0.0.F.O   1 F s.a.G.G.G.G.a.a.s.t.F t.s.a.E.E.P.E.R.7XqX0Xp.p.G.G.&.&.s.s.s.s.s.P.E.(.E.r . e p.K.,X=XK.K.L.L.;._ w 5 5 w w w %.w 1 + + &.nXLXPX|.9X X^.Y.(.(.U.C.|.|.U.^.iXzXp + F @ o   < 1 1 u u u u u &.&.&.G.,X>X,X,X,XT.u i BXAXqXE.wX(.P.a.T p r # # r r r r r # + ; t.P.R.R.I.u.p y y r r y y y r + + + @     1 %.*.{.%X[.o.Q >.@.` $.o.Q ^ o.^ W E E W W E 9 9 9 8 9 9 E Z Z 9 7 A q D H.K.yXF . O 7XzXI.x.i.b z b c z f z b y.u.s.a.T.L.1.0.8.0.<.=.=.=.=.#.>.@.#.@.o.^ W E L L 9 E E E E E Q ~ ' X...,.,.,.,.>.$.7.-.F.u s.7Xs.t.R.8X(.I.I.(.I.n.v.x.u.x y # # @ + # + # # ; # @ + # $ y y.u.t.t.u.u.v.v.P.E.a.. 1 1 = 1 e 3 5 1 5 < < O < 3 D w D F %.%.%.;.e R.IXKXnXeXuXiXxXcXmXxXiXiXiXrXeXxXhX+ @ +   e . < 5 e w w e e e w %.:.u u u u u O o = E.kXR.i r x i p r r # + + # r r r > > r r # # # y t # > y y y y # # @ > r + + + X   X i bXGXBX2XJ.#.q.6.5.,.X. .' E E ~ ~ ~ Q E E E E Q ^ { ~ | ..3.3.3.3.3.6.<X3X3X2X( < ",
"zXLXDXn.v.g.h.n.Q.!.m.m.!.k.m.~._.n.(.+   e ;.J.0.=.7.e.5.>.4.,.6.6.3.X...| ~ ^ Z 9 9 9 9 9 E E ^ E E / ^ ~  .@. .' 9.9.O.0.q . . e G.aXBXSXBXBXBXsX0XsXjXCXCXBXSXBXBXBXSXGXGXGXBXBXVXBXdXaXdXkXkX0X0XE.i F t.&.u F &.M.K.p.%.:.:.p.p.&.:.:.:.p.p.p.G.N.E.7XqXZXLXKXhXP.^.|.U.U.(.U.Z.Z.U./.^.U.9XhX XX t.E.a.P.E.R.-X-X7X7X-XR.-X7X-X-X-X-X-XT.T.+ u R.R.r @                 .       . .                                           o o   O w w 8.J.w.>.'  ...Q ~ o.^ E / ^ W Z 9 E E E 9 9 L E 9 L E E E Z 9 7 7 A 1.H.=X=Xo . a.zXgXi.i.b x f k g f d d f b T s.t.T.T.;.<.0.0.<.=.-.$.o.o.+.X. . .^ W L 9 9 9 9 9 9 E E E E ~ ~ ' | X.,.,.,.,.@.7.=.8.:.u p.+ . @ X @ X   X X       X X                       X X       X       X         @     o t.s.s.p.&.s.p.p.p.p.p.G.T.-X}.}.T.P.T.}.}.wXSXKXHX9X|..XeXpXpXcXhXiXiXgXiX9XiXzX^.@ # p u s.p.a.G.G.G.G.G.G.T.E.G.G.P.P.a.p.&.&.s.p.U .   X         . . . .   . . . . . . @     @ + + @ X @ X @ + @ + X     o   .     a -XGXIX>XJ.O.4.q.6...4.X. .' E E ~ ~ ~ Q E E E E E / ~ | X.X.3.6.6.3.3.+X6X4X2X1XO &.",
"HXKXgXu.y.j.f.m.k.k.k.m.m.f.k.~.~.n.I.u.  . F H.K.=.=.7.@.>.5.| | X.X.X...X.~ ~ E E E E Z W W W E E E ~ ~ ~ |  .| ~ 9.@.o.7.=.2 < ;.dXGXGXGXVXBXVXBXBXIXPXKXKXPXPXPXPXPXPXPXPXGXGXGXGXGXGXGXGXGXGXGXPXPXkXfXkXBXsXyX&.F T.0XkXBXBXSXSXSXSXSXSXAXIXIXIXHXLXKXJXKXLXAXY.V.Y././..XU.Z.A./.U.^. XU.(.iXxXi.x |.jXIXHXPXLXLXLXLXHXAXSXKXKXLXHXPXHXsX+ + N.wXP.a.W.s.p.L.L.G.G.K.K.L.K.L.L.K.T.L.L.K.M.:.&.;.p.:.:.p.G.G.E.T.T.T.L.L.L.G.F.;.F w _ _ 8.7.#.~ ~  .X.' ~ ~ E Z Q Q Z 9 9 E E E E E / ^ E ~ { ~ Q E E 9 7 -.{.{.0X%.. + qXZXrXv.v.x x z f d d y t y l b u.t.P.}.1.-.0.0.8.<.O.) ^ ^ ` ` ~ Q E E 9 9 9 8 8 9 9 9 9 9 E E ~ ~ ' | X.,.,.,.4.+.7.=.;.%.w O O e u :.p.p.G.p.p.&.i u u &.p.p.G.p.:.&.&.&.&.&.&.e e u e 1 1 1 O o .   . . .   o + -XkXBXSXjXCXCXCXSXSXSXSXIXHXPXPXLXHXJXPXIXKXKXJXhXC..X X X X XeXeX9XeXuXiXeXxXmXDXH y P.qXSXAXIXIXHXHXHXIXIXHXAXSXAXAXDXAXAXjXR.-X0XwX-X-XT.T.T.K.L.T.T.T.T.}.T.}.}.T.T.T.T.T.T.T.T.-X-X-X-X-X-XT.T.T.L.G.p.u u &.&.:.T.IXGX>X;.=.^ 5.q.q.4.4.X. .' ~ ~ ~ ~ ~ / Q / E E L E 9 ~ X.X.3.3.6.].6.4X5X3XdXF.< 0X",
"LXJX(.x.d.h.k.k.k.m.!.m.k.B N k.b.n.h.I.r   1 :.K.8.=.$.o.+.@.| ' 3.3.,...X.~ E E E E E E E W W ~ ~  . . .@.2.4.4.6.+X4.5.9.w.7.=.$XVXGXGXGXGXGXGXPXPXPXPXPXPXPXNXNXNXBXBXNXBXNXNXVXVXVXVXVXVXGXPXGXGXPXPXPXPXPXKXIXu 1 R.AXKXLXKXKXKXKXKXKXKXLXLXKXKXKXKXFXDXZXnX8XI.V.|.U..XXXA.^..XXX X XeX|.U.rXxXhX^.9XLXKXKXKXKXJXHXDXZXzXCXAXAXAXDXDXfXr @ N.kXPXAXkX0XsXaXaXdXdXdXdXdXdXdXdXdXaX>X>X,X>XaX>X;X=X=X;X,X>X,X,X>X>XyX2X>X>XK.F.1.1.-.[ =.7.$.#.5.>.>.,...4. . .~  .@. .Q Q E Q Q E E Q ^  . .2.4.4.@.+.` ! ) H.$X;X=Xo O p.jXjX(.I.v.b x z f d t d t t f k x t.t.G.M.%.1.<.8.8.-.) ! / ~ ~ Q E E E 9 9 8 8 8 9 9 9 9 9 9 Z E E ~ ~ | X.X...X. .@.o.=.-.( _ K.bXGXGXBXaXaX>X,X}.L.L.K.=X>XaXaXaXaXkXBXBXBXVXBXdXdXkXdXdXdXaXsXaXaXyXsXsXyXsX7Xi P.jXSXSXSXIXHXJXJXPXJXJXHXFXAXDXFXDXDXZXmXZXDXhX|.U.9XeXeXXXeXeX X X X X9X.X^.iXDXiXU. XJXKXLXKXKXKXKXKXKXKXLXKXKXKXKXKXKXKXa.r 0XIXGXBXBXBXBXBXNXBXBXVXGXGXVXVXVXVXVXVXVXVXVXVXBXBXVXVXVXBXBXNXvXdXdXNXBXBXVXVXIXIXIXGXGXdX*.( O.$.@.2.5.6.4.X.' ~ E ~ ~ ~ ~ / E / E L 9 L 9 E | ..3.3.6.@X*X5X3XdX:X< :.SX",
"KXxXY b.b.f.m.B K !.!.k.k.k.k.m.b.k.j.I.u.X . 1 ;.F.8.=.#.o.~ | 3.6.6.4.X.| E E 9 9 9 9 9 9 9 Z E ~ ~ ~ '  .X.X.3.+X6.3...5.5.w.7.<.#X%X%X&X:X:X1X:X:X:X>X;X=X$X8.8.8.J.$X%X:X;X[.%X#X0.0.0.#X2X%X:X;X>X>X=X>X,X,XsXO o s.qXzXCXCXzXzXzXjXzXnXjXhXhXgXxXhXeX9X X XY. XC.C.^..XA./.eX X.X.X^. X X^.).pXgXeX^.iXrXuXuXrXrX9X|.(.(.|.8X9XgXrX8XI.  @ T.CXPXkX,XF.F.J.0.0.{.%X#X[.$X$X%X%X[.J.J.K.{.[.;X:X;X;X>X$XH.8.;.;.;.;.1.8.1.-.[ _ [ [ ] ] o.` Q ~ ..5.,.' X.' ~ Q ` +.~ Z Z E / / E 9 E / ~ | ..4.4.@. ./ Z -.J.K.>X:.  a wXAXrXv.u.b x t z g f d f d t t y z x.x a.G.:.;.;.1.<.-.) ! / Q E E E E E 9 9 8 8 6 8 9 9 9 9 9 9 9 9 E ~ ' | | | | 4.Q o.o.O.r.7.$X%X$X%XJ.*.*.-.1.1.1.1.;.;.1.8.0.8.J.:XdXaX2X2X2X2XaX1X:X>X>X=X=X;X>X,X=X=X=X0XkX1 r fXAXAXAXAXZXZXAXAXAXZXnXhXuXuXeXeX(.(.eX^.|. X9XxXcXcXpXiXiXiXeX9X.X^.|.C.Z.eXxXxX X^.xXiXnXnXzXxXhXxXmXAXDXDXJXJXDXFXDXjX  o 0XdX>X;X=X,X$X{.{.{.$X>X2X2X2X1X2XaXdXdXvXNXNXNXNXNXNXNXdX1X:X%X#X[.[.&X<X1X:X>X;X;X;X2XJ._ O.O.^ @.~ X.X.5.4.| ~ E E E / E / E E E E L L E E E ~ 4.6.6.6.].4X5XNX1X;.1 0XPX",
"DX).b.b.h.m.k.K f.f.f.f.f.f.k.n.n.b.n.d.(.y   . u H.8.=.7.^ / ~ X.5.X.4.4.| ~ E E E 9 9 9 Z Z 9 E Q E Q E Q ~ ' X.6.6.3.| ..q.q.5...@.>.>.7.e.0.7.7.<.=.=.<.-.-.;.;.;.-.*.-.=.=.[ -.<.<.=.=.<.7.<.<.=.*.*.-.;.;.;.T.M.. 1 t.8XgXgXrXuXrXrXrXhXxXhXhXzXxXxXxXzXmXxXgX XC.C./././..X.X.X/. X.X.X X/./.^. X.X^.^.|.^.|.^.|.uXgXhXzXhXjXZXZXCXZX# X o P.IX,XH.,XJ.J.w.w.#X%X#X%X1X3X3X3X3X3X3X3X1X3X1X1X1X1X1X1X%X[.J.#XJ.:X:X%X2X#X7.7.<.<.e.w.7.o.~ ' X.....| ~ E E E E ~ ~ ~ E 9 E ~ ~ 9 9 ~ ~ Q 2.5.3.4...~ #.] w.{.=X{..   a.CXjXI.b Y x y f f d f z z f t t y f y.u.i P.G.;.:.1.0.*.O.O.W ~ ^ ~ Q E 9 9 8 8 9 9 9 9 L L 9 9 9 E E E ~ | X.....4.4.4.@.+.o.o.o.$.] ] $.=.=.<.7.8.<.=.-.-.8.0.0.w.0.7.7.7.e.7.7.=.7.7.=.-.*.[ ( _ *._ ( %.*.%.%.F.p.O G.CXFXFXDXhXnXDXmXmXZXZXDXZXmXmXmXzXzXmXZXDXMXnXxXpXeXeXeXeX X X|.|.|.|. X.XiXxXhXpX X X9X X X9XeXiXxXmXZXmXFXJXFXJXDXHXt.  e =XK.$XH.0.J.0.8.8.8.<.0.#X%X$X&X1X1X2X2X2X1X1X3X3X3X3X3X3X&X1X3X3X3X3X4X*Xw.0.0.8.<.8.8.=.<.$.o.) +. .~ ~ 4...' E Z 9 9 W ^ ^ W E E E 9 E /  .@.{ 4.4.X.6.+X5X5X3X;Xw &.AXLX",
"OXg.d.h.h.m.k.k.k.k.f.f.k.f.k.m.n.b.n.b.I.Y.+ . u M.L.1.=.=.) ^ ~ 4.4.4.5. .~ ~ Q E E Z 9 9 9 Z E E E E E Q ~ ' | 3.3.3.X.X.5.5.,.9.9.5.9.q.e.7.e.9.7.7.7.7.=.=.*.*.*._ _ _ _ _ _ [ [ [ [ [ *.-.=.<.=.=.=.;.8.F.{.aX0X= . r (.ZXzXuXgXiXuXhXgXuXgXiXiXiXiXrXrXpX X.XA.S.A./.^..X.X.X.X XeXeXeXeX X^..X X.X|. X9X|. X X9XuXrX9X9XiXgXhXrXZXqX@   t.BXkXH.F.0.=.J.#X+Xw.w.q.+X<X3X3X3X3X3X3X3X4X3X3X1X&X&X%X&X&X:X%X%X#X&X&X%X&X#X7.0.w.#X#X#X9.` '  .X.X.X.| ' ~ E E E E ~ E E 9 9 E E E E E / { ..2.5.4.>.@.>.0.[.;XaX%.  a wXSXI.Y y x k y d t % - t f z z f t t z T a.P.T.G.:.1.H.8.<.7.<.7.7.5.@.+.` ^ E 9 L E L L L L 9 9 E W E Q ~  ...4.3.4.5.5.4.>.4.7.7.7.>.#.>.5.#.#.>.#.o.o.$.o.^ o.#.e.9.7.7.7.9.9.9.q.e.7.7.7.<.=.-.=.<.-.[ -.<.8.8.L.,XM.= P.jXDXFXFXZXFXDXZXZXzXmXxXiXcXxXxXxXmXmXmXmXpXB.J B.Z.J g.z.B.C.V.B.S.l./.eXpXeX9X9XeXiXiXpXpXrXpXiXhXxXmXDXDXJXZXJXqXo o K.=XJ.%X[.0.w.w.7.7.<.<.8.w.J.#X%X&X&X:X:X:X&X&X&X&X&X<X1X3X3X3X3X5X3X3X4X*Xw.e.7.=.$.8.8.O.W o.o.^  . .~ ~ X. .~ E 9 9 9 E ^ ^ E L 9 Z 9 E W E { ~ X.5.>.].<X4X5XdXH.e 0XLXKX",
"g.m f.h.f.h.K f.f.K B K f.f.f.h.h.m.m.b.g.(.y   O F L.1.-.r.) ^ E ~ .. . .~ E ~ ~ ~ / W Z S W Q Q Q ~ ~ Q ~ ' | | 6.3.3.3.X.4.5.,.q.9.,.9.9.>.5.7.7.<.=.=.=.O.[ _ _ _ ( ( ( ( ( ( ( D D D ( _ _ ] o.$.<.<.<.8.J.{.aXdXG.. @ x hXZXgXhXhXiXiXeXpXpXeX9X9X X.X^.^./.A.Z.A..XXXXXeXeXXXXXeXXXXX X X9X.X|. X|.|.XXeXeXrX9X9X9X8X|.|.9XiXrXqXzXt.  p 7XGX=X;.8.=.0.%X&X+X'.'.q.q.q.q.q.q.q.w.+X#X'.'.'.9.7.7.7.<.7.e.<.<.=.<.7.7.7.>.e.w.#X&X<X&X'.5.@.@.....X.' ~ E Q ~ ~ ~ | ~ ~ E Z 9 E ~ E E ~  .X.X.5...@.@.] w.;X2X=Xo . s.SXjXT z l l f f t % t - % - f z z l f f x v.s.E.T.M.1.8.J.8.<.7.7.#.#.$.$.o.o.^ ^ ^ W E E E L L E / E E E /  .....2.4.4.4...@.4.5.9.9.4.>.5.4.@.X...9.>.7.e.>.Q  .7.6.6.5.5.5.6.q.q.q.5.7.9.9.<.$.#.$.$.o.o.$.=.7.0.K.2X>X= r R.gXJXFXDXFXMXxXmXxXxXxXiXhXcXcXxXxXiXeX XC.i.H i.i.H G G H H G G H J i.C.U.U.|.XXpXiXnXxXhXiXuXuXiXiXhXmXZXZXCXjXr   ;.dXK.J.#X%X&X<X#X7.$.$.O.] O.[ O.=.7.<.<.<.=.=.0.8.8.7.<.=.7.9.e.0.w.w.w.w.e.7.#.O.) o.7.7.O.W ^ ` ~ ~ ' ~ E E ' ~ E Z 9 9 E ^ ^ E 9 9 9 9 E Q { +.2.4.5.4.>.#X5XNX:Xe &.AXKXZX",
"j.f.m.f.N K B N B V V B N N K f.N b.m.b.h.x.v.@   1 M.8.-.-._ L E 9 / E E ~ 9 ~ ~ ~ / W S S Q ! `  . .`  . .X...3.6.6.3.6.,.3.q.6.9.5.5.5.@.+.5.#.@.o.o.) ) ) W ( ( ( ( ( ( ( ( D A 0 0 0 0 0 0 E W ^ $.-.*.=.0.<.=XaXyXo . + v.ZXnXuXgXiXiXeXiXpXeXeX9X9X9X X X X X.X.X.X.X.X XXX.X.XXX.XXX X X X^.|. X X XXXXXpXpX9X X X8X8X X9XiXrXuXuX+ + T.BXBXF.8.7.7.4X<X<X'.5.5.5.5.5.5.5.9.9.4.5.5.X.|  .' `  .` ^ Q W Z 9 Z 7 W ^ Z ` ` ~ ` >.9.5.@. .4.5.7.9.5.4. .| ~ |  .@.@.@. .~ E E E ~ ~ ~ ^  .X.....|  .^ ) J.=X>Xu . 1 wXFX(.x Y z f f f - - d t - % t h l c g g b i.G N.E.G.M.;.H.8.O.=.] ) ^ ^ ^ o.o.^ ^ ^ W E E E E L W ^ E Z E E ~ | X.X.X.....X.| X...,.>.@.,.4.4.>.,.4.q.5.9.q.4.' @.q.q.q.q.q.6.6.6.q.6.9.q.w.w.7.@.@.` +.#.>.7.>.<.0.H.;XaXL.e t.P.nXLXJXFXmXnXmXnXzXnXxXxXcXiXhXiX9XH y y H i.G G H H H J G G G H i.G i.S.C.^. XeXpXpXpXuXeX9X9XeXuXgXMXDXhXZXa.. u aXaXJ.%X[.%X3X3X#X7.^ ! W 9 9 7 9 Z W E 9 9 9 9 0 0 0 0 0 9 ! ] ^ ^ ^ ^ ^ ] ^ W W ^ ^ o.#.>.$.` ^  .^ Q ~ Q E E  .~ E Z 9 9 L W ^ E 9 9 9 Z E ~ { { @.4.9.5.5.<XNXvX;.O wXLXJXI.",
"f.j.k.d.N f.N B v v v v v v N f.n n h.h.h.n I.x   O F H.8.*.*.W ^ 9 W E W  .E ~ E E E Z 9 9 Z W ^ ` ] ]  .o.@...4.6.3.6.6.3.4.'.q.4.5.q.4.@.5.4.+.o.^ ^ ) ) ^ W W W W W ( W ( W A A 0 0 A 0 0 0 W A W ) ) ) $.7.-.[.2XdXe o + + qXZXrXuXhXgXpXuXeXpXeXXXeXeXeXeXXXpXpXpXeXpXpXXXXX X XeX.XXXeXXX X^..X X X XXXXXeXeX9X9X9X9X8X|.9XrXrXrXY.X a.yXGX{.H.w.=.w.3X<X4X'.....4.5.5.5.2.5.5.4.5.q.5.5.@.>.+.` ` $.o.^ ^ W ^ 9 E ^ 9  .+.~ Q ~  .~ ~ ~ ~  .@.4.5.>.@. .~ |  ...@. . .~ E E E E Q  .+. ...5. . .o.Q <.$X=XL.. . t.CXZXv.T b l f f f d f $ - - d d d h h d c j.y.i.a.N.M.M.%.8.8.-.O.) ) ) ^ ^ } ) W E L 9 9 L E E E E W W E E E ~ { | { | X.X.X.X.| X.,.....,.4.4.,.5.q.q.6.6.9.4...5.q.q.q.@X@Xq.6.6.q.6.q.q.q.9.>.+. .` +.>.7.7.#.$.7.1.J.aXyX&.r F V.FXJXZXZXDXxXpXeX X.X/./././.C.i.J J J i.i.i.i.J x G H H G G H H G i.i.J l.S.V.A.|.|. X9X9XXXeXuXxXmXzXhXrX@ 1 -XBX%X#X%Xw.#X<X[.J.$.9 W W W W A 9 W W W W 9 9 0 0 0 0 8 0 ) $.#.$.$.o.^ ) o.o.o.W ^ o. .^ ` ` ^ /  .` E E E E ~  .~ E 9 7 8 9 W W 9 9 9 9 Z Q '  .~ | X.>.>.9.3XNX{.< &.AXKXzXu.",
"d.R m.f.N f.K B B B B m M M n d.d.h j.f.n d.j.v.@ . < F.J.-.-.[ ) Z W ^ ^ o.~ E E E Z 9 7 7 7 9 Z Z W W W ^  ...| 3.X.3.6.,.4.q.5.X.4.4.~ @.e.@.o.o.^ ^ ) ) ) ) ^ W W ^ ) ^ ^ W ^ ^ ) ) ) W W W ( W ( _ ) ! o.=.<.<.%XdXT.. 1 ; G gXhXuXuXuXiXeXeXeXeX X XXXeXXXXXpXcXnXcXxXxXcXpXpXpXpXXXXX X.X X^.^..X.X.XXXXXXXXXeXXX|.|. X|.9X8X8XhXr X G.BXdX-.H.<.7.&X4X<X<Xq.4.5.9.5.@.| 4.5.5...X...| ' X.@.+.Q ^ $.o.W ^ W ^ E W ^ E  .+.` ~ ` ` ~ E E 9 Z E E Q Q Q E ~ ~ ~ ~ ~ ~ `  .~  .~ E E / ~ E @.9. .+.] ! 0.;X2Xu . . 7XJX9Xx Y z l z z f f f f - % - h g g h d m d.z i.u.a.G.F.:.;.8.<.O._ O.) ^ ^ ^ ^ W 9 9 9 9 9 E E 9 9 E E E E W / ~ ~ ~ ~ | X.X.X. .X.>.......,...X.4.6.5.3.5.5.5.5.6.6.q.6.6.q.6.6.6.q.6.6.q.5.@. .` ` ` +.#.#.#.o.o.$.7.;.}.>XG.= p p Y.ZXDXZXmXhXeX/./.A.Z.B.B.B.l.G G i.i.G G G H G x G G H G G G H l.V.S.i.l.S.B.A.U.^..XXX9X9XeXiXiXxXgXzXp   p.dXNX$X%Xw.w.#X#Xw.7._ 0 0 W ( ( ( 0 0 0 P 0 9 0 P ( ( W W ) o.o.^ `  .` ^ ` o.#.#.o.^ ^ ` ^  .o.~ /  .^ E E E Q ` ` Q 9 7 6 6 8 9 9 9 8 9 9 E Q ' 2.X.@.4.>.$.7.;X:Xe O wXLXKXI.u.",
"f.R n.b.N N N v B v v j g g c n y.c h.f.N b.n n.y . o %.H.8.-.-.O.) ) O.} o.o.E E E E 9 9 9 7 7 7 7 7 9 9 E / { ~ | | X.X.| ..2.5.~ ~ E 8 ~ 5.o.o. ./ W ^ ) ) ^ ^ / W ^ ^ ^ ^ ^ ^ ) ) ) ^ ^ ^ ) W ( ( ( ) ) ] ] $.) 8.1XaX= o i ; Y.zXiX X9XpXeXpXpXeXXX X XeXeXeXXXpXxXcXpXpXpXXXpXcXpXpXXX.X.X^././.^./.^. XXXeXeXeX XZ.C.|.|.8X8X9XuX  + T.BXF._ 0.=.w.3X4X*Xq... .4.5.4.4.4.X...4. .@.5.,.@.~ `  .` ` o.^ E ^ W ^ ^ W ^ `  . . . . . .^ E E Q E E E 9 Z E E ~ Q Q E E Q ~ ~ ~  . .Q L L L 9 @.>.+.] ] $.[.1X,XO . t.CXZXc.f Y z m m l g f - k d % & % h l z g m c k H u.a.G.L.M.:.1.1.[ } [ ) ^ / ^ ^ W E 9 9 9 9 9 9 9 9 9 9 Z E E E ~ ~ ~ Q ~ ~ | | |  ...X. .X.X.X.| ,.5.,.| X.4.4.,.4.4.6.5.3.6.6.3.6.6.6.6.5.5.,. . .+.] $.#.$.$.$.o.$.<.*.;.L.T.p ; p p 9XFXZXhXxXrX.X/.B.l.l.l.l.i.G G G G u.u.G G G G G G G G G G G u.i.i.H i.B.C.A.A.A.^.|. X.X XeXuXhXmX9X  r 0XBX:XJ.[.<.0.#Xw.0.[ P 0 0 0 0 P 0 0 0 0 W P 0 0 W 0 9 Z ^ $.+.+. .X...X.| ' ' ` ` +.^ ^ ` ` $.#.` ^ ` Q E E S S ^ Q E 9 7 6 6 8 9 9 8 8 9 S Q '  .X.X.4.9.9.9.$X$X;.o &.SXKXzXb y.",
"f.R Q.Q.v v B j v j h d C d f l - c d.n N N n x.u.X . w F.F.*.-.=.$.) O.} ^ #.~ E E 9 9 9 9 9 9 7 7 7 9 8 9 L E ~ ~ ~ | ~ E | ' 4.~ E ~ ~ E / o.o.^ E E W ^ ) ^ ^ W W ^ ^ ^ ^ ^ W ^ ^ / E E W ^ 8 0 P 0 W ^ ^ ! ` <.[ H.>X%.  e t.G fXiX X9XpXeXpXeXeXeX X^. XeXeX.XXXcXiXpXpXcXXXpXcXpXpX.X/././././.^./.^..X XXXeXpX XB.B.^.|.(.(.jXs.X p kXyX( -.0.7.w.6X4X'.4.|  .5.@.~ ~ ~ ~ ' | ~  .4.| Q ~ ^ ` ^ ^ ^ ^ ^ ^ W ) o.W W  .^  . .~ E E E Z 9 Z 9 9 9 9 9 9 9 9 E E Q Q Q E E E ~  .{ E 8 9 ~ ~ Q $.] ] 0.$XaX:.. . qXLX8Xy y.b l m c d g z % % - - - $ % d g g l l b b i.a.s.G.F.*.:.8.*.*.[ O.) ^ ^ ^ W E 9 E 9 9 9 9 8 8 9 9 Z Z E W / ~ / E E Q ~ ~ ~ ' +.@.' |  .....,.4.3.| X.4.3...4.4.5.3...3.3.3.3.5.5.,.X.4.,.' ~ ` ! +.$.] o.o.^ ) ) -._ 1.K.p.+ r G J xXmXiXiX X|.A.l.z.B.B.l.i.G G u.u.G G H G G G G G G G G G G G H H H l.C.A.U././.^.|..X|.8XrXiXgXAXi   W.dXNXH.=.0.7.<.0.7.O.0 0 0 W 0 0 0 8 0 0 P ( ( 0 P ( ] Z 9 Q ` `  .>. .X... .|  .X.+.` ! `  .Q ` $.^ ` ^ E E W Z 9 ! E 9 9 9 8 6 8 9 9 8 9 E Q ~ | ..5.6.5.9.9.#X2X$X< O wXKXKXI.b x.",
"m.k.~.k.V K v v h h C d d d g m d j N v v d.d.y.x.r   O u 8.1.-.7.=.o.) o.#.+.~ E E Z 9 8 8 9 9 9 8 9 L L L 9 L L ~ ~ Q Q Q E {  .X.| ~ E Q / { E E E E L 9 W ) W W W W W W W W E W W 9 9 W W Z W 7 9 W Z W ^ ! ) -.-.-.{.L.O   i G 9XiXrXeXeXeXeXeXXXeXXX/..XeXeX X.XpXiXcXpXiXeXxXcXcXiXXX/.A././.^././..X X XeXXX XA.H V.V.^. X8XzX+   G.sX;.( =.0.7.*X4X<X6.....X.| ` ` ~ E Q  .' E ~ ` ^ E ! W Z W W W Z Z W ^ ^ ^ E E E / ^ ^ E E 9 9 9 9 9 9 9 9 9 9 9 9 E 9 9 E E E E 9 L L ~ +. .E Q  .~ ` <.! [ 0.:X=Xo   t.HXAXy.u.Y m m c c g f d - % t % # & : d d l c c c b y.u.u.s.G.p.;.;.*.=.) -.[ ) W W W E E L L 9 9 8 8 8 8 8 8 9 9 E E W E 9 Z E Z Z W ! ^ W ^ ^ ^  .`  .@... .X.@.@...........X.| X.3.3.3.,.,.....X.| |  .+.+.+.o.^ ^ ^ ) ] ) _ -.F.F.F O i p Y.ZX9XuX|.^.B.l.l.S.l.i.H G G G G G G G G G G G G G x G G G x G x H Z.U.C.U.^..X^.^..X9X(.eXeXzX9X  e ,XBX;X0.0.<.] =.8.<.) W W ( ( ( ( P P 0 0 ( _ ( 9 0 ) W 9 E ^ ` ` ` ` ` `  . .` ~ ~ / Q W W W W W ! ^ W E 9 9 8 8 9 A 9 9 9 9 7 7 9 9 L E Q ~ X...>.3.3.@Xq.9.w.J.,X%.  t.SXLXzXt y.x.",
"k.f.Q.k.V B v M h h d d % % h v h c K v c d.y.y.c.u.  o u 1.1.<.=.O.) / ^ o. .^ E E 9 9 9 9 9 W E L L E E L E E  . .' ~ ~ ~ E { @...X.| ~ E E E E E E E L 9 P ^ A 9 9 9 9 9 9 9 W W E 9 9 9 Z 9 9 8 9 E W ! ^ ^ ^ ) [ *.F.K.%.. + i (.hXuXeX X XXXeXXXXX X/..XXXeX.XA.iXpXcXxXeXXXcXcXcXiX X/././././././..X.X/..X/.U.C.H B.Y.U./.rXs.X 1 0X,Xw *.=.e.9.+X4X+X3.,.X.' ~ / ^ W Z Z ~ Q Z W ^ W Z A 9 7 0 9 9 9 9 E W W W E 9 E E / E E E L 9 9 9 E W W E E E E E E E Q ~ ~ E E E Q ~  .@.@. . .@.E Q ` ! 0.$XaXF.  . 7XKX8Xx u.l z c z z z g f d : : : $ & : t f f l l l z b u.u.t.a.p.M.F.8.-.) [ [ ) ! W W W Q E L 9 9 8 6 6 6 8 8 8 8 0 9 9 9 9 Z 9 9 9 9 9 Z 9 E 9 E W W E ` ^ ~ Q ~ ~ ~ ~ ~ ~ | | | | X.X.X...X.X.X.| ~ ~ '  . . .^ ^ ^  .o.o.o.] -.8.F.%.1 r p 7XhXeX9X.XU.S.i.i.i.i.H G G H u.u.J J G G G x x x x G u.i.l.H l.l.l.Z.C.C.U.C.U.U.A.U.^.|.8XtXmXx   p.dXNXJ.w.0.[ _ -.=.[ A L L P 0 0 9 8 8 6 6 8 P 0 6 6 9 8 8 9 W ^ Q W Q Q ~ ~ ~ Q E E E E E E Z 9 Z 9 9 9 9 9 9 8 8 9 0 0 0 7 7 7 9 9 9 E E ~  ...4.5.5.6.6.+X4.%X$XL.O . -XHXKX(.f Y n.",
"m.f.!.k.V B v j C C h d % % h v g v d.v c n n d.x.I.X   e ;.;.1.=.$.o.^ ^  . . .E E 9 9 9 9 Z W E L L E L L E E +...' ~ ~ Q E ~  .| | | ~ ~ E 9 Z 9 9 L 9 8 9 P 9 9 7 7 9 9 9 9 9 9 9 8 8 9 9 9 6 8 8 9 ^ ^ ^ ^ ] W _ *.;.K.K.O   i V.xXgXrX/..X X9X9XXX|.A..X XeX XZ.pXeXXXpXpXpXiXpXcXcXXX/.^.A././././.|././.A.A.^.^.i.l.Y.C.|.rXX + G.sXF.( -.=.e.w.+X4X6.X.,.X.~ E E Q E 9 9 / E 9 Z ! Z 9 7 6 6 6 8 8 6 7 9 E E Z 9 9 9 E E L 9 E E 9 9 9 E W W E E E E E E E ~  . .~ E ~ E Q ~ {  . . . .` ] ! ] [.:X>Xe   u AXZXx f Y z l g g f f d t % : % $ $ & $ t f g l z k g z H u.t.s.p.p.F.H.<.O.[ [ ) ! ^ ^ ^ ^ E E 9 9 8 8 6 6 8 6 6 6 8 7 7 7 9 9 9 9 7 7 9 9 9 9 9 9 E 9 9 Q W E Z E E Z Z E E ~ { ^ ~ | | | | ' ~ ~ ~ ~ ~ ~ ^ ~ ^ / / ^ } o.] o.[ O.8.L.M.%.+ i R.hX9X8XU.I.l.J H i.i.G G G u.u.u.u.J G G G G G G G G u.l.V.l.V.Z.B.B.C.C.C.U./.^.^.^.|.9X8XiXhXX 1 -XvX:X8.0.<._ ( -.-.( 7 9 9 9 9 9 8 8 8 6 4 4 8 0 6 6 6 6 8 9 W W E E E E Q Q Q E E Z 9 9 9 9 9 9 9 8 9 9 9 9 9 8 8 8 8 8 8 6 6 8 7 9 9 E E ~  ...4.3.3.6.q.q.w.:X2Xw   u CXKXFXb b Y n.",
"!.f.m.k.B f.B j C h d d C d g m g v d.v l n n f.h.I.y   O &.;.;.=.=.#.o.^  .o.+./ ~ E 9 9 9 9 E E 9 9 E L L L E | | ~ Q ~ Q E Q ~ ~ ~ ~ ' ~ E E 9 9 9 9 8 6 8 8 7 8 8 6 8 8 8 7 6 6 6 8 7 9 9 0 6 0 9 9 o.o.^ ^ ] W ) *.-.K.=Xe   i a.gXhXrX(.|. XXX X|.U.A.|. X X/./. XpX.XZ.pXcXcXpXeXpXXX.X/.B./.^.^././.|.|.^.A.|.|.I.B.V.I.gXv.  i sX0X%.8.<.7.#X+X+X<X6.,.,.X.~ E W W E 9 E ~ E 9 Z W 9 7 7 2 6 6 6 6 6 7 9 9 9 9 9 9 E 9 9 9 9 E E 9 9 9 9 E E E E E E E E E ~ ` ^ / ~ ~ L Q ~ ~ ~  . . .>.+.] <.J.;XL.. . R.KXE.x b t z g g f d d t % $ t $ $ % $ $ t f g l l g g z b u.s.t.p.p.F.J.8.*.*.[ [ ) ^ ^ ^ o./ E E 9 9 8 8 8 q 8 6 6 6 8 7 7 7 7 7 7 7 7 9 9 9 9 8 9 9 9 9 W E 9 9 9 Z 9 9 Z 9 W ^ ^ Q ~ ~ ~ ~ ~ Q / / / / / E E W E E / ^ o.^ ] ] ] <.H.H.p.1 r t.rX8X XV.C.V.u.H i.i.G G H u.u.u.J G G x x x x x x p i H l.Z.V.Z.C.C.A.A.C.U.A.U./.^.|.^.|.zXi.  s.kXdX[.#X7.-.) ) -.[ A 0 0 9 9 9 8 8 8 6 4 4 6 8 8 8 6 8 8 8 9 W W E E W E E W E Z 9 9 9 8 8 8 9 8 9 9 9 8 9 9 9 9 8 8 6 6 2 6 6 6 6 8 9 9 Z ~ | ..3.4.3.].q.5.*X2X=X. O R.PXKX8Xx b d.b.",
"!.k.m.k.f.f.B j h h d C d h g M g c d.v l n n d.b.n.g.X   u F.;.=.#.O.o.o.`  .+. .^ W E 9 9 9 9 E E E W W E E E ~ | ' ~ ~ ~ Q { ~ ~ ~ ~ |  .~ E 9 9 9 9 9 8 6 8 8 6 2 2 6 6 6 6 8 8 9 9 9 9 9 9 6 0 8 9 ) o.^ ^ W W W [ *.8.K.:.  r t.wXhXiX8X^. X|.U.U.B.Z..X.X/.Z..X.XcX XS./.eXxXxXXX/..X.X/.Z.A./././.^.|.|.|.C.Y.^. X^.V.8X7X@ X R.BXL._ 8.7.q.<X*X+X+X6.,.,.X.' ~ W E L 9 E Q E 9 Z E 9 7 6 6 6 6 6 6 8 9 9 9 9 9 E E L 9 E L E W E 9 9 9 9 9 E E E E W / E E E ~ ' ~ ~ ~ E ~  .{ | ..@.@.>.] $.[.{.;Xw   a jXCXx u.b : g z g g g g f f d d : % t : : t l l g h h g z x G t.i s.p.L.{.8.[ *.O.[ ) ^ ^ ^ ` W E E 9 9 9 9 q 0 8 6 6 6 8 8 7 7 7 7 8 8 8 8 9 8 8 6 6 9 7 8 9 9 8 6 6 7 7 7 9 8 9 9 9 9 9 L E W E L E E E L E 9 E E E E E W ^ ^ ] ] ) *.1.F.M.u + r N.7X^.I.l.S.u.H i.u.G H u.H J J G G G x k y p G J G G i.I.Y.I.U.Y.U.U.A.C.A.C.Z.U.U.^.l.8XhX@ . -XNX:X#Xw.7.<.O.O.*.( q 8 9 9 8 8 6 6 4 4 4 4 6 8 8 6 6 8 8 8 9 9 9 9 9 E 9 9 9 9 8 8 8 8 8 8 8 8 8 9 9 8 8 9 9 9 9 9 9 9 6 6 2 2 6 6 6 8 9 E ~  .,.3.5.3.q.,.9.&XdXw   i CXKXFXu.y.n d.m.",
"!.k.k.k.K B B h h h d C C d h h h j n c l n n d.n.j.I.#   1 ;.F.-.$.o.o.o.+.+.@.+. .~ E 9 9 9 7 E E E W W E E E E ' | ~ ~ Q E ~ ~ Q E ~ ~ ^ / W 9 9 9 9 9 9 8 9 7 8 6 6 8 8 7 7 9 9 9 9 9 9 8 8 6 q 8 8 W ) ^ W Z W W [ -.;.F.K.O o i P.gXgXuXY.|.U.B.B.i.l././.Z.A..X/..XA..XS.^..XXX X/./././.U.Z.B.Z./.|./.A.^.C.|.^.|.Y.U.uXr   F kXsX%.;.-.>.+X4X+X+X].].3.X.| ~ ~ E 9 9 9 9 E Z 9 Z E 9 9 6 6 6 8 6 6 6 9 9 9 9 9 9 L 9 9 E E E W E 9 9 9 9 9 9 E E E W ^ E E E ~ ~ ~ ~ ~ E ~ | | | X.@.@.>.] 7.:X;XK..   N.FXY.p z l n m m c c z g g f h % $ $ $ $ $ : t z f d f g z z b t.i &.p.F.K.H.;.*.[ ) ! ! ! ^ / E E 9 9 9 9 8 8 q 8 6 6 8 8 7 7 7 7 7 8 6 6 8 8 8 8 4 6 0 7 8 9 9 6 6 6 7 6 6 7 8 9 8 8 6 8 9 9 L 9 8 9 9 9 8 9 9 9 E L L L E W ^ ` ` ] [ ;.8.F.:.r + i P.|.Y.u.i.G G H G G H H H H J J G G x p p x J l.l.i.V.|.U.I.I.Y.A.B.B.U.A.U./.^.U.Y.I.iXa.X i kX2X{.&Xe.=.7.<.[ _ W 0 0 9 9 8 6 6 6 4 4 4 4 8 9 8 8 9 9 9 9 9 9 9 9 9 E 9 9 9 9 8 8 8 8 8 8 8 8 8 8 6 6 8 8 9 9 Z E E Z 8 6 6 6 6 6 8 8 E E ~  ...4.5.5.5.@.w.2X$X. O R.PXKXgXf y.d.N b.",
"!.k.k.k.B V v C C h d s % C d d h g m c c n n f.m.d.D.u.  . u L.1.-.) o.O.$.+.X. . .E E 9 9 9 9 9 9 9 E E E Z E Q ~ ~ Q ~ E L E E E E E Q ~ / W E 9 9 9 9 9 8 9 9 9 8 8 9 9 0 9 0 8 8 7 8 6 , 4 , , 6 6 8 W ^ E ! W ) _ *.-.8.;Xp.o a t.|.uXgX|.U.l.i.B.i.H V.Z.B.A..XZ.J l..XZ./.l./. X X/.Z././.Z.S.Z.A./.A.Z.A.^. X|.U.V.|.R.  1 0XBXK.%.8.$.5.*X<X+X6.6.@X3.X.' E E E 9 9 9 9 E Z 9 Z Z 9 9 6 6 6 8 8 6 6 9 9 9 9 9 9 9 9 9 E E E E E 9 9 9 9 9 9 9 9 9 L E Z E Q ~ ~ Q Q ~ E E ~ ~ ~ |  .X.@.7.[.:X$X%.  1 fXZXx k l f Y g.c c g f d d % $ & & $ & # # $ $ g f f g z z z b u.t.t.p.p.F.K.H.*.[ ) ! ^ ^ ^ ! E E 9 9 9 7 8 8 6 6 6 6 8 8 8 8 9 9 9 8 8 6 8 q 7 7 6 8 0 0 7 A 0 0 7 7 7 7 6 8 7 9 9 8 8 9 9 9 9 7 8 8 9 8 6 6 9 9 9 9 9 9 E W Q Q ` ] [ -.8.K.M.F O p G Y.Y.i.u.G G G G G H G G H H H G G x i y y G i.i.u.i.V.V.l.l.Z.U.B.S.^.A.A.^.^.Y.V.9X9X  O T.dX$X%X<Xw.#.8.<.) A W 0 9 9 9 9 8 8 8 8 8 4 8 8 9 P L L 9 L 9 9 E E 9 9 9 9 9 9 9 8 8 8 8 8 8 8 8 8 8 8 8 8 8 8 9 9 Z E Z 9 0 7 7 9 9 9 9 E E ~ ' X.,.4.4.,.9.#X2Xe . t.jXKXHX/.x m d.f.b.",
"m.k.k.m.K B v C s C d s % C h g h g m c c n m d.h.x.n.(.+   1 T.8.-.) ) o.o. .'  .~ E E 9 9 9 9 9 9 9 9 L L E E ~ ~ ~ E ~ Q E E ~ ~ Q ~ Q Q E E 9 9 8 9 9 8 8 0 0 9 8 8 8 8 9 0 0 8 6 8 6 , 4 6 , , 4 6 , W ) W ) Z ) ) _ *.1.;X>XO . 1 a.9XgX8XV.i.i.B.u.G l.l.v.l.A.S.z./.S./././.eXeX.X.X/./.A.A.Z.C.A.A.Z.Z.C.|.Y.Y.C.I.9Xy   s.BXaX;.8.<.$.'.3X<X+X3.6.].X.,.' Z 9 Z 9 9 9 Z E Z 9 E Z 9 9 6 6 8 9 7 6 8 9 9 9 9 9 9 9 L E E 9 9 E 9 9 9 9 E 9 9 L 9 9 9 E 9 E ~ ` ~ E E Q ~ Q ~ '  .X.X.X. .9.#X$XH.o . s.CX9Xx f y.b : n f h d d t % % $ & $ % & # & $ & d d f g g f z x t.t.s.G.p.p.K.F.-.[ ) ( ) ] ) ^ W E E 9 9 7 8 8 , , , 6 6 8 6 6 9 9 9 9 8 0 0 0 q q 6 6 0 0 7 A W 0 0 0 9 7 7 8 7 9 9 8 9 9 9 7 0 9 8 8 8 8 6 6 9 9 9 9 8 9 E ^ Q Q ` ] ] [ <.H.L.F 1 1 F t.Y.i.H G H G G G u.G G G H H G G x i i y i u.i.G G i.V.i.H l.^.U.Z. XU.C.^.|.|.l.hXU.  u kX,X[.1X#Xe.7.w.8.A 7 A 0 6 9 9 9 8 8 8 8 8 6 6 6 9 P W E 9 9 9 9 Z E E 9 9 9 9 9 8 6 6 6 6 6 8 8 0 0 9 9 9 9 8 8 8 9 9 9 9 A 0 0 0 9 Z E W E E ~ ' X.,.4.4.4.w.1X%X. o 7XJXKXzXg.b m d.n.m.",
"!.!.Q.k.B V v h C h h C C d h f g c m c l c v n j.n.c.(.a.  O :.K.-.[ ) !  .+.+.` ~ Q E E E 9 9 E E Z 9 9 9 E E E Q ~ ~ ~ Q E E ~ ~ ~ ~ ~ / W E 9 9 9 9 8 6 6 6 8 9 9 6 6 8 0 0 0 0 8 q q 8 6 6 , , , 6 8 0 W W W W W ) [ -.1.H.aX%.O   p R.8XiXV.i.G i.i.u.V.l.U./.A.Z.A.Z.A..X.X/.U.A.U.U.A.C.Z.B.B.S.B.A.B.l.C.U.^.U.V.8X^.  + sXBX;.;.0.0.>.<X3X4X6.6.].3.3.| ' E E W E 9 9 Z E E E W Z 9 9 9 7 6 6 6 8 7 7 E E 9 9 L 9 9 9 E E E E 9 9 9 9 E 9 9 E L 9 9 9 Z Z E Q Q ~ ~ ~ S ~ | ' | ,.4.>.@.w.#X{.%.o O wXCXv.x Y m m l z g h d d d % % % $ & # * * # $ % d d f f f g z x u.t.s.a.p.;.F.L.8.*._ W ) ] E W W W W 9 9 0 7 q 4 8 0 0 9 0 0 9 0 9 9 6 , 6 6 , 6 , , , 2 6 6 2 , 6 0 0 7 6 8 7 7 9 E 9 9 9 9 8 0 9 9 8 8 8 8 8 7 7 8 6 8 9 W ^ Q ` ` ` ] [ -.1.F.F.F = r t.a.P.a.G G H G G H G G H G G x x x i p y p x G G u.i.l.l.B./.^.Z.A.|.9XY. X^.Y.9XhX; o T.dX=X#X$X*Xw.#X'.$.! A 9 W W 9 9 8 8 8 6 4 6 8 6 6 9 W W W E 9 9 E ^ W 9 9 9 9 9 8 8 8 8 8 8 4 8 8 6 4 8 9 8 9 9 9 9 9 9 9 9 9 0 9 9 9 9 E E W  . .| ..X.| ,.>.%X2X2 o i CXJXLXn.u.d.n n.h.Q.",
"!.!.m.k.B B v h C h h d C d d d h M c M g c v n j.b.g.n.I.+   1 L.H.-.) ! ] $.>. .' ~ E E E Z 9 9 9 9 9 9 9 E E Q ' ' ~ ~ ~ E ~ ~ Q Q Q E E Z 9 9 9 9 8 6 4 , 4 6 7 8 8 8 8 q 8 8 8 6 6 6 6 4 , , , , 6 8 0 W W ! W W ( _ [ =.8.K.=X. . i uXY.I.v.i.G i.i.i.I.V.A.|.A.Z..X.XA./..X/.Z.S.S.Z.Z.Z.Z.l.B.B.B.B.l.C.B./.^.I.I.9Xv.  G.SX=X;.1.8.<.w.5X4X@X3.6.].3.X...| E E W E 9 L Z E E Z W Z 7 9 7 6 6 6 7 9 9 Z E E E E E L 9 9 E E E E E E E E E 9 9 L L 9 9 L 9 Z Q ~ ~ ~ ~ Q Q ' X.....,...X.>.#X#X[.%.. u fX(.y.b b m n m c f d d d t % $ $ & & & & # & $ $ d d h f f g z x x x t.s.s.:.p.L.J.<.[ A W ] ! W W W E 9 8 9 7 q , 8 0 0 0 9 9 9 0 0 0 0 6 q 0 8 , , , , , , , , , 2 2 6 8 7 7 7 7 Z Z 9 9 9 7 6 8 7 9 0 9 8 6 6 7 9 9 9 9 L W ^ ^ ` ` ` ! ] -.-.H.M.p.&.i jXrXa.V.t.G H G G u.u.G G G G x x x p p p p i x G G H i.u.l.I./.U./.|.9X^./.Z.I.rXxX; 1 yX>X;X%X3X#X%X%X0.] A 9 9 9 P W 9 8 8 8 6 4 4 6 6 8 9 W E E E 9 9 9 9 9 8 9 9 9 9 8 8 8 8 9 0 6 0 0 4 4 6 8 6 9 9 9 9 9 9 9 9 0 0 7 7 9 9 9 9 E `  . .4.3.,.4.9.1X3X< O R.HXKXgXx.g.j.n h.h.b.",
"!.m.k.f.B B B h C h h d d h d C f c c c c m n d.h.m.h.u.(.x   o F.:XH.=.! ^ ` X. .| ' Q E E 9 9 9 9 9 9 9 9 E E ~ ' ~ Q ~ E E / / ~ Q Q Q E Z 9 9 9 9 8 6 , , , 6 8 8 6 6 8 6 , q 6 4 4 4 4 , , , , 2 6 8 9 W W W W W W _ -.8.8.H.yXO . a.gX|.^.l.G G i.S.l.V.l.B./.l.J /..XZ././.A.B.l.l.l.l.l.B.B.Z.Z.B.Z.B.A.C.|.A.B.^.uXG X -XIXG.M.J.:X#X<X3X<X6.6.6.3.6.3.3.X.E E E E 9 E 9 E Z Z W 9 7 9 7 7 7 7 9 Z E W E E E E L 9 9 9 E E E E E E E E 9 9 9 9 9 9 9 9 9 Z Q ~ ` ~ Q Q Q Q ~ ' | ' ' ' >.*X#X{.;.. u 7Xu.y.y.m m y.c f f d d d d % $ $ & & & $ $ $ $ $ t d d d d f z b x x x t.p.p.L.,X1XJ.1.[ 9 W ! W W W 9 8 6 6 8 8 4 q 8 8 0 0 W W 6 6 0 q , , 6 4 8 8 6 6 6 6 4 , 8 , , , 8 0 0 8 7 9 Z 9 9 7 6 2 8 8 7 9 7 8 8 6 6 7 9 9 9 L W /  . .` ] $.<.1.8.8.F.p.W.R.LXjXV.P.i.G t.G G u.G G G G x x i p p p y y p i x x G x x G H H i.l.B.U.Y.U.B.C.9XiX# r 0X,X>XdXNX<X4X%X$.] ! S ^ E ^ W 9 6 6 6 6 4 , 6 6 9 9 E 9 9 9 9 9 9 8 8 6 8 9 9 9 8 8 8 8 9 9 8 0 8 4 4 4 6 6 9 9 9 9 9 9 9 9 9 7 8 6 8 7 9 9 9 ^ ' | 4.3.,.>.q.&X2XO < fXHXJXv.y.g.h.d.b.n.n.",
"!.!.m.k.B B B j h h d C d h d C h c c c c m K d.m.h.c.g.Y.i   . p.dX%XJ.-.+.` ..| | ' Q Z 9 9 9 9 9 9 9 9 9 Z E Q ~ Q E ~ E L E E E E Q Q W E E E 9 9 8 6 6 4 6 8 8 8 6 6 q 8 , q 6 6 6 4 4 4 , , , 2 6 7 0 P W 9 W W W [ <.0.8.}.K..   E.zX|.|.V.u.G i.B.V.i.H l.U.B.i.A./.A..XS.v.v.l.l.z.l.l.z.Z.U.l.l.A.A.C.U.^.Z.C.rXhXi.X a.-XG.1.{.1X3X3X4X+X5.6.6.6.6.3...X.~ E E E 9 9 9 E Z 9 Z 9 8 9 9 9 9 9 Z Z Z Z 9 9 9 9 9 9 9 9 E E E E E E 9 9 9 9 9 9 9 9 9 9 9 Z E Q ~ ~ Q Q ~ Q Q ' ' | ..5.'.<X%X%XK.O 1 s.u.x.g.n y.y.z f c g f f d % $ % & & & & $ $ $ $ t d d d f g c c y.b x s.a.G.,XBXVX1X$X0.) W ) ^ W W 9 8 6 6 8 6 6 q 8 q 0 0 W W 8 0 W 0 4 , 6 6 _ ( W 0 9 0 8 8 0 6 , 6 q 0 8 6 6 9 Z Z 9 8 6 2 9 7 8 6 6 8 7 9 7 7 9 Z E E W ^ +. .` +.$.<.8.H.1.K.G.G.kXLXzXI.Y.t.G G G G G x p x x i p p p p x y y y i x x x x G G p y y G H S.l.H B.8XrXeX+ o :.K.>XdX3XvX3X'.o.>.! Z #.o.} L 8 6 6 6 4 4 6 9 9 9 E 9 9 9 Z 9 9 9 9 9 8 8 8 8 8 8 9 9 8 9 9 0 8 6 4 , 6 6 6 9 9 9 9 9 9 9 9 9 8 6 6 6 6 8 9 9 E ~ | 4.,.,.9.*X<X1Xw O T.qX8Xi.c.c.c.c.c.m.N ",
"m.m.!.m.K B v j h h d s C d d d d g M l l m n d.h.d.g.c.i.+     ;.aX$X0.O.` ~ ..| | ~ Q Z 9 9 9 9 9 9 7 9 8 9 9 Z Q Q E E E 9 E E E Z E E E Z 9 9 9 8 6 2 , 6 6 0 0 8 8 8 0 0 8 q 6 6 4 4 4 4 , , 2 2 6 8 7 9 A W W ( W ) -.=.-.=X&.  X wXHXV.V.^.i.G i.C.C.i.H H l.V.I.Z.B.B.Z.l.l.l.l.i.i.l.C.l.V.A.l.l.U.A.C.A.C.V.^.xXhXY.X u &.p.F.:X:X3X3X<X+X+X@X6.@X6.3.X.X.~ E E L 9 9 9 E 9 9 Z 9 8 9 Z Z 9 9 9 9 9 9 9 9 9 9 9 9 9 L E E E E E E 9 9 9 9 9 9 9 8 9 9 9 9 Z E W Q Q Q Q Q Q ~ ' | 4.q.*X*X#XJ.L.= . i v.v.g.g.h.n z H m c g f d % $ % $ & & & & $ : % : t d f f g c c u.b G s.p.G.sXPXPX2X#XJ.[ S ! ! Z E 9 7 6 6 2 , 4 6 6 4 6 0 P W 6 8 0 0 , , 4 6 } ) W W W L 9 9 9 9 8 9 9 9 8 8 8 E ^ W 9 8 8 8 9 8 8 8 6 8 9 9 9 Z Z Z E W ^ ^ o.` Q ! ) ] -.-.F.K.}.-XCXKXhXP.Y.u.G G x x x p k p p p p p p p G y ; p x x p p x G G x y x H H y y p l.^.^.I.p   1 :.=X>X1X3X&X9.>.7.! 7 #.+.E 9 8 8 6 6 4 6 8 9 9 9 9 9 9 Z W E 9 9 E W 9 8 8 8 9 9 L E Z 9 9 9 8 6 , , 4 6 6 6 8 9 9 9 9 9 9 9 8 6 2 6 6 8 9 E Z E  .5.3.5.+X4X4X1X1.o e a.t.i.c.g.c.b.j.h.d.",
"k.k.m.k.B V v j h h C % % d d h h j M g g c n d.h.d.g.n.x     . K.2XH.<.) ! Q  .X.| ~ Q Z 9 9 9 9 9 9 7 8 8 9 9 9 Q Q E / E L E E E E E E Z 9 9 9 8 6 , , , , , 8 9 8 6 6 8 0 q 6 6 4 4 4 4 4 , , 2 6 6 7 0 9 W W ^ ( ( ) *.=.;.=Xe . p AXSXi.(.|.l.G G B.U.l.l.H H B.U.V.l.l.H l.l.l.l.l.i.l.C.A.Z.Z.B.B.Z.B.A./.B.l.V.gXgX9Xy . &.:.K.2X1X3X4X*X+X<X@X3.6.3.3.| | ~ E E 9 8 9 Z E 9 9 Z 9 8 9 9 9 9 9 9 9 9 9 9 9 E 9 9 9 L E E E E E E E E 9 9 9 9 9 9 8 8 9 9 9 9 Z E E W E 9 S Q ~ ' | ,.5.'.'.'.0.F.e   p i.v.x.n.c.z z j.m l g f t % $ % $ & # # & $ : : : t d f g g c c u.y.u.a.a.}.BXPXPX;X8.<.) W W E Z Z 9 8 6 6 2 , , , , , , 6 8 0 , , 4 4 < < , 6 P 9 9 9 9 9 9 9 8 9 9 9 9 9 9 9 8 E W E 9 8 8 6 6 6 8 8 8 8 8 8 9 7 9 9 9 9 W ^  .~ Q Q ! ! _ -.J.M.T.0XIXKXE.I.^.i.x G x i x x x x x i p p p p x y y p i p p p k x G G i.B.B.i.l.l.l.C. X(.I.I.+ + &.K.dX3X1X<X8.<.9.! Z #.@.Q 9 9 9 8 6 , 6 8 8 8 8 9 9 9 E ^ ^ W E 9 9 9 8 9 9 9 E W W W E 9 P 8 6 4 , 4 4 6 6 8 9 9 9 9 9 9 9 8 6 2 6 6 8 9 W E E  .5.,.3.+X<X3X<X{.3 + a.v.u.y.y.g.h.h.n.~.",
"k.f.k.f.B v M j C C d C % d h f g j c M l m H d.h.m.b.v.#     F kX>XH.=.[ +.$.>... .~ Q E E Z 9 9 9 9 8 8 8 9 9 Z Q Q E W E 9 E Q Q E E E E E 9 9 8 6 4 , 6 , , 6 8 6 6 6 6 8 6 6 4 4 4 4 4 4 , , 2 7 7 0 0 0 W W W W _ [ -.8.H.F.. o a.FX(.v.uX|.l.G G l.C.i.l.l.S.Z.Z.B.l.S.l.B.l.l.S.S.l.l.B./.Z.Z.B.B.B.B.U.^.Z.i.H |.rXqXP.. e &.;.{.%X:X*X<X+X6.3.6.6.3.| | | ~ 9 9 9 8 9 E E Z 9 Z 9 7 9 9 7 9 9 9 9 9 9 9 9 9 9 9 9 L W E E E E E E E 9 L 9 9 9 9 8 8 9 9 9 Z E W W E E S Q `  . .@.,.>.'.#X*X{.{.:.. ; u.x.g.c.g.z c m g g g f d % & $ $ & & & $ : : % t d f f f g c m g.y.u.t.a.sXPXPXVX$X<.=.[ ] O.] W W Z 7 6 6 6 2 , 4 4 , , 4 6 6 6 4 8 q 4 , q 0 8 9 9 9 9 L L E 9 9 9 9 9 9 9 9 9 9 E 9 9 8 8 6 4 6 6 8 8 6 4 4 6 6 7 7 8 9 9 E ` ` ` ` ) ) *.1.L.F.T.jXKXjXt.|.Y.G x G x x x x x x x x p p p x i p p x x p p G H i.l.B.U.^.Y.V.|.U.l.l.8XiXY.I.p   %.F.dXdXNX5X#X0.$.] `  . .{ 9 9 9 9 8 6 6 9 8 8 8 9 E Z E W ^ W 9 9 9 8 9 9 9 9 9 E W E E E 9 8 6 4 4 6 6 6 6 8 8 9 9 9 9 9 7 6 6 2 6 6 9 9 E E E ' 4.,.,.6.<X5X1X:XM.O i P.v.u.g.g.d.j.m.n.",
"k.f.B B B B v j s C h C C d h g h j c g g c n K d.n.I.u.@     L.BX=X;.[ ] $.$. .@.X.~ E E E Z 9 7 7 9 8 8 8 9 9 E Q E E E 9 9 E E Z Z Z E E E Z 9 9 8 8 6 6 6 6 6 8 0 8 8 8 8 8 8 6 6 4 4 4 4 , 2 6 9 9 0 0 W W ) W W ) [ -.8.J.F     wXjXP.(.9X(.B.H G S.B.G i.G Z.A.S.S.l.l.C.C.l.H i.i.l.B.C.Z.B.B.i.J l.Z.U.C.C.l.G Y.rX8X|.&.  :.%.:.H.%X<X*X'...3.6.3.3.X.X. .~ 9 9 9 9 9 E W 9 9 Z 9 7 9 Z 9 9 7 7 7 7 7 9 9 9 9 9 9 9 E E E E E E E 9 9 E 9 9 9 9 8 8 9 8 9 E W ! Q E E Z E Q Q ' +.X.| '.<X<X%X$XF.. X x u.Y y.d.H y.h h f g g d % $ $ $ & & $ : t : % d h f f f g c b g.u.u.i s.kXKXPXdXJ.8.=.) ) o.o.^ ^ W 9 8 7 0 7 6 q 8 6 6 8 8 8 8 4 6 q , , q 0 9 9 9 E E W / ! ^ W L 9 9 9 9 9 E E E E W W P 8 8 6 4 4 4 4 4 6 6 7 9 9 9 9 E E  .` ' ] ] ) -.8.L.T.yXHXPXE.Y.|.V.x x G G x p y x p p k p y i x p i G H G x G i.l.C.U.U.C.Z.Z.V.B.U.^.l.(.uXI.|.P.. e p.;.1XdX3X3X'.! ] #.E E ~ 9 9 8 9 9 9 9 9 9 9 9 W W E E E E 9 8 8 9 9 9 9 8 9 9 9 9 Z 9 9 9 8 6 6 6 6 8 8 8 8 9 9 9 8 8 8 8 6 2 2 6 6 7 9 9 E E ~ 4.5.,.,.*X3X<X2X;Xo O V.P.y.y.y.n h.h.j.",
"m.k.k.B v B v j s s d d % s d d d M g c c l H h.b.n._.x X     sXdX{.-.[ $.>.5.@.@. .~ E E Z 9 7 7 7 8 7 8 8 9 E ^ E E Z E E E L 9 9 9 9 9 E E E E E E 9 9 8 8 8 6 q 7 0 7 8 7 9 7 7 6 , 6 , , 6 8 9 9 8 9 W W W o.^ E o.] =.8.;X.   ; fXE.v.rX9Xz.i.l.H H i.J l.J G C.C.B.i.B.l.B.l.l.l.C.B.J A.V.i.i.i.i.B.Z.U.Y.U.i.i.V. XiX(.7X1 + &.M.;.$X%X%X#X9.5.5.3.3.4.X.| Q E E E E 9 9 E 9 9 9 L 9 9 9 9 9 9 9 8 9 9 9 9 9 9 8 8 9 W W E E Q W 9 9 9 9 9 9 8 8 9 9 8 8 9 E W Q E E E E E E Z E ~ ' ' 5.#X&X&X%X{.w . p i.g.y.R d.j.d % d j c f % $ $ & $ % % % % % % f f g c z g z y.g.u.u.p P.PXPXGX;Xw.$.] ) o.o.^ ^ / E 9 9 9 9 9 9 9 9 9 9 W 9 9 8 8 8 q 6 , , q ( ( W W ^ ] o.^ ~ W E E E 9 9 9 7 9 Z 9 9 9 9 7 8 8 8 6 6 6 6 6 6 7 9 9 9 Z W / ` ' @.` ] -.=.H.K.T.CXKXhXV.qX|.V.G u.k x G y i p i p G p i i G p i.l.i.x x l.U.U./.U.l.Z.B.Z.B.B.^.B.C.C.9XeXC.7Xr o p.:.1.:X2X:X[.$.9 ! ! 6 W E E E E E 9 L E E 9 E / / / / E 9 7 6 6 8 7 8 6 9 9 9 Z Z Z 9 9 6 9 9 7 6 6 7 7 8 8 8 8 6 6 6 6 0 6 4 6 6 6 7 9 9 9 E ' 4.5.3...9.3X3X3X:X1.. u E.z.u.g.d.d.g.c.",
"m.B K k.N M j j C C h h C d g g d l g c m c j.m.b.n.I.@     p.dX:XJ.<.O.) ^ +.+. .{ Q E E Z 7 7 7 7 7 7 8 8 9 9 ^ / Q E E E L 9 9 9 9 9 9 9 9 Z E E E E L 9 9 9 0 0 9 9 9 9 Z Z Z Z 7 6 8 8 6 0 9 E E 9 L W ) ^ } ^ ^ ] [ 8.$X;..   V.(.P.E.9X|.H i.i.i.J H i.i.l.G l.S.B.S.C.i.l.i.l.S.C.C.l.C.S.J i.i.i.B.B.I.I.Y.V.V.V.(.gXrX8XG.  e &.;.J.J.[.#Xq.@.X.5.6.X...X.~ E E E E 9 E E E 9 9 9 9 9 9 9 9 9 9 9 9 9 9 9 9 8 9 9 W W E Z E W E 9 9 9 9 9 9 7 8 8 8 8 8 9 E / / Q E E 9 E E 9 E ~ ` ` ^ 9.*X<X:X:X:.  r u.c.g.n n d.c n v v c f t $ $ $ $ % % % % C d d d f z z z b y.u.i.t.i fXPXPXBX%X0.$.o.o.` { / { ~ E E E L 9 9 E L 9 8 9 9 9 8 9 8 8 8 , , , , 0 0 9 9 Z ! ^ Q Q Z 9 Z 9 7 7 9 7 Z Z Z Z Z Z 9 7 8 6 6 6 8 8 8 7 7 9 Z E W ^ ^ Q Q  .` ] -.J.$X-XsXHXHX7X(.8XI.i.H H G G G x x G t.H G p i x G x J H i.H J l.i././././.^.U.U./.U.(.Z.V./. XiX9X|.a.o u :.1.J.1X%Xw.$.9 W ] A ) E ~ Q E E E ~ ~ ~ Q ~  . .~ ~ 9 9 9 9 9 9 9 9 9 7 9 9 9 9 9 9 7 9 9 9 8 7 7 7 6 9 9 9 9 8 6 6 8 8 6 , 6 6 6 6 7 Z W Q  ...3.3.4.5.&X3X5X3X{.w O N.i.g.g.n g.b u.",
"N v N k.R v v n g h g g C h l l f l g c c c j.h.j.n.u.    . 0X,X;X0.-.] ) o.o.{ ~ ~ E E E Z 9 7 7 8 8 8 8 8 8 9 ^ / ~ ~ ~ E 9 9 9 9 9 9 9 9 9 9 Z E E W E E W W 9 9 9 E Q ~ ' ~ E Q 9 8 9 7 8 9 9 9 L L W ^ ^ ^ } ! ] O.*.H.,X<   + |.V.Y.9X|.V.x i.u.i.i.G i.i.l.G J i.S.B.C.l.l.i.l.l.B.Z.l.S.i.J i.J i.l.l.V.V.C.l.V.v.U.uXgXqXqXF o 1 u 1.H.J.#Xw.>.' 5.q.| 3.3.X.| ' ' ~ E E E E 9 9 Z Z 9 9 9 9 9 9 9 9 9 9 8 8 9 9 9 W E Z E E E E E E 9 E 9 9 9 7 7 8 8 8 9 E Q / Q E E 9 E E L E / ` ` Q 7.[.%X&X:XK.. . i x.c.j.H d.n d.m c M g d % $ % % % % % : d d f f g z m b Y u.g.c.x a.HXKXPXaX:X0.$.o. .^ ~ ~ ~ ~ E E E E E 9 W E 9 8 9 9 9 8 9 7 8 8 , , , , 4 6 6 4 6 7 9 9 Z 9 7 7 7 8 8 9 9 Z E Z E W W E 9 9 8 6 8 9 0 9 9 9 Z W ^ ^ ^ ^ E E o.] ) -.%X;X,XSXKXkXP.rX8Xv.G u.H u.G x G G G H i.u.G x G G G G G J i.i.l.i.Z.A.A././.U.A./././.Z.l.A.U.uXiX|.|.p o :.:.:.{.:X$X0.! 9 ! W Z ^ | ~ ~ ~  . .~ ` ~ ~  .` ~ E 9 9 9 E E 9 9 9 9 9 E E E W W E 9 9 9 8 8 9 9 9 6 9 9 9 9 8 8 8 9 8 6 , 6 6 6 6 7 9 E Q ~ | X.3.3.>.w.4X3X1X1X1.. i u.b g.m j.b y.",
"N K h.f.N d.f.v j g g g d d l l g M g c l c d.d.c b #     s.sXL.{.<.) A W o.o. .~ Q E E Z 9 7 7 8 6 6 8 8 6 8 9 E Q ~ ~ ~ ~ E E E E E E E E E E E E Q / / / / W ^ ^ Q E Q Q Q E ~ ~ E 7 9 9 8 9 9 9 E E W ^ ^ ^ o.W ] *.-.J.K.O   G R.Y.8XhX|.i.x H H i.i.J i.i.i.J i.i.l.S.A.A.B.l.l.i.i.l.i.H i.i.H H i.l.l.l.U.C.l.V.C.U.eXhXrXuXqX1 o e %.1.J.J.[.w.@.,.q.4.3.3.,.| | X.| ~ Q Q Q E Z E E Z 9 E W E 9 8 9 9 9 9 9 9 9 9 9 9 E Q ~ E E Q W Z W Z 9 9 9 7 8 8 6 8 9 E E Q E W E E E E W ^  . .o.>.w.#X%X:X;X<   ; b x.x.g.y.m N m c m c f % $ % % % % % : d h g l c m b b y.g.v.u.r qXKXPXBX1X:Xw.$.+.o.` '  .~ ~ E E E Q E E E E 9 9 9 E Z 9 7 9 9 8 6 , , 6 4 4 , , , 2 8 7 9 9 9 9 9 9 9 9 Z E E E W ^ ^ W / L 9 8 9 9 9 9 W E W W ) ) ^ ^ ! Q o.) _ ;.,X=XsXHXHXR.|.gX8Xl.i.i.i.i.u.H i.i.G G G G i.G x p x H i.l.l.i.B.S.Z./.A.^./.^.U..X^..X/.U./.C.eXgX9X8XP.. F %.%.1.[.[.w.$.W ) ] ^  ..... ...4.@.' ' Q Q ~ ~ E E E E W W W L 9 9 9 9 9 9 Z E Z 9 9 9 8 8 9 9 E 9 9 9 9 9 9 9 9 9 L 8 6 6 8 7 7 7 7 7 9 E E ~ | ..4.X.5.<X3X4X:X$Xe o t.x g.y.m y.b ",
"m.h.h.f.N N N c j h h f d d g l g g g c c m h.d.y.$     . 0XaXK.8.=._ Z 7 Z  .o.~ / W E Z 9 7 7 7 8 8 8 6 6 8 9 E Q ~ ~ ~ ~ / ~ ^ ^ ~ ^ ~ ~ ' ' ` `  . . . .^ ^ ^ / E Z E ' ' ' |  .Q 9 9 L 9 E E E W / ^ ^ ^ ) ] ) [ *.8.}.&.. @ P.R.qXgXhXR.i.G x G G u.i.t.i.i.i.i.i.i.B.U.^.C.B.l.i.J i.J G l.S.i.H i.l.l.l./.Z.l.Z.Z.Z.|.uXiXrXuXP.. 1 F ;.8.0.#X%Xe.@.9.5.4.4...| ' | | ~ Q ~ / E E Q Q Q W ^ ^ W 9 L E E W E E L W E 9 9 ~ ~ ~ ~ / ^ / E W 9 9 9 9 9 8 9 6 9 L E E E E E E E W W ^ ^  .+.+.$.9.&X:X:X2X%.. + y y.g.y.b n d.n n n c d $ $ % % % % % % d h f M m m z x y.i.g.y i SXPXPXdX>X%X9.$.>.>.X.X...| ' ~ Q ~ ' ' ' E E E 9 E W E 9 9 9 9 7 6 6 6 q 8 6 6 6 6 8 9 E Z E E Z E E E E E / ^ / ^ ^ ^ ^ } W L P P P P L ^ W W ^ ) ) ) W ! ! O._ -.H.,X=XAXKXCXR.hXgX(.l.B.i.l.i.i.B.i.i.i.G G G u.x G G G l.B.C.V.B.Z.Z.A.|./.^.U.|./.^.Z.A.Z.U.Z.B./.pXrX8X9Xr + &.%.*.;.0.J.0.O.) #.o. .,.4.4.4.5.,.~ ' E ~ | | '  . .^ ^ / E E E E E / W E W W W E L P P P P E E W ^ E E E E E L L E 9 8 8 9 0 8 7 7 9 9 E ~ | X.4.4.,.4.+X4X3X:X:XF.O p u.y.g.m y.b ",
"b.d.n d.K v v m g d d h d d l z g g z b b y.n.g.x X     &.kX0X$X8.-.) W E W ^ / ~ / W E 9 9 7 8 9 8 8 8 8 8 9 Z / ~ ' ' ~ ~ / ^ {  . . . . .....@.@.@.@.@.@.+.o.W E E 9 W o.$.+. . ./ 9 L W W ^ W W W ^ ^ ^ ^ ^ ^ $.[ *.K.=XO   G |.iXhXnXuXI.V.i.i x i t.a.G u.i.i.H i.i.Z.C.U.B.B.i.i.l.i.i.G B.C.i.H l.l.l.l.B.Z.B.B.B.v.U.9XiX9X9XuXF   e :.1.J.%X&Xw.>.4.@.@.4.@. .|  . ./ E ^ ^ ^ Q Q ^ ^ o.^ ^ W ^ o.o.W W W / ^ ^ / W E { | { ~ {  .^ Q E 9 9 E Z 9 8 9 9 L E Q Q E E Z E E E W W ^ ` +.@.o.7.%X:X1XaXT..   r u.g.y.b y.d.n n m g % % t % % % % % : d h h M m m b b u.i.x r R.PXKXBX1X;X0.$.o.>.5.>.@.X.X.| | ' | | | | Q E W E E W Z 7 9 Z Z 9 8 6 8 8 6 6 6 6 9 9 E ! W W ^ ! W ^ W W / ^ {  . . . .^ } ^ / / ^ ) ^ ^ ^ ^ ^ ) ) ) ) ^ W ) *.-.H.=X=X0XLXLXqXqXnXuXY.B.l.H l.i.i.C.J i.i.G G u.i.G i.l.S.V.S.S.l.l.C.C.Z./.A.Z.C.A.Z.Z.Z.A.Z.U.A.U./.iXeX X9Xa.  u F %.:.J.$X#Xe.O.#.#.@.4.4.4.5.5...~ ~ E ' ,.,...,.>.^ ^ ^ / ^ ^ ^ ^ ^ ^ ^ ^ ^ ^ ^ / / / / / L E Q {  . . .~ ~ E E E 9 8 8 9 9 8 6 7 9 9 9 Q | X.4.4.5.>.9.<X5X&X;X=Xu + a.x y.y.m y.",
"d.m m n n m n R M d d f d d f g l g z H b H x.H X   @ r 0XbX2X$X8.[ W ! ) o.^ 9 W W E E 9 9 7 8 0 8 8 8 8 8 9 E ~ ' | | ' ~ / / ^ ` `  . . . .+.+.+.@.@.#.#.@.o.#.=.} ^ W ^ ^ E O.$.) P P ( ( ) ^ W W ^ ^ ^ ^  .] =.-.1.,XG.. X ^.uXmXnXmXrX^.Y.l.G x G s.i.i.H u.i.H l.l.C.B.B.B.C.i.l.B.l.S.B.V.U.i.H z.z.l.l.l.Z.U.A././.^.eXiXrXrXgX7X  = F ;.J.%X:X#X5.+.` >.7.5.+.o.o.o.^ E ^ ) ^ ! ! ! ! `  .` ~ ` +.o.^ W ^ ^ ^ ^ ^ ^ ^  .' ' |  . .^ ^ Q E 9 E Z 9 8 9 9 E W / Q E E E 9 9 L E E E /  .+. .o.9.#X:X2X>XO   + x x.g.m y.n c c m z d % d t d d d d d d g j c b n y.y.u.u.y s.CXKXPXdX;X$X$.` ^ +.+. . .' | ' ' ' | | | | Q Q E E E / E 9 9 E E 9 7 9 9 8 0 6 6 8 9 E W W W ^ ^ ^ ^ ^ ^ W ^  . .o. .o. .^  .o.} } } } } ^ ^  .} ) ) ) ) ) [ -.=.H.=X=XG.jXKXSX8XjXhX8X(.U.l.i.l.J J i.J i.G G J i.l.l.i.i.C.Z.i.H H i.Z.C.C.Z.Z.B.U.A.U.U.C.A.Z.Z.U.U.U.9XeXeX8X|.r = u u %.8.J.%X%X7.7.e.5.>.>.>.@...| ' Q E ' >.,...,.4. . .+.+. .{ {  .~ ~ ~ ~ ^ { { { { / / ~ { {  .@.@..... .| ~ ~ ~ E 9 9 9 9 7 8 7 8 9 9 E ~ X...4.5.,...#X4X#X$X$XM.1 i x y.y.y.y.",
"n n n m l m n n v g f g d t d f z l z b z x u.y   + i p.BXaX=X0.O.) ! ! W / ^ E E E E 9 9 9 8 8 9 8 6 6 6 6 9 E Q '  . .| ~ ~ ~ / / ~ ^ ^ ^ ` ` ` `  .+.@.@.$.o.} O.O.) ) } } ) r.r.O.W ( _ _ ) } ^ ^ ^ ^ ^  .+.$.$.-.K.yXF X p uXmXmXDXmXrX X^.V.l.G J i.i.l.u.G l.l.B.S.C.l.B.B.U.i.l.C.B.C.^.l.I.u.H z.l.z.l.z.Z.A.A..X X XeXxXxXeXhXhXs.  1 %.1.K.:X%X7.o.o.#.7.=.o.) O.} W P ( ) ) ( ) ) ! E  .@. .Q ~ ^ ` W ^ ^ ^ ^ W W ^  .~ ~  ... . . ./ E 9 E Z 7 8 7 8 9 E W Q Q E E 9 9 9 L 9 9 E ` ` ` Q $.w.:X;X>X:.O . r u.g.b y.n c n d.n g t d d d d d d d f g v M c b y.u.u.t.r 7XPXKXGXaX$X[.O.! W Q E Q / Q Q Q Q Q ' ' Q Q Q E E E Q ~ ~ E Z E W Z 9 9 W P ( P 9 W W W W W W ^ ` ^ ^ ^ ^ W {  .+.+.+.+. .^ o.o.o.o.o.^ ^ ^ ^ ` } ) ) ) } O.=.7.0.$X>X-Xp.SXKXgXuXnXgXU.8XU.l.B.l.i.G G i.i.u.i.G u.i.V.i.G S.B.l.i.i.i.B.l.B.S.B.C..X/.^.|. X X.X/. X^./. XeXgXrXuXP.X u w %.8.H.;X:X8.=.0.9.>.@. . .' ' ' ' Q ~ @.@.X.,.5. .@.4.4.@. .{  .+.+.+.@.@.#.4.4. .| ~ | 2.4.5.q.......X.X.| ~ ~ / E 9 9 9 9 9 9 9 9 Z E Q | ..4.5.,. .'.#Xw.$X{.{.&.+ t.u.x c.l ",
"k c m c g g c c m d f f d d d f m t y.y.x x b   X t.s.0XdX$X$X0.! W E E E E E E E E E L 9 9 8 9 8 0 q 6 6 9 9 9 E Q X.,. .~ ~ ~ ^ / E Q ^ ^ ^ W W ^ W ^ o.o.^ ) ( ( P P ) =.=.) O.[ ) P P _ } ) O.o.O.o.o.$.#.+.$.<.8.{.K..   |.mXMXDXDXmXcXeX X/.Z.B.i.u.l.i.l.i.i.C.U.l.l.B.l.l.U.i.u.C.V.V.C.I.z.u.u.l.l.i.l.i.U.^.^.9XeXeXiXmXmXgXgXZXqX. O :.M.;.H.J.0.! ] o.O.#.O.) ( ) _ 0 _ O.W A ) ) ! Q ` @.+.` ` ^ Q ] o.o.! W ! ^ ^ E ~  .+.@.@. .Q ^ ^ ! E 9 9 0 9 L 9 9 E E E E 9 9 9 9 9 9 9 9 Z E E W W O.0.$X;XL.O     i u.b T y.y.n c g f d % f d d f g g g j n v Y b y.u.p r s.SXPXPXBX{.%X<.) ) W W E E E E E E E Q ~ ' ~ ~  .~ Q ~ ~ / E E W E E L W ) ) [ 0 P W W W ) ) ^ ^ ] o.` ! Q Q ^ ^ +.+. . .` ^ o./ ^ o.o.^ ^ } o.o.^ ^ ) } ) [ =.r.*.H.;XyX:.}.PXJX(.gXxX|.^./.^.B.B.l.l.i.i.i.i.x i.J G i.V.i.G B.l.H H z.z.i.z.C.S.C.U.C.C.^.U./.Y.C.U.(.|. X9XiXxXhXgXhXp o u %.;.H.K.#X0.-.o.7.+.` ^ ` ` ~ E Q ^  .+.+.@.@.@.#.#.@.@.@.@.@.@.>.5.7.7.7.e.e.5.9...2.5.4.4.5.4.,......... .{ ~ ~ E Z 9 9 9 9 7 7 7 9 9 E ~  .@...| X. .w.[.#X[.{.L.= r x y b l ",
"g.b z c m c l c g % d d d g h z c c z y.y.u.@   y t.wXBX;X%Xw.7.^ W W E E E E L E E E L 9 9 8 9 8 8 8 6 6 9 9 9 Q Q  .>...@.@. .o.` ^ ^ ^ ) ^ ! W ! W W ) ) W ) 0 0 0 0 W [ O.) ) ) W W W ) ) ( O.) ] o.O.#.#.] >.<.8.;X&.  i gXMXMXMXMXmXxXpX9X/././.l.i.B.Z.U.B.l.V.C.l.l.l.i.l.U.V.l.l.V.C.I.I.V.u.i.v.z.z.V.l.^.|.|.rXiXiXnXmXZXmXiXZXnXs.  1 :.:.1.8.8._ O.O.o.) W W W _ _ A ) _ ) ( ) ! S Z Q +.9.w.7.$.! ] ] ] ] ) ) ! W ^ ^ } o.#.#.@. .^ ^ ^ W Z 9 9 9 9 9 9 E E E E 9 9 9 9 9 9 9 E E E W W E ) <.[.;X;X:.o . @ a.y.T y.n m k h d d d f f h f g g g c R n Y b u.u.y i 7XPXKXGX{.-.8.=.) ) W W E E E W E Z E Q ~ ~ ~ ~ ~ ~ / ^ ^ / Q E E E E W W W W W ( ( W 9 W ) o.] ] ] ] ! ! ! ^ ^ ` o.` ^ o.] ^ ^ o.o.o.o.) ^ ) ) ] ) ) O.O.[ [ -._ -.8.=XF.u kXKXzX(.9X8XV.Y.U.V.B.B.B.l.i.i.u.G J H G J i.i.J H i.i.H H z.z.l.B.B.B.A.U.A.Y.U.S.Z.Z.B.C.|. X9XuXgXZXzXrXzXuX+ O u :.;.;.8.;.*.[ [ ] ) ! W W ^ ] Z Q ] +.$.+.$.$.>.+.o.#.#.+.o.@.#.@.$.#.$.#.7.@.5.X...4.....5.5...X....... .~ ~ ~ Q E E 9 9 9 9 9 9 9 9 E ~ | X.X.| |  .q.w.#X%X{.L.&.1 i # f z ",
"g.b m d.d.n c c j d h h h f d z l Y z b i.p   + t.s.kXaX$X#X[.o.+. .^ / E E E L E E L 9 8 8 8 8 8 8 8 8 8 8 9 E  .| ..,.@.@.@.` ) ) ! W W W ( ( ( _ _ _ O.[ ( _ ) ) ) ) ) ] O.$.! ! ! ! ) [ O.O.=.O.O.-.=.<.<.] [ <.8.L.. = |.ZXmXDXDXDXmXmXxXiX X|.|.U.B.Z.U.^.I.l.V.C.V.i.i.i.i.V.C.V.l.B.Y.Y.Y.V.u.z.Y.u.z.I.^. X9XeXiXgXgXzXDXDXDXhXnXAXqX  o &.p.M.8.8.-.8.0.0.7.#.$.O.[ ! ) ! ! ! ! Q ! ! ] ] <.0.7.$.] O.<.[ ) ) _ _ [ -._ } O.$.#.$.o.^ ^ ^ ^ W E 9 9 9 9 8 E E E E E 9 9 9 9 9 9 9 L E Z E E Z 9 ) 0.%X;XL.D     p g.b b b z z f t t d g f h f g g z m n Y n b i.x r a.CXKXKXkX1.1.-.] ^ W P 9 9 9 9 Z Z Z E E / / ~ ~ ~ ~ ~ ~ ~ E E ~ E E ^ ^ ) ) ) ) _ ( ( 0 A ( ) ) [ _ ) W W ! ) ) O.O.) ) O.O.) ] ] ) ) ) _ _ ) [ [ ) [ -.*.*.*.-.8.J.;.L.< G.IXKXgXrXrX8X|.9X9X^.I.I.U.Y.Y.Y.V.B.B.i.l.V.B.l.l.i.i.l.l.z.l.z.l.B.A.V.V.A.U.C.U.Y.Y.^.^.|.9X9XeXuXrXxXZXxXuXjXa.. e &.;.;.;.*.*.*.*.*.-.=.=.[ ( 9 9 A ) O.<.=.<.7.=.) ^ $.=.o.) o.) W ) $.O.o.o.] o. .@.@. . . .' @...@.@.@. .~ ~ ~ / E E 9 9 9 7 9 9 9 9 E E ~ | ..X...@.7.7.w.&X%X$XL.1 i y y z ",
"m b d.g.n v m n n M c g g g d c M Y Y y.u.@ X i i wXdXK.$Xw.#X+.7.5.@.~ E E E E L L L 9 8 8 8 8 8 6 6 8 8 6 9 E @...,.,.X. . .^ O.[ _ ( D 0 w w 0 ( _ *.-.*._ ( _ _ _ _ _ ) _ ) [ [ _ ) ) [ O.[ <.*.*.-.1.8.8.-.-.{.K.F   N.jXCXmXZXMXxXxXhXgXuXeX^.U.^.Y.V.l.^.C.S.V.C.V.u.u.l.H V.V.C.V.l.U.^.C.I.i.V. Xi.v.z.Z.Y.|.rXhXhXhXnXZXZXDXmXjXZXCXt.. u &.;.;.*.%.1.0.[.#X#X[.[.0.<.=.<.<.<.<.>.>.<.=.<.0.[.[.H.0.0.J.H.H.J.H.;.*.*._ [ [ O.O.$.O.o.^ ^ ^ W W L 9 9 9 9 W / E E E 9 8 8 8 8 9 9 9 E E Z Z Z 9 A <.[.{.{.F.<   . t.t.b x x z k d t d f h d h f g c n n d.y.u.u.r i 7XPXPXGX=XH.J.7.! W W W 9 0 0 9 9 9 9 9 E E E Q Q Q Q ~ ~ E E E Q / ^ ^ ) ) ) ) } ( ( _ _ _ _ _ _ [ _ _ _ [ _ _ [ *.-.O.[ *.[ _ _ *.[ [ [ [ [ [ _ ( D _ %.%.%.*.*.;.L.M.%.u bXKXLXwXqX9X9XrXrX9X9XuXrX9X8X X|.|.|.9X9XrXuX9XeXeX X^.|..X/./././.^.B.V.C.U.I.B.l.V.C.Y.(. X9XeXrXgXmXuXZXZXhXfXUX+ . u p.p.;.%.%.:.-.8.K.$X$XJ.8.-.*.-.1.0.0.8.7.8.8.-.-.8.8.<.=.=.8.=.<.8.=.-.*._ [ ) W E Z ` #.5.@.+. .@.+. .~ / ~ E E 9 9 9 7 8 7 7 9 9 E E ~ ~ ..X...>.4.@.w.4X<X%XK.%.u s.x x ",
"z y.d.z d l n f.N v v M c c M d.d.n y.c.y   p t.&.kX=X$XJ.J.9.5.9.5.>. .~ ~ Q E E E E 9 9 9 9 9 9 8 7 9 9 8 9 Q X.X.>.,. . .+.o._ ( _ _ _ _ %.%.;.;.;.;.F.F.;.;.-.:.:.;.;.:.*.*.-.*.*.*.-.-.-.*.-.*.-.;.1.F.H.F.F.=XF.. 1 lXjXjXnXnXzXgXhXhXuX9X9XI.V.P.P.v.v.U.C.V.l.l.l.H H i.l.U.V.V.I.l.l.Y.Y.(.v.H V.u.I.a.|.7X9XgXzXnXnXZXZXDXSXFXnXCXCXwX  O u :.F.;.;.F.8.$X:X:X$XJ.H.H.*.F.$X%X$X%X:X;X%X:X1X2X2X1X:X;X>X>X>XaXaX>X>XaX,XK.8.-.*.*.) ) ) ^ ^ ! ^ W W L 9 9 W ^ E E E 9 8 8 8 8 9 9 9 E E 9 9 W 0 0 *.0.[.{.H.F.O   + T u.b x x z g d d f d d d f f c n d.d.g.v.u.r a.BXKXPXbX8.8.8.=.] ^ ^ ^ W W 9 9 7 8 9 9 L E E E E E E Q Q E E Q { +.o.^ ^ ^ ^ ) _ ( _ %.%.%.%.*.%.*.%.*.:.-.*.%.%.*.*.*.*.*.%.%.%.*.*.:.:.;.;.;.;.%.%.%.:.:.:.;.;.;.L.M.O T.AXPXjXqXuXqXrXgXrX9XuX9X9X8X|.R.Y.(.|.Y.^. X X|. X9X|.^. X.X.X X X X X X9X8X|.|.|.Y.U.I.^.|. X8X8X9XgXzXhXhXnXDXfXIXR.  r :.:.:.%.%.%.%.L.;X;XL.;.;.F.1.8.J.{.$X{.K.H.F.H.J.K.K.K.J.F.J.H.H.F.F.H.K.F.H.F.;._ ( _ [ O.O.` ^ / ~ / ~ ~ ~ E E 9 9 9 7 7 8 8 9 9 9 E E E | |  .>.@.o.e.4X&X#XJ.;.u s.P.y.",
"z y.y.c c j.m.h.f.d.N v N n c h.x.d.y.n.@ X t.&.-X,XF.$X$X#X4.@.@.4.4.@. .~ ~ E W W W W E 9 9 9 9 9 9 Z 9 Z E ~ ..>.5.4. .^ o.O.-.*.*.%.%.%.%.%.:.:.&.&.;.;.%.%.%.%.%.&.&.&.%.%.%.%.:.M.F.L.L.F.F.F.F.G.F.G.L.K.T.K.%.. N.jXfXjXZXFXJXFXCXfX7XR.E.P.V.a.s.a.a.V.C.V.i.u.i.i.i.i.l.U.l.l.U.l.i.I.^.Y.V.v.V.i.I.Y.Y.Y.Y.R.R.R.R.(.zXZXnXZXnXCXCXjX@ @ e &.G.;.;.p.F.K.{.K.F.;.M.F.L.=X,X=XK.{.{.J.{.>XaXyX,X=X,X,Xu e 1 e e u p.K.=XF.;.;.8.8.<.-.[ ] ) ) ) ) ^ ^ E E ^ ^ / E E 9 9 9 8 9 9 L E E E 9 0 W A 0 _ =.{.J.H.J.%.o   r t.H b z z z c g g f f f f g m n y.Y u.v.i r 7XHXKXPX>XF.8.=.) ^ ^ ^ ^ ^ W Z 9 7 8 9 9 9 L L E E E E E Q Q ~ { @.+.o.^ ^ ^ ) } [ ;.;.1.;.;.;.;.;.;.;.;.F.M.;.:.:.:.;.M.M.F.F.F.L.K.L.L.F.p.;.:.%.%.&.&.&.&.&.&.:.p.M.O e fXLXJXhXCXSXzXhXhXgXfXgXgXhXjXhXuX8X(.Y.Z.Z.U.^.Y.Y.^.^.U.U.A./.|..X.X X|.U.^.eXuX9X8X9XgXhXhXgXgXgXjXZXDXJXDXDXJXZXAXUX  O 1 u &.:.&.&.:.L.=X=XL.;.;.M.K.K.K.L.L.H.F.;.H.K.=X}.}.}.K.L.L.K.T.K.K.T.K.G.p.p.:.F F ( %.-.-.o.! ^ ~ ~ ~ ~ | ~ ~ E E Z 9 9 8 8 9 9 9 E E E ~ | ~ @.+. .>.#X*X[.[.F.&.p E.u.",
"b g.h.g.x.n.n.m.k.k.f.N f.N c h.h.x.c.y.  + t.a.sXL.F.H.%Xe.4.| X....... .~ E E W W ! W W E E E E E E Z E W Q Q >.>.5.4. . .o.O.%.D w w w 1 1 = O 1 1 1 e e 1 1 1 1 1 + O + + + 1 1 r u &.&.&.&.%.%.&.&.&.U &.&.p.u   + a.7XR.R.R.wXqXwXP.F r + + 1 r + + 1 @   G l.l.u.i.V.l.l.i.V.i.l.V.V.S.V.^.Y.Y.V.i X                 X     X     X + + +       o 1 O O o . o O O O a r u &.p.p.p.M.G.G.F.K.}.=XL.&.1 O O . . . o . . o + O O O < w D [ -.$.O.] ) ) ) ) ^ W E / ^ / / / 9 9 9 9 9 9 L E E 9 9 W ( A A W ] w.8.[.8.L.u . @ y x H c z m n m m c c l g z m d.y.b u.u.r t.jXPXPXBXK.L.8.<.^ W ^ / W E Z 9 7 7 7 9 9 9 L E E ~ E E / {  .{  .+.` ^ / ^ } O.} [ %.%.:.%.%.%.%.%.&.&.&.:.:.&.:.:.p.M.p.p.G.p.p.p.G.G.p.&.e < O O O o O O + + a a O o O 7XkXfXu.+ # + @           ; p u.a.v.a.t.G i.B.A.U.Y.Y.Y.^./.U.A.U.^././..X^.I.|.8XZ.p # + # ; ; ; r y y G (.I.I.(.8XgXfX7X@ @ O + 1 1 O o e u u &.&.&.F F F %.%.%.M.L.L.p.p.p.p.p.p.:.&.&.&.&.:.&.%.F u 1 + + .   . O e ;.;.-.o.o.+.+.X..... . .~ Q W Z Z 9 9 9 9 E E E E | | ~ @.o.^ ^ 9.+X'.#XK.G.r a.v.",
"x.b.n.b.x.m.m.m.f.m.h.d.h.d.c h.d.x.~.#   r t.-XsX,XH.J.w.@.@.4.X.X.X.| ~ E E E E W W W E E L Z E W E 9 9 Q / Q @...>.>.$.O.=.*.w F &.p.G.E.T.T.7XlXfXkXkXfXsXfXrXfXfX8X7X7X7X7XR.P.P.v.a.s.s.s.&.&.&.s.s.t.s.t.t.r   s.G.P.R.G.P.G.G.E.}.,X,X,X-X-X0X0X0X7XG.t.X G V.i.i.V.V.V.l.B.l.l.l.Z.U.l.U.(.(.G X ; F i p p i i i t.t.i p r ;           1 1 u i a.G.E.E.P.P.E.R.7XwXqXfXfXfXkXBXSXCXjXfXjXsX-XR.T.E.P.P.R.R.OX7X7X7X7X7XwX7X-XM.w < q -.-.[ ) ) ) ^ ^ W ^ E / ^ ^ ^ / L 9 9 9 9 9 9 L E 9 0 W ( 0 0 A ! <.0.[.[.K.L.O . + x u.y.b Y n m n n m m c c n d.g.y.x.u.; G.GXPXGX>XK.H.=.W ^ ! ^ ^ W E 9 9 9 Z 7 9 E E E E Q ~ E W ^  .+. .{  . .^ ^ ) } } ( q ;.G.L.T.T.T.T.E.E.E.T.R.-X-X7XqXsXsX0X7X-XE.G.a.s.s.s.s.t.s.s.a.a.a.P.P.E.E.E.E.a.. a.wXR.r + r ;     @ @ + + ; X X             + G l.i.B.Y.U.B.^.A.C.A.Y.C.A..XZ.|.8Xi.@ @ ; +         @ X   X       X   o +     + &.P.wXsXsXkXqX0X-XT.E.E.R.-X-XsXkXbXCXSXkX7X-XR.E.E.E.G.p.s.&.i i &.&.s.N.P.I.(.R.P.s.1 o < ;.-.O.$.#.>.@.,.4..... .~ Q W Z 9 9 9 9 E E E E ~ ~ E @.@...| 5.q.'.w.$XK.&.t.E.",
"OX~.n.n.n.b.b.n.~.n.m.j.d.m n d.x.I.D.X   + p.,X=X{.J.w.e.7.4.4.4.,.X.| | ~ ~ E ^ / E 9 9 E E 9 9 9 9 E ~ ~ Q E  .~  .#.=.-.:.%.T.sXCXSXPXPXKXKXKXLXLXLXLXLXLXLXLXLXLXLXLXJXJXJXJXJXJXHXFXDXZXZXCXAXCXZXAXZXUXAX7X; r -XSXPXPXPXPXPXPXPXGXPXPXGXGXGXGXGXPXPXT.s.p s.R.Y.i.l.l.B.B.Z.V.B.i.l.9XU.Y.(.v.@ p }.bXBXkXkXkXkXkXkXkXkXyX0X-XN.p + r t.a.G.T.0XCXCXHXJXPXLXLXKXKXLXLXLXKXKXLXLXKXKXLXJXJXLXLXJXJXDXDXDXJXFXJXLXKXKXKXKXKXLXLXjX&.1 . e F.8.-.W ^ o. .^ +.L L ~ Q ~  .E L 9 8 6 8 7 9 9 0 0 0 0 9 9 Z S ) <.J.[.H.K.;.O   r x y.g.R m m m l k k z b d.d.y.c.v.r p 0XPXPXNX1XJ.7.$.) ^ ] ^ ! Q Z 9 9 Z W 9 9 9 E E E E / W ^  . .{ ~ |  .o.o.O._ %.:.< &.qXjXAXPXLXKXKXKXLXKXLXJXHXHXJXKXKXLXLXJXFXDXDXDXZXDXDXZXZXCXZXZXAXAXDXSXZXCXAXjXr ; }.kXsXkXkXkXkXsX0XsXsXsXsXsX0XG.P.R.G.E.G.u   ; Y.i.V.U.v.H l.l.B.Y.I.V./.(.^.(.Y.# + R.fXfX0XsX0X0X0X0X0X=XG.G.p.1 .   . O u E.s.qXPXKXLXKXLXKXKXKXKXKXKXKXLXKXKXLXKXKXJXFXHXZXHXLXHXHXFXJXZXSXDXHXJXJXJXLXLXLXLX7Xt.t.O O J.J.$.$.4.X.....4.2.X.| ~ / E 9 9 7 7 9 9 9 E Q ' ' Q ' 4.5.5.6.q.q.#X$X;XK.;.G.",
"8X_.n.c.j.x.~.n.Q.b.j.d.Y n y.g.c.g.y     1 p.}.K.J.0.9.5.@.@.,.X.X.X.| ~ ~ E E E E L 9 9 E E L / E E E Q Q L 8 4.Q o.=.*.%.%.G.jXKXHXKXKXZXgXtXrXrXtX8XOX).).(.).).).OX8X8X8X8X8XOXOXrXzXDXJXLXKXLXLXLXLXLXKXHX;   s.CXPXPX0X;X,X=X=X=XK.$X=X$X$X=X>X>XaX>XM.O &.a.qX|.Z.Z.l.U.B.Z.A.U.U.A. X^.(.(.;   p.BXIXSXIXIXIXBXBXVXVXVXBXBXGXIXBXfXsXfXT.u -XjXAXKXLXHXJXHXHXLXJXZXrXY.R.(.(.).8X8X8X8XgXxXzXzXzXZXZXDXJXJXJXJXJXJXJXDX9X(.(.V.r     1 T.;XJ.} W W ~ { L 8 ~  .Q E / E L 8 6 6 6 8 9 9 0 0 0 0 9 9 Z 9 A [ 0.J.J.J.H.:.. . y T y.j.R m m l z x c H d.d.c.g.u.y t.SXPXGX1X%Xw.7.#.o.) ] ` ! W Z 9 9 9 9 9 9 9 Z E 9 E W W ^  . .| | X.@.o.} O.%.;.1 u R.nXHXuXR.I.I.R.(.I.I.Y.Y.(.(.OX).(.).).OX8XtXtXiXZXZXZXZXZXZXZXZXZXxXhXlXgXgXgXs.  ; lXHXIXGXSXGXGXGXSXBXSXIXSXBXBXsXkXkXsXkXsXT.O r Y.V.v.v.I.l.V.l.l.V.U.Y./.U.(.8Xu.  a.fXPXIXIXSXBXVXVXBXdX>XK.=X=XH.;.%.%.%.K.}.p.T.HXKXDXDXJXFXJXJXLXLXLXJXKXJXzX8X(.(.8XtX8XrXZXJXJXLXJXJXJXJXJXLXLXLXJXDXZXuX8XP.  + e F =X$XJ.>.@.@...4.,.4...X.~ Q E Z 9 7 7 7 9 9 E W ~ | | ..5.5.3.3.6.q.*X&X:X;XL.;.",
"(.(.n.x.Y j.~.x.b.f.n n n Y y.y.g.x       r M.F.F.0.8.#. . . .X.~ ' | ' ~ E E E E E L L L E / W E E / +.5.9.9.9.+Xe.=._ -.:.G.sXKXDXR.v.I.I.v.I.I._.OX8XOX(.~.I.I.I.I.I.I.I.I.I.I.I.I.I.I.(.(.(.(.I.(.8X8XrXrXp X   a.SXGXK.F.-.-.*.-.;.-.*.*.*.-.8.H.H.F.F.$Xe u s.7X8X^.C.l./.C.A.Y.|. X|.|.|.9Xa.  i 0XsXT.L.F.F.;.;.L.>XdXBXBXBXBXBXBXBXBXBX,Xo G.sXkXCXjX9XfXOXV.a.u.t.x x x b u.y.x.x.x.c.g.x.x.h.x.c.n.D.c.c.v.v.n.I.n.u.b x x t.x   . O F.>XK.-.} o.9.e.9.7.q.q.@.Q E L L 9 6 6 8 7 7 8 0 0 0 9 9 9 9 9 9 ) 8.J.[.J.J.J.u   + x y.g.Y n n c n y.y.g.h.j.b.x.y r R.PXPXVX;X#X0.7.O.] ^ ! ^ ! E Z 9 9 9 9 9 9 9 E E E E / E Q `  . . ...2.+.} _ :.:.O p.jXDXqXx r x x p y x b T u.D.).OX_.OX).).).).).OXtXtXtXtXtXtXtXtXtXtX~.(.8XrXhXqXX X + sXaX&.F.H.%.%.;.;.:.:.;.M.M.M.;.M.F.H.=X=XL.e r V.Y.V.i.^.V.l.V.V.V.Y.^.Y.(.(.(.+ X }.bXBX0X=XK.F.K.=X;X2X2X2XdXdXdXdXdXaX2XaX=XM.&.7XUXrXgXrXOXI.n.n.v.v.I.u.u.x.g.d.g.g.y.c.x.v.c.g.g.y.y.(.(.(.(.8XtXtXOXtXI.y.v.@   1 &.}.=X%X<.^ >.+.5...4.2. .~ Q E W Z 7 7 7 9 9 9 E S ~ | ,.5.3.,.3.4.q.&X3X1X:X=X1.",
"g.I.v.c.g.y.x.d.d.K n n Y y.y.b b y X   o &.L.F.H.J.0.#. . . . .' | ` ~ E E L L E L L L L E E E Q ~ ^ +.#.5.7.9.w.#X7.*.;.;.,XPXDXY.P.n.(.(.I.D.D.D.D.b.c.x.x.x.g.u.y.y.u.y.u.y.u.c.n.D.D.I.I.I.I.v.I.8X9XfXI.  X &.0XIX,X8.$X8.8.=.;.8.<.<.<.<.<.0.J.J.0.J.2XF.= t.s.8X|.Z.Z.^.^.^. X|.eX|.^. X(.@   G.BXK.;.L.K.F.;.F.$X1XaX2X2X2X2X2X>XaXdXaXdXw O G.-XR.qXrXrX(.I.D.n.i.u.i.x.u.y.g.n.n.g.g.c.g.y.Y y.g.g.Y b b y.g.x.n.v.y.z b y.u.s.+   . %.;X$X8.=.o.7.4.e.5.9.q.4.| ~ E L 9 6 6 8 9 8 6 9 9 9 9 9 9 9 9 S ! =.0.J.0.8.H.G.1   r u.Y d.j.n n y.g.g.c.b.h.g.v.# i jXPXPX1X%X#Xe.o.^ ^ ! W ! S 9 9 9 Z 9 9 9 9 9 E E E Q / E ~ `  . . .@.#.$.O.%.:.1 u wXHXzXx i t.u.t.x b T b z z y.D.~.n.~.~.D.n.n.n.Q.~._._.).).OX).).).).~.OXtXrXhXE.    T.sX;.%.*.;._ *.*.-.-.*.%.;.F.1.F.H.F.J.$X$X=X&.r t.E.Y.l.I.C.v.C.Y.U.Y.Y.I.|.Y.t.  F sXbX=XK.K.K.K.;X2X3XNXNXvXNXvXdXvXdX2X1X1X{.K.&.i R.8XrX8X(.I.I.I.v.g.g.I.n.D.n.g.h.n.h.h.g.y.y.x.x.d.g.D.~._._._.).tXtX_.~.g.n.V.X   1 L.=X$X7.o.7.>.@...2.2. .~ Q E E Z 9 7 9 9 9 9 E Z Q ~ | ..X.X.,.X.>.e.&X:X[.K.1.",
"t.P.t.t.v.y.m n n n n m m y.y.y.z * @ X 1 p.F.8.0.0.7.$.o.@.+.~  .^ W E E 9 9 9 9 9 9 9 9 9 E E Q ~  .^ / / ^  .o.=.=.8.:.p.BXKXrXx.I.I.I.I.n.n.c.h.Y m m z z z x x x b b x x x y.b x b u.v.v.n.I.I.n.I.(.Y.@ X t.wXIXsXF.K.8.8.0.7.=.=.=.7.0.9.7.w.#X:X%X:X:X$Xe u r Y.9XI.U.^.^..XeX9XuX9X8X9Xs.  r 0XdXF.8.J.H.1.-.8.[.;X;X%X$X#X%X%X[.%X1X%X>XF.. 1 T.a.I.8XrX(.v.v.n.c.g.u.n.c.g.h.n.b.d.d.Y b z k z m z l b z b u.g.x.g.y.u.u.u.u.u.x o   1 T.>X$X7.) ^ Q { ~ ~ X.X.| ~ E L 9 6 6 8 8 8 6 7 7 7 7 9 Z Z Z ! W ! -.8.8.8.H.K.p.. @ x T x.h.d.y.d.g.g.c.c.x.g.b # E.PXPXVX$XJ.0.$.W W ! ! W S Z 9 9 9 Z 9 7 9 9 E E E W Q / `  .+.+. . .+.#.=.} ;.w o E.SXHX(.y u.u.k b y.y.y.g.g.d.f.n.Q.m.h.j.h.h.k.m.m.b.m.n.Q.~._._._.~._.~._.(.(.7X+ X G.kX,X:.;.;.;.8.8.=.-.=.<.8.8.8.8.[.$X%X:X#X0.H.L.u r s.(.I.v./.Y.I.U.U.Y.Y.Y.(.E.@ @ G.BX;X$X%X#X#XJ.#X&X4X4X*X&X<X&X%X&X%X[.0.J.8.H.L.e N.7X8X).~.I._._.I.Z.I.c.x.n.n.b.n.n.m.n.b.h.b.n.d.n R h.~.).).).).).).~.~.b.c.(.y   . &.T.=XJ.=.=.7.@.2.4.4... .~ Q Z S Z 9 9 9 9 9 Z E ~ ~ ' X.| | ..4.>. .'.:X{.H.1.",
"s.a.y # u.y.l n b n m g z b y.y.y   X o &.;.;.8.<.<.#.` ` +.` E ^ W 9 9 9 9 9 9 8 8 9 9 E E W ^ E ~  .o. . .o.#.r.=.=.;.%.yXKXUXI.(.x.n.n.n.x.d.m v m n Y n z d f f f z x x z z b b b y.u.x.n.I.~._.~.(.Y.u.  a.kXGXSXH.$XJ.<.0.w.0.w.w.w.#X*X#X*X&X<X3X1X1X[.$XM.= i t.8X(.I./.|.9XiXiXgXgXgX8X    s.jX>XL.0.0.J.0.=.*.*.-.=.7.<.>.7.<.<.w.%X#X%X:X%.O P.E.u.I.(.I.n.n.I.n.c.c.b.n.n.h.h.d.m c y.g.g.b l f l z x y k b H b b b u.u.y.u.i.v.r   . p.>X>XJ.#.o.+. . .@.5.,.| E E 9 8 6 6 6 6 8 8 8 6 6 6 9 Z W ! ! ! ) [ 7.0.0.8.L.=Xu   r y.c.y.h.g.h.c.c.c.b.c.i.# i jXKXGX>XK.0.<.) ! ! ^ W 9 S Z 9 9 9 9 7 6 8 9 9 9 9 E W E ` o.@.+. . .o.$.=._ ;.= e kXKXzXu.t.p y b b u.c n h.n.Q.Q.~.Q.m.b.m.m.k.k.k.k.k.m.n.Q.~._.).)._.).).).OX8XR.X t.kXkX;.H.H.=._ 0.=.8.0.0.w.[.[.w.J.%X&X1X3X#X0.J.}.&.r t.Y.Y.v./.(.(.^.|.(.(.9X7Xp   r sXaX-.0.0.w.w.e.e.q.q.+Xq.9.q.9.9.w.'.0.0.7.-.8.K.u u P.E.tX).~.~.I.n.n.~.c.h.m.m.k.m.m.m.b.m.k.b.f.v k.Q.f.m.n.~._.).)._.~.n.b.c.x.u.+   1 G.=X=X8.} 7.+.4.4.4.@. .` ~ E S Z 9 9 9 9 9 Z 9 E ~ ' ..X.X.,.4.9.>.9.&X%XH.1.",
"s.t.i @ r b l b y.y.b z x y.y.x +     1 s.;.;.8.=.#.o.^ / ~ / E E E 9 9 9 9 8 8 8 8 9 E E E W ^ ~ `  .o.} ) } O.0.8.;.w G.HXKX(.I.).y.b.~.n.n.d.j.n M f f h f f f t t d f f t t f z y.y.H b y.c.g.g.v.~.v.# r -XkXPX;X1.H.[.8.$.0.0.[.#X#X*X&X<X<X&X<X<X%X#X0.J.L.e u u E.8X(.^.9XeXhXhXhXxXhXi.  + -XkXK.8.1.0.8.r.=.=.$.) ) ) Q ` >.>.7.e.w.[.#X%XJ.O 1 s.u.n.I.I.n.x.y.n g.b.m.n.n.h.f.N j d g z z t % t t t f t f z z z b b b Y Y u.g.i.i . . u =X;XJ.7.) o. .X.,.5.5.X.Q Q 9 9 8 6 6 6 8 9 9 7 8 6 7 9 W W ! W ) $.=.0.0.<.H.;XM.o @ x u.u.c.c.b.n.n.n.n.c.x r R.PXGXdXF.J.8.-.) ^ ^ ! E Z S S 9 9 9 8 6 6 8 9 9 9 9 E W E ~ `  . .^ ^ } O.-.-.u = E.IXLX(.T u.y b x f H H h.b.Q.~.`.Q.k.V k.k.f.f.k.k.m.k.k.k.m.Q.~._._._.).OX).8X8Xx   W.BX=X$X2XJ.8.=.) w.%X&X%X#X%X&X%X&X<X&X*X*Xw.7.0.F.p.u i a.Y.(.(. X9X9XrX9X9XuXI.  @ G.BX$X-.0.7.7.w.w.q.q.5.6.6.6.q.6.,.5.9.9.7.7.=.0.J.M.1 &.a.I.Z.n.Z.n.x.d.K d.m.Q.Q.Q.!.k.k.k.k.k.b.R v m.m.n.k.R k.m.Q.m.m.Q.m.n.b.y.i.x   . u K.=X8.*.=.o.@.4.4.@. .' ~ Q Z 9 9 9 9 7 7 9 9 9 E ~  . .X...| @.>.>.9.[.0.<.",
"s.&.s.1 @ x x y.x.c.g.y.u.g.u.i   @ o &.p.8.;.-.=.#.o.^ Q E E W L E E 9 8 8 8 8 8 8 9 9 9 9 9 E ~ ~ ^ ^ } ) ) ) *.1.;.e qXLXgXD.).b.h.h.m.N m.h.v c g d d - - - t t % t t t t t t t f l z x b m H g b c.x   N.0XGXBX=XH.J.#.=.7.>.o.$.>.$.>.w.*X#X'.&X*X#X9.9.<.H.%.O i s.rX9X|.rXiXhXzXhXhXuX@   U jXsXL.8.8.7.7.$.) ) ) ) o.O.$.>.#.$.#.5.e.'.#X[.2X:.. 1 t.x u.x.c.c.h.h.j.f.n.Q.n.h.m.m.n d c z t % : f t % y t f y t f z f b g.y.g.x.u.v.y     ;.H.8.0.) ^ ` ` ' ..4.X.Q E 9 9 9 8 6 8 9 E E 9 9 8 6 7 9 Z ! 9 A ! A =.0.8.8.F.L.=   p T D.v.b.n.I.n.n.n.x.r t.BXKXSXK.8.8.<.] W ! W Z E ! 7 9 9 9 9 8 8 8 8 9 9 9 9 E Q E ~ `  . .^ ) O.-.;.F.O e qXLXAXu.u.y y x t y.h.d.b.m.m.Q.Q.Q.!.K k.k.f.B B f.f.k.k.k.k.m.Q.`.`.`.~.)._._.(.@ O T.aX>XaXJ.#X7.O.7.o.$.7.9.q.w.+X#X&X<X*Xw.w.e.e.0.;.F.u r p V.gXrXrXiXeXgXgXgXuXp   r kX>X-.*.J.0.9.9.5.q.q.6.q.].6.6.6.3.5.q.e.w.7.$.8.H.>Xu 1 &.v.g.u.y.H n c g n m.Q.Q.!.k.V k.Q.Q.k.k.B B n.B k.B B k.!.m.m.k.m.f.n.d.g.b v.+   O p.K.F.8.*.O. .@.>.@.' Q Q ~ Z 9 9 9 7 7 8 9 E E 9 L ~ ~ ~ | >.Q  .` $.[.w.7.",
":.u p.&.+ y u.g.v.c.c.x.c.u.u.@   . u ;.;.-.-.=.=.$.$. .^ E E 9 Z 9 9 9 9 9 8 8 0 9 9 9 9 E W ! ` / ] ) W =.[ -.-.:.= W.SXKXI.~.Q.m.N m.Q.m.k.h.j c v M d % - t t t d f f d t t t t t f z m y.j.g.y.n.i.i   u sXGXbXaX1Xw.<.7.7.7.+.^ Q ~ ` `  .>.+.7.7.+.>.7.7.8.K.O 1 i (.hX9XuXuXnXmXuXhXY.  . }.BXT.8.;._ 7.7.) } =.O.) ) ) o.=.=.o.^ o.7.7.e.#X:X{.1 a r x u.x.g.h.c.d.f.f.k.n.b.N N k.B % t % $ - t - - t t t t t d f f f g c d.g.c.x.u.u.X   1 ;.H.{.) o.^  . . ...>...~ E 9 8 8 8 9 W ! ^ Z 7 8 8 8 9 9 9 W W A ! O.<.<.0.1.F.w . + t.v.c.n.~.v.c.D.I.p r 7XKXPX>XF.;.8._ ! W W W W W Z 7 7 9 9 0 9 7 9 9 9 9 9 E Q / ~ Q ` ` ^ ^ } -.-.M.%.. E.jXFX8Xy.x k x Y y.y.K d.B k.!.!.!.Q.Q.k.B f.k.f.B B B K k.f.f.k.m.Q.Q.~._.)._._.G X . 0X>XdXNX:X7.7.o.$.o.^ ^ @.#.+. .X. .5.'.q.7.5.+.7.8.;.F.e i t.rXeX8XgXrXuXuXfXY.    T.kXF.8.7.9.e.5.5.4.q.6.6.6.6.6.6.6.3.4.4.5.@.$.7.8.J.,XF.a i u.g.x.c.g.n m d.f.n.Q.!.Q.k.!.Q.Q.Q.Q.Q.V v !.B !.B B k.k.k.k.!.h.h.c.g.y.H y.u.  . e L.K.8.[ $.$. .` +. .~ E E E 9 9 9 9 9 8 8 9 L L W ^ E E ~ ~ ~  .` Q 7.#X0.",
"F.:.F.p.r r x g.c.x.y.g.x.v.x X . + u :.;.-.=.=.o.o.o.` / E Z 9 9 9 9 9 9 9 8 8 8 9 9 9 9 E W !  . .^ ) O.=._ -.;.1 e sXKXzXn._.b.n.k.m.b.f.f.N n N N m f - - - t t t d d d t t t t t t t f c n H g.v.v.@   &.BXBXdX2X$X7.#.5.#.#.] ! ^ ` ` ` ` ` +.>.#.>.7.7.7.8.8.%.O u V.gXuX9XiXnXhXgXfX+   i BXdXF.H.-.-.$.r.) ) O.} ) ^ ^ 9 P P P L / ) o.7.#X#XJ.;.o 1 i t.u.y.j.j.K f.k.k.m.k.f.R f.v d t % $ - t - - t - t t t t t t d h g c Y g.g.u.u.+ . O %.K.H.8.=.o.o.+.+.>.5...Q 9 9 8 8 8 9 9 W ! Z 7 8 8 8 7 9 9 E W A W ) ] O.7.8.-.1.. + p P.v.g.n.I.v.I.i.r a.SXKXaXF.F.8.-.) ! W W W W Z 9 9 9 9 9 7 8 8 8 9 9 9 9 Z E Q E ~  .+.o.} } *.;.;.1 u fXAXZXv.u.x z b b n n m N v B k.!.!.!.!.K B N N B B K f.f.f.k.k.m.Q.Q.Q.~._._.8X).i   u >X>XdX3X[.o.o.$.o.} o.o.$.@.+.X.@.4.>.5.5.q.w.7.7.8.1.K.&.r i R.gXuXuXuXgXfXuXp   r kX>X;.<.=.7.9.9.5.4.6.6.3.3.3.6.6.3...X...2.@.o.7.8.8.=XT.u 1 t.z.n.c.c.d.N N m.Q.Q.!.Q.!.Q.!.Q.`.!.Q.f.h k._.!.f.V B B V V B n d.j.j.d.y.u.u.;   O :.F.8.-.[ O.o. .+. .` ~ ~ E E 9 9 9 9 8 9 9 9 9 E / E 9 ~ ~ ~ ` ` Q >.w.9.",
"1.:.M.p.&.p x x.Y.(.I.I.I.P.r   . u ;.;.*.-.=.$.^  . .` Q E Z 9 9 9 9 9 9 9 9 8 8 0 9 L E E W W / o.W W -.%.*.;.w O G.AXKX(.~.~.f.n.m.f.f.N N v M c c g d - - t - t t t t d t t t t d t d g m d.c.c.c.i.    G.BXaX2X%X7.o.@.>.+.o.] ^ ` o.o.o. .^ #.o.] 7.7.7.e.e.=.F.O O i 7XhX9XrXhXuXjX|.    T.GX=X;.J.[ ) ) ) ) P P ) W 9 9 ( P P ( ) ) ) ^ o.0.0.0.H.< = &.t.u.H y.d.n d.m.m.k.k.f.f.v j C t - % - - - - t t t d f d d d d f d f c y.g.g.y.y X   e F.8.8.*.) ) ^  .@.4.X.Q 9 8 8 9 9 9 9 E W 9 9 8 8 8 8 9 9 9 W W A A W ) =.<.-.1.o o r u.I.c.D.~.I.I.x p sXPXIXL.;.-.[ ) ) ^ W W W W 9 9 9 9 0 7 8 8 8 8 9 9 9 9 E E E E ^ ^ o.O.[ ( *.;.%.o P.CXLX7Xx b z z c m m m n d.f.v v f.!.!.k.V N N N B B B B B B R k.m.m.n.Q.Q.Q._.).(.    F.>X:X3X&X<.E E o.^ ^ O.#.$.+. .@.@.4.>.5.4.7.e.7.7.O.-.J.G.u F v.nXgXuXgXgXfXR.    T.BXp.;.8.#.5.9.5.5.4.6.6.3.6.6.3.6.6...| @.4.@.#.7.7.8.$X=X:.u p u.c.g.g.h.K c j m.k.K V !.!.!.f.m.f.Q.`.j h k.k.B v V v j j v j c H d.K H n H x     e ;.;.1._ =.<.>.@. . . .~ E E 9 9 9 9 8 8 9 L 9 E / E 9 E E / ~  .Q  .9.7.",
"<.-.;.;.p.t.t.i.I.(.8X8X(.V.@   . &.L.8.*.O.o. .^  .+. ./ E 9 9 9 9 9 9 9 9 9 9 9 0 E W E E E E E ^ W W _ ( ;.:.o u fXLXZXn.).m.m.Q.m.N N n N c C d d d - % - - % % - t t t t t t t d f g c y.g.n.v.n.# o O 0XkX2X:Xw.o.` >.4.@.@.o.] o.o.o. . .#.o.Q o.#.#.7.e.e.7.H.%.. a a.fX9X9XzXgXuX;   i jXSXF.=X{.-.W O.) } ( P _ W 9 W _ P P ( ) ) W / o.$.7.0.H.1.O u t.i.H y.j.n d.f.n.b.m.m.k.N v g t t - - - - - t t t d f h d d h f f f c y.g.g.y.x X   o &.F.;._ ) ^ E E ~  .` ~ 9 7 8 8 9 9 9 9 E 9 9 8 6 8 8 9 0 9 0 W W 9 W ) -.-.-.1.e o r i D.I._._.Y.v.i G.GXPXaXF.8._ 0 W ^ W W W W E 9 8 7 7 8 8 6 8 9 0 9 9 9 E E Q / / ^ ^ ] ) ( _ :.;.e r wXAXZXx b f z c m m m c n K k.j j K m.k.B M N N n v B B B v B B B N B k.n.Q.~.~.(.p   o }.>X1X3Xw.` E E ^ 9 E o.#.o.o.+.@.....4.5.4.@.5.7.7.#.<.H.L.&.u i qXqXrXrXuXlXp   r jX0X%.J.J.7.5.9.5.6.5.6.6.6.6.6.3.6.6.....5.9.4.4.5.7.0.$X$XF.:.y u.x.g.c.b.j.n N Q.m.f.V k.k.k.!.m.v B k.v h M B V B B B B v N n K d.f.f.d.g.g.u.+   O &.;.;._ O.<.7.@.+.@... .~ E E E 9 9 8 9 L E E E / E L ~ E / ^  .~ ^ 5.5.",
"8.0.1.;.G.G.a.a.(.7X8X9X(.t.  . O ;.K.8.*.) ) { {  . . .~ E Z Z 9 9 9 9 9 9 7 7 9 9 9 9 Z Z 9 E W E ) _ %.%.F.e O G.AXKXrX~._.n.Q.n.d.R f.n v g d d d t % $ $ % % % % % % t t t h d d f z n y.y.y.v.u.    &.dXaX2X%X7.^ +.5.>.+.#.o.` ^ ^ ^ ^ ^ #.^ / o.` 7.#Xw.e.7.8.8.= o p |.iX9XzXfX|.  @ G.IX>XL.>XJ.O.W o.^ O.) W ( W 9 ^ W 9 0 ( ( P L W #.O.7.8.8.K.w O t.u.x b y.n d.f.k.m.m.f.f.f.v g - t t - % % % - $ % - t d d d d f f z m d.d.d.d.y.y X   e L.F.;.*.} W W E Q Q ~ E 9 8 8 8 8 9 9 L 9 9 8 8 8 8 8 8 8 0 W W A W _ <.8.-.J.%.O + G x.I.).(.(.T t.kXPXVX$X;.-._ ( W W W E E L 9 9 7 8 8 6 6 6 6 8 0 9 9 9 E W W / / ^ o.O._ _ *.;.:.a E.CXHXI.k b l n m m v c j j v h h M B B j s h d g M M v B B v N N N N f.m.n.~.~._.v.  O &.$X2X1X*X#.` o.^ ^ 8 9 ^ o.o. .@...| ..X.X.@.>.q.w.>.>.0.0.H.M.F t.|.jXhXfXjXR.X   T.BX;.8.;Xw.9.5.6.5.5.3.6.6.3.6.3.3.6.5.X...5.9.2...7.7.7.0.$XK.;.i t.y.u.c.c.d.N Q.~.f.f.f.k.f.B f.N j C s C M B v v v B B B B N f.f.k.k.k.k.h.h.g.x X . u ;.%._ W O.#.$.+.@.@. .| ~ E E E 9 0 9 L / E E ^ / E ^ ^ ^ ^ @. .` 5.7.",
"w.[.8.1.G.T.E.v.8X8X(.(.v.#     u F.J.;.O.) ^ +.~ { { ~ / W E E Z Z 9 9 9 7 7 7 8 8 8 9 9 Z E E ^ 9 ( %.*.;.:.. u sXLXDXI._.Q.m.h.f.M n j.n M d d d t % % % $ $ % $ $ % % t d d g g g c H g.h.h.x.V.@ X o 0XaX2X2X[.O.] @.#.+. .@. ./ E E E E W / W ^  .W w.3X+Xq.9.7.H.%.o + s.fXhXnXfXa.  + qXBXF.:X$X<.! ^ Q W / E L 9 8 8 E E S W ) ) W ) ) ) O.O.7.H.8.J.= F u.x k x b j.h.f.m.k.N v n j % % t t % $ $ % % $ $ % % % t d d t f z m Y d.f.d.y.i.@   O M.;XK.*.[ [ ] ` ^ ` $.^ E 8 8 8 8 8 9 9 9 9 8 6 6 6 6 6 8 0 0 W W W W 8.8.0.$XJ.O o t.v.(.8X(.R.i E.PXGXaXH.=.*.( _ ! W E E L 9 9 9 7 8 q 8 6 6 6 6 8 9 9 9 E W W / ^ ^ O.$.} _ :.:.&.u sXJXjXy z k z m v v v c j j j h h C h j C s h % d h h j v N v B N f.f.h.b.n.~.n.I.#   = =XH.2X&X9.Q ` o.o.) 6 8 W ^ ! ^  . .~  .| '  .>.q.'.#. .e.8.8.M.&.a.|.nXgXgXjXF   + kX,XD $X%X7.9.q.6.3.3.3.3.3.3.3.X.3.3.3.X...5.4.X.4.5.+.>.0.J.K.F.t.x b u.c.x.d.j.Q.Q.B f.K B V B j s h j s s j j M j M v v v N f.N f.k.m.m.m.m.m.x.u.@   O :.%.*._ $.=.#.@.>.@.| { ~ E E 9 9 8 9 L E E E / / E / ^  .` @.@.+.5.7.",
"0.[.0.1.F.T.7XR.Y.(.x.i.r X   O p.L.F.*.-.o.^ @.| { ~ ~ Q W E E W Z 9 9 8 7 7 7 8 8 8 9 9 W W W W W _ *.;.:.1 o E.AXLXrXn._.n.R M l t g n c g d % % $ $ % - % $ $ & & % % - d d g g g m d.h.n.n.I.t.  @ a.dX>X2X:X7.) o.o.`  .`  .~ E E 9 9 Z E 9 E E ` E 7.<X+Xq.9.7.8.F.1 . r P.nXZXuX+   t.SXaX{.1X[.$.Q >.` +./ W ^ W 9 E W 7 Z S Z W W ^ W E o.! =.8.-.$X%.r t.x x k b g.h.b.n.m.R N N c % $ - - $ & $ $ $ & $ % % % % C d t y k c n n N Y Y v.r X . u =X=X;.*.[ [ ] ` ` #.] W 9 8 8 8 9 9 9 9 9 8 6 6 6 6 6 8 8 0 0 W W A <.0.[.J.;X3 . i v.(.8XOXg.s.kXPXBX{.8.8.*.( W ^ W E E 9 9 8 8 8 8 8 8 6 6 6 6 8 9 8 9 E W W / ^ ^ o.O.[ _ *.:.&.R.CXDXv.x f k c v v v v n v c M v j % & f g h g d h h C h v N v N N d.f.h.m.b.b.g.y X   p.K.$X:X#X+.^ ` ^ O._ 6 8 9 E Z E ~ ~ ~ ~ |  .X.' 5.w.>. .>.7.-.:.&.F i.|.7X9X7X. . G.BXF.H.:X[.>.5.].6.3.3.X.3.3.3.3.,.,.,.,.X.X.....X.4.4. .>.e.e.0.F.s.u.T u.c.b.b.n.~.`.Q.k.K j M V v h h h h d h j v M M v v v N k.k.k.!.Q.Q.Q.Q.Q.n.x.x X   u p.;.-.=.=.#.@.@...| ~ ~ E 9 9 8 8 8 L Q E L E E 9 E W ` ^  .@.+.4.7.",
"w.#X[.H.1.L.7X7XR.9XP.v.@     e L.J.1.*.<.$.^ .... .~ ~ W W E Z W Z 9 7 8 6 8 8 0 9 7 9 Z W W W L O.*.-.;.%.o r fXKXJX(.~.n.k.f.g c d d g h h t : % $ $ % % % $ & & $ & % - d h g g g g c n j.g.v.+   O sXaX>XdXJ.o.^ $.` ~  . .~ Q E 9 9 9 E W 9 E 9 ^ ^ ~ q.w.q.q.7.8.H.%.. = t.fXqXE.X   wXSXK.;X$X[.! S ~ ~ @.E L ^ W 9 E Z 7 Z S Z W ^ W 9 ^ o.W 7.-.-.H.F.O t.u.x z m j.j.j.f.N v v n j % $ - t $ & & $ $ & & & & & & % - f f g c v m m n d.c.u.X   1 G.=XF.-._ ) ! E Q  .o.^ 9 9 9 8 8 9 9 9 9 8 6 6 6 6 4 6 8 8 0 _ _ W [ J.8.0.[.1.  r t.(.OX(.y R.PXPX;XH.0.-.( ) ! ^ W W E 9 8 6 6 8 6 6 6 6 6 6 8 9 9 8 9 E W ^ ^ o.) O.[ [ %.%.p.p.BXKXqX$ z z g n N v v N N n c j j v g d c c d d h g d C h N f.N B N N K d.j.h.g.u.@   r =XJ.:X&X#X .@.$.W O.O.9 9 9 9 9 9 9 E ~ ~ | |  .~ 5.'.5.+.+.7.8.;.F.i s.|.fXhXE.  . kXaXJ.vX1Xw.9.3.6.6.6.3.X.X.,.X.3.X.| X.| | | | X.X.~ q.4. .#.7.0.8.&.i y x y.x.x.m.Q.Q.m.N f.j v v C h h C s C s h j g j M g h j v f.f.k.m.!.!.Q.Q.Q.x.v.r   o M.F.*.[ ] o.o.@...X.X.~ E E E 9 9 9 E E E 9 E L 9 L L ^ W ^  . .@.@.",
"O.w.J.0.H.H.K.0X7XP.(.y X   u K.J.J.7.O.o.#.@.|  .@.@. .W 9 9 E 9 9 7 7 8 8 8 8 6 9 8 9 W E ^ W o.E =.8.F.e o P.AXKXiX_.~.R n.f.v c g f f h d t $ $ $ $ # $ $ : & $ % % % - h g f z f k z g.g.c.y X   M.bXF.:X1Xe.` ^ X.'  .@.| ` Q Z 9 9 9 9 9 9 9 E ^ E ~ q.4X<X9.7.<.0.F.1 o i E.CXp   F SXaX{.1X&X7.) Z W ^ W Z 9 E L 7 7 9 9 9 9 Z E Z Z E E ^ o.} } =.8.L.&.a E.x T Y d.Y n n n d.n v M h f d % % $ & & $ $ & & $ % % t t f g l l M v n Y j.Y v.r   . u -XK.*.*.O.Q ~  .' ..| E E 9 9 9 9 9 9 9 9 8 8 6 4 6 6 8 0 9 W ) ) 9 0.[.0.[.H.o O i v.I.u.t.BXPXdX{.{.8.O.) ! ) W ! ! W 9 7 7 7 6 7 7 8 6 6 6 8 7 9 9 9 W / W W ) ^ =.-.%.%.;.p.qXPXCXx b c m k.b.R B B B B B v v v j h j j g h h h h h g j f.K V k.V B f.c c.x.x.# @   L.K.;X3XNX*X'.4. . .o.^ 9 8 9 9 8 6 9 9 9 E E ~ ` ` @.7.e.7.<.$.-.:.M.p.r N.fXqXa   p.BX=X1X3X4Xq.,.5.6.3.3.3.3.,.X.| | | ~ | | ~ ~ ~ | | ~ X.>.@.$.=.7.8.p.u t.i y.h.n n.b.Z.h.K h.n h v h d C C % % : d f g g h d d h g v B R k.k.k.k.k.n.b.g.u.    r L.F.r.O.7.$.>.#. . .~ E E E W E E E E E Z 9 9 9 9 9 E / ^ {  .@.4.",
"$.7.7.8.[.{.L.G.E.a.x + . W.dX>X$XJ.e.#.$.#.@. .| | ^ / E 9 9 9 7 6 6 6 8 8 8 8 8 0 9 W W E } ) $.^ r.8.F.o 1 wXLXDX8X_.h.m.b.b.N m c g d - % $ % % $ $ $ $ % % & $ % % - f g z k c k m d.y.c.u.@   O yX=XH.%X[.@.Q  .4.......' ~ Q Z 9 9 L 0 0 9 9 E ^ Q Q 5.*X3X+X7.w.8.F.;.  + s.a..   0XIXK.1X1X[.O.W W E E Z E 9 9 7 7 9 9 9 8 8 9 9 9 Z E / ^ ^ ^ } O.r.H.F.1 &.v.u.z R x.g.h.b.j.c g j j g d : : % $ $ & & & & $ % t d d t h g c M v n Y Y g.u.u.X   O G.=X8.-.=.] ` @.X.5.4.X.~ E E 9 9 9 9 9 9 9 9 8 6 6 6 8 9 9 W ^ ) ( =.[.0.$X%XD   p x y p 7XPXGX=X$X[.<._ ! W ^ E W W Z 7 6 2 2 2 2 2 6 2 2 2 8 7 9 9 9 W / / ^ } ) *.-.%.:.p.G.CXPXE.u.y.z R f.k.k.f.B N B v j j M h h h h h C C C h h j j f.f.V B f.B v d.g.I.G @ X u K.$X:X3X+X5.5.4.@.@. .E 8 7 7 7 8 6 8 0 9 Z E Q ~ ` ` $.7.e.7.$.[ D D p.&.s.P.r   O dXdX{.3X5X<Xq...5.5.3.3.,.X.| | ' ' ~ ~ ~ ~ E E ~ ' | ' @.#.@.o.=.7.8.F.&.s.a.y.j.d.k.b.n.h.K d.j s d g d t % % % % d d h h h d d h g v B B f.k.k.m.m.k.n.x.g.r   + &.;.8.*.-.O.$.@. .^ ~ E E E E 9 9 Z Z Z 9 9 9 9 9 9 L / ^ {  .@.5.",
"O.7.7.w.:X1X}.G.-Xa.@   r sXBX>X%XJ.7.#.o.+. .` ~ E E L E E 9 9 9 9 8 8 8 8 8 8 8 W 9 W W W o.o.) 7.8.8.%.o s.CXKXrX~.n.c f.N N v v c g d - % $ - % $ $ $ % % % $ $ $ % - d h f d k f b c.y.v.z     N.bXF.J.#X$.^ E +.5.2... .~ / E 9 9 9 9 9 8 9 8 E ^ ~ Q >.'.3X<Xq.9.7.H.L.= . 1     e BXdXK.aX1Xw.) W ! W Z E ! E 8 6 8 7 6 0 8 8 7 9 E Q ` ` +.} ) } O.r.8.F.&.r P.u.Y d.j.Y g.h.d.n n v h c h t t t % $ & # # # & % t d t - d g M M M v m c g.y.v.r     F =XK.;.<.=.+.5.4.5.4...' E E 9 9 9 9 9 9 9 9 8 8 6 8 8 9 9 W W ) _ _ w.[.&X1X{.o + r # a.SXPXvX{.;X[.=.] ] ^ ] W ^ ! W 7 7 7 6 6 6 6 6 6 6 6 8 9 9 9 9 E W ^  .o.} [ -.%.;.p.-XKXnXx v.u.n f.R f.f.R B B B M j j j h h d C C s C s h h M j f.f.V B m.B v n.c.u.+   O F.=X#X#Xw.Q | X...X.| / E 9 9 9 7 6 8 8 9 7 9 E E ~ ` Q ^ <.w.w.<.[ A D M.L.s.F . . %.bX>X2XNX3X*Xq.4.5.5.4.2.| ~ ~ ' ~ E E E E E E Z E ~ | '  .@.+.o.#.=.=.;.:.i a.y.y.j.f.k.h.h.j.n f C d g d t % % % % d d d h h d d d h j v B B B f.k.m.f.n.x.x.u.  o 1 ;.$X;.O.$.O.#.+.~ ~ ~ ~ E E 9 9 Z Z Z 9 7 8 8 8 9 9 E / ^  .@.>.",
"o.#.0.#X:X1X;X}.-Xi   + E.BX>X:X%XJ.=.o.o.o. .~ ~ E E E E E E Z 9 9 9 7 8 8 8 8 8 W W W W W O.$.) 0.0.F.O e 7XLXFX_._.j.f.R f.v v v c g d - % - - $ & & # $ $ & # # $ % - d d d d g g b g.g.u.#   + kXyX=X[.0.Q ^ / +.>.+.{ { ~ E Z 9 9 9 9 0 8 9 9 L ^ ~ ' 5.'.<X4X<Xq.7.J.F.M.o .     T.BX}.>X2X&Xw.O.^ ! ! W E W E 9 6 8 7 7 0 8 6 7 9 W ^ o. .$.o.o.$.$.=.r.8.:.1 t.a.g.d.n f.h.h.d.f.m.f.v m g : : t % $ & * * * & % d d C C d g g g h g v z b y.u.t.    a F.{.1.=.<.>.q.9.5.5.@. .Q 9 9 9 9 9 9 9 9 9 8 6 6 8 8 9 9 P W ) _ ) 0.%X&X:X:XF . @ y qXKXIX;X:X%X[.<.O.$.o.o.^ o.o.^ Z 9 7 7 7 8 8 7 8 7 9 9 E E E E W / ^  .o.O.O.-.%.:.G.jXKXI.i.n.b d.N N f.B B B v v M M M M g h d C C d h C h j B v k.k.k.k.!.k.f.c.I.#     ;.=X>X[.w.' | | X.X.| ~ E E E Z 9 7 6 8 8 7 7 7 E E ~ +.Q E >.#X#Xw.<._ %.G.T.t.r o o T.dX:XNXNX3X#X9.5.5.4.4.2.| ~ ~ ~ E E E L E E E E E ~ | ~ `  . .o.O.=.-.-.;.u t.u.b b.m.h.j.h.h.m f d t g d % % % % % d d d d d d d d d d j v B B B R k.k.n.x.x.P.+   o M.2XH.[ =.#.=.@. . . . ./ E E E Z Z 9 9 9 7 8 8 9 9 L E W Q ^  .",
" .o.w.&X%X{.=X-XR.i i R.kXkX{.:X;XJ.$.) o.$.+. . ./ E E E E Z W 9 8 8 8 9 9 9 9 8 W W ^ ^ ^ $.$.7.8.H.;.O a.jXKXrXI.~.f.b.f.m.v n v v g d - % % $ $ & # & & & & & & $ t h g l l m n d.Y y.n.y     E.BX=X>X0.] ! ^ ^ o.o. ./ Q E 9 9 9 9 9 9 8 6 8 9 9 W E ~ >.q.*X3X5X*XJ.J.L.}.o O u &.sXaX=X2X2X#X8.$.^ ! ^ W E 9 9 E 9 9 0 P q 6 6 8 9 9 W ^ ^ +.$.o.o.} o.=.8.;.u r P.x.Y j.j.n.b.n m n n n n g : % % % $ & & & & & % h h d d h f g g h g v m b g.y.u.#   . %.{.F.-.=.7.w.e.q.5.4.../ E 9 9 7 9 9 9 9 9 8 8 6 6 8 8 9 P W ) ) o.<.%X#X{.=XG.. X s.CXPXbX{.;X$XJ.<.$.] ` o.o.@.o.^ E 9 9 7 7 9 9 9 9 9 E W ^ W ^ ^ ^  . .+.o.O.=.-.:.:.R.HXZXx v.y.g n N n R B N v v j h h h j g h C C d h h j j v f.B k.m.!.Q.!.k.h.c.x.@   1 $X:XdX%X9.,.6.X.X.,... .~ E 9 Z 9 9 7 8 8 8 9 9 E E ~ X.Q Z @.w.*X#X8.*.*.F.G.&.u p.G.>X2XdXNXNX4Xw.5.@.X. . . .~ E ~ ~ Z E / 9 L E E E E Q ~ / ^ o.o.) o.O.*.*.F.u i a.T b.b.m.h.b.b.m h d $ g d % % % % % d d d d d d d d d d j v N B B B f.m.m.x.x.I.x   . :.>XH.*.=.=.=.$.@.@.@. .~ E Z Z Z 9 9 7 9 9 8 8 8 9 9 9 Z E ^ ^ ",
" .^ e.&X$XJ.{.T.a.s.7XjXkX,X;X{.$XJ.$.! ] o.@.+. .~ ~ E E 9 9 W 9 8 8 8 9 9 9 9 9 W W ) ] ] #.=.8.H.K.5 e sXPXDXI.D.j.f.N f.R j v c M g d d t t t - % $ % % % % % - t f g l c c n d.x.g.y.v.*   O BXdX>X;X=.9 ! W / ^ ) ^ / E E 9 9 9 9 8 8 8 6 6 8 9 E Z E ` >.+X4X3X3X%X0.{.:.. u T.jXBXK.aX2X3X[.<.$.o.o.` ^ ^ E 9 W E 9 8 0 0 0 8 9 9 9 Z W  .o.o.o. .^ o.=.8.8.;.+ t.a.y.h.R m.f.N f.f.v M n g C % % $ $ $ & & & & % d h C h h f g g g M n b Y g.g.x.u.@   1 F.F.;.O.$.7.5.4.,... .~ E E 9 9 9 9 9 9 9 9 9 6 6 6 8 9 L W ) } $.o.[.J.H.H.L.  + -XjXkXyX$X{.#Xw.=.] ^ ^ $.$.$.^ W E E 9 9 9 9 9 9 9 9 E W ^ ^ ` +.+.@.#.4.>.$.7.;.;.p.kXLX8Xb m m m c f.v N N v v M h h h h h h C % s d h h j j v f.B k.k.!.!.Q.k.b.D.# X   ;.$X2XNX&X5.'.3.3.,.X.| | ~ Q E E Z Z 9 9 8 9 Z Z E E ~  .Q E ` 9.&X&Xw.-.*.;.M.u &.kXPXdX>XBXNXNX&X7.` Q E E ~ E E 9 E E 9 E W 9 L L E W E W ^ ^ o.o.o.o.) } [ *.8.&.u a.u.c.h.m.h.m.h.c d t $ f d t % % % % t d d d d d d d d d g v N N N f.k.k.f.c.c.v.x.X   u L.L.*.-.=.=.$.5.5.4.@.` Q S Z 9 7 7 7 8 8 8 8 6 8 9 9 9 W ^ ] ",
"@.^ e.#X[.K.K.p.a G.kXsXG.F.;XH.H.8.*.W E ^ o.` { Q E E E 9 9 E 9 9 9 8 7 7 7 8 E W W ^ ] ] <.=.;.K.F.< E.IXKXrX~.n.j.m.v f.n M M j f d d d d d t t t % % : t t t t f g g g g g z y.h.g.c.T X X s.BX>X>X8.) Z W ^ / E L ^ / L 9 9 9 9 9 8 8 6 6 8 9 9 Z E Q ` X.q.<X<X3X3X{.L.O = G.sXIXdXK.dXdX3Xw.#.$.$.o. ./ ^ W E 9 9 9 8 8 0 0 8 9 9 9 E W ^ o.o.o.o.o. .$.$.8.H.u 1 s.u.d.b.n.f.k.~.~.f.n m g d : % % $ % & $ & & % h h C d d f z j g M n c Y b g.v.x.p   . u ;.;.*.] $.>. .| | | ` ^ W E 9 9 9 9 L 9 9 9 8 8 8 8 8 9 W ) } $.=.0.8.8.F.p.  s.jXsXM.T.;XJ.[.w.<.] ^ o.#.+. .~ E E W E Z Z 9 9 9 9 9 E E Q ~  .@.@.@.4.5.#.=.8.;.:.E.IXHXD.g.c n K v f.v v v M j j h h h j h h C % C h h h j j V f.B k.m.!.!.n.m.n.u.    O K.:XvX5X#X9.'.,.6.3.| ' ~ ~ E / W Q ! W 9 7 9 W ~ Q Q '  . .`  .7.*X&X[.0.;.;.;.1 u 0XSXdXvXVXNX3X#X$.` Q Z E ^ E Z 9 9 9 Z 0 9 9 9 9 E L 9 L / W ^ o.o.o.) } O.*.-.;.u U V.D.b.n.m.h.d.c f y y t d t t % $ % % d d d C d d d : d h j v n N f.f.f.d.h.x.x.n.t   O %.L.;.-.*.$.$.7.5.5.>.X.` ~ E Z 9 7 7 7 8 6 6 6 8 9 9 9 W ^ ] ",
"4. .9.w.8.H.F.u 1 wXIXR.w M.L.F.1.1.-.A 7 W ^ ^ ^ E L E E E Z E 9 9 8 9 9 9 9 9 W W Z W ! ] <.=.8.K.e %.kXLXFX8X_.n f.m.v n n v v M h d d C t % & $ $ & & & $ % $ : d f h d h g g y.x.c.I.t   X sXdX>X$XO.) o.W o.^ 9 8 L W 9 9 Z 9 9 9 8 8 8 8 9 9 9 9 W ` +.>.5.<X4X3XNX2X;.o &.qXjXT.}.>XaXvX&X7.$.>.+.^ ^ Q E E 9 8 9 W W 0 8 6 , 6 8 9 E ^ 9 / ^ o.@.o./ / #.<.8.K.O i T x._._.m.f.b.h.K j.c f d d t % % % % % % % d g g d d d f c j h g v g c z b I.u.c.+   = ;.F.-.-.O.7.@.....X. .` E 9 9 9 9 9 L 9 9 9 8 8 8 6 8 9 W ) ) #.0.<.<.8.F.F + R.IX0Xu F.=XJ.w.w.<.+.o.$.+.E ~ E L E W E E E 9 9 9 9 9 E E Q ~  .@.@.@.#.#.$.<.1.;.:.7XKXZXc.d.x.d.K N c c M v v M j h h h j g h C s C g g h j v B m.f.m.!.`.Q.m.b.x.r X   :.J.3XNX3X9.'.9.q.5.,..... ./ 9 9 Q ! ^ ! Z 9 Z ^ ` ' '  ...>.>.@.>.#X#X#X$XF.;.&.1 G.=X;.=XNXNXNX<Xw.$.] o.^ ^ o.^ W 9 9 9 W 0 8 P 9 9 9 9 9 L W 9 E ) o.) ) } $.-._ ;.%.r R.(.~._.~.n.d.c f y f t d d t % & & % f d d C C d C : d d f g M v N N f.d.j.g.g.n.T     < L.;.%._ ) ] #.>.>.>.@. .~ Q S Z Z 9 7 7 8 8 6 8 0 0 9 W ! ) ",
"` 5.0.-.8.H.p.1 P.IXPX}.o :.F.K.-.-._ _ _ 6 ) ^ o.E E E E / / E E 9 9 9 9 9 Z W ! 9 Z ] 9 ) [ [ :.%.1 P.SXKX8XtX~.f.m.f.N f.d.N N v j d C % % % & $ $ & * & $ % f t d d d d g c d.g.n.~.T   X s.BX>X:X<.[ O.^ E } ^ W W W L 8 9 9 9 9 8 8 6 8 9 9 9 9 9 E ` +.>.+X+X<X4XNXBXe . G.BXIX&.e =XdX2XJ.0.7.7.#.+. ./ E L 9 9 9 9 8 6 6 6 6 9 9 9 9 W  .^ ^ @.@.~ E / Q <.0.;.u u x b x.n.Q.Q.n.d.c n m m g d % - t % d % % % d g g d d % h f v d h g h d d z y.g.y.b   . u F.:.( 7.#.4.9.9.4.+.o.^ E E 9 9 9 E E E 9 8 , 8 9 8 9 ) ) ) 7.0.=.*.;.F.e &.kXPXN.u ;.=X1X0.0.9.<.o.o.+.+.E E L 9 9 9 ^ o.W W E 9 9 E E ~  .^ +.#.+.o.#.e.8.J.5 s.UXKXOX_.j.f.h.m.h.d.N v M h h h h h h j h h h s s h j j v V B f.k.Q.Q.m.m.Q.g.v.    u K.$X3X<X9.9.5. .4.4.X.|  .{ E 9 E W / ^ W 9 9 E / `  .Q Q 4.>. .>.9.9.*X[.;X>XF.o s.sXkX%., vXNX3X[.<.$.$.^ Q ^ ! o.W 9 9 9 0 0 0 6 8 9 9 8 8 9 Z E 9 W ) ^ ^ } o.-._ *.*.u &.a.y.D._.n.c.d.f t y f d t t - $ $ $ t d t % % % % % d d d h g j M v n N d.d.h.b.b @   . &.L.:.w _ ^ ^ ` ` X.@. .Q Q Q ! W 9 7 6 8 9 8 8 P 9 8 W ) ) ",
"@.9.=.8.$XK.u u kXPXPXE.. u :.L.F.*.*.[ ( 7 W ) } E E E E E ~ E Z 9 9 9 9 9 Z W ! W ! W ) =.[ *.:.1 r qXJXzX(.).n.b.Q.m.N f.f.v j j h d d C t t $ $ & # & $ : t d d f g f h g c Y c.n.v.@ X r fXBX:X[.<.] ^ W ` ^ W P P P 9 8 9 9 9 9 9 8 8 8 9 8 8 8 9 E ` >.9.w.+X*X3XNXaXO   E.IXLX&.. F.dX2XJ.7.=.>.@.+.+.+. .~ E 9 9 9 8 6 6 6 6 8 8 8 9 E E E / +.@.~ ~ ^ o.] [ -.%.u p x g.b.Q.n.b.d.m c g g f d - t d t - d % % d g g C d % d d h & % : d : t g n g.c.v.#   O &.;.*.*.O.$.4.4.+.` ` ^ W 9 9 9 9 E E 9 9 9 8 6 8 9 W ) ) $.7.7.-.1.F.M.e }.AXPXa.o &.;.2X$X0.0.7.o.$.o.+.E Q / E E 9 E E E E E L E W ^  ./ $. .o.#.7.7.8.8.F.w -XHXFX~.b.d.d.f.f.f.d.N N v M j j j h h M h h h C C h j j V V k.k.k.!.Q.m.Q.b.x.x   . F.>X1X4X'.+.>. .E | 2. .~ { ^ E L W E E E E 9 E W / E ..X.| 5.9.@. .w.7.9.$XaXdX&.+ 7XPXHX%.o $XBX3X0.<.O.$.) ! ^ ^ #.^ 9 8 8 8 6 8 6 8 0 9 9 8 9 9 9 9 W ) ^ ^ ) ) [ [ [ *.%.u r # : c.~.x.n f y y f d d t - $ $ $ % t % % % % % % d d d d h j v v v n n n d.c.g.x     e p.;.%._ ) ]  .~ ~  . .~ ~ E W W W E 9 9 9 9 9 9 9 9 W W ) ",
"9.w.-.8.K.;.1 }.HXKXSX}.1 . F L.K.*.-.*.0 A 9 ) ^ E E Q E E ~ E 9 9 9 9 9 9 Z W W ! ) 9 *.*._ ;.&.O a.SXKX(.I.D.d.n.n.k.N N N v g h h d d d t - t % $ & & $ % : d f g g f f l m g.v.v.#   @ E.GXdX:X0.<.] Q 9 ^ W E 9 9 9 8 8 9 9 9 9 9 8 8 9 9 8 9 9 9 E ^ +.@.q.+X*X3XdXF.. + 7XHXLXs.  1 >XaX[.7.$.#.$. . . ... .E 9 9 9 8 8 8 6 6 6 8 8 9 E E E ^ @.@. . .@.7.] ) -.;.&.u x u.b.Q.n.h.f.H h g g f d d d d d % d d % C j j s C % d d h & : f g f f g n g.b.n.t.    1 M.;.( $.#.#.@.@. .^ Q W 9 9 9 9 Z E E E Z 9 6 8 W ^ W ) #.7.7.=.1.F.:.s.kXPXHXR.. u F K.1X[.[.0.#.#.o.o.^ ^ ^ W E 9 9 9 9 9 9 9 9 E / ` E $.^ ] r.=.0.H.;.e G.jXLXrXD.f.d.N N K N N B N v M j j j j j M j j h C h j M M V B k.k.k.Q.Q.n.n.x.u.#   e >XdXvX<X7.' ~ Q ' 7.+.~ E / ^ W L E 9 9 9 9 9 E W / Q @.X.| 4.9.4.#.9.7.#X2XdX=X= &.kXPXBXM.o q :X2X0.<.=.O.) ^ ^ ^ o.W 8 6 8 8 8 8 4 6 8 8 8 7 9 9 8 8 E ^ ^ ^ ) ^ ) [ _ *.;.u O     l D.n.g.b f y f d t t t % $ % % - % $ & % t t d d d d h j v v n n N K d.h.b.x.+   . u M.;._ *.o.$.^ Q |  .~ ~ E E E E E E L 9 8 8 9 E ) ) E $.",
"w.0.<.;.M.1 s.UXPXLXUXCX}.. e :.L.8.-.*.0 W 6 ) ^ E W / E E ~ Q 9 9 9 9 9 9 Z W W A W ( *.0 *.8.e 1 7XJXHXI.I.Y m.b.N N N M v c j j h h d d d t d % $ & $ % t h g g g z g l n d.x.v.x   o i BXSX$X#X$.$.o.+.~ ^ E 9 9 8 8 8 8 9 9 9 9 8 8 8 9 9 9 9 W W W W ^ ~ 7.'.<X2X:X1   t.jXJXFXOX.   %.=X{.8.<.7.>. . . . .| ~ E E L 9 9 0 8 8 8 8 9 9 W ^ / ^ +.@.@.#.7.$.7.7.8.;.;.&.i u.c.~.Q.m.h.j.g c c g f h h d d C d C C h M j C s % g g g % f c f f g c m d.h.c.c.r   o :.F.*.=.7.#.>.7.>.o.^ ! 9 9 9 9 Z E E E 9 E 9 8 W W W } e.0.=.1.H.F.:.-XIXPXSXjXu . &.%.%X&X[.0.=.$.o.o.^ / W E 9 9 Z W 9 9 8 8 9 9 E E Q ] W $.=.O.0.J.u e fXLXZXI.x.n N N n n n v v v v j h h j j j v M j j h h v N B B B B f.m.~.~.b.j.x.x @   F.2XNX5X#X>.` E Z  .9.{ E L / ^ / L 9 Z 9 9 9 9 9 L W ` | ' | 4.4.>.7.>.w.vXNX>Xw = 7XPXSXwXqX%.o D $X0.8.<.=.] ^ W W E 9 8 8 9 9 8 6 6 6 6 6 6 6 8 8 9 8 E ^ W ^ ^ ^ ^ ) ) *.1.;.e o   @ l x.n.d.f f f d f f t - % % t t % & & % t d h d d d h j v v m m d.f.d.g.c.v.x @   + p.;._ *.$.<.$. .@.@. .E ~ ~ E Z E E E W E E W ) =.) 9 ] ",
"w.7.1.F.&.r qXAXKXFXhXUXwXO . u 1.$X1._ ( W 8 ^ ) W / ^ Q ~ ~ / E 9 9 9 9 9 A ! W _ ( *.-.D 1.%.o t.UXKXgX~.b.m b.Q.N N N h M M j h h C d d d t & & & $ % t g m g z c m n n d.c.c.u.+   + 0XGXkXJ.J.o.$.+. .Q Q W L 9 8 8 8 8 9 9 9 8 8 8 9 9 9 8 9 E W W Q ` +.>.#XvX1XF.. O (.AXJXzXjXr   o M.J.0.0.7.>.@.4.5. . . . .^ / E 9 9 9 9 7 8 9 E W W E W ^ @.@.@.+.^ =.8.7.=.1.;.F x y.n.~.Q.n.c.n m M g h h d d d d % % h M M j h s s j j g $ t f & - d f k b j.g.c.i.  X u L.F.-.$.o.o.#.#.o.] o.E E E 9 9 9 9 Z 9 W E 9 L W ) =.w.7.*.1.L.L.G.jXKXHXCXZXE.  t.:.1.1X[.<.<.o.#.$.W W E Z 9 Z A W W 9 9 9 9 Z W ! ] ! ) =.*.-.H.;.u 7XPXLX(.I.m v n n n n v v M v v j j j j j M v v j j h j B f.k.f.B B k.Q.`.~.b.x.u.+   e =X3XNX3X'.5.4.' ~  . .~ E L /  ./ 9 8 Z Z L 9 8 8 L ^  . .| ..5.4.>.5.$.$XNXdX1.o a.CXKXjXR.qXE.F , *.J.0.7.<.O.^ E ^ E 9 8 9 9 9 9 8 8 6 6 2 6 6 6 8 9 9 9 W E E ^ ^ ) W ) -.-.8.:.O +   * y.I.c.c z f f f f d t - t d d t $ & % d d f h d d d h j M v M N f.d.d.g.g.g.p     u p.:._ =.7.7.#.4.4. .~ ..| ~ E E E ~ ~ E E W ) 7.#.^ 7.",
"8.8.1.F.1 a.SXLXKXnXgXwXR.t.  1 %.=XF.*.-._ P ( ) W ^ { ~ `  .^ W E 9 9 Z Z A ) A _ _ *.-.-.1.O 1 7XHXLX8X~.f.k.f.m.k.N M M N c M j h d C % % % & & $ t t t g m f f c n d.f.j.x.~.#     a.GXIX;X%X0.$.>.>. .Q +.^ W 9 9 9 7 7 9 9 9 8 8 8 8 8 9 9 9 9 9 9 ^ $.7.7.<XNX%Xw   U fXJXZXgXxXR..   %.H.0.0.7.@.>.7.5.@.@.@.@. .^ E 9 9 9 9 9 9 9 E E 9 9 E ^ +.@. .E ^ } #.<.8.1.;.&.r y Y ~._.~.n.f.H m M l g g h d f % % j N v j v s C c c c $ % t $ - - - f c j.c.b.I.#   O G.K.-.O.) ^ ^ ^ W W ^ ^ ^ W W E E W W 9 W W E W ^ =.0.7.<.<.8.F.G.0XPXLXAXZXjXrX+ + M.*.3X&X0.0.<.=.$.E S W W W Z A 9 A 9 9 9 E ! ! ) O.) =.-.*.8.8.e G.HXLX8Xv.I.b R m c m n v v v B V v j j j j v B v M j h M B f.k.k.k.k.n.Q.Q.Q.n.n.x     F.1XvXNX4Xq.>.,...>.4.{ ~ E E ~ ^ / 9 7 9 9 E E 9 9 W o.@.@...|  .5.7.#.7.1XdX;X< 1 fXLXJX8XI.E.-XG.%.*.0.0.8.7.7.) / o.^ E 9 L E E E W 0 0 q 6 6 8 8 9 L 9 9 E E E / ^ ^ P O.=.$.8.8.e r # # y.n.g.y.l f f f f f t t d d h d % & % d f l g d d h h j j n c n d.d.d.h.h.g.i.r   O s.F._ -.<.=.+.@.@. . .....X.| | | |  .~ ^ ^ W o.7.=.w.",
"=.H.F.&.r wXJXKXDXhXzXfXfXlX@ . 3 F.K.8.1.*.[ ) } W ^  . .X.X. .^ W E E Z E W ) ( _ *.-.-.;.w O P.SXLXnXOXD.f.Q.B B k.N j n N v v v M g h d d t d t t d d t d g f f g v n d.j.c.n.    1 kXPXdXK.$X#.#.>.5.5.4.q.@.^ 9 9 9 9 7 7 9 9 8 8 8 9 9 9 9 E E Z Z Q $.7.#X3XvXJ.O o R.ZXFXrXuXrXgX@   O ;.0.0.<.$.9.q.@.5.5.4...` Q E 9 9 9 9 9 9 E E Z 9 9 E W  .+. ./ W W ) =.<.1.;.p.r # $ n ~._.Q.n.h.d.n m c l g g g d C c N N v v d d v v m t t f t y t - f n x.b.I.~.u.@   &.K.8.-.$.$.o.^ W E E ) ) ^ ^ ! ! ^ ^ ^ W W W ^ =.0.J.7.8.0.F.F.T.BXKXDXnXnXfXhXv.  &.*.:X3X%X[.w.<.o.W W W W W A A 0 Z 9 9 Z ! ) ] ] O.[ 8.-.;.8.%.%.UXKXjXu.I.c.g.g.m c m n v v B B B B v v v V B B V B v M B R k.f.f.f.m.!.Q.Q.Q.n.g.#   u >X2XNX6X*X6.X...X.,.5. .~ E E ~ ~ E Z 9 9 9 9 9 9 9 W o.#.@.| E ~ 5.e.7.#X3X:X%.o E.AXKXzX(.R.P.-XL.L.F.8.8.7.0.e.O.^ >.>.+.^ ^ ^ W E E 8 7 0 0 7 8 9 9 E 9 Z W W / ^ ^ ) ) $.<.<.8.F.;.u x x D.b.n d.g f f f f f t t d d f h t % d g c c M g h h h h h m M n d.d.j.b.c.g.z.u.+   u F.:.[ =.#.o.+.+. .2.4.4.2...X.X...@.5.7.5.^ ^ 7.7.7.",
"1.H.L.< N.SXLXKXZXnXhXnXZXzXp   O D =XK.8.-.*.[ o./ ^  .+.@.@. .^ W W W W W ! ) O._ -.;.;.;.O u fXKXJX8X(.n.j.Q.Q.B B N M n v M M v v v m m m c f d t f f d d f n c g c n d.c.n.# X X T.IXGX=X:X#X>.9.X.,.5.,.>.>. .E 9 9 9 7 8 9 9 8 8 9 9 9 9 9 E W W W ^ +.>.3XNX2X8.o + gXFXtX).).8XgXu.X   %.8.H.7.7.+X+X@.9.5.2. ./ E Z Z 9 Z E Z L E E Z 9 9 9 9 W  .+.o.8 W ] [ O.-.1.M.u # @ $ c._.~.~.n.h.H m c g h h g d h c N f.B v j j m m m t f f - t d t k d.b.n._.~.).#   1 K.K.-.=.7.7.=.O.) W W W W W E W ! ^ $.W E W ) 7.J.#X[.J.8.F.}.sXPXLXAXxXgXuXgXqXX r %.J.vX2X#X%X7.$.! W Z S S A W W W A A W ! ) [ O.O.*.8.;.;.:.e T.LXJXD.(._.b.n n n m m n v M v B f.B B B B B R f.B B B B B f.k.f.B N K m.Q.~.~.n.y   . oXdX3XNX6X+X6.6.q.6.4.,. .~ E E E E E E Z 9 8 6 8 9 8 P )  .E E ~ +.#.7.<.:X1XJ.o e kXKXJX(.I.Y.I.E.T.-X=X-.<.7.w.w.#.^ 7.w.e.7.#.o.E 8 , 6 7 9 Z 9 9 9 9 E 9 E ^ ^ `  .` o.#.$.<.7.<.8.K.&.a.v.8X).h.I.d.g f f f f d d f d f f d t d M m m v g h h h h h j j m N H d.h.h.c.h.v.x   + p.F.*.=.7.7.7.>.4.9.5.5.4.X.|  .4.5.@.5.7.+. .e.w.0.",
"H.F.;.1 0XPXLXDXZXnXuXhXgXhXY.  . 1 L.=XF.;.*.W O.^ ` o.+.#.#.^ ^ W W W W ^ ) ) =.$.0.-.;.%.o E.FXKXgX8X).n.n.n.b.N N N c M c h g g M c v v v m c c l g f g g g z d.n m m h.Z.u.X   &.kXPXdX:X:Xw.q.q.q.5.....X.~ ~ ~ E 9 9 9 L 0 0 9 9 9 Z E Q E O.W W ] ` >.w.&XvX:Xw . G.ZXgXn.). XtX8X8XX   O ;.;.*.0.w.9.` e.#.^ } o.^ 9 7 9 9 9 9 9 9 9 9 9 L 9 9 E o.5.7.` ^ W W ) *.;.;.p.+ + @ t ~._.~.Q.b.f.d.K m c g g h d n f.b.N v M d m Y g d d f f d d d c f.n.~.`._.~.x X   &.K.;.[ 0.7.7.=.} ) 0 7 9 W W Z A ] ! 7 ! ! $.[.J.7.8.8.H.F.}.SXKXZXnXhXiXuXuXuXG   &.;.dX>X:X#Xw.7.] ! Z 7 0 A A 0 _ 0 W ) ) ) o.O.O.-.;.F.M.&.u lXKX9XI.rXh.n.j.j.d.N N N m v N N N f.N N B f.k.m.m.B f.f.f.k.h.f.H d.b.Q.~.~._.z X   &.dXdXNXNX4X+X+X'.6.6.5.,.` Q Q E E W E Z 9 9 9 9 8 8 8 P P 9 o./  .~ ` >.J.;XdX1 o }.JXLXuXn.y.x E.a.R.G.0X{.*.*.0.$.^ o.o. .^  .+.+. .E 9 ~ { { / E E W / E E E /  .| X.@.X.5.9.'.e.0.0.$XK.s.7XfXrXn.n.h.m z g k g f t f g k f d d M n f.N n c g g j g h h g c m d.j.h.h.h.n.g.n.@ . u K.;.-.=.7.#.5.7.>...5.@. .| @.5. .$. .$.#.0.#X[.w.",
"K.=Xw G.CXPXLXhXhX9XuXnX9XgXuX+ o O p.=XK.8.-.-.o.^ ^ o.o.7.7.#.^ ! W W W W ^ ) 7.<.8.J.F.O t.jXKXzX(.tX~._.Q.n.Q.k.f.f.v M l h j j j g g j c m m m v c c c c c f Y n Y g.H I.t   @ T.SXGX2X2X%X5.5.6.6.3.X.X.| ~ ~ ~ E L 9 9 9 P 0 L Z Z E E E W ) W W ) ! >.'.&X3X{.< . qXCXI.I.~.).tX)._.b X X = F.;._ e.5. .#.} ^ ) ^ E 9 7 9 9 9 9 9 9 9 9 8 9 9 9 9 ^ o.+.~ ~ ^ ^ ) _ [ *.;.U r + * g.)._.~.Q.k.f.K m c l m l c k.m.n.f.v v h R d.f t d f g g j j v R n.~.~.~.).n.@   1 K.8.0.0.7.0.$.^ 9 0 ( _ 0 7 A A S S ! ! $.w.0.<.<.8.;.K.T.fXJXJXhXnXiXuXuXuXhXU.X r &.K.2X%X[.w.7.O.] A 0 A ( ( D 0 0 W W W ^ o.) =.-.-.M.G.1 p.CXLX(.~.I.D.n.m.d.f.N N N v n K n N f.N N B N k.m.k.R k.f.N d.d.c.m m f.Q.~.Q.x.@   r -XBX3XNXNX4X+X+X'.6.5.,.' E Z 9 9 9 9 9 7 7 9 9 9 8 8 8 P P L o.W ^ ] ! w.[.aXM.. F jXKXZXg.n.y.u.P.a.P.a.E.F.;.-.8.<.] ] ` #.$.o.o. . .~ ~ ~ ' ' ~ Q E E W E E E ~ ~ ' | X.X.4.5.q.7.9.0.$X;Xp.P.wX8XI.n.h.h.y.c g g k z b m g d g j M B h.N N n m v n n n j c j v d.h.b.Q.~.h.x.c.T   1 K.F.;.-.=.$.$.+.+.5.6.@. . . .+.~ ` $.#.w.%X[.w.0.",
"K.K.&.yXHXLXfXgX8XY.rXhX9XgXnXN.  O u }.{.8.8.7.<.$.$.+.o.$.$.^ E W W ^ ) O.=.7.7.0.0.{.F + wXJXJX).tX).).n.n.k.Q.m.m.h.n c m c m n v v c c v N n n n n n v v n d.d.d.b.n.I.n.X   F kXPXBX1X1Xw.4.4.6.5.4.....| ' ~ Q E E 9 9 9 P 0 9 9 9 Z E E W ^ W ^ ! ! 7.[.%X:X_ o i jXtXg.~.b.~. X)._._.X     &.;.-.0.7. . .^ ^ } ^ E 9 Z E 9 8 8 9 L 9 9 8 9 9 7 9 E W E W / ^ ^ ! ) _ %.:.p.u y * z _.~._.~.n.k.f.N v c c g n Q.m.Q.k.B v f h.h.h C g M d.b.h.m.k.f.~._.)._.).8Xx   o :.F.;XJ.0.#X7.>.o.Z W A Z ! O.o.! ] $.] w.*Xe.7.7.H.H.L.-XSXKXDXZXZXhXxXhXqXhXiXp o &.;.aX;X[.#X0.7.=.] W W _ _ ( 0 A ( W E ] #.] <.8.;.F.:.O 7XLXZX(.8Xn.~.n.n.b.k.f.f.R n N d.N R f.f.f.f.R k.Q.f.v B v j c v K m n d._._.~.m X   a.BXBX:X3X<Xq.6.6.5.4.X.' E 9 9 9 8 8 7 9 9 9 9 9 9 9 8 9 P / ^ / ^ ^ ] <.#X;X$Xo = 7XPXLX8Xx c.u.I.v.v.a.N.G.:.M.1.;.8.<.] ` 7.5.#.+.` |  .X.| ' ~ ~ ~ Q E E 9 Z E E ~ ~ ~ | X...,.9.4.5.e.[.,XL.G.7X(.~.D.~.m.j.d.H m k f h H l h g v N f.f.N N N n n n N d.N d.v v f.f.h.n.Q.n.~.c.P.+ . &.p.;.*.O.=.$.+.>.4.9. .| @.+.$.@.^ #.<.#X&X0.0.7.",
"L.p.L.BXKXAXR.jXI.C.9XrX9XuXnXuX  O 1 L.=X1.H.8.$.$.$.#.#.7.<.o.` ] ] o.O.=.=.<.e.0.J.1.o a.BXKXrX(.tXn.).Q.n.Q.Q.b.m.f.N n n n v n n n v v v v N n N N N n N d.h.d.n.~.n.).y   X T.BXGX2X2X$X7.4.4.5.4.4.4...~ ~ ~ Q E E E E L 0 0 9 9 Z E E E W ^ W ! W ] w.#X%X%XO o -XgXn.n.n.~.~._.8X_.).k     O :.H.0.=.W o.} ) } ^ E Z Q W 9 8 8 9 9 9 9 9 9 9 9 9 9 E Z ^ ^ ^ ! W ) _ *.%.:.i t.u.b n._.)._.~.Q.b.f.N N v j f.~.Q.Q.Q.R v M n.n.j g n H d.n.b.~.Q.b.).).).tX).tX(.X . O ;.{.J.[.&X&X&X#Xw.7.7.7.7.$.o.$.7.] 9.<X[.e.J.8.8.{.T.BXKXKXnXZXDXxXnXhX8X9XnXR.. 1 %.>X:X$X[.w.w.0.=.[ ) ) ) ) _ _ [ O.O.=.<.$.-.H.1.L.e i BXKXrX(.).I.D.~.b.n.b.f.f.f.N n N N n N R f.f.B f.n.k.v M j j v v v H j.b.)._.~.k X + 7XIXdX$X#X>.S ' | | | / E L 9 9 9 8 8 8 9 0 9 Z 9 9 9 9 P P W o.E ] ] ] %X:X:Xe . G.SXKXhXg.c.y.g.I.x.u.t.P.E.:.;.;.;.8.7.$.$.$.5.5.@. . .X...X.X.| | { ~ E L 9 9 E W ~ ~ ~ ~ X. .@.5.>.@.7.w.J.H.p.a.a.c.c.n.~.Z.n.j.n n n d.n H v j N b.b.f.f.d.d.N N N N R n f.d.f.n.n.b.~.n.~.I.n.I.s.. . %.:.*.-.0.w.w.[.w.#X+X+X*Xw.5.$.>.$.w.%X[.7.0.8.",
"L.p.-XPXKXqXrXrXY.V.9X9X|.9XnXjXi . e ;.=XK.8.0.0.7.7.7.7.e.0.7.#.>.<.7.0.0.0.0.0.8.K.w O 0XHXJX8XrX_.~._.OX~._._._.Q.b.k.h.f.f.d.d.d.d.d.d.R N d.d.K d.N n N f.R n._._.~.~.X   r sXGXBX>X:X7.>.4.......X... .E ~ / / W L 9 E W P 9 9 E Q ~ ~ ~ / o.^ ! ] 7.*X#X:XK.o e qX8Xg.n.h.).tX)._.~._.I.@   . u ;.-.O.^ $.} ^ ^ / E Z E W L 9 9 9 9 9 9 9 9 9 9 9 9 E E o.o.^ ^ ! ^ ) ( *.%.&.&.7X(.~.tX_._._._.~.n.m.k.f.N n.).~._.`.m.N n n.n.v v d.j.K n.b.~.`.~.tXtXtXiXpXtXrXx   . u ;.J.&X3XNXNX3X#X#X%X%X#X[.#X%X0.>.*X1X[.0.w.0.H.L.-XPXKXAXnXxXxXiXiXiX9X|.hXjXu . F {.dX:XJ.#X#XJ.8.=.=.=.=.*.=.*.-.<.7.7.<.-.-.8.F.;.O }.LXJX(.(.I.I.~.~.n.m._.b.m.n.m.f.f.h.f.m.m.m.m.k.m.Q.n.N N N d.h.f.f.h.n.n._.~.Z.t   r sXIXaX$X0.Z Z ~ ~ ^ ^ W 9 9 8 8 6 6 6 6 8 q 7 Z Z 9 9 9 L W ^ } W ] ^ 7.1XdXJ.. u fXLXHX(.T c.y.x.v.y.x t.v.N.G.&.%.;.8.7.7.>.o.#.>.@. .X.,.4.4...| X. .~ E 9 9 9 E W / / / Q  . .@.4.>.@.>.7.8.F.;.u x u.j.d.j.h.c.j.n n d.c.d.d.N n f.Q.Q.f.m.h.f.f.f.f.f.d.f.m.m.b.Q.n.n.Q._.Z.c.I.v.P.r   e :.;.8.$X:X1X4X%X<X&X4X3X3X4X<Xw.<.&X&X7.0.J.w.",
"G.p.bXKXCXY.nX|.|. X9X X X9XiXnXwX  1 u =X>X1.{.#XJ.0.7.7.0.w.0.<.7.e.w.J.J.J.J.H.K.F.o u kXKXzXtXtX_.)._.).~.n._.~.n.j.j.h.j.f.x.h.j.f.f.f.j.f.d.d.d.f.d.n d.j.h.~.~.~.8XY X   a.BXPXaX:XJ.$.5.5... . . . .~ E E / W E 9 9 L W 9 9 9 E Q ~ ` ` / +.^ o.7.#X&X#X:Xw . G.qXv.v.n.n.~.).).~.).)._.u.    O w 8.=.*.=.o.^ ^ ^ E Z E W E 9 9 9 9 9 9 9 9 9 8 9 9 E W ^ W ^ ^ ` ) ! A *.%.&.r (.rXOXtX_._.).)._.~.n.n.n.b.Q._.Q.~.Q.k.d.d.n.m.n n d.j.h.n.n._._._.tXtXtXtXiXtXtX8X@   u :.{.2X3XNXNX3X3X2X1X&X&X&X%X'.0.[.1X<X%X#X0.J.K.p.sXLXHXhXFXiXiXuXeXrXuX|.9XjX}.. 1 p.vX2X{.;X#XJ.0.8.8.0.0.8.8.-.<.0.0.8.-.-.;.F.}.u 1 sXKXzX(.8X~._.)._.OX)._.n.b.Q.n.h.h.m.n.Q.Q.b.n.n.Q.~.n.m.n.n.b.n.n.n.n.n.n.~.~.x.@   &.bXBX2X$X<.7 ^  . . .^ W 9 8 8 8 6 6 6 8 q q 7 9 Z L E E W ^ ^ W ] ! ] %X:XdXw O G.IXKXfXc.g.Y h.x.y.u.y.g.v.a.E.p.:.;.1.8.0.7.#.#.@. . ...5.5.4.X.| | ~ E 9 9 7 9 E E / / / E ^ ^ @.@.>.@.@.$.7.H.F.u i x g.h.h.n.~.~.n.c.h.c.f.n n f.m.m.k.f.m.f.f.j.h.h.f.f.h.m.b.m.h.b.n.n.I.n.n.c.v.R.a.. O &.p.H.$X1X3X1X3X3X&X&X1X&X%X%XJ.<.1X%X1.J.J.J.",
"a.R.KXJX7X8XiX|.8XeX8X|.9X9X XnXCXp @ e G.0XL.K.J.0.8.8.8.J.$X[.0.w.#X$X$XK.J.K.,X,Xu . G.SXKXtX(.~._.).).D.~.b.b.n.h.n Y b b H y.d.j.d.n m b n Y y.g.c.x.d.h.b.n.~.D.~.(.#   @ 0XGXBX;X$X7.@.5.9... .@. .~ ~ E W E E 9 9 9 9 9 9 9 9 E E Q ~ ~ ` o.! 7.%X<X&X$XH.. O wX(.u.c.b.Q.m.~.~.~.).)._.(.#   . e F.;.-.=.O.) } ^ Q E Q W E 9 9 L E 9 9 9 9 9 9 9 9 9 E 9 9 E ^ ^ ^ ! A ( ( &.r s.qXOX_._.~._._._.~.n.n.n.n.n.~.n.Q.m.k.f.h.b.j.j.c.g.c.n.I.~.~._._._._.).).tX8X8XrXt.  u p.;.;X1X2X3X&X:X%X#X[.%X:X%Xw.w.#X&X%X:X%XJ.{.p.E.IXKXAXzXZXrXiXuX9X9X9X|.Y.rXfXi   e ;X>X=X$XK.J.F.8.8.F.F.8.F.8.F.H.F.F.F.F.F.T.G.1 s.CXLXfXI.~.I.I.~.D.~._.~.n.n.n.b.b.c.h.b.n.n.b.n.n.n.n.n.b.Q.~.I.I.n.n.~.D.~.~.(.x   . T.BXvX1X8.( 9 ! ^ / / / W 9 8 8 8 6 8 8 0 9 0 9 9 Z E E W W ^ ^ W ` ! 7.:X2X;Xo u sXKXDXY.g.x.y.h.g.Y y.g.x.I.a.G.E.M.%.-.8.0.9.>.>.+.`  .,.5.3.4.X.| ' ~ L 9 9 9 9 L L E W E E E ^ @. .>.@.>.` =.0.F.:.1 r x y.I.~.~.n.x.h.b.n.h.d.n j.h.d.d.j.h.j.j.h.h.g.j.j.K d.b.c.j.Z._.Z.u.x.Z.c.D.(.R.r . 1 :.F.J.{.%X%XJ.J.J.$X%X#XJ.<.0.0.$XJ.H.K.F.K.",
"a.jXKXzX^.zX8X|.9X^..X X|.9X9XiXZXR.  r F T.>XF.K.F.F.H.F.J.K.H.H.$X2XdXdXdXdXbXkX}.  1 wXKXDXlXgXtX).tX8X8X~.I.I.(.~.v.v.i.y.g.y.g.c.x.y.x b T Y y.c.D.I.n.D.~._.~.OX(.u.X   t.BXPX>X$X0.7.#.4.7. . .@. .E E / W E 9 9 9 9 9 8 9 9 E W E E / ~  . .Q 0.3X3X&X{.w . &.qXv.g.g.d.b.n.Q.b.~.n.~.~.(.i.X   r u I *.*.} ) o.^ Q E ^ Q Z 9 9 W W W 9 9 9 9 9 9 9 9 9 9 W W W E E W W A _ ;.&.r OXY.g.I.~.~.I.I.n.n.D.I.n.c.D.n.I.n.n.b.n.n.x.n.I.n.I._.~.).).).).). X).tXrXiXrXtXrX# o U 1 ;.K.J.{.[.$XK.{.{.J.H.0.J.0.0.H.$X$X{.;XK.&.jXKXHXgXnXeXiXpXuX9X^.Y.^.V.8XjX|.  1 p.>X0XK.K.L.F.;.;.M.;.;.F.F.K.L.L.K.}.T.T.}.1 O -XKXPXqXfXtX8XtX8X8X~.(.(.(.(._.~.(.(.I.n.~._.~.(.).(.I.~.n.I._.(.(.I.n.D.D.(.(.Y.;   e sXVXaX:X[ 0 ) W ^ / E / W 9 8 8 6 6 6 8 9 9 9 9 9 9 E W W / ^ ^ ^ W ] [.$XNX;.. G.AXKXgXv.n.Y d.d.Y Y y.y.b n.v.t.-XE.F *.0.0.0.#.#.+.` X.4.4.,.,.X.| | ~ 9 9 9 9 9 L 9 L E L 9 9 / +.~ @.@.>.' <.8.-.F.e u r x v.n.I.I.I.~.~.~.c.c.h.g.g.g.g.j.z.x.x.v.x.u.u.g.Z.Z._.I.x.I.(.v.u.g.u.n.I.D.E.v.  O &.F.F.F.K.K.K.J.H.H.L.K.K.F.1.L.F.F.}.T.F.}.",
"qXDXLXI.eXiX9XrX8X/./././.|.9XeXgXnX# X r o u u e e w w e O o O < :.;.K.=XL.L.G.s.. . t.CXLXjXzXDXDXZXzXzXUXgX8XrX9X(.P.v.u.u.v.R.rXrX8XI.I.I.P.I.v.i.u.i.u.u.i.u.i.x x #   . wXGXBX>X8.O.@.@.|  . .{ ~ Q E E E 9 9 9 9 9 9 9 9 9 9 Z E /  .+. . .Z 7.[.&X3X1X{.. . R.7Xu.v.n h.m.f.K d.d.h.n.~.x.tXx   o u u w _ -.] ^ W E ^ W E Z E W ^ W E L 9 9 9 9 9 9 9 9 9 W W ^ ) ) ` ] W _ %.:.u t.R.v.x v.R.R.I.V.a.G i i i x x x y y x x k x y x x x x x G u.b b u.u.u.G u.v.u.a.u.>   + &.O . O O 1 %.%.%.%.%.;.F.F.L.F.K.K.K.=XL.p.}.LXJXgXxXiX^.eX X9X X|.9X.X/. XxXfXt.  r u p.p.&.1 o O O o O 1 o . . . .   O     . + i kXCXR.a.Y.I.V.P.(.rX9X(.x.n.n.v.v.v.i.u.u.u.u.i.v.n.v.u.i.t.T i.v.t.u.R.(.(.R.P.p   . }.BXbX1X1.A ) ) ) ^ ^ ^ / L 9 9 9 8 6 8 8 9 9 9 9 Z 9 E Q ^ ^ ) ) ! W <.%X>XaXO 1 wXJXJXI.n.x.j.h.Y n n m b y.g.v.u.P.wXK.%.J.[.[.<.7. . .>.,.4.5.4.X.~ E Q Z 7 9 9 9 L L L 9 L L 9 W ^ ^ ' ' | ' o.] *.;.:.e + + # u.Y.Y.Y.R.(.(.Y.I.i.t.i.v.v.x.i.x y y y y y r y x x y r y p x u.x.P.I.I.OX7XE.X X 1 u u %.u F %.%.%.%.%.%.%.%.u &.F &.:.:.p.:.",
"FXJXuXI. X|.eXeXeX/./.^.^.^.|.^.9XzX(.@ # @ + 1 &.&.&.p.p.p.p.p.M.p.&.&.u &.u u a a i R.P.U r + a r r > r r + + + + @         . . + r ; + + + @ @ X X                     . s.BXGXdXJ.=.o.^  .@. . .~ E L 9 9 9 9 9 9 9 9 9 9 9 9 9 E E / ^ ` ~ ~ +.9.#X3X2X$X%.. i (.I.c.d.d.N N v c m n K k.n.D.I.(.@ @ 1 &.%.*.=.O.] ^ W ^ ^ ^ E E E W E 9 9 9 9 9 9 9 9 9 9 0 9 W W ^ ^ ^ ^ A ( D %.u u p.p   o + + + a o                       X X                                     X   X X r a.P.s.&.&.u u u u %.p.L.}.}.=X,X-X-X-X-X0XIXKXZX|.|.eX9X8X X X^.^. X(.U./.rXhXY.+     r i p.G.E.E.T.T.-X-X0XT.a.&.t.s.p &.i r r a.s.  @           X @ @ @             X       X X                 X . X . ; + + +     F kXVXdX[.[ A W W ^ ^ ^ ^ W L 9 9 9 8 8 8 9 9 9 9 Z Z Z E Q ^ ^ ^ ^ ) O.J.%X>XL.o t.CXJXgXu.u.g.y.m n m c c c b y.g.i.V.}.,Xp.F.$XJ.7.7.o.+.@.>.4.4.4...| ~ Q 9 9 9 9 9 9 9 9 9 L L E W W ^ `  . .~ / ! ) *.:.u O     X   X + + + @ @ @     X @ X X                                   X @ + + r > @     . O + 1 . 1 = 1 1 1 1 e r u &.p.a.E.R.R.0XkX",
"JXZXz.C.U.U.pXeXeX^.^..X^.|.|.C.^.uXgXl.X P.rXUXUXjXBXCXSXSXSXSXAXIXCXCXSXIXBXBXlXa.a.P.a.u 1 O o o o O O O 1 u 1 u U &.s.p.&.F r + O o + 1 1 a 1 1 u i U u u u r r &.u + F sXPXaXJ.[ #.$.~ ~ ..+. .^ E 9 9 9 9 9 9 9 9 8 8 7 9 9 9 E W / ^ ^ / Q 7.'.1XdX2X{.O . P.(.x.c.n f.N v c M c v m K h.D.b.).u.  @ u ;.:.<.[ ] ^ E ^ ` +.` W W W E 9 9 9 9 9 9 9 9 9 9 8 9 9 Z E W W W 9 7 q %.w u &.1 O 1 e 1 1 w &.&.u u u u u u u u 1 + + 1 1 1 u u e 1 1 e 1 1 r 1 1 = = o . o O o   p a.qXUXCXCXjXbXCXCXCXSXSXSXSXIXIXIXIXHXIXAXJXKXmXeX X X X X X X|.U.C.Y./.V.z.C.eXeXa.p a.kXHXHXHXHXAXAXAXIXHXHXSXAXCXSXCXCXCXR.P.R.sX-XP.E.G.a.p.s.t.&.u u i &.s.G.T.R.R.T.G.p.&.&.s.G.G.p.s.p.G.G.s.s.&.u O . o .   o %.aXGX2XH.*.A W W 9 W ^ ~ / E 9 9 9 9 8 9 9 9 9 Z Z 9 Z Z E ^ ^ ! W ! ! <.$X;X=Xe + wXHXDXI.u.Y y.n m m c c z z c n y.x.v.P.sXT.;.$XJ.w.7.$.#.@.>.7.4.4.4. .~ Q 9 9 9 9 0 0 9 9 9 9 E W E E W ` +. .~ Q ! ! _ -.:.e . O u :.s.s.&.u u 1 + O O 1 + O O O O + 1 = 1 e e u e 1 e e 1 + + + . X   X X . .   + + p.0XsX0XfXfXfXfXfXfXfXjXCXSXSXCXSXJXPXLXKX",
"|.|.l.U.Z./. XeXeX^..X X|..X|.A.U..XzXiXZ.8XLXKXLXKXKXKXKXLXLXKXPXKXLXPXKXKXPXPXP.p P.qXkX>X=XK.K.K.K.=X=X>X>XaXdXdXsXsXdXkXkXkXdX0X,X}.>X>X0X,XaXsXkXkXbXkXdXdXkXkXBXBXBXBXBXvX*._ [ #.$. . .{ @. .^ E L 9 9 9 9 9 9 9 9 9 7 7 9 Z W ! ^ ^ ^ ^ ` 7.#X3X1X:XF.  p (.v.g.d.R N R n c c m c c v K m.~.n.).*   + F ;.8.=.$.] W W o.@.` Q Q ^ W 9 9 9 9 8 8 8 9 9 8 8 8 9 9 9 9 L E 9 8 q D w %.:.e %.K.aXdXdXbXBXVXVXGXGXGXGXGXGXIXSXkXyXaXaXaXaX0X>X,X,X,X=X}.}.T.=X=X}.}.>XyX0X0X}.&.s.fXAXJXJXKXKXKXKXKXKXLXPXLXKXKXLXHXPXJXHXKXnX X.XiXuX X.X.X X^.U.C.Z.U.A.v.Z..XrX|.a.(.SXJXLXJXJXKXKXKXLXLXKXHXHXHXJXHXHXP.p P.sXCXCXIXSXSXkXkXkXkXkXsXaXyXkXkXBXBXBXBXBXBXBXBXkXkXbXkXkXNXBXBXBXBXBXBXdXaXyXdXdXaX2X2XNXaX-.A A A W W 9 / ^ / E E 9 9 9 9 8 9 9 9 9 9 9 9 Z Z E ^ ^ W W ! ] 8.%X=XL.+ s.SXJXxXy.u.Y Y c n c c c l z c m n g.a.a.lX>XF.J.H.J.8.=.#.o.@.7.@..... .~ Q Z 7 9 9 9 9 9 9 9 9 L E E E E ^ +.X.' ^ ^ W ( *.;.%.5 %.>XVXSXBXBXBXBXBXBXkXkXNXdXdXkXaXaXdXdXdXdXkXbXdXaXyX0X>X,X,X>X-X-X-X-X=XoXT.G.L.}.u W.BXSXHXAXLXLXPXHXHXHXJXLXPXLXFXFXLXJXZXrX",
"V.Y.C.l.B.^..XeXXX.X XXX.X.X|./.B..XpXxXuXI.9XhXhXhXjXnXnXZXSXDXSXSXDXAXAXAXHX7X. r wXGXkXF.J.8.{.$X%X$X$X$X$XJ.J.J.J.J.K.$X:X>X,X>XaXaXNXBXBXdXdXdXdXdXdXdXdXdXdXNXvXNXdXdXH.D A ( O.o.^ ^  . . .^ W Z 9 9 9 9 9 9 9 9 9 9 9 9 9 E W ^ ^ / ^ ^ +.w.#X1X$XJ.1 o P.(.x.g.Y R v N N v c m c j M n h.~.x.~.I.  X = :.H.7.<.#.^ ) O.` Q E W ! W 9 8 9 8 8 6 8 8 9 9 8 8 9 0 9 9 9 9 W 0 0 0 0 D %.w D ;.{.>X2XaXdXdXdXdXvXNXBXBXNXkXaX=XK.=X>XaXdXdX2X1X2X>X=XK.K.K.J.K.L.K.2XdXkXBXBX&.O lXIXLXLXZXFXFXDXZXnXnXgXuX|.9X8XI.U.^.(.rXuX9XeXiXpXeX X.X^.U.A.B.S.Z././.Z.U. X Xl.v.V.v.v.v.I.rXzXCXZXZXSXAXnXnXZXDXfXX   P.sXPXIXdXdX>X1.;.;.;.;.;.;.;.1.;.;.1.8.H.K.=X>XaXdXdXvXNXvXdXdXvXdXdXaX2X>X1X2X>X2X2X>XH.8.0 D A ) W W ! Q o./ Q E L 9 9 9 9 8 8 9 9 9 9 9 9 Z E W ^ ! W W ! <.J.;X{.%.u qXKXJX).x z y.b l c c c c c l c m m g.x.a.7XyXK.F.J.J.0.=.#.}  .#. .X.X.| ~ / E 7 7 7 7 0 0 9 9 9 9 Z E E E /  . . .` ^ W W ) *.[ _ 8.:XdXdXaXdXvXdXNXdXdXdXdX2X3XdXBXBXVXVXVXVXGXVXVXVXVXBXBXBXVXBXBXBXVXVXBXVXBXdX;X,XM.&.jXJXKXJXHXHXHXHXFXFXAXZXDXSXrXY.I.P.V.i.",
"rXiXU.l./..XeXpXXXXXXXXX.X.X|./.A.A./.eX^.I.V. XU.V.B.U.8XiXhXxXgXeXnXZXCXAXCXX   r qXGXK.8.[.#X%X&X&X#Xw.J.#X[.#X[.%X1X1X1X2X2X;X2X2X1X:X;X#X0.K.J.J.J.[.[.H.8._ =.-.=.[ J.-.=.) ! ) ] ^ ^  .^ ~ ~ E 9 9 9 9 9 9 9 9 9 9 E Z Z E Q ^ ^ W E ! ] 7.%X%X%X{.*.  i (.v.c.d.f.m N n n m m m m c v N b.n.b.b.tXy   o F F.8.<.<.o.) o.Q E E Q Q E 9 9 9 8 6 6 6 8 9 9 8 7 7 9 9 0 9 9 P 0 0 0 q 0 ( 0 D 0 q 6 0 ( _ *._ *.*.*.-.;.1.;.8.-.-.=.=.8.J.J.J.J.[.[.0.<.=.=.8.H.8.-.-.-.*.:.F.L.. i qXhXZXrXiXuXiXnXZXDXZXhXxXnXnXgXhXxXxXzXnXhXpXpXeX X^..XU.U.C.S.l.l.Z.A.l.i.V.U.i.v.v.i.V.I.I.I.Y.8XqXuX9XxXgXgXjXAXt.    a.BXIX>XH.8.*.-.-.:.*.%.-.8.H.8.0.J.#X%X;X:X2X{.{.#X$X:X:X#X7.0.#X$X#X$X[.0.<.-.O.-.=.-.*.7._ W ) ] ^ ^ o.^ ^ / E E L 9 9 9 9 6 8 9 9 9 9 9 9 W W W ^ ! W ! ] 8.{.=XM.1 G.AXKXrXc.b b y.z g z g g g g g g z c y.g.v.P.0X,XJ.H.J.0.r.=.} ^ o./  .X.` Q ^ W 9 8 7 7 0 9 9 9 9 9 9 E E E E ~  . .^ ^ ^ ) ) ) ) $.^ o.o.) ) ) W ) 8.7.7.8.w.e.7.0.0.0.J.#X$X%X$XJ.J.J.J.J.#X%X#Xw.J.J.J.w.J.$X%XJ.=X;X>X&.wXHXAXFXFXFXFXDXDXFXDXZXhXhXgXgXuX9X9XeX",
"9XiX|.^.XXeXeXXXXXXXXX.X X.X/..X.Xl.|.|.U.B.^.Y.|.Y.U.|.eXhXnXzXzXgXZXZXnXCXR.  . s.BXBXK.%Xw.&X&X*X#Xw.w.+X&X3X3X<X<X<X%X&X1X1X&X:X1X:X%X%X%X#X1X1X3X1X1X&XJ.7.w.0.7.0.w.$X8.O.! S ! ` ^ ` ^ E ~ / E E 9 9 9 9 9 9 9 9 W ! W E Q Q ^ ^ ^ ^ ] #.w.<X&X[.J.3 O G.V.u.x.d.d.v f.n n c m b m c m K h.b.h.b._.D.X . e 1.8.<.7.$.) ) Q Q ~ ~ Q Z 9 9 9 8 8 6 6 6 8 0 8 7 0 q 8 8 8 0 0 9 P 0 0 W W ( _ _ [ _ ) _ O.=.-.=.-.*.-.8.8.8.=.=.=.=.O.O.<.7.7.<.7.0.7.=.<.7.[ -.=.8.8.7.1.8.F.vX;.O t.s.7XAXxXeXeXuXiXnXZXhXhXgXxXiXiXcXpXpXmXpXeXeXeX.X/./.U.Y.C.B.B.l.i.l.B.i.i.i.G S.l.I.l.I.~.Y.^.8XuXuXhXxXgXgXnXhX    ; }.PXaX;.8.=.8.-.*.-.*.-.1.J.$X[.[.[.#X#X[.#X%X#X$X#X[.[.*X<X3X3X5X5X3X3X1X[.7.7.w.J.e.7.J.0.[ A W o.] ` +.~ E E E L L 9 9 8 8 6 8 0 9 0 9 9 Z W W W ! ! ! ] O.0.$XK.%.F fXJXCXx.y.g.d.y.f z l f f g g g g l l m y.v.P.}.=X=XH.J.J.8.=.=.o.o. . .@. .^ ^ W 9 7 9 9 9 9 9 9 9 9 9 Z E E E /  . .^ ^ ^ o.o.] ] $.@.5.7.e.e.7.#.7.7.7.7.e.+X'.e.9.7.7.0.w.w.[.[.0.w.9.0.w.[.#Xw.e.e.e.w.#X*X&X&X#X1XaXdXM.N.SXSXHXFXFXDXDXDXDXDXmXmXzXuXiXrX|.^.^.",
"^.|./.C.B. X X.X.X X.X|. X.X/..X.X|.U.|.A.V.Y.|.^.^.|.|.9XeXuXeX XrXiXuXgXwX    &.kXVX$X:X#X'.*X*X'.7.4.>.@.#.7.7.7.0.9.e.w.#Xe.w.w.0.w.7.9.e.w.'.[.[.[.#X#Xw.7.0.$.e.w.w.w.7.S Z ! o.^ E ^  .E ^ Q E E 9 9 9 9 9 9 9 E W ^ ^ W Q Q ^ ^ ) o.#.7.<X&X:X{.;.. F E.u.v.g.c.c c n g c M l c c M c n d.h.h.b.n.I.r   O 1.8.<.8.r.O.) / Q / Q E 9 8 8 9 9 8 6 4 4 6 8 8 7 8 7 q q 8 0 0 0 0 0 9 W W ) ) ( W W A A W ) [ O.O.[ *.-.-.*.-.O.O.O.) O.#.$.$.o.#.=.O.o.#.$.$.[ } [ =.8.8.0.{.aXdXF e F Y.ZXxXrXiXiXeXiXxXpX X|. X.X/./.(.eXeXXXXXXX XeX XU.A.U.C.C.U.Z.z.B.i.B.S.i.a.U.v.I.Y.I.Y.^.^.U.^.|.rX9XrXuXhXu.  + E.BXBXF.8.H.8.0.8.=.[ O.[ W ) O.=.=.7.0.0.7.7.e.0.7.<.e.w.w.'.'.#X#X'.'.#X#Xw.9.w.e.e.e.e.J.O.W ^ ! o.^ ^ / E ~ W E L 9 9 9 8 6 6 8 9 9 9 9 9 W W W W ! ^ ) [ =.[.;XK.u P.AXJX).y.c.m n b g n d f f g g g g l l z z v.P.P.T.>XF.H.J.8.7.7.#.#.#. .@.@. .^ E 9 9 Z Z 9 9 9 9 9 9 9 9 Z E E / ^ ^ ^ ^ ^ ` o.@.@.+.4.9.7.@.@.+.+.@.5.>.@.5.q.q.7.4.7.7.7.7.5.9.e.9.7.5.7.e.9.7.7.e.w.7.9.'.#X*X*X%X:XNXdX}.G.nXIXDXZXDXDXDXDXDXnXgXeX9X^.U.C.l.l.l.",
"l.A.^././././.^.(. X X^./..X X X^..X.X^./.^..X.X^.U.U.|.9X9X9XuX|.uXrXrXgXp X U -XVX2X=.%Xw.4X3X&X'.7.o.o.o.o.o.^ o.o.) ^ ^ ] ] $.] ] ) ) ] ] ] +.$.o.o.#.#.o.o.=.$.#.7.#.#. .E ^ ^  . .{ / / / L E / E L E E E E 9 9 9 W ^ W E Z o.^ ` ^ +.o.w.3X:XK.K.O . E.v.u.j.g.y.n n v c g h d g l g M n B f.K b.x.g.u.X . 1 L.K.w.=.#.~ ^ ^ ^ W L 9 9 9 6 8 8 6 6 2 6 6 6 6 2 2 6 8 7 7 7 9 0 9 A Z W ) ) ( W 0 0 9 0 0 W ( _ _ ( ( _ [ ( ( } _ 0 W ) ) ) ^ W ) ) ) ( W W ( ( _ %.*.1.H.H.:XdXaX= u a.uXDXnXiXgXhXrXrXeX XeX X/.|..X.XpXpXeXpXeXXX X/./.A.A.U././.U.B.z.i.l.i.u.l.v.i.i.l.Z.Y././.^. X9X9XiXrXrXwXX + G.sXPXK.8.1.8.%X%XJ.7.[ ) ] ) ) ] ) ) ] ` ^ ^ ^ ^ o.) ^ o.#.#.@.+.>.@.@.#.5.7.$.o.+.#.#.$.$.#.o.^ ^ ^ ` ^ Q E Z 9 Z L L 9 8 6 6 6 8 9 9 8 9 E 9 9 W ! ! ) Z ] ] J.%X>X&.u jXJXhXy.H n n n n c g g l f h g g h g m m z g.v.a.R.0X}.F.H.0.0.7.$.#.$.` >.>. .^ ^ E 9 E 9 9 9 9 9 9 E 9 9 9 E W E ~ {  .X...2.4.5.2. .....5. .X.~ +.o.+.o.@.@.#.>.@.@.>.5.>.#.5.7.7.7.7.@.@.>.>.+.^ o.#.$.>.9.w.q.'.#XJ.dXaXaXG.wXFXFXDXDXnXmXDXmXxXiXuX9XU.C.C.S.l.V.",
"eX X/.A./././..X^. X X^./.(. X.X/.^.^./.^.^.|.|.Z.Z.U..X9X9X X X|.9XuXhX8X@ i -XbXGX:X%Xw.w.3X1X%Xw.$.) ) ) ) o.^ ) o.) W ^ ^ ] ] ] ) ! ] ] ] ] ] ] ` ] #.<.#.<.o.! ! ^ ^ ^  .~ ~ {  . .{ ~ / E L E W E E E E E / E L L E L L W W o.o.$.` +.7.&X3XJ.K.:.  t.7Xx y.d.d.H m m m c j h d f f h g v v B n c.g.y.t.;   + &.oXJ.8.5. . . .} ^ W W 9 9 6 6 6 6 6 6 2 2 2 6 6 2 2 6 7 7 7 7 9 9 A Z W ) ) ( W P 0 0 W W 0 W ( ( W W ( _ ( ( ( ( 0 9 W W } ) W W ) ( W W 9 9 0 0 w ( *.<.<.[.2XdXK.e t.I.xXzX8X|.rXrXeX9X|..X|.^././.^. XeXeXpXeXXX.X/./.A.A.A.A././.A.Z.z.v.i.i.l.v.i.i.l.V.U.U./.^.(. X9XrXuX8XV.X s.0XIXBX8.-.-.0.[.[.J.7.] ) O.O.o.O.] ] ] ] ^ ^ ^ ^ o.^ ^ o.#.#.@.@.>.#.@.#.>.#.o.^ +.o.o.^ ^ o.o.^ ^ ^ ! Q Z Z Z Z 9 9 9 8 6 6 8 8 9 E 9 9 Z E L E ] Z ] S ) ) <.{.=X}.&.a.AXJXrXy.y.n n n n m l g g d d f f d g c c f H z.a.E.}.T.F.1.H.J.8.<.7. .~ >.5.@.+. ./ E E E E E 9 9 9 Z E L L E E E E ~ ' | ....2.4.2.....X.X.~ ~ ~ @.>.+.+.+.$.#.#.@.@.7.5.#.+.+.+.@.X.@. . .+.o.o.^ ^ ^ ! ` +.>.>.9.w.w.1X>X=XT.P.ZXAXDXDXmXmXmXxXxXuXY.|.C.V.C.V./. X",
" X^./././.(./. X/..X.X/././././..X.X^./.U././.U.C.A.Y.|.8X8X X|.Y. XuXrXx   a.yXIXNX$X&X7.#X1X&X#X7.^ ^ ) ^ ) } W ) o.^ W W ^ ] ] ) ! ! ! ` ` ` ! ` ^ ^ $.$.o.o.o.^ ^ ` ` +.@.X.~ ~ { { { ~ E L 9 E E L L E E E E E E / / E E ^ ^ o.+.>.+.+.w.3X3XK.;.. + 7XI.x y.d.d.n m c g f g d d d d d g v v v N h.h.H b x   . 1 L.%Xw.7.4. . .} } ^ W 9 9 8 6 2 2 6 6 2 , 2 6 6 2 2 6 6 6 8 6 8 9 9 A W ) W 0 0 0 0 0 0 0 W W ( ( W W W ( ( W 0 0 W 9 9 E O.) ^ ^ ^ ^ ^ ) Z 9 7 0 q 0 _ [ $.<.:XdXaX&.p t.7XzXiX|.9X X^.^.^.A.U.^.U./. X X XeXpXeX X.X/.^.A.Z.Z.Z.A.U.A.A.C.C.V.B.I.U.I.U.C.C.U.Y.^.^.(.(.^.|.rX7X+   E.kXGX=X;.1.8.$X#X[.0.=.] ] $.$.O.O.] ] ] ) ^ ^ ^ ^ o.^ ^ +.@.@.@.@.>.@.+.+.@.+.` / $.o.o.W W ^ ] ^ W W E Z 9 9 9 9 9 8 6 4 4 6 8 8 W W E 9 E W W ! o.E ] Q ] ] 0.;X2XF.e sXJXFXI.y.H n m n m c g g d d d d f d f g z d z u.a.V.P.G.G.%.;.$XJ.7.e.o.^ +.@.+.+.^ E E / E E W E 9 9 9 L 9 9 Z E Z E E ~ ' X.X.,.2.,....... . .~ @.@.#.+.+.o.+.@.@.+.+.o.$.+.` ^  .+.@.@.+. .^ ^ o.) ) W W Q ~  .@.>.7.0.#X;X}.-Xa.fXAXZXFXDXmXxXhXiX9X X|.B.i.S.A. XeX",
"Z./.^.^.^.^./.(..X.X.X.X^././.^. X.X/.A.A./.U.B.U.^.|.|.|.|.|.|.|.9XiX(.X r R.bXVXJ.J.e.7.&X%X#Xe.o.E ^ ) ^ W ) W ^ ^ W E ! ^ ] ) ^ ! ! ! ! ! ! ! ^ ^ ^ $.o.^ Q o.`  .+.+.@.@. .| ' { { ~ ~ Q E E E E E E E E E E E ~  . ./ E ^ $. . .>. . .#X3X1XJ.<   R.fXx b b y.d.d.n z d % h d C d d d g v N v K f.c.y.z u.r   O :.:Xw.w.q.+.o.o. .^ W E 9 8 6 6 6 6 6 2 , , 2 2 2 2 6 6 2 6 6 8 9 0 0 P W 0 0 0 8 0 8 0 0 ( ( W W W W W P 0 W 9 W ) W E o.o.o.^ ^ ) ^ ^ ) ^ W 9 0 0 ( _ O.<.o.w.;X>XT.1 t.i.qXgXeX8X X(.|.U.B.B.C.C.A..XXXXXeXpXeX X.X.X.XA.A.C.C.Z.Z.Z.B.U.Z.V.B.I.C.I.^.Y.Y.Y.^.^.(.(.^.|.(.9X(.  r -XBXkX;.8.8.0.$X$X[.<.$.) ) O.O.) ) ) ) ^ ! ! ! ^ ^ o.` ` +.@.@.@.@.@.+.` `  . . .` +.o.o.^ ^ ) ^ W E 9 9 9 7 7 9 9 7 6 , , , 4 6 6 9 W 9 9 E W W W ^ ! ! O.W =.J.>XaX%.&.AXLXrXy.y.n m c c c z f d t % t d d d d g g g z H z.v.a.N.G.e q H.#X0.8.7.o.@. .'  .~ E Q / E W Q W Z 9 9 9 9 9 E E E Q ~ ~ | X...,.3.3.3.5.5.X.@.~ @. .o.o.o. . . . . .` Q ^ ` ^ ^  .@.>.5.#. .W E ^ ) ^ W ! ^ ` +.>.>.+.7.w.J.{.K.G.-XIXnXmXZXmXcXiXrX XuX9XU.l.l.C.^..X",
"/..X.X/.A./././..X.X.X X.X^.^..X.X^./.A.U./.A.B.B.Y.|..X|.|.|.^.|. XuXs.X s.0XGXdX-.0.O.e.%XJ.0.O.W 9 ! ) ! W ) W W E Z W ^ ) ^ ^ ^ ! ! ^ ^ ^ W ^ ^ ^ ^ $.$. . . .`  .X. .X.X.|  .| | ~ ~ ~ ~ ~ ~ ' ' ~ ~ ' ~ ~ ~ Q ' +. .Q 9 E  .` ` +.^ $.&XvX;X3   &.jX(.t.b m m n n m g d % C C % % C d g v R N K d.h.h.b b v.@ . 5 $X%X+X'.7.>.+.o.^ ^ W E 8 8 q 6 6 , , 2 , 2 6 2 6 6 6 6 6 6 6 6 8 6 8 0 0 0 0 0 8 8 0 0 P 0 0 0 0 W W W 0 W W W ) ! ! #.^ / / ^ ` ^ ^ ^ o.^ W W ( _ O.#.$.$.<.0.$X,Xu i s.R.uXrX(.(.(./././.C.C.A.A./.eXeXpXeXXX.X/././.U.U.U.A.A.Z.Z.Z.U.C.B.S.V.l.l.C.U.U.Y.Y.Y.^.^.^.eX|.9Xx   a.sXIX=X;.8.-.<.0.J.0.) ) ) ) ) ! W W ! ! W W W W ! ^ o.`  .+.@.@.+...X. .` `  . . .` ` o.) ^ ^ W E 9 9 9 9 9 8 8 6 6 8 6 4 , 4 , , , 6 9 9 9 E W W W ! ^ ! ] W 8.%X2XL.1 wXHXFXc.y.m m c z g g g f d % % % d d d d f d c m b x.v.a.s.p.u O _ J.J.8.7.#.#. .` +.+.^ ^ / / W ^ W E 9 Z W E E Q ~ ~ | X.| | X.3.3.3.3.3.9.5.~ E 9 ^ ^ o.^ ^ ^ ^ ^ ^ ^ ^ / ` o.` ^ `  . .o.o.^ 9 9 E W E E E W ^ +.>.>.@.e.7.0.F.F.}.G.kXhXxXnXxXiXrXeX9X X X|.Y.V.B.A.Z.",
"/..X.XZ.A..X^..X.X^.^.^././././..X/.A.U./.A.Z.l.B.Y.^.Y.Y.|.|.^.Y.9XuX@ @ G.kXGXJ.8.=.=.7.0.0.=.! E Z W ) W W W 9 9 9 9 W ) ) ! W W W ! ^ ^ ^ ^ +.o.^ W ^  . .+. .' `  .`  .X. . . . .` ` `  . .' ' ' ' ' ' ' ~ ~ ~ ' ` ~ E E Z Q ` +.o.^ 7.3XdX;.. o sXCXi.u.y.m c z g g f d d % % % % % C g c d.K K f.h.m.h.y.I.y   o ;.:X#X+Xe.7.+. .^ ^ ^ W 7 0 0 q 6 , , , , 2 6 2 6 q q 6 6 2 , 6 6 4 6 q 0 0 q q 8 8 8 8 8 8 q 8 0 W ( ( 0 ( W W E Z W ` Q Q / ^ ` ~ / ^ o.^ E W ) } O.O.] 7.$.7.=X=XG.1 s.P.uXuX^.U.U.V./.|.U.A.^././.eXXXeXeXXX.X/./.A././././././././././.C.C.Z.B.Z.U.U.U.U.Y.Y.^.|.|.Y.8X9XX @ G.jXBX;.1.1.*.<.<.8.) 7 9 W W W E W W W E W W W W ! ^ Q Q ~  . . .` ' ' `  .+.+. .^ W ^ ^ W E E L 9 9 9 7 8 8 6 6 6 2 6 8 q 6 4 , , , 4 9 9 9 W ^ W W ^ ! ) A O.J.2X;XO &.SXKXtXu.d.m m c g f g g f d % % % % % t d d : c b b y.a.a.s.s.p.1 < -.J.0.=.$.#.+.o.#.#. .~ / / W ^ W W W W ^ Q / ~ ~ ' | ..| | X...X.X.X.X.@. .E Z 9 W ^ ^ / / / / ^ ^ ^ ^ ! ^ o.^ ^ / Q W E ^ ^ W E W E 9 9 9 E /  .>.4.4.9.#.8.8.{.>XF.G.hXiXzXzXpXeXeXeX^.^.U.U.A.C.A.S.",
"/./.^./.^. X.X X.X(././././././..X/.A././.C.B.l.A./.Y.C.C. X X(./.gXY.  i 0XVXdX;.w.o.7.7.=.<.O.W W W W W 0 9 0 8 9 9 9 E W W Z E E E E W / ^ ^ $.o./ E / / ~ / E Z E E Z E ~ Q Q ' ` ` ~ ~ ^  .~ ' ' ' ' | ' Q Z Q ' ~ Q E E E E ` +.] =.#XdX=XO . G.AXlXb b y.m c f f d d d d % : % % % d M n n N n h.f.d.n.j.n.D.X . < J.%X#Xe.7.+. .^ ^ ^ W 9 9 0 0 6 4 , , 2 6 6 6 6 6 6 , , , , , , , , q 6 6 6 6 6 6 6 6 6 q q 0 0 0 0 0 q 0 0 7 6 9 W S Q E Q ~ ~ Q Q Q ^ W 9 W ) o.} ` +.7.>.7.%X{.;Xu r i.qXuX X(.U.U.Z.A.C.C.A././..X XeXeX X.X/./.A.A././././.A.A.A.A.U.A.Z.C.Z.C.Y.U.U.Y./.^.^.|.|.Z.9XE.X i R.BX0X;.1.=.<.8.7.<.S 7 9 W W 9 9 9 Z 9 9 Z Z Z Z W W 9 Z E / ^ Q Q Q Q Q / ^ ^ ! E 9 W E 9 9 9 9 9 0 8 6 , , 4 6 4 , , 6 q q , < , 4 6 9 9 9 W ^ ^ ^ ! ^ ! A 8.:X2X;.O -XJXFXc.c.d.Y m c g h f g f t % % % % % % t d d l m b b u.u.a.a.G.u < w F.J.=.O.>.>.o.$.@.^ E / / E W E 9 0 W W W W Q ~ ~ ' X.X.X.,...| ~ ~ X./ W W 9 E E W E E E E W / / / E W W W W W W W E 9 E W W W W W E E E / +.2.@.2.4.5.#.<.8.$X;X{.F R.Y.uXxXuXeXeXeXXX^.C.U./././.B.",
"/..X X.X.X.X^. XXXXX X/.^..X.X^.^.A.Z./.^.A.B.Z.A./.U.C.U. X|.V.(.gX# X N.dXVXJ.J.0.=.=.7.-.[ ( W ^ ^ W 0 9 0 8 6 8 0 0 9 E Z 9 9 9 9 9 9 L E E o.o.^ / ^ ~ E E E 9 E E Z Z E 9 9 W ^ ^ ! W Q ^ `  . . .X.X. .' 9 ' @. ./ E E 9 Q ` ` ] 0.1XdX%.  O fXLXI.b b m n c f f d t % - : t % % % f n f.M v c h.v j b.j.Y ).r . . D %X[.w.7.$.+.+.+.^ ! E 9 9 8 q 6 , , 2 2 6 , , , , , , , , , , , 6 q , , 6 6 6 6 q q 6 6 q 0 q 6 6 , , , 6 , < 9 ! 9 E Z E E Z 9 Z E ^ E 9 W } o.^ Q >. .$.<.0.$X,X;.u s.R.7X9X8XZ.C.Y.C.A.A.A.^. X.XeXpXeX X/.A./.A.A./././.A.B.z.J C./.U.Z.C.Z.C.A./.Y././.^.^.^.^.|.9X# X s.0XBXF.F.;.*.=.-.O.=.A W W W 9 9 9 9 9 9 9 9 9 9 9 9 9 9 9 E ^ ^ Q E W E 9 9 9 9 9 9 9 8 8 8 9 9 9 8 6 8 4 , , , 4 4 6 , , 4 , < < , 4 6 0 9 9 E W W W W ] Z O.H.dX=XO &.kXKXgXc.j.x.R c z f d d f d % % % % $ $ % t t h f m n z x u.a.a.a.&.1 < %.F.=.=.9.7.o.`  .^ / / E L 9 9 9 0 0 W W W ! ^ ^  .@.X.4.5.4.| Q ~ ..^ W E 6 8 8 L L L L E E W W E E W W E E E W E 9 9 9 9 9 9 9 9 W L E  .5.9.2.X.X.>.5.W <.8.J.:X%.= p |.iXrXrXeXeXeX|.^. X|./.^.A.",
"/.^././..X X X X XeXeXeXXXXX X X XA./. X/.A././.^..XZ.U..X XU./.rX8X# @ ,XBXaX8.J.e.7.=.$.O._ A 8 8 8 9 9 8 8 0 6 6 8 8 9 9 9 9 8 8 6 6 8 L E L 9 o.o.W E ^ ^ 9 9 9 7 7 9 7 6 2 , 6 6 6 6 8 7 7 E Q ` ` ' ` ' Q 9 Z 9 Z W Z 9 E ` Q >.7.1XdXK.O   P.LXzXg.y.Y m n m l f t $ $ - - % % % C d j v c v n N n v N f.d.~.v.@ o < -.%Xw.7.7.$.9 o.o.E E W W 0 6 4 , < , , , , , , , , , , , , , 4 2 2 6 6 6 2 , 6 6 6 6 6 6 6 6 , , , , , , < 2 0 9 9 9 9 9 9 9 9 9 E W Z 8 9 ^  .+.#.>.Q >.#.w.;X1X;X1 t.E.qXgX XZ.C.Y.U.U.U./..X.X.XXXpXeX^././.Z.Z.A././.A.Z.B.l.l.Z././.A.A.A.B.B.U.U.Y.^.|.|.U.U.gXY.  i E.BXsX*.H.-.<.[ =.<.7 9 W A 9 9 9 7 7 7 9 9 0 9 9 9 0 0 9 9 9 W Z 9 9 Z 9 9 9 9 8 6 6 6 8 8 8 8 8 6 , , , , , , , , < < , , , , < < < , 6 6 8 9 W W W 9 ) $.7 =.H.>Xe 1 R.LXHX).b.x.d.n c h d g g : & & $ % % % % % : t d g g c m b y.P.E.a.u &.< < ;.J.<.7.w.7.^ ^ o./ ^ E 9 8 6 , , , 6 2 6 7 9 Z Q `  . . .| ~ E 9 9 9 7 8 6 6 8 9 9 W L 9 9 9 9 Z Z E Z Z 9 9 9 Z Z 9 6 6 8 9 9 9 9 9 9 E  ...X.X...5...#.o.8.[.;XK.= + i uXrX/..X9XeX.X|..X/. X^./.",
"Z.^..X^..X.X.X X.X.X.X.X XXXeXXXXX^. XeX.X/..X.XXX XU./.9XeX^.9XZXI.  s.sXvX#X[.w.w.e.<.O.) A A 6 6 6 6 8 6 6 q 4 6 6 8 8 8 8 7 9 8 6 6 8 L E L 9 / ^ E E / E 9 9 9 8 7 9 7 6 , , , , , , 2 6 6 6 7 9 Z Z E Z 9 Z E 9 E W E 9 E ` ` S [.1XaXw   1 gXJX(.g.y.g.c n m g f d % $ - % % % % d d j v j j n f.f.N N R b.x.(.r   o w H.J.7.7.#.^ ` ^ ) W W W 0 8 6 4 4 4 6 6 , , , , , , , , , , , , 2 6 6 2 , , , 6 6 6 6 6 , , , , , , , < , 2 0 9 7 8 7 9 9 9 9 9 E E 9 9 9 ^  . .@.@.` +.e.7.%X2X;Xu r N.|.9X8XI.^.^.^.U.C.Z./././..XeX X/./.A.Z.A.A./././.U.Z.B.C.Z.A.U.A./.A.Z.C.C.U.^.^. X|.C.|.rXi   N.sXBXK.:.;.=.8.O.O.O.7 7 9 9 9 9 9 7 7 7 9 8 8 8 8 8 8 8 8 8 0 9 0 8 9 9 8 8 q 8 6 6 4 4 8 8 8 8 6 4 , , , , , , , , < < , , , , < < < , 6 8 7 9 E W W A W Z O.{.dX:.O i jXJXzXI.x.m.h.Y z d : d d $ # & & & $ $ $ $ % : g g g z m n g.I.(.E.t.p.u O 5 0.w.<.7.>.$.` ` W / E 9 8 6 , , , , < , , 6 6 9 Z 9 E E E E E L E 9 9 8 6 6 6 9 9 L 9 9 9 9 9 9 9 Z 9 9 9 9 9 9 9 0 6 6 8 0 9 9 9 E E /  . .X.X.| 4.@. .#.=.$X;X=Xe O r Y.hXrX.XeX X^..X X.X.X/.A.",
"/..X.X/./.^..X.XXX X.X/.^..X.X.X.X^. X X/./..X X X^.Z./. X XY.uXzXi   L.kX2X#Xw.e.#Xw.=.) 9 7 A 6 2 , 2 6 6 , 6 , , , 6 6 6 6 6 8 8 6 6 8 9 L 9 8 9 E E 9 E L 9 9 8 8 8 8 q 6 , , , , , < , , , 6 9 E W W W W E E E E E W W E W ] Q O.$XdXF..   P.LXnXu.g.d.y.c m c g f d % % - % % % d d g j v n v v N N N N f.b.d._.(.  . o %.w.7.#.^ ` ` 9 E E E 9 8 6 6 6 4 6 6 6 6 , , , , , , , , , , , , , , , , , , , , , , , , , , < < , < < < 2 q 0 8 6 6 8 8 8 8 0 0 9 9 8 9 ^ ^  .@.+. .^ 0.#.w.1X>XG.= t.P.|.gX|.^.^.|.|.Y./.^..X.X XXX.XA.Z.Z.B.Z.A.A.A.U.U.B.B./.A./.A.Z.Z.Z.B.Z.Z.U.U.Z.Y.U.V.rXV.  r wXIXsX%.8.[ 8.0.-.) ) 9 7 7 7 9 9 8 8 8 8 6 6 6 6 6 6 6 6 6 6 8 8 q 6 6 8 6 6 6 6 4 4 4 4 6 8 6 6 6 4 , , , , < < < < < < , , , , < < , , 6 7 9 Z Z Z A W A A 0.dX2XO O 7XLXHXrXn.x.m.j.n g t % t t $ & $ & & & $ & $ $ % f f d f c m y.c.(.E.a.W.s.< o *.0.=.=.$.#.` o.W W E 9 0 6 , , , < < , , , , 8 9 9 E E E E 9 9 9 9 9 8 6 6 6 8 9 9 9 8 8 9 9 9 9 9 9 9 7 8 8 8 8 8 6 6 8 q 9 9 9 E W ^ ^  .X...| 2... .#.$.J.%X>XF.= 1 s.hXmXeXeX/.Z. XXX X.X^./.",
"XXeX X/./..X.X^..X.X.X.X.X.X.X.X/./..X^.A.A.^..X|.U.U.U..X^.U.hX8X  1 0XaX[.#X#X7.#X[.] Z 9 7 A 9 6 2 6 6 6 , , , , , 2 2 2 2 2 6 6 4 , 6 8 9 8 8 9 9 E E 9 9 9 8 8 6 8 q 6 6 , , , , < < , , , , 8 9 E W W W W E W W W ) ^ W ) ` Z [.%X>XO   i gXJX8Xg.j.g.l n v M f d t % $ % t % % : d d h j R N N n v n d.f.R x.n.hXT     1 8.7.7.o.o.$.^ ^ W E 9 8 6 6 6 6 q 8 6 6 , , , , , , , , , , , , , , , , , , , , , , , , , , < < , < < , 6 q q 8 q q 8 8 8 8 6 6 8 8 8 9 W / ~  .+.` o.o.$.=.:X2X,X= 1 s.E.gXrXY.I.Y.^.^./..X X XeXXX.X/.Z.Z.B.Z.A.A.A.U.U.Z.Z./.U.A.Z.l.l.l.l.Z.Z.U.V.v.V.B.Y.|.#   P.kXIXK.:.8._ w.0.$.W 9 A 6 6 6 8 8 8 6 6 6 6 6 6 6 4 6 6 6 6 6 6 8 6 6 6 6 4 4 4 4 4 4 4 , 4 6 6 6 6 4 , , , , < < < < < < < < , , < < , 2 7 9 E E Z Z A W W [ ;XNXw . t.CXLXzX).n.b.h.R m f t % t t $ $ $ & & $ $ $ $ $ : % d d f g g z y.v.P.v.a.a.u O < *.<.7.] $.^ $.W W E 9 0 6 , , , < , , 6 6 6 8 9 W ^ ^ W E L 9 9 9 9 9 8 6 6 8 8 8 8 6 6 8 9 9 9 9 9 7 8 8 6 6 6 8 6 6 6 8 8 8 7 9 E W E ~ ..4...4.| @. .>.<.#X2XaXF 1 F wXZXmXeX/.Z. XXXeX X X X",
"eXpXXX.X.X X.X/././././..X.X.X.X X X X.X/.^. X X.X/.^.U././..XnXa.  :.dXJ.J.#Xw.w.&X[.W 7 A S S 9 8 2 6 q 6 , , , , , 6 2 6 2 2 , , , , , 6 6 6 8 8 9 E E 9 9 9 8 8 6 6 6 6 4 , , , , < < , 2 2 , 6 7 9 Z Z E W E Q W ! ] ) ^ o.` ] [.2X%.  @ (.FXzXD.n.d.g.g n c g h d t % $ $ t % $ % C C d h v N R R n v n n n h.n.gXgX@   1 -.=.7.7.^ ^ $.#.^ ^ E 9 9 8 6 8 8 8 8 6 6 6 , 2 2 , , < < < , , , , , , , , , , , , , , , , , < , < < , 6 6 6 6 q 8 8 8 6 6 4 4 6 8 8 9 W E Q  .o.o.#.! =.=.w.2XaX:.O F u.8XhX9XY.^.|.^.^..X XXXeX X^./.A.Z.A.A.A.A.A././.C.C./.A.A.Z.l.v.l.B.Z.V.U.l.V.i.v.^.G   p qXIXkX;.8._ =.J.7.[ A 7 D 2 6 6 8 8 8 8 6 6 6 6 6 6 6 6 6 6 6 6 8 6 6 6 6 6 6 6 6 4 4 4 , , , 4 6 6 6 q 6 6 2 , , < , , < < < < , , , , , 2 9 Z Q Q W Z W W 9 *.dXK.. 1 wXJXFXrXD.n.b.h.R n f t t t t : $ $ $ $ $ $ $ $ $ $ % f f f f h g n c.v.E.P.G.&.< O [ <.<.] o.! o.! W E 9 0 6 , , , < < , , 6 6 8 9 L E E E E 9 L 9 9 9 9 7 8 8 8 8 8 6 6 6 6 8 8 8 7 7 8 8 8 6 6 4 4 4 4 4 6 6 8 8 6 Z E Z ~ ..4.4.4.'  .+.>.] w.1XvXK.e r V.nXZXcX^.B..X.XeXXXpXiX",
".XeXXX X.X.X.X.X X^././././././..X.X.X.X.XXXeXeXeXeXeX^.^. XhXnX+ O =XaXJ.%X*X7.%X&Xw.W 7 ! S 7 7 6 2 6 6 6 , , , 4 6 6 2 2 2 , , , , , , 6 6 6 6 6 8 9 9 9 9 9 8 8 6 6 6 , , , < , , < < , , 2 6 8 9 Z Z Z E W Z Q Q ~ o.` ^ o.+.<.$X;X. . t.gXFX).n.h.d.d.n c c g d d t $ $ $ t $ $ % C C C d v N N n c c m n d.d.n.8XzXg.  r F.0.=.7.) W ^ ` o.^ E 9 9 8 6 8 8 8 8 6 6 6 6 2 2 , , , < < , , , , < , , , , , , , , , , , , , , < < 2 6 6 6 6 6 6 6 6 6 6 6 6 , q 8 9 W E W o.^ O.O.) O.7.=.:XdX,X= p p V.gXiX8X X|.^.|..XXXeXeX.X/./.A.Z.A.A.A.A.A.A.U.U.U./././.A.Z.Z.B.B.Z.C.U.i.l.u.v.Y.X X R.jXGXT.%.-._ 0.J.-.( 0 q w 6 8 7 8 8 8 8 8 8 6 6 6 6 6 6 6 6 6 8 8 8 6 6 8 6 8 6 6 6 4 4 , , 4 4 6 q q q q q q 6 , , , 2 , < , , 5 , , , 2 6 Z W Q Q W Z W W A 0.aX5 o G.UXKXFXtXD.n.m.k.R n f y t y t : $ $ $ $ $ $ $ $ $ $ t f f d d d c d.v.I.(.7XT.:.;.F.[.J.$.$.$.! ^ W W L 0 8 6 , < , < < , , 6 6 8 9 9 9 L L L E L 9 9 9 9 7 8 8 8 0 6 6 4 6 6 6 8 8 8 8 8 8 8 6 6 4 , 4 4 , , 6 8 8 7 Z E E Q  .4.,.4.X.~ >.+.[ <.1XvXvX;.1 N.jXnXmXeX/..X.X XXXeXpX",
".X X X.X.X.X.X X^./././././././././././..X X X XeXrXeX.X XiXMXeX. 1 0X>X3X&X#X#X4X#X7.! Z S Z 7 6 6 6 6 6 , , 4 , 4 6 6 , , , , , , , , , 2 6 6 6 6 8 9 9 9 7 8 8 8 6 6 , , , , < , , < < , , 2 6 6 6 7 7 7 7 Z Z Q Q ~ ` ` Q ` +.7.:X1.. O }.zXgX~.n.d.g.n y.z c g h d t % $ & t $ $ % d d d h v B n c c m d.d.j.j.n.).uXgXX + =XdX8.7.O.] ^ Q ` Q Z 9 9 8 6 8 8 8 8 8 6 6 6 2 2 2 , , , , , , , , < < , , , , , , , , , , , , , < , 2 7 7 6 6 6 6 2 , 4 6 4 4 , 6 6 9 Z Z E ` W ^ W ] ) =.7.[.aXyXO r s.^.hXiX9X|.A.U./..X XeXeX/./././.A././././.A.Z.Z.A.A.U././.~.Z.C.v.l.B.U.C.i.u.i.Y.P.  i kXIXBX;.;.-.8.[.0.) A 0 7 q 0 0 9 9 8 8 6 6 6 6 6 6 6 6 6 6 6 6 7 7 6 2 6 8 6 8 6 6 6 6 , , , 4 4 6 6 q q q q q 6 , , 2 2 , < , , 5 , , , , 6 Z S Q Q W W W W _ $X:XO O sXDXLXZXtX_.n.m.h.n m f d t t t : $ $ $ $ $ $ $ $ $ $ % f t - t d g H v.Y.R.7X0XL.,XBXNX3X<.$.o.` ^ W W 9 8 6 , < , , , , , 2 6 6 6 9 9 9 9 9 9 Z 9 9 9 9 9 7 8 8 8 0 6 6 4 4 6 6 6 8 6 6 6 8 6 6 2 , , 6 2 , , 6 8 6 9 E Q Q ~ | X.X...@.` >.$.<.7.%XvXVX>XF R.nXnXDXmXpXeXXX^..X.X.X",
"XXXX.X.X X X XeX/./..X.X^./././././.A.A././.A.A.A./.A.Z.^.pXxXJ   L.dX$X3XNX*X4X4X0.) ! W 7 Z Z 7 7 8 q 6 , , , , , , , , , , , < , , , , , 6 6 6 8 8 0 9 9 9 8 8 8 6 6 , , , , < , , , , , 2 2 7 8 8 9 7 7 9 E Z E Q ~ ` ' Q Q ! 0.:X%.. r qXnX(._.n.j.j.H z c m j f d d % $ $ % $ % d f g g g j v v n N d.d.d.d.j.~._.tXZXy   L.GX$X<.W ! ^ o.` Q E 9 9 8 8 8 6 6 6 6 6 6 6 2 2 2 2 , , , , < , , < < , , , , , , , , , , , , , < , 6 q 7 6 6 7 6 , , , , , , < , 6 6 9 9 Z ^ ^ 9 E ! ) [ #XJ.0X0Xo F uXFXHXZXrX|.A./.|.^..XXXXX/./.^././.^..X.X.X/.B.Z.U.A.A./.A.Z.l.l.l.l.V.I.V.B.i.I.9XV.  R.SXPX>XF.=XJ.$X$X8.) 9 P 0 q A 7 9 8 8 6 6 4 4 6 6 6 6 6 6 6 6 6 7 7 6 2 6 8 6 6 6 6 6 6 , , , , 4 4 6 6 6 6 , 6 2 , , , , < < < < , , , , , 6 Z S S S E E W W _ $X2Xe u jXKXZXtX).).~.h.f.m c l f d t : % $ % $ $ $ $ $ $ : % % t t t d d f c b D.g.v.7XL.yXGXGXVXJ.=.W $.] W W 9 8 6 , < , , , , , 2 6 2 6 7 8 7 7 9 9 9 Z 9 9 9 9 7 8 8 8 8 8 6 6 4 6 6 6 8 6 6 8 6 6 6 6 , , 6 6 , 2 6 q 7 9 E / ~ | | X.X.X.@.>.` 7.<.0.[.vXBXbXM.7XAXZXDXhXeXeXeX.XeXXXeX",
" XXXeXXX.XXXeX^..X/./.^.^./.A././.A.Z.A././.A.B./.^.B.S. XpXuXi   L.>X>X1X5XNX6X4X5.$.) W Z ! 7 9 2 2 2 , , , 2 , , , 2 2 , , , , , 4 4 4 6 8 8 0 8 8 8 9 9 0 8 8 6 6 4 4 4 , , 6 , , , 2 2 2 2 6 8 6 6 9 9 9 / E ` ~ ' ,.| ~  .$.0.%X8.. a 7X9XI.~.n.m.j.H H c g f d d t % % t % % % - d d f f v N f.N n N K N f.m.Q.~.tXZX+   u VX:X[.] W ] +.o.^ E L 9 9 9 9 q 6 6 2 , , , , , , < < < , , , , , , < < < , , , , < < < , , , , , , 6 7 7 6 6 6 6 2 , , , , , 6 6 q 0 q 8 9 / ^ ) 7 ] o.<.w.=XaX:.. s.SXLXLXZX8XZ.C.A.^. X.X X X^././././.U.A.^./.A.Z.A.A.U././.Z.B.B.l.B.B.l.l.i.u.V.Y.8Xl.  E.kXPX>XJ.:X:X:X$X*.[ } 9 9 W W 9 0 0 7 8 6 6 6 6 6 6 6 6 6 6 6 8 7 6 6 2 2 2 2 2 2 6 6 6 , , , 4 6 6 , 2 6 6 2 2 2 , , , , , , < < , , , , , 2 7 9 9 W W 8 6 0 [ ;.aXw e kXAXxXOX_._._.Q.j.m c g f f d t $ & $ % & & & $ $ $ & - - - - t d g z y.g.c.v.P.R.sXGXPXGX%X[.#.Z $.W ^ W 9 8 6 2 , , , , 2 2 2 2 6 6 6 7 9 9 9 Z E Z 9 9 9 8 9 9 8 8 6 6 6 6 6 6 6 6 8 8 8 8 6 6 4 4 4 , , 6 6 6 6 8 8 9 E ~ | ..3.4.4.@.o.7.o.` #X3X3XNXNX}.wXJXJXnXiX/. XiXpXpXeXeX",
"eXXXXX.X/..X.X/././.A./.A.Z.Z.A./.C.Z.U./.U.C.Z.C.C.l.^.gXiXXXV.X &.}.=XvXNXNX6X<X9.7.$.W W ) 9 S 7 6 6 6 , , 6 , , 2 2 2 , , , 4 4 4 4 4 6 8 8 9 9 8 6 8 8 8 8 6 6 6 4 4 4 , , 4 , , 2 2 2 2 2 6 6 6 7 L Z 9 E ~  .~ | 4.X.| 9.w.[.$XJ.o   i v.~.~.n.b.b.d.H m c c g f d % % % - % $ $ % t d d v N N n v n K f.f.b.n.x.OXv.  . e dX:XK.=.! o.o.o.^ E 9 0 8 6 6 2 2 , , , , , , , , < < < < , , , , , < < , , , , , < < < , , < , , , 6 7 7 6 6 6 6 6 , , , , , 2 , , 6 0 0 W ^ E ^ Z ^ O.7.0.$X>X1 O p.SXKXHXnXiXU.Z.A./. X XeX.X/.A.A.A./././././.A.A.A.A.A././.C.Z.B.l.l.l.i.G l.l.I.|.|.B.X F T.aX=X;X2X:X;XJ.*.*.} 9 W E 9 7 7 7 7 6 6 2 2 6 6 6 6 6 6 6 6 6 6 6 6 2 2 2 2 2 2 6 6 6 , , 2 6 8 8 6 2 6 6 2 2 , , , , , , , < < , , , , , 2 6 0 0 W W 8 8 ( 8.H.$X;.o a.7X(.~.~.).).~.d.m H c g h h d - % % $ $ $ $ $ $ % % % - d d t f l m g.c.g.v.E.N.sXPXPXBX#X0.<.+.o.! Q E 9 8 6 6 , 4 , 6 6 6 2 2 6 6 7 9 Z Z E E E E E 9 9 9 9 9 9 7 6 6 6 6 6 6 6 6 8 8 0 8 8 8 6 6 8 8 6 8 q 7 7 8 6 9 E E ~ | ....5.@.o.#.>.>.w.#X3XvXNXF.0XLXFXnXcX XeXpXeXpXiXpX",
"eXeXXX X.X.X.X/.A././.A.Z.Z.Z.U.A.C.C.Y.Y.C.Z.C.U./.l.U.pXuX^.^.; o M.;XNXNXNX6X*X5.7.o.E 9 W 9 S 7 6 6 6 , , 4 6 6 6 6 6 2 , , 4 6 4 4 4 6 8 9 9 9 8 6 6 6 8 0 6 6 6 4 4 4 , , , , 2 2 2 2 2 2 6 8 8 9 ^ ^ E E ~ ~ ~ X.4.X.X.q.'.[.[.{.:.  + a.Y.~.n.n.n.h.d.m m v l g d % % % t % $ $ $ % t d c v n v c m N K R b.Q.I.D.@     %.>X$XJ.<.^  .+.o.^ 9 9 8 6 , , , , , , , , , , 2 , , < < < , , , , , , , , , , , , , , , , , < , , , 6 q 8 6 6 2 2 , , , , , , , , 4 8 8 0 W ^ ^ +.` o.#.7.8.K.L.. u 7XPXKXZXuXhX^.Z.A.^. X XeX^./.Z.A.U././././.A.Z.A.A.Z.A.U.U.A.U.C.l.l.B.S.l.B.l.V.9X|.Y.p @ &.G.=XdXNX2X&X0.-.*.) L ^ W 9 9 9 9 7 8 8 6 6 6 6 6 6 4 4 6 2 6 6 6 6 6 2 2 2 6 6 6 6 6 , , 6 8 8 8 6 2 6 6 6 2 , , , , , , , < , , , , , , 2 6 0 W W W 0 0 [ 0.J.H.=XO + s.i._._._._.~.j.c n c h d d d t % $ & $ $ $ & $ % d d g l k f f c n c.n.u.v.P.a.kXPXPX1XJ.=.=.$.! ! W Z 9 8 6 6 6 6 6 6 6 2 2 2 6 6 9 E W W E E E E E E L 9 9 9 9 9 9 7 8 8 8 8 8 8 8 8 9 9 8 8 8 8 8 8 6 8 8 8 8 8 6 9 L E ~ | X.X.@. .o.o.+.#.9.*XvXBXaXL.bXKXnXnXmX X.XXXXXeXpXcX",
".X.X.X.X/././.A.A././.A.Z.A.A.A.Z.Z.C.Y.A.B.B.A./.|.B.S.|.eX^.^.a.  u {.3XNXVX5X*X>.+.Q Z 9 Z Z Z 7 7 8 6 6 6 6 q 7 9 7 8 8 6 q 6 6 6 4 4 6 8 9 9 9 9 8 6 6 8 9 6 6 6 6 6 4 4 , , , 2 2 2 2 2 2 8 9 8 9 ^ ^ W E E ~ ~ ..4.X.X.4.'.[.#X{.{.O . x v.I.n.n.b.h.d.c c l g g d t % % t - % $ $ % t d j M v c c c n n f.n._.(.y   X + K.;X[.8.=.^ ^ o.^ E 9 8 6 , , 2 2 , , , , , 2 , , , , < < , , , , , , , , , , , , , , , 2 , , , , , , 2 6 6 6 6 , 2 6 q 6 , , , , 6 8 0 8 8 E  .$.@.#.#.<.7.8.$X&.  &.CXKXLXuXuXiX/.B.U..X X XXX/.A.A.U././.A.A.A.A.Z.Z.Z.Z.A.A.U.A.U.U.B.B.C.C.^.C.l.B.9X9X^.S.@ r p.}.aXvXdX:XJ.=.} W W ^ ^ W 9 9 9 9 9 9 8 8 6 6 6 6 6 6 6 6 6 6 6 6 6 2 6 2 6 6 6 6 6 , 4 6 8 8 8 6 2 6 6 6 2 , , , , , , , < , , , , , , 2 6 0 9 0 W 9 0 _ <.J.K.=X%.. F v.~._.~.~._.h.g c g d - - t t % $ $ $ % % % % d d c c m c c z m H h.n.c.v.a.-XIXPXVX$XJ.O.] ) ! ^ W E 9 8 6 6 4 , , 2 , , 2 2 6 7 9 E W W E E E E E E E 9 9 9 9 9 9 9 9 9 7 7 7 8 8 8 9 9 8 8 8 8 8 8 8 8 6 6 6 6 8 9 9 E Q | X.X.| ~ +.^ ^ $.9.3XvXdX;.,XHXHXuXxXxX/./.XXeXXXXXeX",
" XXXXX.X/.A.Z.A./././.Z.Z.A.A.Z.Z.C.C.A.Z.B.B.C.A.C.S.C./.eX X|.|.r . %.J.:XNXNX3X7.` W ) W ! ^ W W W 0 P 0 0 8 8 7 9 9 9 7 8 8 6 6 6 6 6 6 8 9 9 9 9 9 8 8 8 8 8 8 6 6 6 6 6 4 , , , 2 , , 2 2 0 0 6 8 W ! E Z E ~ {  .4.4...| 9.*X#X$X;XF . o t.I.I.n.m.h.d.g c g g g f d % % % % % % % % t d g j j M c c n n m.n._.y.    o p.aX%XJ.=.$.` / ` W 9 8 6 6 , 2 6 6 2 2 2 2 2 , , , , , , , , , , , , , , , , , , , , 2 2 2 2 , , , , , 2 6 6 6 6 6 6 q 0 0 6 , , 6 8 9 9 9 E ^  .o.~ o.$.<.7.H.=X1 + G.AXKXhXwXhX XC.B./..X.X X.XA.Z.Z.A./.U.A.Z.A.A.Z.Z.Z.Z.Z.A.U.A.C.C.C.C.Y.U.U.C.C.C.^.9XY.Y.i + s.F.{.:X3X1X#X<.) W W ) W ^ W W E E E 9 9 9 9 9 9 9 9 9 9 9 8 8 8 q 6 6 6 6 8 6 6 8 6 6 4 8 8 7 8 6 6 6 6 6 6 6 , , , , , , , , , , , , 2 6 6 7 9 9 P 0 8 0 <.0.{.K.L.o 1 a.y.b.Q.~._.b.c m m g g g g f t t t t t t d d d d j g g l c n H H y.v.c.u.t.BXKXPXvX$Xw.$.] ! ] ! W E 9 8 6 6 , , , , , 2 2 6 7 7 9 E W E 9 Z E E E E E E 9 9 9 L 9 9 9 9 7 8 8 7 8 9 9 9 8 8 8 9 9 9 7 9 9 9 9 8 8 9 9 9 E ' | | | ~  .^ @.<.e.3XVX=Xp.BXPXuX8XpX9X/./.XXpXcXeX/.",
"cXxXpX X/.A.A.A././.A.Z.Z.A.Z.B.B.Z.C.C.B.B.B.Z.l.B.B.Z.C.eXuX|.7XP.o O -.[.1XNXNX'.#.! o.] ) ] ^ ^ W P 0 0 0 8 8 9 9 9 9 7 8 8 8 6 6 6 6 8 9 9 E E 9 9 9 8 8 9 8 8 8 6 6 6 4 4 , , , , , , 2 6 0 0 7 8 E ! E E E ~ { | ..5.5.X.,.<X*X1X;X=Xe   p V.~.Z.n.m.f.M n v l g f d t % $ % % % % % t d v M M M c m K f.x.~.D.*     + 0XaX{.8.$.#.o.~ ~ W 9 9 8 6 , , 2 6 6 6 6 2 2 , , , , , , , , , , , , , , , , , 2 , , , 2 2 2 , , , , 6 6 6 6 6 6 6 6 6 0 0 6 , 6 9 9 8 9 / o.o. . .~  .#.<.7.$XK.o i qXHXKX7XrXhX^.C.B.U.^..X X.XZ.B.S.B.Z.A.A.A./.A.A.A.Z.B.Z.A.U.Z.Z.Z.Z.C.U.C.C.U.I.V.C.uX XY.V.@ u M.L.{.:X1X&X7.] ! ) ) Z ^ ! W W W E 9 9 9 9 9 9 9 9 9 9 9 0 0 9 8 8 8 8 8 9 9 9 9 9 8 8 9 9 9 9 8 6 8 6 2 6 6 , , , , , , , , , , , , 2 6 6 7 7 9 0 0 8 7 -.8.[.;X,X%.. i T g.b.~._.Q.d.n n c c c z g f f t - % % % d d d c j f g z m m b Y x.i.t.a.GXKXGX2X#X7.] ] ` +.S W E 9 8 6 , , , , , , 2 6 7 0 9 9 E W W 9 Z E E Q Q ~ E E E E E E E E Z Z 9 9 9 9 9 E 9 9 9 9 9 9 9 9 9 9 9 9 7 9 9 9 9 Q | X.| | ' +.o.o.<.#XvXBX:.yXHXCX|.rXiX.XZ.A..XpXxXiXpX",
"iXhXeX/.A.A.Z.A./.U.A.A.A.A.Z.B.B.C.C.S.l.B.Z.B.l.Z.Z.l.B. XxX8X(.7XF o D 8.%XvXvX%X0.^ ) ) ] ] ^ ! W 8 6 6 8 6 E E / Q E 9 9 9 9 8 8 8 8 9 9 E ! W 9 9 9 9 9 9 7 7 8 8 6 6 , , , , , , < , , 6 0 0 7 7 E ! E E E E ~ X...5.5...4.*X*X1X1XaXF.. + t.n.I.n.m.f.N N m c j g d d : % % % % % % d f v v v m n H d.h.c.n.x   X   p.dX:XJ.<.$.@.+.~ / E 9 9 0 8 6 2 6 8 7 7 7 q 6 , , 8 6 6 2 , , , , , , , , , , , 2 , , , 6 6 6 2 , , 8 0 8 8 9 9 9 0 8 6 0 0 6 6 8 9 9 9 L ^ o.+. . .+.$.7.7.0.;X*.O a.SXLXAX9XhXeXC.A.Z./.|..XXX^.Z.B.l.B.Z.A.A././././.A.Z.B.B.Z.A.Z.Z.A.Z.A.U.Z.U.Y.B.l.B.8XiX|.Y.p = p.F.J.$X1X<Xw.<.^ ) ) E ) ^ ^ Q E E E E E 9 9 9 9 9 9 9 9 P L L L 9 9 9 9 9 9 9 E E 9 9 9 9 9 9 9 9 9 8 6 6 6 6 6 3 3 , , , , , , , , 6 6 6 9 9 9 9 0 9 9 ) =.[.1X2X=X= + s.u.g.n.~.~.h.N m c g z z g d t $ $ & & & C g c N n c g z c c z y.x.T t.sXPXPXBX:X[.$.! ! +.^ E Z 9 8 6 , , , , , , , , q 7 0 9 8 E W E L L E E ~ ~ ~ ~ E E E E E W W W W W E E E E E E E E Z Z 9 9 9 9 9 9 9 9 9 9 9 E ~ X.X.X.| @.@.@.] 7.1XNXF.p.BXAXrXeXxXiX^.A./. XeXpXpXiX",
"XXeX.XZ.A./.A.Z.U.A.A.A.A.Z.Z.B.C.U.C.l.l.C.C.l.l.B.B.C.^.^.gXiX|.R.E.o O :.%X1X3X&X[.` W ^ ] o.^ W 9 , , 4 8 8 ^  . . .~ E E L 9 9 9 7 7 9 E W ^ W 9 9 9 9 9 9 9 7 7 8 6 6 , , , , , , < < , 6 6 8 6 6 9 E 9 9 E E ~ X.....2.X.| >.'.'.1X2X>X<   r u.I.~.m.f.f.N v c g f d d d d d d % % % d g M M n d.j.d.d.g.n.c.*     O sXdX;X[.<.>.+.+.~ / E 9 9 9 8 6 6 6 7 0 0 0 0 7 6 , 0 7 6 2 , , 2 2 6 2 2 2 , 2 2 6 6 6 6 6 8 8 6 6 6 0 9 9 9 9 Z 9 W 9 9 9 9 8 0 W 9 W ^ W E /  .+.~ +.$.7.7.J.>X5 1 7XHXKXuXiXnX XZ.U.A.^..X XXXU.Z.B.B.Z.A./.A.A././././.A.B.B.Z.A.C.U./.U.U.Y.A.Z.U.B.C.C.V.gX9X|.v.. F :.H.[.1X1X*X9.^ ! ) ) O.o.^ / E E E E E E E E E E E 9 9 L L L E E E E E E E W Q W E 9 E 9 E E 9 9 9 7 6 6 6 6 q 6 6 , , , , , , , , 6 6 7 A A 9 9 9 0 ) A O.[.#X:X2X:.. i x g.D.D.m.j.n m l f g z g t $ * & & & & h n k.R N n m c b b y.y.v.x a.PXPXGXvX%Xw.] ! Q +.S ] 9 7 6 2 , , , , < < < , 6 8 8 8 6 9 E E 9 9 E E ~ ' ~ ~ E E E E 9 Z E E E E E Z E E Q E E E E E Z Z 9 Z Z Z Z Z 9 9 9 9 ~  .X.| X.>.@.#.<.J.2X>Xu kXIXZX8XhXgX(.A.|.eXXX XXX.X/.",
"^./.A.A.Z.B.Z.U.U.A.A.U.A.Z.Z.Z.C.B.S.l.l.B.B.l.B.Z.U.U.C.U. XgX8XY.}.F . e K.:X3X<X#X>.Z E W 6 9 9 6 , 4 9 9 6  .,.X...~ E  .E 9 9 9 9 9 9 Z E ^ ^ ^ W 9 9 9 9 Z Z 9 7 6 6 6 6 , , , , , , , , 6 8 8 9 E W ^ / E E ~ X.X...2.4.>.' w.#X&X3XaX1.. . i v.n.j.m.R v g m g f c h d C % : d d % f m N d.n f.j.d.c.y.~.y X     G.BX>X$X0.#.#.5.@.~ E E L 9 0 q 8 6 6 6 6 6 8 8 8 9 0 0 8 6 8 8 6 6 9 6 6 6 6 6 6 8 8 0 0 7 7 7 7 0 0 8 8 9 Z W W W ^ Q Q S 9 9 Z W W 9 / ^ / / ^ o. .>.^ 0.0.J.;XK.O t.UXLXJXuXZXiX/.^./.^./.^.eX9X/./.B.Z.A./.A.Z././.^..X/.A.B.Z./.U.A.A.A.A.A.Z.Z.Z.Z.C.Z.B.C.|.gX|.|.r = :.M.{.$X1X&Xw.7.E ) ) ) ^ Q E E E E 9 9 o.$.^ E E E E W E L E / E E E E Q  .~  .E ` / Q E ~ Q E Q E 7 9 9 9 9 A 0 , , 6 2 2 2 , , 2 6 6 7 0 0 9 0 0 W ( ) W 0.$XdX2XaX1 1 p x x.~.n.d.d.c f d t % t % * & & & * & M h.f.R N N n n y.b y.i.u.t.sXKXPXBX2X%X7.S Q o.] ^ Q 9 9 8 6 , , , < , , , , , , 8 9 9 L ^  .~ Q Q ~ X.| | ' { ~ ~ E E E E Q Q E E ~ ~ ~ ~ ~ E Z E E E E W W W E E E W W E ^ @.5.>.X.>.>.7.] <.%XBX*.G.SXHXrXuXzXgX.X.X X9X9X X X X.X",
".X.X/./.A.C.C.A.U.A.U.U.A.Z.B.B.C.Z.B.B.B.S.l.l.C.C.U.U.A.U. XuX XY.R.P.. 1 %.{.$X%X*X9.9 , 8 0 W W W ) 9 8 9 E >.5.4.,.| ~  .^ W W W W E E Q ~ +.o.o.^ ^ ^ ) o.W W Z 9 7 6 6 6 , , , < < , , , 8 6 6 6 9 E E E E E ~ X.X...2.,.5.~ 9.4X4X3XdXdXw   r a.I.n.n.k.j.n R m c n M f d % % t % % d c n v M m h.g.h.c.g.*   @ 1 aXdX;X[.0.$.#.4.@. .~ W E P 0 0 0 7 7 8 8 8 8 8 9 9 9 9 8 8 7 7 8 7 9 7 6 6 8 7 7 7 7 9 9 0 7 0 9 0 A ! ! ) ^ ^ ^ ^ ^ ^ ^ Q E W ! ^ ^ ^ ^  . .o.o.o.o.+.+.<.0.J.2X;.1 7XAXKXAXhXnXeX^.^.|..X/./..X|.A./.Z./././.A.Z./././././.A.Z.A./.A.Z.C.C.Z.B.B.B.Z.Z.C.C.B.B.|.uXeX9Xs.. &.:.H.J.#X<X*X9.S ) O.] #. .E E E E E W #.7.@.^ ^ ^ W W ^ ^ ^ / ~ ~ ~ ~ | X.| X.~  .~ ~ Q ^ ~ Q ~ Q Z Z Z Z S W 0 6 , q , 2 , , , , 6 6 6 7 9 8 q 0 ( ( 0 A =.w.%X%X2XM.. r p b I.b.n n c d t t t t t % & & % & % v f.f.f.n n n n n b u.u.t.a.HXPXGXdX2X#X7.] $.#.o.^ ^ 9 9 6 6 , , < < < < < < , 2 6 8 9 E / ~ ~ E ~ | X.X.X.X. . .' ~  . . .@.@.X.X.@.@. .~ ~ `  .` ^ `  .` ^ ^ W W W ^ W W W ` +. .~  .>.>.7.8.2XL.u qXHXSX9XiXgXeX.X X X X X.X.X.X^.",
"^././.A.C.C.A.A.C.C.C.C.C.Z.Z.Z.A.Z.B.B.B.l.S.B.C.C.U.U.A.C.U.|.8XY.I.R.@ + w K.$X%X<X%X<.W W _ ) ) ) ( W W o.>.4.5.6.,.X. .{ o.^ ^ ^ ^ Q Q ~  .@.o.^ ^ ) o.O.O.! ^ ! W 9 8 6 6 6 , , < < , , , 0 8 6 8 9 E E Z E E ~ ' | X.X.X.>.'  .+X*X3XvXNX$Xo O i I.I._.~.n.j.d.m j v g d d % % % % % d g v v c f g.j.g.I.y   + 1 L.BX>X$X0.7.o.+.@.@. ./ W E W 9 0 9 7 7 9 9 9 9 9 9 9 9 8 8 8 9 9 8 8 9 9 9 9 9 9 A 0 9 W W 0 9 0 P ( ( ^ o.O.] ` o.` ~ Q ` Q Q Q ^ ^ ^ o.^ ^ o.O.o.o.o. .7.7.J.;X,X1 p.SXLXLXzXmXhX X|..X.X.X|.|.|.Y.U././.^./././.U.^./././././.A././.A./././.A.Z.Z.A.A.A.U.U.C.Z.^.9XuX9XR.; 1 u F.H.J.1X3X*X$.] O.=.#.o.^ Q ^ ^ ^ ^ o.$.o.^ ^ ^ W ^ ^ o.^ / ~ `  .| ,...X.@.~ ` ~ ^ / ` ~ ~ ` ~ Z E S Z Z W 9 6 2 q , , , , , , 2 6 6 8 8 6 6 q 8 q , q 9 =.[.%X1X>X= O i x v.n.f.R y.z f f f f f f d & d h h N B k.f.v n n y.y.u.i.t.t.qXKXPXNX2X%X8.$.O.$.#.] ^ ) 9 9 6 , , < < < < < < , q 0 9 6 9 E ~ ~ ~ ~ ' X.X.....X.X. .{ ~  .~  .>.4.@...4.5.4.@.@.4.4.@.@.^ ` ` ^ W E E E W W E W ^ o. .`  .>.$.7.$XaXe G.CXHXhXeXxXiX X X9X XXXeXeX9X X/.",
"A.U.A.Z.C.C.A.C.Z.C.B.C.Z.C.A.U.A.B.l.S.B.S.Z./././.^..X|.^.A.C.(.I.I.(.t.o u ;.J.$X:X1X[.O.( _ _ O._ 9 W 7.9.4.5.5.q.5...@.{ #.^ ^ ^ ^ ^ ~  .@.>.o.Q W W ^ ) ^ ! ^ ) ! W 0 q q 6 , , < < , , 2 0 0 7 9 E E E E E E ~ ~ | | | X. . .Q  .q.3X5X3XdX%.  @ u.I._._.n.d.n c g c f d d % % % : d f M v N N m d.H c.i.@   p &.aXdX:X#X7.$. . .@.X.` ~ E E 9 0 9 8 6 6 9 9 9 9 9 9 9 9 8 9 9 Z 9 9 9 9 E W W W W W W W ( W W W P W ( ( Z ) o.^ ^ o.` Q Q ` ` Q Q ^ ^ ^ o.^ ^ o.O.} } o.#.7.w.J.aXp.1 7XPXLXFXnXDXhXrXeX X.X/.|.9X X/.^.^./.^././.^.^. X^./././././././.^.^.^..X^./.^..X X.X.X X X|. X9XuX9X9XE.o a :.F.{.:X3X3X[.O.) <.<.o.^ ^ ^ ^ ^ ^ W ^ ^ W ^ W E ! W ^ ^ E /  .X. .4.X.X.>.~ ^ Q Q ^ ` ^ ^ ^ E Z E Z Z Z Z 7 2 , 6 , , , , , , , 6 6 6 6 4 4 6 6 q 6 0 2 ] &X1X1X1XF.. i u.b I.h.j.j.z f z f f f f d & M c v B B m.f.M n n y.g.i.u.u.N.GXPXGX1X1Xw.! ! ! ] ) W E W 9 9 6 , , < < < , < < , q 0 0 9 E E ~ | | | | X...3.3...X. .{ ~ ~ E ~ @.@.| ' X. ...4.>... . . .^ ^ ^ ^ ^ W W W E W W ^ o.$.#.>.>.o.7.8.2XL.e sXIXAXuXxXmXiX X9X|.U.|.9XeX X/./.",
"U./.U.C.C.C.C.B.A.C.B.B.B.Z.C.U.Z.B.S.B.Z.C.U.|.|.|. XeXeX9X|.U.|.8X^.(.P.  u %.8.J.:X1X$X-.A ( 0 ) ) 9 ! 7.7. .>.4.6... . .E o.o.^ ^ ` `  .$.>.7.$.! E W ^ W W W ! ^ ! W 0 0 0 q 6 , , , , 2 2 8 8 9 Z L 9 9 E ~ ~ ' | X.X.X.X.+.` | | q.*X3X3XdX;Xo   p v.~._.b.N N m v N m M f d d d d d g c R f.d.j.j.y.c.$   r &.T.kX;X$X0.$.o.o.o.@. .~ Q E L 9 9 8 8 6 6 8 9 9 9 9 9 9 9 9 E ^ ^ W W W W W W W W ( W W W ( ( ( W P 0 0 0 9 W ) ^ ^ o.o.^ o.o.o.` ` o.o.) ] ^ ) o.} ^ ) O.7.=.0.{.yXe s.jXKXLXZXDXDXxXxXeX X X/..X9X X|.|..X^..X^.^. X X X.X.X.X.X.X^.^.^.^./.^..X.X.X.X.X X.X X X9X9X X8XeXqXrXqXi X 1 ;.K.$X1X3X<X7.! O.7.$.] ^ ^ W W Z ) ] ) W W Z 9 9 E W ^ Q ~ `  .' >. .` #.W W E 9 E ^ ) ^ ! 9 9 W E Z 9 9 8 , , , , , , , , , , 2 , 6 6 4 6 q 0 0 0 A 7 ) 3X5X3X&X:X3 1 a.T c.j.g.Y f t f t t f f % & j n v v B k.N v n m y.z.u.t.a.kXKXGXNX3X&X9.W Z E W W Z L W 0 8 6 , , , < < < < < < , 6 8 8 ~ ~ ~ | ..3.3.3.3.5.5.4...2.@. . .~ { @.>. .' X...4.5.4.X. . . .$.@.$.$.o.o.o.o.^ ^ ^ o.$.#.>.5.7.$.w.;XaX1 s.jXHXnXgXDXmXuX8X X|.A.U..X|./././.",
"U.U.U.C.C.C.C.C.C.Z.B.B.B.C.U.U.B.B.Z.U.U.U./.|.|.|. XeXuXeX X|. XiX X(.P.@ 1 %.F.J.%X&X&X0.[ ( 0 A A A W ` >.5.>.5.5.X. .^ E o.o.^ ^ ^ `  .+.#.7.$.^ W W ^ ^ W W W W W W 0 0 0 q q 2 , , , 2 2 6 6 9 E E 9 9 E ~ ~ ~ | | | X.X.>. . .' q.*X3X5X3XvX%.. + G I.).n.j.j.f.N d.n m c g f d d h g v f.f.N b.h.c.y.  @ s.a.sXdX$XJ.<.) ^ ^  . . .~ E E L 9 9 9 7 7 7 8 9 9 9 9 L E E L W ^ ^ ! ^ ^ ) W W W W W W W W W W W W P 0 0 8 9 W ) ) ) o.o.^ o.o.o.o.o.o.o.) o.] o.O.O.] O.=.0.0.J.;XM.= R.HXKXFXZXFXZXxXmXeX XXX.X X X/..X.X/.^. X.X.X X X.X X X XXXXX X X X.X^.^..X.X.X.X.X.X^.|. X9X9X X XuXhXuXrX|.#   e ;.J.&X<X4Xw.$.] 7.O.! W W W W ! ] ] ) W W 9 9 Z W ^ ) o.] ` ^ ~ >.^ ^ O.9 W W 8 9 W ) ^ W 9 7 W E E Z 9 6 , , , , , , , , , , , 4 6 6 4 4 4 4 , , 2 6 S &X3X3X:X>XL.O t.v.y.y.g.Y l d d t t t d % % h N B v B k.n n n m u.x.u.u.7XPXKXVXdXdX*X>.! W W A 9 9 9 9 8 6 6 , , , < < < < < < , , 8 9  .~ ~ | 3.3.6.6.3.6.5.4.2.4.4.@.@.+.@.5.5.4.@...9.5.5.4.4.4.@.@.5.5.7.#.#.O.o.o.^ ^ ^ O.=.=.7.7.7.7.[.2XK.O 7XAXSXuXhXZXgXeXeX X X|..X9X X^././.",
"A.A.C.C.C.C.Z.Z.B.B.B.B.Z.U.U.C.S.C.U.Y./.^.|.|.|.|.|. X9XeX9X X/.rXrX9XqXt.. F 1.H.w.[.%X[.=.( _ ( A S 7 Q >.w.9.'.5...4.@.#.7.7.o.^ ` o.o.+.@.>.o.^ W ^ ^ ) W W W W W A P A ( 0 0 6 6 2 2 2 2 8 8 9 E W Z E / E E Q ~ ~ ~ | | >.$. .~ >.+X3X3X3XNX;XO X y I.tX~.b.m.j.N n v c M M g d d f c n f.f.j.n.c.c.#   p P.7XBX>X$XJ.=.} }  .{ { ~ Q E L 9 9 9 9 7 7 7 9 9 9 9 E E E E E ^ ^ W E W ^ ^ W W W W W W W W W W ( ( ( ( P P ( _ [ O.O.O.} } #.#.$.o.O.O.$.O.=.=.$.O.$.=.7.7.7.J.$X{.e &.kXKXJXZXDXDXMXmXmXpXeXpX X X^.Y. X^.A./. X^.^. X X.X.X.X X9XeX X.X^..X.X.X X X.X.X X X X9XeXeXeXeXeXuXnXhXrXrXv.o O w 8.$X#X&X#X7.=.<.O.! W W ! ) ) ( ( A A W A A _ ) _ O.$.$.] ^ ^ <.) ^ ) 6 W ( q 8 P P W ) L 9 ^ E W W 0 6 4 , , < < , , < < , , 6 6 6 4 , , < < < < 2 S w.<X3X3X:X2Xu p P.y.d.h.g.T x l t t t % % d C N f.B k.f.v R d.y.c.i.u.E.BXKXGXdX2X1X#X .S A A 9 9 9 8 6 6 6 , , , , < < < < , , , 6 9 9  .| X.3.3.3.6.6.6.6.5.4.4.5.5.2.@.2.>.5.9.5.5.4.5.5.5.5.4.4.@.@.5.5.7.#.#.o.o.o.` ^ o.#.7.7.7.e.e.0.$X>Xu &.UXHXnX9XxXzXuXrXeX9X X.X X9X X^./.~.",
"^.U.A.U.A.C.B.C.C.Z.Z.V.C.U.Z.B.B.C.U.U.U.^. XXX9X X X X9XeXeXeX(. XuX8XjXE.  u %.F.J.0.J.J.8.=.[ -.[ A S ] >.7.>.q.X.' +. .=.7.0.7.$.$.#.#.#.#.<.$.] ^ ) ) ) W W W W A 0 0 W ( A 0 0 7 6 6 6 8 0 8 8 9 E Z E W E E E ~ ~ ~ ' | @.#.@.@.Z 5.*X5X3X3XNXw . + v.).~.x.m.f.n n v m h g f d d f m N f.f.n.n.c.c.  + T N.kXdXK.J.w.7.#.$.+.+. . .{ ~ L 9 9 9 9 9 7 7 9 L 9 L E E W W ^ o.o./ E E / ^ ) ( W W W W W W ( ( ( ( _ ( } } } [ *.=.=.-.-.=.=.=.=.-.-.=.=.=.=.=.=.*.-.7.8.8.8.8.L.%.1 7XHXKXFXnXFXnXZXFXmXxXiXiXXX X^.^.9XY.Z./. X/./..X X X.X^.^. X9X X/.A. X X X9X X X XeX9XeXrXrXeXeXeXeXuXhXnXhX8XqXp . < :.J.w.#Xw.7.<.7.=.[ _ ) W A A ( ( A 0 A A D _ [ _ [ =.<.] ) ] <.] ) ) , W _ 0 8 8 8 W ) W W ^ W W W 0 6 , , , < , , < < < , , , 4 6 4 4 4 6 6 0 6 6 ] >.*X4X3X3X2XL.a t.u.g.g.y.y.b k d f f d % d & n f.N m.N v R j.g.Z.i.s.wXHXKXbX>X:X%X9.` 7 9 A 0 0 9 8 6 6 , , , , , < < < < < , 6 8 9 9 ~ X.3.6.6.3.6.6.6.q.6.5.5.9.9.>.o.@.#.4.7.9.5.4.5.q.w.w.e.7.7.7.7.7.7.7.=.#.$.$.$.o.$.7.7.0.e.e.8.w.:X=XO R.IXHXCXiXZXhXgXgXuXrXpX9X X X.X^././.",
"A.^.A.B.I.Y.C.B.C.B.Z.U.Z.Z.C.l.Z.Z.^.^.U.Y.|.9X9X X X X X9X9X X^.(.rXjXuXwX1 = &.p.F.H.0.0.w.<.<.0.{.[.8.w.#X0.'.9.7.7.7.0.0.w.w.7.0.w.w.w.w.w.w.w.w.w.0.0.7.O.) W A ( A 6 A A ( 0 0 ( A 0 0 0 9 9 9 9 E E E E Z 9 E W ~ Q Q ~ X.X.X.| ~  .q.4X4X5XNX{.O o x I.I.n.h.h.f.R R R R n m c c c m N k.b.b.b.I.k   y i -XBX>X%XJ.7.@.^ @.@.| ~ ' ~ 9 Z Z 9 9 9 9 9 9 W L E E L E / / E @.#. .+.#.+.! ] ) A ) 6 [ _ _ _ [ *.*._ _ *.-.*.-.;.8.8.1.=.-.=.8.8.<.;.8.8.1.8.=.*.*.<.8.8.<.1.1.L.O t.AXKXLXZXmXZXZXmXZXZXzXxXrXeXeX|.|.|.Y.|..XA./.Z././.C.Z.B.Y. X|.^..XB.A. XXX|. X|.^.eX8X9XeXeXrXrXrXuXrX|.ZXZXgXY.R.@ O e 1.{.J.w.0.7.8.w.[.J.J.8.-.*.*.*.*.-.*.*.-.*.-.-.-.7.8.*._ <.0.7.<.=.[ ] ) A A 6 A ) ) W W ^ ) W 9 0 6 7 7 2 q , , 6 , , , , 4 , , , 4 6 8 8 8 9 7  .4.+X3X4X3X3XaXF i t.u.g.u.y.b z l f f f f t % c n m f.f.m d.j.x.v.u.E.jXKXGXaX1X%X[.7.! 7 7 9 A 9 8 6 2 6 , , , , , , , 2 2 , 4 0 P L E | | 5.5.6.6.3.6.4.'.q...X.7.7.$.7.#.e.e.7.q.'.+Xw.e.w.+Xw.e.w.e.e.e.0.0.0.e.8.7.7.e.0.0.0.0.0.8.8.[.>X3 :.BXHXnXzXhXxXxXgXuXuXuXeXeX9X X|.|.^.A.",
"A.B.V.A.C.V.Z.C.U.B.C.^.U.Z.A.A.Z.B.U.|. X|.U.Y.I./..X X.X.X|.|.^.Y.9XCXjXlXt.. i p.L.F.;.-.8.<.8.J.:X:X#X$X$X0.<.[.:X1X:X1X3XdX3X2X3XvXvXvXvXdXvXdX3X3X2X1X:X1X%XJ.*.0 0 0 _ A ( A A A 0 0 0 0 9 9 9 E E E E E 9 9 E W / ~ ~ ~ ' ' | ..| | q.*X6X5X3XdXD   r c.I.~.Z.b.m.b.k.n n n n c g g n d.f.b.c.n.I.*   i &.sX>X>X%Xe.9.X.,.>.@.' Q ~ Q E ` Q E 9 9 9 9 9 L 9 9 E L E / E /  .@.#.5.7.>.] O._ ( _ 0 *.*._ -.-.;.;.1.8.H.J.F.F.H.H.F.8.8.;.8.8.F.F.F.F.H.H.1.;.-.-.8.8.F.F.F.=Xe e fXPXKXDXDXDXZXmXzXnXzXxXiXgXuX XY.Y.^.^.U.^.U./.Z.Z.Z.C.A.C.U.|.A.A.^.A./.A.^. X|.^.U.I.Y.^.|.|. X8X9X8XiX|.gXZXCX8X7Xt.  = M.{.K.1.<.<.<.H.{.J.H.8.;.:.%.;.H.K.H.H.K.{.H.K.K.$X$XJ.8.J.[.%X:X$XJ.$X$XH.0.1._ ( =.=.) ) ) W A W 7 2 2 2 6 < < , , , 6 , 4 , , , 4 6 8 9 9 W 9 @.q.q.*X<X4X4X1XK.u t.u.g.u.y.y.n m g f f f f f c l g K f.d.d.x.b.g.u.7XGXPXBX1X&X%X[.<.] W 9 6 6 7 7 6 , , , , , , , , , , 2 6 6 8 8 L ~ ..X.3.3.6.5.4.5.9.9.7.7.7.<.7.w.J.8.0.0.J.%X*X*X&X[.w.w.w.#X#XJ.J.J.w.0.0.0.0.0.0.0.e.0.w.J.w.0.J.=XH.u R.BXAXCXgXhXnXnXhXuXeX9XeXeX9X X|.Y.U.A.",
"C.l.B.C.B.Z.U.Z.C.B.C.^.Y.Z.U././.U.^.^.|.|.Y.|.iXuXiXiXiXuXhXnXhXjXhXZXCXCXfXr O U G.K.L.8.H.H.K.{.;X$XJ.K.$XH.K.;X>X>X2XdXdXdX2X:X>X1X1X1X2X2X2X1XaXvXvXaX2XdX2X>XK.-.-._ _ A 0 0 0 0 0 0 W P 9 L W W E E E E 9 9 L W W E ~ ~ X.| X.5.5.,.q.*X5X4X3X3XK.o r x V.I.~.n.m.n.m.N R R n c l m n n b.b.n.Z.H   @ r G.BX=X%X#X7.7.@.5.4...| ~ Q Q E Q E Z 9 Z Z W W L 9 9 W E / ~ E +. . .o.^ o.=.=.( %.-.;.;.1.F.F.F.;.:.%.u w I w w w u u w w w w u u w w w w %.%.%.:.;.;.;.;.;.p.,Xp.  s.SXLXLXJXZXDXFXFXHXJXFXDXmXZXhXuXrX8X^.Y.C./.U.A.Z.A.Z.C.C.C.V.C.C.C././.|. X X|.C.V.|.|.rXuXfXhXhXhXhXhXmXhXhXCXAXjXqXP.. a :.F.=XF.1.;.-.F.L.F.;.:.;.;.F.F.L.K.L.L.L.L.=X;X,X;X=XK.L.K.K.J.$X:X>X>X;X{.K.$X8.*.-.*.( -.) W ! ] ) S 9 ! _ 0 6 6 6 q q 6 4 4 4 4 6 6 8 9 6 W 9 4.'.5.q.*X<X&X:X>Xu i u.v.g.g.g.h.d.n c z t t t g h d N f.d.Y c.n.x u.fXKXGXaX%X[.#Xw.] o.] W 9 7 7 q 6 6 , , , , , , , , < 2 q 8 8 8 L { 2.3...3.6.4.5.9.e.0.e.0.J.J.H.H.H.F.H.{.:X2X%X$X$X$XK.J.H.K.$X$X{.K.J.J.J.K.K.K.K.J.H.J.$X;X$XK.{.=X:.u sXHXSXCXCXSXFXAXnXzXhXhXhXgXuXiXuX9X^.Y.",
"V.B.l.l.B.U.U.C.C.C.Y.^.U.A./..X/.v.^.9X|.Y.R.wXuXuXgXgXqXE.G p E.7XuXjXnXjXsX+ o r u p.p.;.;.;.p.G.L.L.M.F.F.;.M.;.%.e 3 e 3 < < O O O O O < < 3 < 5 w u w w %.L.H.F.:.1.%.*.D q 0 q 8 0 W W ) E ^ ^ / E E E E E 9 L E E E E E | ' | ..@...6.+X4X4X5X*X2X:.. r v.c.n.n.m.f.f.f.n v g h l n j % n.h.Z.I.*   r r aXdX;XK.w.7.` @.X. .| ' ~ E E E E E E E W ! W W E 9 E ^ ^ +.@.~ .. .+.^ 9 A [ -.:.:.:.%.e < 1 O = O O . . . . . . . . . . . . . . o O O o o o . o O O < < < 1 1 e o O 7XHXKXAXfXCXzX7Xt.r r r p r r G Y.wX|.V.S.B.Y.Y.Z.C.^./.U.U.U.V.U..X|.^./.A.^.^.|.^.S.a.i.R.}.wXqXuXfXfXfXzXjXqXqXuXwXP.i   . + 1 :.;.;.:.%.p.p.:.&.&.&.&.s.U u e = + O o o O 1 1 u %.;.M.L.;.;.F.F.M.;.;.:.;.%.%.*.*.[ $.Z E Z Z W Z Z W O.W 9 9 7 0 0 q 6 6 6 6 6 6 8 8 6 E E 5.+X5.6.+X*X*X&X;Xp.r t.V.g.g.g.x.h.d.n m f - $ t d g N d.y.y.n.v.y a.CXPXVX1X#Xw.[.<.^ ^ ) ) ) ( 0 , , 6 , , , , , , , , < 6 q 8 9 L / 2.4.3.| 4.9.>.7.e.0.8.;.*.-.:.I 5 < < < O 5 e < w < 5 w 5 < 5 w w 5 < < < < 5 5 5 5 5 w :.F.K.K.L.T.p.1 R.CXjXqXfXqXfXjXjXhXjXzXhXgXuXqX9X7XY.B.V.",
"H l.V.B.C.C.V.U.C.^.(./.U.Y.^.|..XB.^.|.i X                             .   .     a a 1 u s.E.}.wX-XE.a.t.s.W.G.a.a.W.W.a.a.a.G.p.s.p.G.G.p.p.s.:.&.&.&.U u u u u e e u %.w %.:.%._ q 6 W W W o./ o.o.~ E E E ~ E L L E E E Z E ~ ' | X.X.4.5.6.*X5X4X5X3X$X. @ x i.I.n.b.k.k.m.N m g f c H m C d.j.n.g.  X r a.BX>X:XJ.7.#.~ X.~ ~ E E E E E E ^ ^ Q W W Z 9 9 E E W ~  .>.5.@.' +.>.=.[ ( ( w 1 r 1 u &.&.t.U U &.t.s.a.W.P.P.E.E.E.P.P.G.N.W.a.R.7X7X-X-XE.N.s.t.i r r 1 1 r + + i UXBXt.@     .       o o o +               x S.^.V.C..X/.A.U.|.U.^. X^.A.A.^.U.Y.U.p               . .                     @ p i r &.a.E.T.-XwX0X0XwXwX-XE.a.s.t.i i i s.N.s.p.s.&.i i &.&.&.s.p.p.u e u e u e w %.:.;.0.<.O.#.^ 9 E ^ E Z W Z 9 9 7 9 0 9 4 6 6 6 8 6 8 8 ^ ~ X.+X+Xq.+Xq.+X*X1X>X-Xu i v.g.y.g.h.h.j.N n c f t t d g n H g.g.D.u.p -XGXPXvX2X#Xw.0.` ] ! Z A ( A q , , , , , , , , , , , , 6 6 8 L /  .5.4.3.' 4.9.#.0.H.F.;.&.&.:.&.u &.&.s.s.s.p.G.G.T.T.E.W.s.&.&.i u &.&.&.&.&.i u u u u u u &.&.U u &.U r qXR.+         X .                     @ r ",
"@ v. XU.Z.A.U.U.U.|.|.U.U.^.^.^./. X XG X F N.p.i i F &.p.p.M.G.s.&.&.a o     1 u P.R.-XfXSXPXLXKXKXLXJXIXAXAXAXAXAXFXHXAXSXSXAXAXAXHXPXHXHXIXAXIXHXIXAXAXSXCXkXsXsXqX0Xp.O e %.F.8._ 8 9 W W o.^ o.+.~ E E Q Q E E L E E E E Q | ..4.4.5.6.6.6.].4X5XNX3X:X:.  + t.n.n.x.b.b.k.d.K m c m d.d.d.n n.c.f     1 0XdX;X$Xw.7.^ +.X.X. .~ E E E Q ^ ^ Q E 9 7 7 7 9 L 9 E ~ | 4.5.4.X.>.#.=.*.w 5 w P.qXlXCXSXSXAXSXCXSXAXHXHXJXLXKXKXKXLXJXJXHXHXHXAXJXLXJXJXLXJXAXjXfXrXlXfXrXqXqXqXa.s.R.P.p.p.p.p.G.E.T.7XsXkXkXqX}.}.R.a.s.G +   x  X/.C.^.(./.U.|.U.^.|.A.A./.^.Y.|.G   F wX7XT.E.G.p.p.:.&.F u &.&.u     1 r s.P.R.7XkXAXPXLXKXKXKXKXKXKXJXFXzXrX9X8X8XrXgXjXjXjXCXSXSXAXHXHXJXHXHXHXBXqXwXwXwXqXsXsX;.< -.8.J.#X9.` @.7.@.+.Q S E Z 7 7 9 6 6 6 6 8 8 q 0 9  .' X.+X@X6.@X3.6.*X1X2X0Xp.r i i.g.g.x.x.j.f.d.l f f d - f m d.g.c.i.p i kXKXGX1X1X[.w.7.Q o.! A 6 , 2 6 4 , , , , , , , , , , , 2 6 7 W ^ ..5.3.X.X.4.7.7.J.;XkXkXkXjXCXSXSXAXAXAXHXJXLXLXJXLXKXLXAXCXCXUXjXjXjXjXUXUXjXjXjXjXkXjXjXkXkXkXkXkXfXs.s.E.a.P.G.P.a.t.&.&.F &.t.t.F u u i i i r . ",
"X i.rX9XZ.I.|./.(. X|./.^.|.Y.^.Y.rXC.X ; yXCXBXkXkXkXkXbXkXdXdXyXsXsXT.G.p.p.E.0XqX0XBXLXLXFXZXZXZXZXZXZXZXDXJXKXLXLXJXLXLXLXLXLXLXLXKXLXLXKXKXKXKXKXLXLXKXKXKXKXKXLXHXG..   = F.K.8.( A ! ^ o.^ @.@.| ~ ~ ~ ~ Q E E E E E E Q ~ | ..4.4.5.5.3.3.+X5X6X3X%X%X5   y u.u.j.b.b.f.N v l g l m d.h.d.n.y.@     i 0X;X=XJ.0.>.~ X.| @.@. .Q E Q ^ ^ E 9 7 8 8 7 9 9 9 E ~ | X.4.6.4.4.7.$.[ _ 5 u T.SXLXHXKXLXLXKXKXKXKXLXJXDXnXhXgXgXhXhXhXgXhXhXhXzXhXhXgXgXhXzXxXjXhXzXDXLXKXKXKXlX@ i sXBXkX-X-X=X}.=X,X>X0XaXyX0X-X}.T.G.G.s.u   p rX9X^.(. X X.X X^.|.|.^..X X(.(.V.X ; lXjX0X0X,X=X=X,X>X>X>X=XyXaX,XL.G.=X-XkX7XR.kXAXJXDXZXSXCXzXzXzXgXgXxXzXgXgXzXDXJXLXLXJXJXKXKXLXLXKXLXLXCXgXjXjXgXCXFXJXKXKXHXT.o D J.&X&Xw.@.4.5.,.>.@. .` ~ E E E 7 9 9 8 6 6 9 0 W  .| | 6.@X6.6.3.3.q.&X1X>XT.e r t.y.x.c.h.f.f.m.c h l h d m n h.g.v.T > a.IXPXNX%X#Xw.9.$.` ! W A 6 , , 6 6 4 4 , , , , < , , , , 6 7 9 ^  .X.5.4...4.7.8.H.;XBXPXLXHXHXLXKXLXJXDXzXjXgXfXgXgXjXhXzXhXhXzXzXmXDXJXJXJXJXJXJXLXKXKXKXKXKXKXKXKXKXqX  i fXSXPXSXIXIXBXkXkXkXsXsXsXsX0X0XsXsXsXE.o ",
"i i 8XzX|.V. X9X9XeX X|. X|.^.|. X(.;   G.kX,X=X,X=XoX=X>XaXaX2X1X>XaXaXdXkXBXIXPX0Xp.qXAXjX(.n.(.(.(.(.(._.(.tXOXOX).~.~._._.~.).(.).8X).(._.(._.(.OX8X8XtXtXtXtX8X7XrXi .   o :.=XK.*._ O.O.o. .$.@.X.| | | ~ ~ Q E E E L Z E E E ~ | X.X.3.3.3.3.4X5X4X&X[.K.  + i u.y.h.m.b.f.n l c n d.g.h.b.g.x     o T.=XF.#Xw.#.^  .Z ~  ... .~ E / W 9 9 9 9 9 9 Z 9 9 9 Q  .....5.6.4...7.=.-.%.1 p.CXLXJX8XOX(.OX(.(.Y.I.I.I.D.v.x.y.g.c.c.v.n.D.D.I.b.g.y.x.x.g.u.g.g.u.x.I.8XrXrXfX+   u jXSXF.%.;.;.%.*.;.;.;.;.:.:.;.;.:.&.u u F r t.hXgX X).8X XeX XU.^.|.|.|.^.|.8Xi.  s.sXp.&.;.:.*.;.H.$X;X;X;X>X>XdXBXyXaXBXBXW.r 7XfXgX(.I.Y.I.n.n.g.y.y.c.c.g.b.~._._._.~._.I.(.(.I.v.I.I.v.x t t $ y t.v.v.V.v.P.i   O *.2X3X#X7.5.,.| ,.5.,.X.| '  .` E ^ W 9 6 6 8 9 W { ..' 6.+X6.6.6.3.5.*X%X=X=X&.r p b g.x.j.R k.n.h.m m z c h.j.g.g.v.x r R.PXPX2X#X0.7.>.` o.7 A 7 6 6 6 4 , , 4 < < < < < , , , 2 7 A ! o. .X.4.4.,.9.e.8.K.sXPXCX7Xi.v.(.I.v.v.D.y.g.y.b u.x.v.D.D.n.~.8X).~.~.I.I.I.I.c.c.I.(.I.Y.(.9XgXhXgXgX@ X t.AXkXp.=XT.T.K.,XdXBXBXBXBXBXbXBXBXBXkX=XO ",
"t.G V.gXrX^.9X XeX9XeX9X|.|.8XY.9XV.  1 yXT.K.F.H.F.8.8.$X2X2X1X:X:X>X>X>XaXaXaXdX=Xe u P.I.(.Y.(.~.n.I.b.b._.D.~.n.n.m.j.j.h.j.h.b.x.g.b.b.h.g.m ~.)._.~.n.b.n.n.n.x.Y.v.X   . u }.;X8.0 W ! $.^ ^ 5.X.~ X.X.~ ~ Q E E E E E E ~ Z ~ | X.3.6.3.6.3.+X4X3X&X%X%X:.  + u.b y.j.d.d.n n z m d.n h.x.T @     u T.K.J.[.w.9.@.' ~ ' .. . . .^ W 9 9 9 9 L L 9 9 9 9 9 E @.,.X.5.6.>.>.w.<.-.u u lXJXJXn.n.D.x.c.v.c.u.g.y.y.x.x.g.g.y.g.g.c.n.n.n.x.n.D.I.I._.)._.~.n.n.I.I.(.8X9Xy   X G.SX>X8.J.8.1.;.;.;.;.;.1.;.-.:.*.%.%.%.%.;.p.t.qXzXrX9X XrX9X^.^.^.C.|.9X^.Y.(.  ; wXp.&.;.F.;.;.F.%X1X>X:X:X:X;XvX2XaXdXaX,XL.1 p a.I.(.(.(.I.I.I.I.n.D.~.n.n.x.h.x.h.d.n z x x x z k y y k k x x x x k k f y y y p = . o ;X3X3X#X9.6...5.5.4.5.4.X.X.~ E ^ W 9 8 6 8 0 E ~ Q ' 6.+X@X6.6.5.,.'.&X%X=XL.+ i t.b x.b.n.m.Q.n.h.h.n.y.c.b.g.v.t.# p fXKXIX:XJ.7.$. .^ E 9 0 6 q 6 , < < , < < , , , , , , , 2 6 7 W ^ /  .5.4.X.e.8.K.,XIXLXE.v.x.c.x.y.y.g.h.h.c.c.m.c.n.~.n.n.n.).)._.n.j.m n y.g.g.j.g.x.y.x I.).rXrXgXx   @ wXBX&.u w %.%.*.*.*.:.;.;.;.*.8.;.F.L.L.F.< ",
"r t.G Y.hX9X9XeXrX XeX X9X X|.Y.9X+   p.yXM.K.K.J.H.8.8.#X:X:X%X#X[.[.[.J.$X$X{.$X>XF.= s.a.(.).(.(.D.b.g.j.~.~.~.Q.n.m.f.h.m.h.b.n.n.c.n.Z.n.n.n.Q.n.n._.)._._.Z.n.n.Z.z.y X   1 L.>XK.*.A W o.^ ^ 4...| 3...| ' ~ ~ Q E E E E E E ~ | | X.3.3.3.,.6.*X<X*X*X$XL.1   r u.x.x.d.K m n z c H b x.c.y     O L.=XK.J.[.w.9.>.X. . ... .' ^ ^ W 9 9 8 9 9 9 7 7 9 9 E E  .X.X.5.5.,.+.8.8.;.1 a.SXKX8XI.~.(._.~.I.g.n.c.y.b b b z z t t g n d.d.N R R R R R d.h.c.h.c.z.j.c.I.(.x X + G.BXaX8.F.8.8.8.<.-.*.-.-.=.<.=.-.;.1.;.%.%.%.&.F P.qXgXrX XeXiX XY.|.9XY.9XeXqXa.  i -X:.;.;.8.-.*.8.J.%X%X#X%X[.J.:X$X%XK.8.K.F.&.+ t.I.(.Y.~.I.I.(._.~.~._.n.n.b.m.c.h.d.H n b n b b c z k x z z z z z c b z z f y i r O . *.2XNX3Xw.5.6.6.4.4.6.3.' ~ Q Q Q E 9 9 8 8 9 W E ~ | ,.6.6.6.6.3.| 9.#X#X=XK.u r u.x y.c.n.n._.Q.b.n.b.c.n.g.g.I.y @ a.HXPXNX$X[.e.#. .^ E 9 0 6 6 4 , < < < < < , , , , , , 6 , 2 7 W ^ / ~ 4.4.+.0.H.L.sXLXUXv.I.Z.c.x.b.c.d.d.d.d.j.j.d.d.h.k.f.R k.b.n.f.N n n n n n c b j.z y.Z.I.Y.9Xv.  + E.SXT.u :.%.( [ *.*.-.-.=.8.8.H.J.J.:X=XH.H.1.",
"r t.F s.uXgX9XrXiXeXpX9XuX9X7X|.a.  + 0XL.J.K.[.J.0.7.7.w.#Xw.9.7.<.<.7.7.0.J.0.H.:X;X3 e G I.(./.(.~.~.b.h.~.~.n.b.b.m.h.h.h.f.h.k.f.K h.b.b.m.n.n.b.Q._.~.~.).~.n.I.c.g.i.#   O p.aX,XJ.) ! ] W W @.X.| 3.X.| | ' ~ Q E E E E 9 E ~ ~ ~ ' X.3.,.,.5.'.+X*X*X[.K.;.. o t.u.x.h.h.d.g.y.y.y.y.x.u.+     &.,X;XJ.[.w.7.>.+. . .|  .' ~ / W E 9 9 9 8 9 9 9 9 E ! +.~  ...,.5.4.@.7.8.1.F u qXKXZX(.8XZ.I.n.c.n.g.c.g.b z z z f g t f Y Z.~.n.k.m.f.n R f.H d.h.x.Z.I.n.I.~.v.X + P.BXGX{.8.J.0.0.8.8.8.7.7.8.0.w.J.0.J.J.H.;.*.%.;.p.t.R.nXxXrXpXgX X|.9XrXeX9X9XfXr   G.G.%.;.8.-.*.} } =.7.7.<.<.[ [ 0.7.w.7.=.;.;.M.1 r a.I.I.(.~.~.(.(.~.~.~.n.m.h.j.j.d.H n H H H H n n m c H b c c c c b H c c z f p i r   o $XNXNX*X5.q.6.3.3.5...~ ~ Q ~ E E E 9 6 6 9 E 9 ~ ~ E ' ,.3.6.6...4.e.[.;X$X;.1 t.t.b c.n.~._.Q.Z.~.x.n.c.g.c.b r p kXKXGX1X$XJ.e.#. ./ E 9 6 6 q 6 , , , , , , , , , , 4 6 6 2 2 8 E ^ ^  .5.#.O.0.J.L.BXKX(.I.~.~.c.g.n.c.n d.K K d.d.H n N m.k.m.Q.`.~.n.m.f.n n d.d.H d.c.g.z.I.~.(.(.# X P.CXBX%.%.*._ _ O.<.0.0.0.w.J.0.$X%X:XvX2XJ.H.J.",
"p.u s.a.E.hXiXrXpXpXiX9X9X9XqXR.+ . p.0X;.$XK.0.8.7.=.$.7.e.7.+.+.o.] O.-.7.0.0.J.J.$XF.= p i.I.v.I.(.~.n.n.n.Q.b.b.Q.~.Q.n.b.h.f.m.k.f.h.m.b.b.h.n.Q.~.~.m.k.~.~.Q.~.j.d.v.x     F -X>X$X[ A ! W !  .X.3.3.3.X.' ~ ~ Q Q E E Z 8 ! ~ Q ~ ~ | 3.,.3.3.5.q.*X*X'.J.H.1   r t.u.h.g.d.j.g.g.g.g.g.y   X o T.=X;X[.[.9.@.' ~ ~ { { | ~ E E E 9 8 8 8 8 8 8 9 W ^ o.@.~  .@.5.9.>.>.0.H.;.O a.AXKX8X8X8Xc.Z.c.y.y.z k f t t k k f t % f d.Z.~.n.k.k.k.N k.n.j.j.b.b.~.~._.I.R.y @ s.kXGXaX8.J.0.e.<.e.w.J.[.#X#X#X%X&X*X#X$XJ.8.*.*.:.M.F t.qXxXiXrXiXiXiXiXiXnX8XfX|.o 1 T.%.;.*.1.-.O._ ) ) _ ) ! [ ) <.7.$.7.$.7.=.-.;.F a i t.I.I.I.~.(.~.I.n.b.h.j.d.n n n n m n n n n n n n m n n n n n n n m c z z f y p y o . w dXvX3X+Xq.6.5...3.X.| X.' E E Q Q E 7 6 8 9 9 E 9 9 ~ 3.3.3.5.3.4.9.J.%X$XJ.u i t.x c.n._.~.~.~.~.b.c.c.I.v.# r R.PXPXkX$X$X#X+Xq.4.+.} ^ 0 q q 6 4 , , , , < , , , 4 6 6 q 7 7 7 9 W E / $.O.O.H.F.T.HXFXI.(.~.b.h.g.d.n m K H K d.f.d.K d.R B k.b.~.Q.n.f.f.n H h.h.d.d.c.z.y.I.I.(.t.  i fXGXK.w *.( _ ) 7.w.$X%X%X%X#X[.J.#X;X3X2XJ.0.<.",
"L.e F G.s.uXnXeXuXhXiXeX X9XuXG   1 ,XL.K.8.0.8.=.#.O.o.$.#.#.#.#.o.] } } O.7.7.0.e.J.;X%.1 x v.v.v.n.c.h.m.b.Q.k.k.Q.Q.Q.n.k.K f.m.m.k.k.m.b.Q.b.Q.n.b.Q.m.k.m.Q.~.n.c.g.c.c.y   O :.=XK.-.A W A W /  .5.3.3.X.| ' ~ ~ ~ Q E 9 9 ! Q E ~ ' | 3.,.3.5.4.9.*X<X#XJ.H.%.o @ G u.y.h.j.h.n.n.I.D.g.@   . u =XK.[.'.w.7. .~ ~ ` {  .~ ~ E E E 9 8 6 6 6 6 6 8 9 W ^ ~ ~ ..@.4.7.#.7.7.H.w 1 qXLXDX(.).I.h.n.d.y.c k f f d f k g t t f m f.m.b.n.Q.Q.k.B k.n.h.f.n.n.~.~.I.I.v.X r T.SXGX$XH.0.=.e.o.O.=.7.e.0.9.w.w.&X#Xw.w.0.=.[ _ %.;.&.r s.rXgXuXiXnXxXgXhXuX9XjXp   p.G.%.;.*.-.[ ] ) ) ) ) ) ) ] ] <.7.o.>.$.7.=.-.%.;.e + r t.x.n.I.I.I.n.b.h.d.d.n n n n n n n n m m n n n m c m n n n n m m m z x k - y y r   . H.dXNX<Xq.6.6.3.5.3.,.3.X.~ ~ ~ E E 9 8 8 8 9 9 8 Z ..4.4.5.3...X.@.7.w.[.K.p.1 t.G u.I.~.~.~._.~.D.n.v.(.T ; i BXKXGX$X#X+X+Xq.q.5.@.+.^ 9 8 6 , , , < < < , , , , , 2 6 q A A A A W L 9 ) =.-.L.p.sXKXgX(._.n.d.g.h.d.n m m c v n d.d.f.h.m.R f.f.Q.n.Q.Q.b.f.f.m.m.d.d.x.b g.Z.n.i.@ X G.SXBX:.%.D _ -.W -.7.0.w.0.8.<.<.<.=.1.J.J.0.0.8.",
"L.p.1 p.a.|.nXuXiXhXiXiXqXgXqX+   M.>X1.J.8.=.<.$.O.o.o.o.#.7.7.#.o.} } ) } O.$.>.w.J.{.L.1 r t.a.v.c.y.g.b.h.b.f.f.k.k.f.K B j B k.k.f.R f.f.k.k.n.m.k.Q.n.k.k.m.n.h.m.h.g.I.i.X   = F.L.F.[ ] W ) / @.6.6.6.3.X.X.X.X. .~ E 9 9 ! ! Q Q ~ | ,.,.3.5.4.5.+X*X*X'.0.H.e   r G g.I.Z.I.~.~._.I.x   . . G.K.J.0.9.9.>.| |  . .{  .' ~ E E E 9 9 8 8 6 6 6 8 9 9 W  ...5.2.4.5.$.7.8.;.O a.AXKXrX).~.c.b.d.f m c z z z f f g f d d d j N f.k.k.m.m.k.N f.k.f.f.n.Q._.)._.(.y   i sXGXBX>X:X8.<.$.o.W W ^ ^ ^ ` ` +.7.>.>.<.<.$.] _ *.;.p.e r Y.hXxXxXhXxXxXhX9XjXv.  1 }.F ;.*.*.O.) ) ) ) ) ) ) ( A A ) ] o.>.>.7.$.-.:.;.&.o + + x g.n.D.n.b.h.d.n n v v v m m m c c c c v v v v v v n n n N N d.y.H H c f t f x   . < 2XvX4X+X6.6.6.q.6.5.3...X.' ~ E E 9 9 9 7 6 6 8 E  . .4.q.4...X. .@.7.w.J.K.e i x x c.~.~.~.~.n.I.I.n.v.# p qXPXGX;XJ.J.q.q.6.6.3.@. .W 9 0 6 , , , < < < , , , , , , 6 8 7 S W _ O.} ) [ r.;.L.L.AXLX(.OXn.c.g.d.h.h.n g l g M v n N d.f.f.n v N k.k.m.b.n.h.d.j.h.d.j.n.y.c.v.I.p   + 0XGX>XL.;._ [ O.O._ O.[ _ A 0 0 0 A 7 A *.*.-.8.J.",
"F.K.u F N.Y.gXxXuXiXuXgXuXuXa.  a ,XK.F.<.8.o.] o.o.) ) ] o.#.>.o.^ ) } _ } } o.@.w.w.0.K.:.; x u.x.v.u.c.n.f.m.k.k.k.m.k.K B M V k.f.B R f.f.k.V m.m.m.m.k.B f.N f.d.f.h.g.v.I.i . . &.J.J.1.[ O.=. .5.+X@X6.6.3.,.X.X.X. .~ S 7 S ^ ` Q Q ' | X...,...,.q.+X+X9.8.H.:.o X p g.I.~.I.~.D.n.g.@   O u K.F.H.7.9.5.>.| |  .~ ~ { ~ ~ Q Q W L 9 8 8 8 8 8 9 9 Z W @.5.9.@.@.>.$.8.H.w 1 qXLXDX(.(.c.g.b.n g l f % d d t % t t % d d g N m.m.k.R R B B B N N f.m.n.~._.).I.X   t.BXSXaX1X%X7.$.^ ^ ) ) o.o.o. . . .` `  .+.$.$.o.] [ *.:.&.r s.uXzXnXhXnXnXhXgXrXX . G.L.%.;.%.*.[ ] ) ! ! ! ! A A A _ ! ^ o. .+.+.#.=.-.%.:.1 + @ t y.n.n.b.c.j.n v v c c M c c c c c c c v v v v N N N N N N f.d.y.u.y.b m z z b @ .   H.2X3X*Xq.q.6.q.q.6.6.4.,.| ~ E E Z 9 9 9 2 2 6 9 E E X.5.5.....@.@.7.w.J.}.p.i G G g.Z._._.~.Z.~.~.n.l y P.GXGXdX-.[.w.q.q.6.6.5.4. .^ ^ W q 4 , , , , , , , , , , , 6 8 6 9 A ) O.*.*.-.;.F.L.sXPXhXI.~.g.h.h.d.d.d.n d g g j c v v v N N v v k.m.m.f.f.f.n v n N R j.b.x.g.x.i.@   t.BXBX}.=X8.*.*._ 7.-.-.[ ( 0 0 0 0 6 2 0 _ _ [ -.8.",
":.8.;.1 N.E.9XZXxXxXxXxXiXuX;   &.,X;.H.1.-.o.^ ^ ^ E W ! ^ ` o.^ W W ) ( ( ) ^ @.>.7.J.J.=Xu t.t.u.x.y.g.n.K k.f.f.k.m.k.K B j B f.B B R f.f.f.k.m.k.k.m.f.v B N n f.d.m.b.g.~.i.X   e H.F.1._ W ) 9 X.6.6.3.3.3.3.X.X.X. .' ~ 7 9 ] +.Q S ~ ~ ~ ~ ~ ~ ~ ..5.5.9.<.-.;.e . r x n.~.I.I.v.v.u.    O G.K.H.7.9.9.q.4.| ' ~ E Q { { ~ E Q W E 9 8 6 8 8 9 9 9 E W  .5.5. .o.=.=.8.;.O p.CXKXgX(.~.c.y.m d z d f d t f f d f d d d h h v k.k.B v B B B B N f.f.k.b.~.n._.x X   G.GXkX>X2X0.) ] #./ W ^ ) o.@.+. .' >.>.>.$.$.+.o.) [ *.%.p.u p wXnXgXxXhXhXgXfX; X u sX;.p.*._ [ [ ) ! E W ! ) ! W 7 ) ! o.@.` >.@.7.<.*.*.%.&.o + X f x.c.c.h.j.N m m c c z g g g v v v n N N n n N N N N N N n n b u.y.m d.d.m b y   . < :X3X*X9.q.5.6.6.6.q.5.,.X.| ~ E 9 9 9 7 6 7 6 8 E E ~ X.4.| @.5.7.0.[.J.K.K.u t.s.y.n._._.)._.(.(.I.# a.BXPXBXF.[.0.q.q.6.3.,.,.X.~ E ^ W q , , , , < , 6 6 6 2 , 2 6 7 9 Z 9 9 W ( _ %.:.L.T.SXKXY.I.c.n Y y.n n m c c g j M c M g j M v M M k.k.k.B N f.N N f.f.f.k.b.c.g.I.#   o 7XSXaX=XK.-._ -._ -.[ [ _ W 0 A 0 0 7 7 D 0 0 *.-.-.",
"=.0.8.u &.R.(.nXxXiXnXxXnXY.X . ,XF.;.J.J.-.E ! W 9 9 E ^  . .^ o.^ W ^ ^ ^ ^ ^ ) ] 0.0.J.$X8.&.a.t.y.b n.f.k.f.f.f.m.m.f.K v j v B R B B R f.f.k.m.f.R m.R v B N f.f.f.h.b.n.~.I.$   . %.H.1.<.O.7.^ 4.q.6.3.3.6.3.X.X.X.~ ~ ` 8 9 E E E E ~ | ~ E | | X.3.3.q.>.7.0.-.1.o O F I.v._.~.n.v.#     &.L.H.0.e.9.4.5.,.X. .~ ~ ~ ~ ~ Q E 9 9 9 9 8 6 8 9 9 9 /  . ...q.5.#.} -.*.F.u O qXLXJXtX).c.n n c f h f d - h - - - t - t h d j h j N f.B B B v N k.k.m.n.n.Q.~.c.*   a sXBX>X;XH.$.W W ) E Z ^ o.o.o.o.` ` $.@.+.o.o.] ] O.*.%.%.:.G.u a.hXrXzXmXuXzXI.  @ ,X,X:.K.J.-.( ! W ! ! Q W Q ! ! ^ ^ W  .>... .@.>.o.=.-.*.%.e O + # b c.d.n.d.n c c k f t % : l c c M v v M M v v M M v v m m m n Y n c d.b.b.x.z @   . *.%X<Xw.9.q.4.5.q.4.4...~ Q E 9 7 7 7 6 2 , , , 6 8 9 9 ~ ` Q ' >.7.0.%X[.;XK.u N.P.~.).tXtX).OXrXT p qXPXGX2XJ.w.q.q.6.X.,.,...' E 9 9 8 2 , 2 2 , , , 4 4 4 6 8 9 9 9 8 ) ) ! O.=.-.;.p.G.qXKXgXx.n.b n m n Y n m v g m c g g j g g d g M M M v R k.f.k.B B k.k.k.n.n.h.n.u.X   t.BXBX>X=X0.-.-.7.=.^ W W W W W 0 0 7 6 ( 7 ( 7 _ *.=.",
"=.*.H.F.&.s.R.uXxXxXxXxXiXi   t.,XF.H.$XH.-.o.! o.^ / W W W / ^  ./ W W / W W W W ) -.7.H.:X%X%.&.t.b z Y f.m.m.k.h.m.m.f.N B j v B B B v B B B B f.B B k.B v B m.f.N R k.k.b.~.I.y.X X 1 F.H.8.#.o.+.9.q.6.3.6.6.5...X.~ E 9 9 9 9 E E E E ~ | X.| 3.3.3.6.6.q.*Xw.0.8.1.3 . r u.I._.~.(.x X   O M.{.J.0.>.>.,.4... .| ~ E E ~ ~ Q E L E 9 9 9 9 9 Z 9 E ^ +.@.2.5.5.7.$._ ;.%.. N.nXJXzX_._.b.m c g d d h d - % % % - - $ - h % C h v K B B k.K B f.m.k.f.m.Q.~._.b   X p.BXdX>X$X8.[ W ) _ W Z Q ` ` ^ ^ Q W ^ ] ^ ^ ] #.=.[ _ %.%.:.p.F s.uXhXuXxXhX8X@   i kXL.F.=X8._ [ W W W Q W E E E W W E E ' X.X...4.>.#.7.=.*.%.w e 1 + x u.c.d.h.d.c z f y t $ $ f f h h g g h h g j j j j M c c c c b b m Y d.h.b.x.#   o < J.2X#Xe.q.9.5.4.5.5.@.^ Q E 9 7 7 6 6 , , , , , 6 6 7 E ' Q ~ >.#.#.0.:X:X1XM.a.R.D.8XtXiXtX8XOXr P.SXPXBX&X%X#Xq.'.6.,.4.4. .Q E 9 8 8 2 2 2 6 , , , 4 , , 6 8 9 9 9 6 ) ) o.O.[ -.;.:.R.CXJX).n.g.c n n n y.n m m g j g h h g g d d d C g n f.R f.k.k.B B k.m.h.m.n.n.n.#   @ ,XBXkXdX$X=.=.7.$.^ W W W W W W 9 0 9 7 A 6 A 7 O.7.=.",
"7.-.H.J.:.u R.fXzXhXxXhXrX  @ R.L.8.{.%X<.[ $.W o. .^ / E E L L ^ E E E W W W W 0 W W =.8.;X2XF.u p x b c d.f.m.b.k.m.m.h.K B M v B B v j v v v v B B B k.B v V k.N v R f.N d.Q.D.I.r   . :.;X{.=.^ 7.q.6.6.3.3.3.3.X.' Q E 9 8 9 9 E Q ~ ~ ' | | | ,.3.3.6.6.q.*X#X9.0.<.-.O a s.(.(.(.n.@     e L.K.J.0.>.@.,.4... .~ ~ E Q ~ Q Q E E E L Z Z W E E E ~  .@. .2.2.>.7.-._ F.1 1 fXHXLXn.c.n m c c g h d h h d % - C C - % d g % % g N N v B K N B K f.f.f.b.n.~.~.*   o sXkX:X;X0.O._ W ) ) W Z W ^ W E Z 9 9 9 Z W E W 7.7.) _ _ %.;.p.:.&.R.hXiXiXhXt.  + 0XaX%.K.K.*.A O.! W W W W E Z Z Z W ^ ^ ~  .X...5.9.7.7.<.-.;.%.u i r i y.g.m j.Y c k d t t $ & t d d d h h d d d d d g h d h f g g g M m n n R j.n.T   . o ;.2X3X7.7.9.@.' ,.,.~ { ^ E 9 9 7 7 6 , , , , , 2 6 7 Q ' ~ ' @.o.] <.%X%X>X}.p.7X(.tXtXuX8XrXa.p fXPXGX3X*X&Xw.>.q.....5.5. .E L 9 6 8 6 2 6 6 , 4 4 6 6 6 8 9 W W W ) =.#.7.7.$.8.;.;.sXLXxXc.n.d.n n v n n m m c f h d d d d d d C d C d v R B B B f.B B B k.h.h.b.~.y.    &.BXBXaXdX#X=.#.O.Z 9 ) E E L 9 9 9 9 8 0 W A ) ( 8.w.[ ",
"] <.8.0.F.u t.7X9XgXeXmXG   r -X1.H.;X[.[ W ] W E W ^ ^ ^ / E 9 W E 9 E E W W W W 9 9 O.=.w.:X=Xu + r u.b z R n.n.m.n.n.k.K B M V B B M j j j j j V v B B B v B B v n f.f.n N n.n.I.u.  . e ;X>Xw.$.w.+Xq.q.6.3.X.X.| ~ E E E 9 9 9 E / ~ ~ |  .| X.3.5.6.6.6.q.*X4X*X[.7.0.w . i P.I.8Xy     O :.F.8.0.w.9.5.5.5.4... .' / ~  .Q Q E E E E E E S Z Z E ^  . .{ @.@.@.#.*.%.:.1 G.SXLXrXy.y.n l m m v m c M g g d d d d - - f g d C h j j B B v V v B v n m.Q.b.~.b   X s.BX=X{.K.=.) ) ) ^ ) W 9 E E 9 9 7 8 8 8 6 9 9 L r.0.O.[ D _ :.;.M.i s.|.hXhXY.@   &.BXL.1.$X-.[ _ W ! W ! ! W Z 9 9 9 9 E E ~ X.4.5.q.q.7.7.=.-.8.*.w i i y u.b m n m m z d t t % $ t f d d h h d d d C d d d C % d d h d g m N f.R m j.n.y   O e =XdX0.5.e.4.X.5.4.|  .^ W L 9 7 8 6 2 , , 6 6 6 7 9 ^ ` ' ' +.] ] $.w.&X$X;Xp.E.9X~.tXtX9XfXp G.GXPXNX3X&X*X>.Q ..Q | ..@.^ E 9 9 8 8 6 2 6 6 6 6 6 q q 8 9 W ^ ) ) O.7.=.7.8.7.F.;.G.SXLX(.c.j.d.H m c m m c j g d d C % % C % % % C h g d j B B B V f.N v N m.b.b.I.#   X 0XVXaX2X2X#X7.` E 9 E ` E E 9 9 9 8 8 8 0 0 9 A S 7.w.) ",
"^ 7.=.1.H.;.e a.R.qXhXuX    T.=X1.$X:X0.[ ! ! ^ E E W / ^ ) W 9 E Z 9 E E W W W ! 9 9 W O.7.0.;Xp.+ r x z g m.Q.n.m.n.Q.k.B B j v v V M j j j j M v v M V v M j v v v N f.R d.m.m.c.n.+   o M.2X%X=.e.+Xq.q.6.,.X... .Q E E L 9 9 Z E E ~ / ~ ' ~ X...4.6.6.q.q.+X3X<X*Xw.0.1.O @ t.R.P.    . e L.J.=.7.w.9.5.5.4.@. . .~ / /  .Q / / Q E E E E Z Z E ~  . . .~ @.4.$.O.*.:.w &.jXKXzXx g.h.n c n n d.d.N m M g h d % % % d d d d C C h h v K V N v v N N k.n.n.I.@   + kX0XK.{.8.O.^ ] ) W W W 9 9 9 7 6 6 6 6 8 , 8 9 9 [ 8.<.*.( D *.;.F.&.u a.uXjX;   . 0XBXF.;X=X-._ ) Z W W W W E 9 9 7 8 L / E ~ X.@.......@.7.=.O.*.*.%.u i r x x b n m m z f t d : $ t d t % d d C C C d d d d % % t d d h M c n m.n.f.h._.n.@ . o :.;XJ.#.7.>.X.5.4. . .^ W L 0 7 6 6 2 6 6 6 6 7 9 Z Q ~ ~ ' ` ^ ^ ) >.*X[.:XG.p.qX(.(.rXgXR.u sXPXGX3X3X&X'.@.Q ~ Q ~ ~ ~ / E 8 8 8 8 6 6 6 6 , 6 q 8 8 9 9 W ^ ^ ) Z O.) $.7.8.8.:.wXLXnX~.~.d.m m c M c v g g h C % % % % % % % % & C d C h v B B B N N v K h.n.I.H     F SXvX:X1X#X9. .Q Q ` ^ E E L 9 9 8 8 8 8 0 0 9 7 8 -.J.<.",
"<.<.$.<.8.F.F i R.P.uXi   1 dXF.J.:X%X7.$.` ! o./ Q E L E W E 8 E 9 9 9 E W ! ^ ^ ) ) 9 O.7.=.J.F.r p t.u.h._.Q.Q.m.m.Q.k.B v j v v v M j j j M j j j j j j j h v v g g n d.N n h.h.c.x     e =X>X7.#.w.q.5.4.5...X. .Q E E 9 8 9 E E E E E E E L ~ ~ X.,.3.6.6.6.+X*X*X[.8.J.%.. p N.+ . O u K.;X%X0.7.9.>.4.5... .~ Q E E E / / / / Q E E E E Z E ~ X.@.@... .5.9.=.[ *.;.u -XLXFXi.b b y.c f v N f.f.d.c g h h C % % C h h d f % C h h h v K N M N k.h.f.n._.u.X   s.BXM.J.{.-.) ) o.) W W E 7 9 9 6 6 6 6 6 8 , 6 0 8 W =.8.=._ 0 *.;.F.:.e s.R.V.X   s.IX=XK.1X{.<.A 0 W W E E Z 9 7 8 8 8 ^  ./ ~  .X.~ ~ |  .7.#.O.=.=.*.u i i y T z Y c m c f f f t % t d % % % C % % % d d d d t % t d C g v v v n._.~.Q._.(.u.  . e F.;X0.7.+. ...X.~  .^ W L 9 8 8 6 , 2 6 6 6 6 9 Z E Q '  .` ^ W E +.9.%X%X{.p.R.fXE.wXqXr E.GXGXdX3X<X#X9.7.X.~  .~ E E W L 8 6 6 8 6 6 6 6 2 6 q 8 9 9 W ^ ^ ) ^ 9 ) O.O.=.-.%.p.CXKX8X(.n.d.l m v M v v g g h C % % % % % % % % % $ % g M j v B k.v v j.h.h.n.D.*     0XGX>X:X%X>. .`  . .` Q W E L 9 9 8 8 8 q 9 0 ) W A ) 0.<.",
"7.7.#.7.8.8.;.1 p.s.r     -X>X8.;X:X[.<.o.+.` ` `  ./ E 9 E 9 8 9 9 9 9 E W W ^ ^ O.] W o.7.0.0.K.&.&.a.i.~.).Q.Q.m.m.Q.k.B V v v v M M j j j j j h h h h h h s j j h h v n v v f.j.g.u.+   . %.:XJ.7.w.'.9.5.9.| ~ ~ ^ / E L 9 9 9 E E E E E E E ~ ~ | ..3.6.5.5.q.+X+X#Xw.8.;.+ . 1   r L.>XdX2X1Xw.7.5.X...,... .~ E E 9 E Q / E E E Q Q E E E Q  .,.>.@.@.4.7.7.r.*.;.%.p.CXJXP.x y.b d d.g c v R f.N j d d d d d d h g h d g d d g M j j B B M N m.b.n.D.~.+   O wX,X;.H.H.[ ! ^ ] ) ^ ! E 8 9 7 6 , , 6 6 6 , , 6 8 0 [ 7.8.-.( *.8.8.F.u i i     O sXVXF.{.:X0.[ A A W ! E E 9 9 8 8 6 8 9 L L ~ @.X.X...X...5.>.#.7.7.-.:.F &.i y.b c m c c g g g t % d d t % t d % % % d t t t t t t t d h v v v Q.)._._._._.~.; X a %.2X&Xw.7.>.>.>.`  .^ W L 9 8 6 6 , 6 6 6 6 6 7 9 E Q '  .` ^ ^ E @.q.4X%X>X=Xa.qX-Xa.t.r kXPXBX2X3X*Xq.7.7.>. .+.^ / E 9 9 9 9 6 6 6 6 6 6 , 6 0 0 9 W ! ) ) ) ^ ) O.=.-.;.%.%.-XLXZXI.I.Y K M v n v v v g h h C % % % % % % $ % C $ s j v v v B k.v N m.h.c.c.b     i SXkX{.:Xw. ...>.5.@.^ ! ) W 0 0 7 8 8 8 q , 6 W W W 7 $.=.",
"&X&X9.7.0.8.{.:.u t.    O BXK.J.1X%Xw.<.] #.>.~  .+.+.^ ^ ^ W 9 9 9 7 9 E E W ! ^ o.^ ` ! o.w.J.:X&.u P.u.I._.~.~.Q.Q.Q.k.R B N v v M j h h C d h d h h h h h % C g c v n v v N n j.g.x.x   X O L.$X0.7.9.5.>.X.~ E Q ^ ) E 9 9 9 9 E E W W / / E ' Q | X...6.3.3.6.*X+X&X3X[.K.:.    . p.kXBX2X3X3X'.5.5.,.....@. .~ / E E W ^ W E E E Q / Q E E ~ X.,.@...>.7.=.7.=.-.M.u R.KXzXx I.y.$ n f d j v N N v h C d C d h h h h d C d h C C n K B V B B N d.b.~.I.y.    p.sXM.F.J.<.[ ! ! ) ) ] ) W 8 8 q 6 , , 6 4 , 4 , , 8 0 ( =.0.<.] =.8.1.K.&.r +     &.GXdXF.J.:X0.7 ) ] 9 ! W W Z 9 8 8 7 0 L L L / { ~ Q X.X.4.q.7.+.<.7.8.;.&.&.t.t.u.l h.c c z z z d : h d t % t d % % % % % % % % % % % g s j N N Q.).`._.).~.~.x.  X 1 ;X:XJ.7.7.7.7. . .^ W L 9 8 6 , 6 6 q 8 6 6 8 7 E Z Q Q E Q ^ / E '.<X%XvXkXL.wXwXr O E.IXPXdX2X3X*X'.9.>.4.#. .^ ^ E 8 8 E E 8 6 6 6 6 6 , 6 0 8 9 Z W ^ ^ ^ W O.[ <.-.;.%.&.jXKX8X(.c.m n c f n v v v g h d % t t t - % $ $ % % % % C v f.f.B R v d.j.y.n.c.*     -XGX=XJ.&X>.7.9.7.4.>.#.O.! W A 9 9 8 8 q q 0 8 9 9 W 9 7.#X",
"#X<X#X7.0.w.H.}.u 1 +   L.BXK.:X2X%X8.+.o.` `  . . . .^ W 9 9 9 Z 7 9 Z W W W Q $.$.^ Q ` #.7.w.$X=X1 a.a.D._.~.~.Q.Q.~.k.k.f.R N m c g C C h h d d h d d d d C d g g g M m v M N n j.y.x.r   . w :X[.8.7.9.>.4.` E W } ) 9 8 W 9 9 9 E E E E / E ~ ~ ~ X.4.3.3.3.,.q.4X4X&X:X;XL.< . 1 T.BXaXaX3X<X'.9.5.5.4.X.X.^ E E L 9 E W L 9 9 9 E E Q Q Q | ....X.X.X.+.=.-.8.;.%.&.BXLXu.u.Y f % t f g M f.f.v g h C h d h j j h d d d g C d M N N B v f.v n f.n.I.~.@   o sX=XF.F.[ [ ! W E ! ^ ^ E Z 0 q 6 4 4 4 4 4 6 4 6 0 0 6 0 [ [ J.[.<.7.8.;.K.1 +   @ aXBX$X;X#X$X<.Z W ) W W E E E 9 9 8 7 0 9 E / E Q { X.| | X. .@.>.>.9.8.;.%.u s.i u.b y.n d.d.n c.g d f f d t % % % $ & % d % % d d % d C h v v K m.k.Q.Q.Q.`.~.).t   . F.aX1XJ.w.q.7.~  .^ W W 9 8 8 9 7 8 8 6 6 8 8 9 9 Q Q ~  . .^ ^ @.>.w.3XvXaX0XE.P.+ u sXPXBX:X3X3X'.9.5.@.@.@. .@. .W L 9 9 8 6 , , 6 6 6 2 6 6 9 9 9 9 E W W W ] -.-.8.%.u R.PXHX(.I.b.l g g c n n m M g d C % t t t % $ $ $ % t % & v f.N B B N N f.n g.v.y     p SXSXK.J.8.<.+. .+.o.] ) W 0 A 0 6 2 6 6 6 6 0 , 8 W 9 7 =.%X",
"#X#X#Xw.0.[.$XK.p.+ i a.jXsX$X2X2X#X<.] o. .^  . . .^ / E L L E Z 9 7 9 Z Z W ! o.o.^ E ^ $.7.0.J.K.u u a.n.~.~.~.~.~.~.f.k.R N n c j g C C h d C d d C d d d C d f g g l m m M v N R y.g.x @   O L.>X0.<.w.e.$.Q 9 9 ^ ) 9 9 W 9 9 9 E E L L E L E E ~ | ..4.3.3.3.6.<X4X%X:X{.=Xe . &.dXaX2XaX1X*Xq.5.4.>... . ./ E 9 9 9 9 E 9 9 9 Z E E E E Q | .... .X.@.$.7.-.1.M.u E.HXzXz b m g f m n c v N v h d h C s d h h h h h h h d C g N f.B B B N f.f.h.d.(.u.X   L.dX,XF.;._ W ! W W ! ^ W Z 9 0 8 4 , , 4 4 4 q q q 0 0 6 6 W =.7.#X0.0.J.L.L.o u t.P.BXyX:XdX2X$X-.Z W W E E W W E 9 9 8 q 8 6 8 8 9 /  .@.| 5.5...@.#.>.e.0.*.w %.u s.a.c.y.c.n.n.n.n.g d j g f d - % $ $ $ % t - - d d d h v M v B K K B f.m.Q.Q._._.x.@ @ &.>X1XJ.w.e.5.+. .^ ^ W L 9 8 9 9 9 8 8 8 8 9 9 9 Q ~ ' +.+.^ ^ @.@.q.5X3X2X>X-XG.r E.IXPXaX;X3X3X#Xw.9.@. .@.@.@. ./ L 9 9 8 6 4 6 6 6 6 6 8 8 9 9 E W ^ o.o.O.=.-.-.8.u p.jXKXgXI.c.Y g c f c v M h C d d d % % % % % $ $ % - t % - n k.f.k.f.f.n f.h.v.b #   X sXPXsX=X8.O.] S S E W E A 0 0 0 8 2 , 6 6 6 6 8 6 9 9 9 9 ] 0.",
"0.0.[.#Xw.w.K.K.G.O s.sXGX0X:XdX2X[.=.] o. .^  . .^ / E E 9 9 9 Z 9 9 9 9 9 E ! ^ o.^ E ^ $.7.7.w.{.F.O a.v.I.).`._.~.Q.N R v j g d h d % % d % % d d d d d d d d h h h k c m M g d.v d.y.i.y     e ;XH.O.0.w.! E 9 8 9 W P 9 9 9 9 9 E E 9 9 L L E E ~ X.4.4.3.3.6.9.*X*X[.$XH.L.1 o K.BXaX1X%X&X+X9.>.,.,...X. ./ E 9 9 9 9 Z 9 9 9 E E E Q Q | ..>.@.+.+.#.7.8.;.F.;.u fXKX(.b b m l c n n l v v j C h j h d d d d C C C d d d C j f.f.B f.k.k.K f.n.n.n.#   O bXaX,XH.*.O.) E E W W W 9 9 7 8 6 , , , , , , , 3 q q 0 7 8 9 =.7.%X%X[.J.K.F   a.wXjXSX=X2XNXdXJ.( W ^ W W ^ W E 9 9 8 6 2 4 8 6 6 8 E  .{ Q 5.4.|  .+.$.7.<.1.;.F.u t.p y.x.x.c.~.~.n.h d c c g f t $ & $ % t % t d d d f h h j j v f.B f.k.k.m.Q.).~.(.y   O L.;XH.0.w.>.>.@.o.} ^ W 9 9 9 9 9 9 8 8 8 9 9 9 Q ~  .@.+.^ ^ +.~ q.3X3X1X>X}.&.N.sXSXBX,X:X#X&X'.9.7...@.4...@. .^ E E L 9 8 , , , 2 2 6 6 8 W ! ) ] o.$.=.7.-.-.8.%.e wXLXFXI.c.y.f g m d j v j h C C d d % $ % $ $ $ $ % % % % C v f.f.k.f.m.N h.c.n.y     i GXIX0X>X-.0 W 9 9 9 9 9 0 0 0 7 6 , , , , 6 6 6 8 0 7 9 E ^ ) ",
"=.8.w.&X&X0.<.{.p.r E.qXkX>X2XdX1XJ.$.O.O.o. . . .~ / / E 9 8 6 Z 9 9 9 9 9 Z ! ^ o.^ E ^ #.5.7.w.#XK.O &.v.Z._._._.~.Q.R n g h d d d d % % % % d d d d d d d d C d h d f z c z g n c y.y.g.b     . ;.L.1.<.<.! W E P W W W 9 9 9 9 9 E E 9 9 9 E E Q ~ X.4.4.4.4.9.q.'.'.w.J.H.F.< + L.0X>XdX$X%X#Xq.4.,.>.4.>. .^ W E E Z Z E 9 9 9 E E E ~ ~  .4.4.@.+.$.=.7.=.8.F.u E.AXJXx.g.Y m v c c z g j v M C C h h g d C % % % % C C h h v N B B k.f.b.K h.n.(.x     p.dXK.{.8.( ) ) 9 E W W E 9 8 6 8 6 , , , , , , < , 4 6 0 0 7 7 ) w.#X3X&XJ.H.o r 7XgXfX0X,X3XvX2X7.W ) ) ^ ^ ^ ^ E 9 9 9 8 2 , 6 6 4 6 9 / / E  . .~ ~ ^ ^ o.] [ -.;.&.r + # c.g.h.n.~.f.h h c m c g d & & $ t t $ t d % d f d h v j B f.K k.f.k.m.Q.~._.).v.  . %.K.F.8.w.7.#.$.o.o.} ^ E L 9 9 9 9 9 8 8 9 9 9 Q ~ ` @.+.^ ^ +.^ '.%X1X;X>X:.O -XfX7XG.>X2X[.#X9.>.+. .>.4.' @. .~ W E W L 9 8 q q 7 0 9 A E ) ) ] ] ) o.#.=.[ 8.H.e W.CXKXuXc.y.b f f z d d d f M h % % % % % % % $ $ $ $ $ $ % % g v R k.f.m.b.n.v.u.#   . 0XPXkXaXK.*.0 A Z E E L 0 0 0 0 6 2 , , , , 4 4 8 8 8 8 9 E ^ ^ ",
"_ <.w.&X3X%XH.K.F G.fXa.&.=XdX2X:X0.=.$.o.o. .{  .^ / W E E 9 8 9 9 9 9 9 9 9 W W o.^ E ^ #.5.#.9.w.J.5 + a.g.b.).).~.Q.j.n g c g f g g d % t d d d d t t d d t % d d C d k z l l c m n y.y.u.+   . e K.K.<.-.$.E W ^ W W 0 9 9 7 7 9 Z W 9 9 9 L L E ~ X.X.....,.5.'.q.w.[.H.K.:.O u &.L.=XaX%X#X#Xw.4.X.,.5.4.+.^ W W E Z S S 9 9 9 9 E E ~ | ..4.@. .^ } #.<.-.L.:.u kXKXrXg.d.n n N n M g c h c j d d h h h C s % % % % C d h M v v v f.k.B f.n.n.I.I.+   + aX>X{.K.-.( _ ) E W ^ W L 9 8 6 8 6 , , , , , , < 4 4 , q 0 7 6 D 0.[.3X3X1X*.. P.hXAXP.u >XdXdX%X=._ ] W E } / ^ W E 9 9 9 8 6 , , , 6 9 E W E ^  .^ o.^ W ! S W ( w :.r > X y n.n.~.n.K v v c n m g d & & $ t t $ - d % % d C s v j c K f.m.K B f.m.b.~._.OX$   1 L.$X1.7.7.$.@.o. . .^ / E E 9 9 9 8 8 8 8 9 9 E ~ ' +.+.^ ^ o.7.#Xw.%X;XK.O u fXUXG.p.oX:X$X[.9.7.>...>.4.' .. .~ W E L 9 8 8 6 6 6 7 9 Z Z W ! ! W W ) o.=.<.H.:.u kXLXFX_.x.m b x f f f d & : d d % % % t % % % % % % $ $ $ d d j N f.m.k.f.Q.D.v.y X   i SXGXdX>XD D _ 0 9 9 9 9 9 8 8 8 2 , , , , 2 , , q 8 8 9 9 9 W ] ",
"_ [ J.1X3XvX2X;.i uXHXp o F.aX2X%X0.=.=.) ^  ./ ^ / E 9 9 9 9 9 9 7 7 9 9 9 9 9 E ^ ^ W o.#.#.@.7.e.H.:.o t.k d ~._.Q.n.h.d.z m c g z z d % - t t t t % % - - % % C d % - f k k l g n m y.b u.p   o + L.=X0.=.7.Z W ) ^ W 0 9 9 8 8 9 Z W 9 9 9 L L E ~  .X.X.X. .>.w.7.9.w.8.L.O 1 G.< L.L.;X1X[.#Xw.4. .X.@.@.+.^ W W E Z S S E 9 9 9 L E ~ ..4.4.@. .^ o.=.r.8.H.w W.IXJXc.j.Y n R h.f.v g c j M g h j g d C % % % % % d d g h v N B B k.k.V f.~.n.(.x   @ N.kX{.:XJ._ [ $.^ E ^ ^ / L 9 8 6 8 6 , , , , , , < , , , q 9 9 A [ -.$X3XNXdX< < qXAXKXt.o }.dX3XJ.=.} ) 9 W o.^ ^ W Z 9 9 9 6 2 , , 4 6 6 9 9 L / ^ ^ ^ ^ W ^ ! ) _ %.%.i i y t I.~.n.b.d.f.n v n m g d % % % % t % % % % % d C & h d h M n N v v R B f.b.~.OXu.  . p.=XH.=.7.<.@.o. . .^ / E E Z 9 9 9 8 8 8 9 9 Q ~ '  . . .o.o.w.w.8.w.$X%.O R.SXIXs.&.;.$X%X0.e.9.9.>.>.5.4... .~ E 9 8 6 4 , , , 2 8 7 9 9 W W W W ^ O.=.7.J.F.e E.HXLXgX~.j.g z b f f z d t t % % % d d % % % % % % % % % $ d f n f.f.m.k.R n.D.g.X   + wXGXvX:X;.0 0 ( 9 7 8 8 8 9 0 0 7 , , , 2 , 6 6 6 8 8 9 W 9 8 9 ) ",
"*._ w.1XdXNX1X%.P.AXJXi   u K.1X$X0.8.r.^ /  .E Q Q E E 9 9 9 Z 9 7 8 7 9 7 7 9 9 W E E o.@.+.+.5.7.0.;.1 p y * m n.n.b.d.g.b b l f z c d $ $ % % % % $ $ % - % $ C C % $ t f f g g m c b b u.x   . O :.}.{.8.<.) W W W W 0 9 E 7 7 9 9 9 9 8 9 L L E  ...X.X.X.X.9.5.<.0.0.1.%.o p.-Xo u ;.K.2X#X#Xw.9.>. . .+.o.^ W E E Z S Q W 9 9 E E E ~ ..5.5.@.o.} $.7.8.H.:.%.sXPXlXY x.n R f.f.R m l f g c j g j h C % % % % % % - d g h j v B f.k.m.k.m.n.n.n.+   i kX>XJ.{.-.0 _ ) E E / ^ E 9 9 8 6 6 6 , , , , , , < , , 4 0 0 W ) -.[ #X3XNX{.. &.jXJXKXs.. :.:X:X0.-.} ) W ) #.o./ W Z 9 9 7 6 , , , 4 6 4 4 6 8 9 E 9 W ! W ) ! W D :.u u T x.n.n.n.h.h.h.k.v v n c f d d d % $ - t % % d d d h j g g d d d % d N B M v n n.I.I.@   e K.$X1.7.7.#.o.o.o. .^ / / E Z 9 9 8 8 8 9 9 / `  .+.+.o.$.=.J.0.0.w.1.< :.fXAXIX&.1 :.J.:X0.0.w.w.5.>.5.5...X.' / L 8 6 4 8 6 8 9 A ! ! ! ! ! ! ! ) =.7.8.H.%.:.kXLXzX_.D.n c f k z f f f f d % $ % d t % % % % % % % % % $ d f N f.f.m.m.f.b.n.f   X P.SXVX{.1.( -.( 9 A 9 9 9 9 9 Z 9 7 , 2 2 2 6 6 6 6 q 8 P W 9 9 L ) ",
"[ -.0.:XvX2XH.u fXKXAXu.. o F ;XK.0.0.7./ /  .E ~ { o.o.) / E L 0 8 6 6 8 8 8 9 7 9 9 E o.o. .o.@.7.8.:.u 1 i # & m.n.h.H g.b c g f c m f $ & $ $ % % $ $ - t t $ : % % & t h h h g m m l g.b u.+   . e T.=X0.<.O.! Z W W W Z W 9 9 9 9 9 9 8 8 9 9 E  .....X...5.#X@.7.[.8.1.1 o -XlXu . %.1.{.:X#Xw.w.9.X.` @.+. .W E E Z S Q W 9 9 E E E { @.5.4.@.^ ) =.8.8.H.1 G.SXLXu.x.b.v R f.N n N v h d M c g d % & % % % % % % % - d h C j B f.f.m.Q.b.x.~.f   @ R.SX;X$X8._ ( ) ^ W E W E 9 8 8 6 , 6 , , , , , 4 , 4 6 6 q 0 0 0 _ -.*.[.dXBXD o G.AXKXZXa.  1 $X%X8.=.} } o.o.o. .^ ^ W E 9 9 8 6 , , , , , 2 6 8 8 9 9 W ^ W W 0 ) 0 %.%.u i s.n.b.n.j.b.n.m.M n m c h d h d % & % d % % d h d M M C d h g g % c N j v d m b.x.OXp X . G.,X0.=.7.7.>.+.o.+. .^ ^ W E 9 9 9 9 9 9 9 /  .+.@.$.o.#.0.J.w.J.%X%.1 7XAXIXSXP.O &.*.$X[.0.0.w.5.X.X.| X.X.| / W L 0 0 , 2 6 7 Z W W W ) ! W W ) -.r.8.;.1 -XIXLXI.n.h.c d.g t z g - t $ % - % $ % t t t % % % % % $ & - h h n f.f.n.Q.m.b.b.@   r fXPXdX0.<.<.=.*.A W ) W 9 9 Z Z 9 6 2 2 6 6 6 6 6 6 0 P W 9 9 9 W o.",
"$.] $X1X>X=Xu G.IXJX7XfXr   . p.=X8.0.7.$.@.@.5. .E / $.O.9 6 9 9 9 8 4 , 6 6 6 6 8 0 ^ ) )  .} $.) =.-.;.:.u p # f h.b.d.d.y.x g h h h % & % t % % $ $ % % % % & $ C % & d g f d g m v c m n Y x     . p.>XH.8.7.W W ^ E Z W 9 Z 8 9 W 9 9 9 6 Z Q ~ X.>.@. .X.q.+X7.0.{.J.;.. t.fXfXqX. O &.M.2X%X[.w.9.>. . .@.+. .^ Q Q Q Q Q Q Q Q E ~ o. .@.@. .W o.=.=.H.%.i fXKXgXx b.Y R R f.R n v M h C g j h C $ & & $ % % % % % % % d g h j v f.Q.m.Q.b.c.#   i BXkX;XH.-.O.) ^ ^ E 9 E P 9 8 8 6 , 6 2 , , , , 4 4 6 8 0 0 0 q 0 ( *.-.:XdX>X< u fXLXKX9X9X+   F K.H.-.O.$.] ` o. .` ^ / W 9 9 9 8 , , , , , , , , , q 0 9 9 8 9 ( I %.%.w %.&.&.R.I.).h.f.h.N h.m m c g h h d % & % : & : : & h g j j & % j h C c n d v n M f.Q._.D.@   1 ,X$Xr.7.7.9.>.+.o.o.o.^ E W E 9 9 9 L E L  .+.^ O.=.) ] '.9.J.{.F.= p.CXFXDXCXkX1 1 :.1.$X[.0.9.7.>.>.,.>... . .o.^ 9 7 7 2 9 W 9 ^ o.Z E <.7 O.<.$.7.H.1 t.SXKXrXb n.c v v c g g d - f % % % % : t t t % : : % % % : d d g g j M N n.b.h.~.y X   G.HXSX>XF._ _ ( A A ) ) ) A 9 L W L 8 2 8 0 9 8 9 8 8 P 9 ^ ) 9 9 ) ) ",
"Q 9.:X2X=X&.u sXLXCX(.qXP.  X 1 F.J.0.0.>.^ +.~ +.^ ^ o.} 9 8 9 9 9 8 4 , 4 6 , 6 6 8 W ^ W / / O.) ) -.r.;.F r T l d.n.n.j.y.H g h g g : % : : d % & & % : % % & % C % $ d g h d g M l M n R y.y.- X   u =XH.0.0.O.^ ^ E W ) W Z 9 9 E E 9 9 7 E Q  .>.@.'  .5.w.7.e.0.H.F.e . R.jXCXCXs.  1 &.=X1X#X'.9.7.,.....X. .^ ^ ^ ^ ' Q S Q ' ~  .@.$.#.^ Q $.=.=.8.;.r P.AXLXI.v.g.c h.f.N v M j h d % d g h C % % % $ % % % % % % t t h h v N k.Q.m.n.~.y @ X }.SXyX;X0.-.o.^ ` ~ Q 9 E P 0 9 0 6 , 2 2 , , 4 4 6 6 6 8 9 P 0 q 0 ( _ 1.:XaXF.O a.SXKXgXOXhXs.  1 %.F.;.-.O.] ` ` ~ ^ ^ ^ W E 9 8 6 , , , , , , , , , 6 0 0 8 8 9 0 0 I %._ _ %.:.a.R.I.b.R d.j.b b m c l g g g d % : d % h d % h g B v C h N m C d % g ~._.~.Q.Q.~._.y   . L.,X8.8.7.7.>. .^ } ) ^ W S Z 9 9 9 L E / ~  . .o.o.O.7.'.[.#X$X%.e wXAXHXDXAXCXN.o &.:.H.%X0.<.>.+.+...>... .` ^ E 7 6 Z Z Z ! O.] ) ] $.o.$.$.7.=.8.w e qXFXFXu.n.n m v N v g g d % d : % % : d d h d : : : : % % d d h h h c m f.Q.n.n.y.*   1 kXIXdX;X1.D D D 0 9 A W A 9 9 9 L L 8 8 0 9 9 9 L L 9 L E ^ W 9 W [ *.",
"` w.:X2X;.< a.AXKX9XR.(.qXr     w K.[.0.7.+. .~ +.^ / ^ W 9 8 9 9 9 9 6 4 4 , , 6 6 0 0 W W W / ) ) W $.8.;.:.U t.b y.x.b.b.c.y.z g g f % $ t d h g g f d % % % % % C : % d f d f g g g c n d.d.j.G #   o L.=X0.8.=.o.W W W ( W E E E W ) W 9 Z ~  .4.5. .Q $.9.9.@.w.8.H.;.. i wXnXAXHXkX@ a &.8.2X&X'.9.9.4.@. . . . . . . . .X.' ` +.o. .$.$.5.^ W 7.=.=.H.u i jXKXgXg.I.m j.f.n M g g j h d % h g h C % % % % % % % % - d h f f g d.f.f.n.n.~.x.X   i BXBX>X=X8.) )  . . .` 9 L L P 0 0 q 2 2 2 , , 4 6 6 6 6 8 9 0 0 q 0 ( _ 0.:X>Xw < qXKXJX~.(.rXR.  . 1 1.8.=.O.O.` ^ ~ ^ ^ / W 9 9 8 6 2 , , , , , , , 6 6 0 0 0 0 9 P 0 0 ( _ w *.F.&.P.x.x.g.c.g.c y.c z g g g g d d % t : h d $ t d n c s % M M - % d n Q.Q.n.Q.~.)._.n.@   e >XK.8.7.7.>.o.^ ) ) ) ^ ~ Q W E E Q ~ | Q | .. .+.7.'.'.w.[.F.e G.SXJXDXAXDXCXqXo t.F.1.1X0.<.7.>.>.@. .` ' ^ ^ W 9 9 Z W 9 W =.) Z o.7.^ 7.<.<.8.-.O G.AXKX7Xx Z.m n v f.n j m c - d t % % % d d d d % t t - % t d d f d d n f.h.n.n.n.y     P.GXkX,XK.-.0 0 0 7 7 7 7 7 9 7 9 9 9 8 8 7 9 9 9 9 E 9 9 ^ W 8 9 ) O.-.",
"0.w.:X=Xe e sXLXDXP.(.R.|.E.    O ;.;X[.0.7.^ +.o.^ / E L 9 9 9 E E 9 8 4 6 6 , 6 8 0 W W / ^ ^ ^ o.^ $.=.-.F.p.i T y.y.g.n.n.c.m m n n z f g g g g g f d d d f d d d d d f g d c c z c m n d.d.j.u.u.    ;.2X8.=.=.} W W ( P P E ! E W o.^ 9 E ` +.5.4.` ` 7.e.5.9.0.8.H.w . R.fXAXHXAXjXp o u %.$X2X[.w.w.9.@. . .o.o. . . . .>. .o.#.@.o.+.$.5.$.o.$.-.F.F.1 T.HXJXv.R.v.m h.l f h h g M g h d g M g d - - - d d d d d d h f k h l j.h.d.n.~._.#   @ 7XIXaX>XK.-.( ] @.+.X. .E L 9 9 0 0 q 6 2 2 , , 6 6 6 6 8 9 9 0 0 7 0 ( 8.[.%X$X< &.SXKXgXD.(.).9Xp   + %.1.8.*.$.o.^ ` o.^ / E 9 9 7 8 2 2 2 , , , , , , 6 q 0 0 W W W W W 0 ( 0 -.L.:.i i f g.c.H j.j.b z g g g f d d t t % d d % % % h g C & - - % - h m K n K m.Q._.~._.y.    L.,X8.r.7.=.#.o.] ) ^ ` `  .` / / ~ | X.' ,.4...5.w.#X#X0.{.%.u qXHXHXZXSXAXhXhXr u T.1.;X[.<.w.0.9.5. .` `  .^ Q W W E E 9 W ) W 9 ^ =.) <.<.-.F.e e fXLXAXx v.g.d.d.m h.K m j.d.g f f d d d d d d t t t t t t d d d h t h d.m.h.n.n.c.#   + kXBX,X=X8._ q 0 q 7 7 7 6 7 7 7 8 8 8 8 8 8 9 9 9 9 9 9 L ^ E 6 9 W _ -.",
"#X:X>X%.O G.AXKXrXv.(.I.I.rX#   o 5 {.:X#Xe.` o.o.) ^ W E W W W W W 9 8 6 6 6 6 , 6 q 9 9 E W ^ ^ $.) $.=.-.H.F.s.U y x y.h.n.~.m n h.n.h.H n c m C * * d v n c M g g g g c m M c c c m n d.f.h.n.z.I.i   < ,XK.;.r.O.) _ _ ( ( 9 W E W ) W 9 E ~ @.>.@.+.7.e.e.e.0.7.H.;.o u wXZXHXZXhX9Xa.@ r F ;.aX;X#X[.w.9.@.+.o.+.+.+.@.@.@.^  .#.$.+.@.5.#.$.=.O.F.L.u u kXJXgXv.(.y.y.g f h h f g g h d f c c M g f g l d h f g f h f k k f l h.h.f.~.).c.X   s.SXBX>X:X0.[ W ] @.@.+. .E E 9 8 8 8 6 6 6 2 6 , 6 6 6 6 9 9 9 0 8 0 A ( H.;X$X;.1 -XKXHXI.~._.OXuXI.  . e ;.8.-.$.] ^ o.^ ^ ^ W E 9 7 6 6 2 , , , , , 6 , , 4 8 0 0 W P W ) 9 A _ *.F.M.1 + @ x u.y.g.y.y.b c c c l g g l h d d h f d d C f g g g h d t c d.f.f.m.n._._._.~.).#   a ,XK.-.=.r.=.#.o.^ ! ^ `  .` Q E ~  .,...4.,.>.'.*X#X&X:XK.3 M.bXLXCXnXAXnXzXCXP.o N.F.H.:XJ.J.0.e.7.5.>.#.#.+.^ E 9 ^ E W ^ W ) O.) ] O.=.=.F.:.o G.AXKXR.T Z.c.d.h.d.m.K n j.j.m c c M g g M M g g h h h h f f f f g h f d.b.n.~.~.u.X   E.SX,XK.K.*.w q 0 q 7 0 0 8 9 0 0 8 6 6 6 8 7 7 9 9 9 9 E E / 9 8 Z W ) =.",
"{.vX;Xo 1 fXLXJXP.I.I.I.I.rXu.    O ;.1X:X0.e.o.) ) ^ W E W ^ ^ ^ ^ E 9 6 8 6 6 , 6 9 9 9 Z W W o.$.o.$.>.7.8.;.F.s.p # f j.b.b.n m y.j.d.n n n c h % d n f.R v n m n m c m N n v m n d.j.h.n.n.~.c.(.R.@   F.dXJ.8.-.) ( ( _ ) W ^ ^ ^ ) ^ E / ` 4.4.>.e.w.w.e.w.0.J.J.< . R.gXDXzX X9XeXuXr   F F >X1X:X#X#Xw.7.5.$.+.@.@.@.@.@. . .+.+.+.#.>.@.o.7.;.K.p.O a.AXKXR.Y.c.g.b k f f h f g g f g f M c g h h h g - d g g f f f k f f z h.b.n._.).$ @ + sXGXdX1X#X=.) W ] +.@.X.` / 9 8 8 6 6 2 2 6 2 4 6 6 6 6 6 9 L 9 9 7 0 ( _ 8.:XK.e u BXKXhXc._.OXOXOXrXx   + %.;.;.-.] ) ^ ! ^ ) ) W 9 7 6 6 6 2 2 , , , , , , 4 6 6 0 0 9 9 ) 9 9 ) _ *.M.&.. X + x c.y.y.g.y.n n m c M c n c c g j m g j c M k M c c g d l K f.k.k.b._.).).~.).n.@   p.=X-.-.=.7.r.O.) W ! ^ o.^ W W  .@.4.,.>.,.9.*X*X#X1XaX%.e 0XIXLX9XZXZXhXnXCXqXo &.F.;.2X;XH.=.<.7.#.@.@.#.#.o. .^ ) W ) } E o.7.O.^ O.=.-.L.= O qXJXJXu.I.n.~.h.n.n.k.K n N N n n m c c c m n n m l g g l l l l l c c c d.n.~.).~.y   1 BXkXK.{.8.( q q 0 q 7 0 7 9 9 9 0 8 6 6 6 8 6 6 8 9 9 9 E / W 9 9 9 A [ 8.",
"{.aX;.. L.IXKXhXu.I.D.n.I.(.I.@   o 5 J.;X[.w.7.) ^ E E E E ^ ^ ^ ~ W 9 8 8 6 6 2 7 9 9 9 E ! ^ o.o.+. .o.<.=.-.1.G.&.+ # y.m.j.f.n m m c v n v M v R f.f.f.R N f.n N n c v N N n n N d.h.b.Q.~.~.~.).rXx   e sX=X8.-.-._ ) ) W ^ ^ o.o.^ ! ^ ` +.9.5.9.*X#Xw.w.J.J.$X;.. u fXnXFXzX XxXDXFX^.X e F L.1X:X#X#Xw.e.7.$.+.@.>.>.>.#.o.o.o.^ +.#.#.#.$.8.H.L.u a 7XLXJXn.I.u.n.c H g d d g z z k l g c v M h d d d d f l l g h h f f k m h.n.Z.~.n.X @ t.SXBX>X:X<.) W ^ `  .X.X.' E 9 8 8 8 6 2 , , , , 6 6 8 8 0 P P 9 7 7 A _ _ -.{.1.< L.HXHX(.b._.OX).~.tX8X+ . 1 %.;.-.O.] ! W ^ ^ ^ W L 7 6 8 6 6 6 6 6 , , , , 6 6 6 8 9 W Z A W 9 A _ %.;.p.+ + @ t x.u.g.h.d.n n n m m n d.n N v v N v n f.c h l c M g h g K n._._.~.tXtX).).~.tXx @ + G.;.-.-.=.=.O.) ) ) ) W ( ( ) o.+.5.+.@.9.*X&X#X$X:X{.O p.CXPXCX XmXxXuXgXfXjXt.r G.p.,X1XH.=.=.7.o. . .@.#.>.#.#.) ^ ) } } o.$.#.o.#.=.F.;.. s.CXLXfXv.~.I.~.n.~.Q.k.N N v v d.d.v v M v N N N m c c c c c c c g c N d.m.~.).(.v.@   G.BX=XK.J.[ 0 q 0 0 q 6 q 6 0 8 8 8 8 6 4 6 6 2 6 8 9 9 9 W ) ! E 9 6 ! 7.0.",
"=XK.o = fXLXKX(.g.n.I.n.x.D.n.y . . O w H.%X7.7.o.) W E E E ^ o.^ ~ E Z 9 7 6 2 , 6 7 7 9 E ^ ^ ^ / @.~ Q o.O.7.;.L.p.p y b j.n.n.j.f.h.f.R N v N N B B R f.f.f.f.N N n M c N N N n N K f.h.n.~.`.).tXtXI.@   K.=XF.8.8.O.) } W Q E ` o.W E ^ ` @.9.7.w.&X#X7.w.%X{.{.O . R.uXhX9X X/.rXxXxXeXX = &.%.>X:X#X#X#Xw.7.o. .@.>.4.>.+. . .^ ^ $.5.5.#.7.0.J.M.1 i hXKXrX~.~.g.c.g.g c h d l m m k h f c n n c l g h g c c M f d d h g c n h.n.D.n.x X X -XGXBX2X#XO.W ! ^ ` ` X.X.' E 9 8 8 0 8 2 , , , , , 6 q 9 0 W W 0 7 7 D [ *.1.F.%.w fXKXCXc.b.n.).OXOX_.rXu.  o u ;.;.-.O.W ) ^ W E 9 9 9 9 6 6 6 6 6 6 , , , , 4 4 6 8 0 W ! Z ) 9 7 _ *.;.:.u + @ # b c.c.c.j.d.d.H n n d.d.N k.d.N f.N f.K c c K N c g h C d c m.k.m.).).).)._.8X(.+ @ u ;.:.%._ [ _ ) ( ( 0 0 0 P _ ) } >.^ @.#X3X&X[.%X;X%.1 0XAXHX(.rXiXuXuX9X9XnXR.  G.F.L.aXH.0.7.7.7.@. .+.@.$.o.o.o.O.) ) #.} ^ <.7.7.-.$Xu O 7XJXLXn.~.~.~.~.n._.Q.N N f.v v f.d.N v v v N N N n c c M c c c M g M f.k.n._.8X~.x   + sXaXH.$X8.( w 0 w 0 q 6 8 6 8 6 6 8 6 4 4 6 8 6 6 9 9 E W ) o.^ W 6 < ! 0.w.",
"=X< o G.PXKXZXx.v.D.~.n.n.n.y.a.@   1 < %.H.w.7.=.W L W E E o.$.{ ~ ~ Z 9 9 7 2 6 7 7 7 7 9 E W ^  .o.+. .` o.=.<.;.F.G.t.x d.n.n.b.m.m.b.k.f.N N f.m.!.m.k.m.~.k.k.R v M n f.f.f.N n R k.b.Q.`.`.).tX8XOXp . r oXF.8.0.w.0.7.<.#.#.>.7.7.<.o.` 7.7.9.*X&X#Xe.0.H.K.w   s.7XqXxXxXxXxXcXiXxXmXt.  p.w H.aX{.#XJ.e.e.7.#.$.>.4.>.o.o.o.^ o.<.7.>.] J.J.H.w 1 wXJXJXrXI.D.n.c.h.n n m c c c c c c j j c v n n n n j c m c g h g c z n Y d.n.I.~.$   t.kXPXdX>X8.) ! ^ Q ^ X.@. .~ 9 L W 9 7 6 2 , , , , , 4 6 8 9 W _ A 6 7 [ 8.;.-.;.F p.PXLX(.x.g.~.)._._.D.D.(.#   + %.;.*.-.W W W W W W W 9 9 9 6 6 6 6 4 4 4 , 4 6 6 6 8 0 A ! W W 9 0 w _ :.;.u a i y b c.h.b.b.m.h.d.n n K f.f.b.k.f.R v f.N v n v v n g d g h v v v f.~.tXtX).tXtX_.I.X o &.;.%._ -.-.[ _ _ O._ _ -.[ ) O.#.7.+X5X3X1X%X:XK.O W.jXPXHX9XiXuXrXiXiXuX9XgX; u K.F.>X=XJ.7.0.<.>.@. .o.$.#.$.$.=.=.$.O.o.#.e.e.J.J.K.o s.kXKXhXI.~._._.~.Q._.Q.m.m.m.k.k.m.k.f.f.f.R N f.N j g c v c j c v N k.m.b.).~.~.~.@   t.kXK.H.J.O.0 q 0 0 q 8 0 0 0 8 8 6 6 6 6 6 6 6 6 8 8 9 9 ! ) ) ^ #.7 7 *.J.$X",
"&.O 1 sXPXKX8Xc.n.D._.I.n.b.u.x.+   . e :.-.0.7.7.) 9 9 9 E o.7. .{ ~ E 9 9 7 6 6 8 7 7 8 7 9 W / ^ ^  .^ ~  .$.=.-.1.G.N.a.c.n.n.~.~.n.m.m.k.N f.m.Q.Q.Q.Q.Q.Q.k.f.R N N f.h.k.f.f.f.k.b.n.~.`.)._.).)._.n.@   :.;.8.8.J.#X#X[.#X*X&X%X#X[.#X*X*X7.q.&X*X0.8.8.F.p.O O P.|.hXmXhXmXmXnXxXxXmXeX  u M.;.>X{.0.#XJ.w.0.0.7.7.7.7.<.=.#.$.=.7.e.0.<.) ;X=Xo E.CXKXmXOXD.D.n.b.c.d.n m m m n n m c c c v v m v v m n z f g m n d.g.h.c.h.h.b.b.y.X @ P.SXSX2X$X=.^ E W / ` X.@. .E 9 9 9 q 6 2 2 2 6 , , , 6 8 8 9 _ A D q _ 8.1.;.;.%.u fXPXAXv.c.b.~.~._._._.D.I.t.X . e :.;.*.O.W ! W W W W Z Z 9 8 8 8 8 6 6 6 , 4 6 8 8 8 0 0 W A A 0 0 0 ( %.;.%.1 r t.u.g.h.c.c.h.d.d.K j.m.m.f.m.k.f.k.f.b.f.n d.N N N M M N N m.f.f.n._.tX).).tXtX_.I.# X r &.%.:.H.H.0.8.J.J.8.8.$X%X#Xw.7.9.3XNX3X3X&XaX:.O }.IXKXZXhXzXrXuXuXeX9X9XhXN.o G.G.=X>X8.J.w.0.7.>.$.$.$.<.7.O.=.$.$.=.7.0.w.#X8.$X%.O -XHXLXuX_.~.~.Q._._.n.Q.m.m.k.B R f.f.R N R f.R R N M N R f.d.R d.f.m.n.Q._.tX_.tXu.  X 7X0Xp.K.8.0 W 0 0 0 0 0 0 0 8 8 8 6 6 6 6 6 6 8 7 7 7 9 E ^ ) O.O.O.W =.8.J.J.",
"O o a.IXKXAXg.b.n.n.~.n.g.g.y.y.T   @ e :.;.-.7.<.O.E 9 E E ! $.{ { ~ E Z 9 9 6 2 6 8 8 6 7 9 9 E E ^ ^ ^ ~ ` +.7.<.;.L.-X(.Y.~.b.~._.~.n.n.b.f.h.m.m.m.m.n.m.f.R n n n R f.j.f.h.b.b.n.n.Q.~._.).OXtXtX).8Xx   u :.;.8.%X3X3X&X&X1X1X:X&X&X&X%X[.<.[.<XJ.8.J.K.K.e   p.}.wXnXuXeXhXxXiXhXrXuXnXp   G.%.K.;XH.{.[.J.J.J.w.7.<.7.8.w.0.<.8.8.<.8.A A $Xw e kXKXKXgX).~.~.b.b.c.d.y.b m m n y.Y m m m n n n n m m m m m n n d.c.D.~.I.b.x.x.x.y X r qXGXkX:XJ.} ) W W Q ~  .X. .E 9 9 8 6 2 2 2 2 6 4 , , 6 8 0 0 ( 0 ( q -.J.1.1.;.u G.HXKX7Xg.c.n.n.n.~._.~.n.n.(.r   O %.;._ *.) ) W W W W W W 9 8 8 8 8 6 4 4 , 4 8 8 8 8 7 9 W A 0 0 I ( I I %.%.e + a.v.y.j.c.c.n.b.c.h.h.h.b.h.b.m.h.f.R f.d.m n d.h.b.h.k.j.b.~.n.m.~._.).).).tXtX).~.y.X 1 &.&.;.K.=X$XJ.J.%X$X[.$X%X$X#X%X&X5X5X3X3X1X;Xo u kXHXJXhXmXuXuXrXeX9X X9XiXuX+ F L.L.aX>X:X%X8.<.<.<.<.-.O.[ O.-.*.[ =.8.0.0.[.$XK.o u jXKXJXtX_.~.).).).tX).Q.n.b.m.k.m.n.n.b.h.h.h.j.f.h.h.j.h.x.h.b.n.~.~.~._.~._.OX~.X X &.kXF.;.K.-.8 ) P P 0 0 8 0 0 8 7 8 6 6 6 6 6 6 8 7 7 9 9 9 W ^ ) ) ( [ J.$X$X{.",
"  r kXLXKX9Xu.b.x.g.h.g.b T y.x c.@   O ;.K.{.0.=.#.^ E W E 9 ^  .| ~ Q E Z 9 7 2 2 6 6 6 6 7 9 9 E ^ ^  .^  .+.>.=.*.;.T.7X(.(.D.I.I.I.D.b.b.b.c.h.j.j.h.x.j.n y.Y Y y.j.h.h.j.b.n.D.n.n.~._._._.OXtXtX).8XP.X O &.F.K.2XvX1X%X[.[.J.J.J.J.J.8.8.<.$X:XJ.J.;X=Xp.. 1 wXa.|.uXY. X9XeX9XpX8X^.hX}.  u p.;.,X;X1X=XK.J.{.H.-.*.<.H.{.1.w %.;.;.1.;.>X{.O G.CXKXzX8X_.I.v.g.g.g.y.y.y.Y b Y Y Y Y Y Y y.d.y.y.Y b Y y.x.c.x.g.c.D._._._.(.I.u.    a.BXGX2X$X7.^ o.) ^ W E ~  .^ / L 9 0 6 2 , , , , , , , 6 6 8 8 0 0 D 0 1.J.1.F.&.&.jXLXAXy.g.g.h.c.c.n.n.n.b.b.(.u.  . e ;.*.[ ) ) W W W W W E L 9 8 8 8 6 4 4 , 4 6 8 8 8 7 7 A A 0 0 I I I I I %.u O t.P.g.g.c.c.x.g.g.c.n.I.n.c.b.b.b.m.x.x.g.y.y.y.b.~.~.n.~._.tX_.~.).tX).).).tXtX).(.I.@ + i &.p.L.K.J.8.0.H.8.8.J.K.0.7.[.3XvX5X3X3X3X*.. E.AXLXSXhXhX XpXeX XeX9X|.|.jXN.. G.;.{.dXJ.J.H.=._ [ -.-.-.-.;.1.;.;.8.J.J.J.K.aX;.o &.CXPXnX)._.I._._.n.~.n.~.n.b.x.h.x.c.j.b.d.j.h.d.y.g.x.n.n.n.n.~._.).).).OX).).8Xy   @ 0X0X:.H.8.) ^ ^ 0 0 0 8 8 9 9 8 9 8 6 8 8 6 6 8 8 8 7 9 9 9 9 W W W 0 *.J.K.H.%.",
"X P.JXKXZXv.g.g.y.c z z z b u.y.x.u.  . &.L.dX8.8.7.) Z W E E `  . .{ ~ W E 9 9 2 2 2 2 6 6 6 7 9 L / } o.} o.+.#.#.[ *.F.T.R.Y.I.I.I.I.v.c.c.v.v.g.y.g.g.y.y.y.g.u.y.u.g.x.x.g.n.I.I.D.D.~.(.(.8XtXtXrXrXrXrXr o &.p.F.L.H.8.J.$X$X$XK.L.H.H.F.J.J.K.$X=X=XT.G.r   a.7XN.9X XA.|./.|.|.9X XI.9XuXi X p.p.G.T.,XT.L.K.=X=XL.L.{.{.=XK.K.,X>X,X>X,X=X< u fXKXJX7XrX9X(.I.v.v.g.u.z x b T b b b b b b Y Y Y b b x x x Y g.n.n.n.v.I.v.I.I.u.r   r 0XGXBX;XJ.$.^ o.o.} / E ~ ~ / E L 9 0 q 6 2 , , , , 4 4 6 6 8 8 6 A q _ H.K.1.;.e -XPXLX(.y.Y y.b b H H y.d.h.c.v.I.+   O %.8.*._ ) W W W ! W E W 9 8 8 8 8 6 4 , 4 6 6 6 6 6 7 7 9 A 0 0 0 P ( 0 *.%.< 1 a.v.u.v.v.v.v.v.I.I.n.c.g.y.g.g.x.c.v.x.g.g.y.I.tX8X).OXtXrXOX).tXtX8XtXtXuXrX9X9XrXt.  1 U p.G.F.F.;.F.8.-.;.F.8.8.J.0.&X:X1XvXvXaX3 u fXJXKXjXiX|.9XeX9X X9X X|.I.uXfXo F G.p.yX=X>X{.8.-.;.F.8.;.;.}.=X=X=X>XaXsXsXdX=XO O E.LXKXgX(.8X_.~._._.).n.~.D.n.n.c.c.c.u.x.u.c.n.v.g.c.v.I.I.D.D.I.~._._.~.D.OX).v.X + F sXF.F.H._ W ) W 9 P 9 9 8 9 9 9 9 8 8 9 7 8 8 7 8 7 9 9 9 9 9 9 0 6 0 ;.K.$X1.< ",
"p hXKXKX(.g.y.n n c d t y z u.T y.c.+   = ;.dXJ.7.<.$.) ) ^ ! ^  . . .^ / 9 9 0 2 2 , 2 2 6 6 6 9 9 E ^ ^ ^ o.+.#.$.$.*.;.L.E.a.u.I.|.(.I.I.P.v.u.x x u.u.x x u.u.b x b G T G u.u.i.i.u.u.x.v.v.R.(.R.8XrX8XrXt.  1 :.L.=X=X$X>X=XK.L.F.;.;.:.:.F w e w %.e O O   r wXE.|.9XC.C.C.Z.^.|.Y.^.V.Y.rXY.  r E.u 1 < < O < 1 1 O = 3 1 1 e p.=X=XT.-X0X&.o G.AXHXzX9XrXrX8XR.E.V.a.t.x u.v.I.I.I.I.Y.(.(.(.(.(.(.Y.Y.I.I.I.I.I.I.P.I.Y.i.t.p @     G.SXGX2XK.8.O. .} ) ) ^ / ~ ~ E 9 9 8 8 q q q 3 2 , 2 6 6 6 8 8 8 8 A q -.{.K.1.F :.BXKXZXy.x.b c c f y f x y.c.x.d._.i     e 8.-._ ( W W ! ) ^ ! E 9 8 8 9 8 6 4 6 4 6 6 2 6 6 6 7 7 0 0 0 0 P ( ( [ *.e . t.u.x t.t.t.u.a.V.P.v.v.v.v.v.c.y.y.b u.u.u.x c.(.(.I.).).8X(.I.(.(.Y.Y.R.(.(.(.(.8Xa.  + r &.&.%.&.%.%.%.F w w 1 u F.;XF.F.H.>X>X;.. E.HXKXDX9XeXC.9X9XpXXX X|. XY. XZXs.  E.G.K.aXaX=XL.;.;.:.%.w e w F u u &.&.&.:.&.1 O &.kXKXJXZXZXzXrX8XtXtX8XI.tXtXrX8X~.I.I.I.P.v.v.I.P.V.I.Y.rXrXtXtXrXrXrXrXrX(.Y.v.y   . 0X=X1.$Xr.( ) L W W W W 9 9 9 9 9 9 9 8 9 0 8 8 0 9 9 9 E W W 9 9 0 , w F.=X>X:.o ",
"8XHXKXzXg.g.b m c m t $ : y x b l z x   . :.>X2X8.7.<.-.] ) ) E  . . .^ W 9 8 7 6 2 , , , 2 6 6 9 9 L P ( / } o.o.^ O.[ %.p.s.;   ; x i p p y ; X             X                               X       X @ @ @     . u G.G.;.w e 3 O . . .     . . o .   . .   @ + R.gXV.V.i.i.C.C.U.^.|.U.Y.P.Y.(.8XG X V.t.1 O 1 r &.s.G.T.-X-X}.G.p.s.s.&.i &.r + F R.qXp       X             X + ; r r r y y T T t.t.t.t.T x i i i r +   X X     X       F sXIXaX$X7.$.+. .^ ^ ^ ^ ~ ~ / E 8 6 6 4 4 6 q 7 7 6 8 q 0 0 0 0 0 0 0 _ 1.K.L.:.w 0XPXPXOXg.d.Y l z - $ - y b h.j.d.D.v.@   < *.1.[ _ W W ^ ) ) ^ W L 8 9 9 9 8 6 8 6 6 4 6 6 7 7 7 7 9 0 W W W ^ W ) _ w O 1 p +         X ; p i r y y y y @ X   X         @ X   X X X                   X   @         O 1 O 1 = e e + O 1 a 1 u e 1 &.p.G.P.&.a.CXKXLXgX|. X|. X9XrXXX X|. X|.|.hXwX+ i a.u :.F %.e O . . O O + O O o   . . X .     1 E.HXzXI.u.v.T y p x x y x x x x y + X                   X u.u.y.y.u.i.i.u.u.y @       F bX;.F.J.[ ) ^ 9 L W W W 9 9 9 9 9 9 8 8 9 9 8 8 9 9 9 9 E W W P 9 0 q *.F.$XK.< < ",
"DXLXLXI.u.y.m z f m t & % $ z T Y y.u.# . 1 K.2XJ.0.8.#.! ) O.^  .{ ^ ^ E 8 6 8 6 2 , , , , 6 6 9 9 9 L W ( } o.+.^ O.[ ( ;.&.. . . . o o o O = o . . . . . .       . . . . . o o . . o @ . . o O o . .   o   . .   o + O . . O 1 1 u i u u &.p.a.G.p.t.N.R.7XR.uXSX7XB.i.B.Y.B.C.^.U.^.I.I.V.Y.I.eX9X@ i R.R.qXkXUXSXAXIXHXPXPXPXPXHXAXSXAXCXfXfX7X&.s.r p p i 1 r 1 1 1 r r u 1 1 + O .           . o O @ o o .   . o O + 1 1 r p &.r e u ,XGXBX8.w.E W  .{ ~ ^ ^ / W W W E 9 6 4 , , , 6 q 7 7 0 9 0 0 W 9 0 A 0 8.8.1.M.F F SXKXjXg.x.m c l f $ & $ & f n n Y d.I.# . = w 8.-.*._ W ! ) ^ ^ ^ / L E ^ W P 0 8 8 6 6 6 8 0 9 7 7 9 W ^ ) ^ ^ ^ W ( ( w O 1 . + e F F u r + o   .         X       . . X .   X X   X X X @ X X . .     X     X   . 1 G.-X0XsXqXsXjXjXjXjXjXjXCXjXBXfXfXfXfXfXSXKXJXZX|.|.C. X X9X X.XXX|.Y.|.|. XnX|.+ s.u   . O 1 &.p.P.R.-X}.0XwX}.R.R.E.P.P.N.E.7XfXR.  X X     o         X @ X @ + ; r r 1 1 1 u F i p r +           X     X   @ .   e aXL.:.H._ W ) E L 9 P W 9 9 9 9 9 9 9 8 6 9 9 8 8 9 9 9 9 L W W 0 0 6 ( ;.H.=XL.O p.",
"JXKXgXz x.g.k c f n n d % g d.d.y.k y.u.  o U ,X;XJ.7.$.! ) [ W ^ o.o.W Z 9 9 6 6 2 4 4 4 4 4 4 8 7 9 9 9 W ` +. .` $.$.[ *.*.w < e ;.{.>X>X>XaXdXdXdXdXdXaXdX2X>X;X=X=X,X=X,X0X0X,X=XT.L.F.;.%.%.%.%.%.u u %.%.%.< o u u x P.v.R.|.qX7X}.7XqXnXSXAXHXHXLXKXLXJXFX8XC.B.i.V.U.Z.B.l.B.U.U.Y.Y.V.v.Y.8Xv.# P.FXKXKXLXKXKXKXKXKXLXLXKXLXKXKXKXKXKXHXi u p.sXsX0XsXaXsXdXkXdXdXdXdXdXaX>X>X=XT.K.}.=X=XT.=X,X>X,X=X=X=X=X=X;X>X>XaXaX>XkXaX2XdXGXGX0.=.O./ @.5.~ Q / W E E W ^ L 6 4 4 4 4 4 , , 6 6 9 W ) O.] ! ) ) -.1.F.F.p.= 7XLXLXn.y.Y z l f t x t # $ % l Y x.n v.u.    1 :.;._ _ ) W ! +.+. .~ E W E 9 9 9 8 8 0 0 8 8 8 9 9 9 Z W ^ ) ^ ^ Z ! W ( w w 1 1 :.=XkXBXBXBXkXaX0X>X,X-X>XaXsXaXaXaX>X>X=X}.K.K.L.G.p.G.G.G.G.G.p.T.p.G.G.W.E.W.G.G.p.0XSXPXPXLXKXKXKXKXKXLXKXKXKXKXKXKXKXKXLXKXKXhXI.U.^.l.C. X X|. X X^././.|.|.uXxXY.i.Y.Y.P.wXuXjXCXSXAXHXHXHXAXIXLXHXHXSXCXqXqXIXBX0XT.}.F.F.;.;.;.&.F %.&.;.;.p.p.p.G.G.F.F.F.L.K.}.}.T.K.L.M.;.p.F.L.L.L.}.-X>X>X>X2X{.( ( ( 0 W W 9 W E 9 9 8 9 0 9 9 Z 7 6 8 9 9 9 9 9 E Z E W ( 0 0 q 7 -.8.K.=X&.r fX",
"LXFXn.u.y.z c f m l h g n f.f.v b u.k y.>   1 p.=XJ.8.<.o.) _ ( ! ^ ^ W Z 9 8 6 6 6 4 , 4 4 4 4 6 6 8 7 7 S Q ` ` Q ` ` W ) ) 0 D ( *.8.0.H.J.[.;X2X3XdXdXdXvXdX2XdXvXBXBXNXNXvX>X,X;X$XK.H.H.8.8.8.F.K.$XK.J.H.$XD . u E.CX9X).(.|.8XR.R.fXSXLXJXDXZXuXR.(.9X(.|.B.Z.B.i.l.U.Y.B.i.l.U.U.Y.Y.I.H a.^.|.V.8XDXHXFXFXJXDXhXuXgXZXzXhXZXFXFXHXAXHXt.@ p.BXGXaXK.$X,X2XdXNXNXBXBXvXNXvXdXaX2X>X>X1X:X;X;X>X>X>X;XK.K.K.H.J.2XNXVXVXVXBXVXVXVXGXBX%X=.o.o. .7.q. .~ E E 9 9 9 P 8 4 , , , , , , , 4 6 8 9 E ] ` ! ! <.0.H.K.;.e s.CXKXzXu.Y b x f y y b l f d t f f Y g.y.c.X   O u ;.%.( ) ) ` +.@.@. .| ~ W 9 9 7 0 7 0 0 9 9 9 9 L L E / ^ ^ ^ ! W W W 0 ( ( ( %.dXBXVXVXVXVXBXdXoXK.K.K.$X=X;X=X%X;X:X1XaXaXaX2X;XK.F.K.=X>XsXBXBXBXVXVXBXIXIXIXSXBX-X0XPXJXKXKXHXFXFXDXDXZXxXuX|.|. X7X7X7XR.R.|.B.G l.I.V.V./.^./.U./.^.(..X|.I. XxXuX|. X|.8XrXrXuXhXZXHXLXLXHXKXHXFXPXHXKXfXa.CXKXIX>X>X=X=X=XJ.F.8.;.:.-.:.%.%.%.%.%.;.F.F.F.H.J.J.{.=X$XK.H.F.H.K.{.=X>X1X>X=X$X$XH.-.*.( ( ( 9 W W 7 9 9 7 8 8 8 7 7 9 7 8 6 6 9 9 9 8 9 Z W ) _ 0 q 7 A _ 8.1.{.,X1 G.IX",
"JXrXu.g.b z g z c f h c N N N f.n v.z b u.    1 F.H.0.7.=.) W ) W W W W S 7 6 6 6 2 , , , , , , 6 6 6 6 7 Z W Q ! ^ ` ^ E ^ ) W *._ ( _ _ [ =.7.8.J.[.#XJ.0.J.J.J.{.%X%X$X%X$XK.J.J.H.0.8.1.8.=.8.;.8.H.$X$X{.J.{.$X< o i P.I.8X(.(.9X|.Y.7XrXgXqX8XuX8Xa.Y.qX(.rX X|.B.i.l.B.l.l.H l.U.Y.U.Y.^.C.l.V.Y.V.v.Y.P.a.u.i.P.8XiXhXZXnXzXZXJXJXDXKXfX    T.IXaXL.H.J.8.8.H.0.8.8.8.<.H.J.J.J.{.=X;X;X$X$X=X:X>X>X=XK.F.H.8.;.0.K.J.0.=.1.-.8.8.[.%X=.o. .o.@.9.e. .Q 9 9 9 9 9 9 8 4 , , , , , , , 6 , 6 6 9 ! ! W ^ J.{.J.K.:.1 0XKXLX(.b b z z y t : t : : $ : z l l j.Y c.y   . 1 :.%._ ) O.o.$.5.5.@. .` / E 9 9 9 0 8 8 9 9 9 8 L E E / ^ ^ ^ W W ) W 0 0 I ( _ D _ _ *.-.;.-.%.%.*.*.*.-.;.;.-.8.8.0.J.{.{.J.H.H.%.3 3 5 < 5 _ ;.8.=X;.w %.%.:.p.G.aX0XHXHXnXzXAXSXZXnXnXnXiX8X9X9XrXrXqX9X|.(.|.^.I.B.C.C.V.V.^.^.V.B./..X/.^.l.U.eX|.U.|.^.|.|.|.|. X9XuXuXuX7XnXgXrXzXzXhXi E.HXGX=XL.K.H.J.J.H.8.1.-.;.8.8.H.H.H.F.1.F.K.$X$X=X$XJ.J.K.H.;.*.*.;.H.H.J.J.H.-.*._ ( _ 1.8.*.( ( 0 ( W 9 9 8 7 8 8 8 6 6 8 6 8 8 8 9 9 8 9 9 E W ) _ W 0 q A <.8.8.=X&.1 jXHX",
"zXc.g.b z g l c g g c n M h B b.h.y.y.x g.y   o %.8.0.7.$.) W ) W Z A W A 6 2 2 4 , , , , , , , , 6 6 6 8 7 Z E Q ^ ` ! W ^ ) ) [ ( 0 A _ ) [ O.7.0.0.0.8.<.0.0.0.0.8.<.<.8.8.8.=.-.-.=.-.=.=.-.-.*.*.<.0.J.[.$X[.2XH.. 1 r 7XZXrXrXuX9X|.uXjXhXhXuXjXuXI.^.rX9XrX XU.i.l.B.l.l.l.i.l.C.Y.U.Y.^.C.i.G i.i.i.v.i.a.v.v.V.9XnXmXZXDXDXSXJXJXLXHXi . 1 kXaXJ.H.0.H.J.8.8.0.8.8.[.:X;X:X;X$X$X$X$X$X$XK.{.$X=X=X$X{.K.;X>X>X2X2X%XJ.1.1.*.J.J.[.%X0.o.+. . .4.2.~ E Z 9 9 9 0 0 0 6 , , , , , , , q 6 8 8 9 W S S ) J.$XK.F.F t.SXKXZXg.b x z f t > t $ # # # y y.y.l Y g.y.i.X   o %.:.*._ $.#.$.7.5.@. . ./ W Z Z 9 0 8 8 8 8 8 8 9 9 L E W / ! W W ^ W 0 0 0 q 0 W _ [ *.*.*.-.-.-.-.;.=.r.8.8.8.=.-.[ -.<.1.<.=.=._ 0 w w 2 , q *.( 0._ 5 w %.%.:.%.sXG.G.qXCXDXZXSXZXZXZXmXxXgXhXiXgXuXrXqX8X8X8X|.^.l.V.Y.C.U.|.|.V.l./.^.A.A.U.U.^.V.V.Y.Y.U.Y.|.9XrXuXhXzXnXhXZXnXhXnXzXV.i SXKXsX:.F.H.H.0.8.8.8.1.*.-.H.{.{.{.{.J.J.J.{.K.{.$X$XJ.K.{.K.H.J.H.J.$X%X$XJ.8.-.H.8.*.=.J.0.0 ( ( 9 W W 9 9 8 7 8 8 8 8 6 8 6 8 8 9 9 8 8 9 9 ^ E 9 W ( ( D A 8.1.K.K.O T.PXLX",
"I.c.b m n h n d m n N d.N N N d.c.m g.z y.a.X . 5 8.J.8.-.) W ) W 9 7 A 0 2 , 2 2 , , , , , , , , , , 6 6 7 9 Z Z ! ! W W W ) ) } ( P W ) ) ) ) =.<.=.<.=.[ =.=.=.[ [ *.-.-.*.*.O.) [ $.#.<.=.] ) [ -.<.<.0.J.#X1XdXvX3 . 1 s.hXzXhXiX9X8XrXrXY.|.(.(.I.i.u.V.I.V.l.l.i.l.V.B.^.B.l.l.B.C.U.U.U.^.U.i.H u.l.I.v.u.V.Z.Y.9XiXhXnXnXnXnXFXDXLXP.  o T.BXK.$X;X0.%X%X0.7.8.<.[ =.0.0.w.J.0.J.J.K.J.8.8.8.8.1.;.;.8.H.8.1.H.$X$X0.=.8.8.=.#XJ.0.0.o.^ o.+.@.2. .~ E E 9 9 9 9 0 0 q 4 , , , , , , q 8 9 0 A A 9 9 ] 8.{.L.:.u 7XPXLX(.y.y.k z y y > : $ $ : $ t b l m n b.y.D.r     e ;.;.[ O.=.#.5.>.@. .{ / W Z E 9 9 9 8 6 6 8 8 9 9 9 L E E W W 9 W W W _ ( ( _ W ) O.O.[ _ } [ *.-.-.-.*.-.=.-.=.O.O.O.=.<.7.7.=.*.[ ( ( D ( A <.A _ _ *.;.F.8.F.;XyXL.u t.jXAXSXSXZXDXDXnXiXeX X|.^.I.V.V.l.v.i.i.l.u.B.Y.C.Y.Y.^.Z.B./.(.U.U.^.B.Z.Y.U.U.C.Y.Y.|.|. X|.|.9XuXiXqXwX9XfX7Xi 7XPXIXK.F.8.H.=.0.0.8.7.-.) _ =.8.8.8.8.0.0.0.H.8.<.<.<.8.8.8.8.8.8.8.8.0.0.0.7.[ *.8.8.<.8.8.=.W A 0 6 0 0 6 7 6 6 6 6 6 6 6 8 6 6 8 8 7 8 6 8 9 E 9 9 0 ( ( _ _ ;.J.H.%.u kXPXLX",
"g.n.j.Y n c.m g d.d.d.N N d.f.N d.n n Y x u.y   O ;.K.0.=.O.) ) 0 7 6 7 6 2 , , , , , , , , , , , , , 6 6 7 9 9 9 W W W ^ ^ ^ O.[ _ W W ( ) ) ) <.<.=.7.=.) W W [ W A ) O.[ ) ( W E W ] o.$.o.W Z ! ] [ [ =.0.[.%XvXNX=Xo = i fXFXgX|.8X9XrXuX9X^.^.I.I.C.i.G i.B.l.l.l.l.l.l./.B.B.l.l.Z.U.C.C.l.Z.B.i.i.V.Y.i.i.i.l.|.uXuXiXxXnXnXmXDXKX9Xo o G.BX>XH.J.&X:XNX:XJ.=.O.$.=.$.] ) ) ) ) _ [ _ ( ( ( ( ( w 3 3 w q 2 2 ( =.=.$.$.0 [ _ [ ) [ e.7.^ @.@.5.5. .~ E 9 9 9 9 0 0 q 6 6 6 6 6 6 6 q 0 6 0 A A A 7 A -.0.J.;.u p.SXKXCXy.u.b y z t y y $ $ & $ # # t $ n d.n.h.c.T X   + %.;.-.O.=.7.#.@.+. .{ / E E Z 9 9 9 8 4 4 6 8 9 L L L 9 9 9 E Z W W W ) _ ) $.) ) ) ] O.$.O.O.$.=.=.O.o.O.O.O.O.O.O.o.] ] ] ] ) O.$.O.$.<.7.<.e.>.$.<.-._ 8.8.;.>X0X}.p.u 7XHXAXZXxXnXZXgX X(..X^./.V.l.V.i.i.l.i.l.l.C.I.V.B.C.Y.Z.Z././.U./.C.B.A.^.U.U.U.C.U.U.^. X9X9X9XuXzXuX9XqXlXG s.BXPXdXF.J.J.w.[.:X#X8.$.) W Z W W W S A W ( ) ) A ) A W ) ) A 0 A W A ( A 9 A ) _ <.<.=.-.<.=.) W 9 0 , 8 9 6 8 6 2 2 2 2 6 6 6 6 6 6 6 7 8 8 9 L 8 9 9 0 0 0 _ ;.H.{.:.1 E.AXKXrX",
"b.j.n.R n n.h d.d.d.R n v v N d.n n m b z x t.o . u F.H.1.-.[ ! 7 7 6 2 2 6 6 2 , , , , , , , , , , , , 6 7 7 7 9 W Z Z ^ ^ ^ O.) W W W W ) o.o.o.o.) =.=.^ W W ) ( 9 7 0 W W 0 W 9 W o.o.o. .Q ! ! ! ! ! ] 7.w.#X3X1XdX:.. r P.AXgXeXxXzXrX9X9X9X|.U.C.I.V.B.V.C.i.i.i.i.l.l.C.B.l.i.l.Z.C.B.C.B.C.U.U.l.l.l.G G u.V.9XeX9XgXmXmXmXmXFXSX+ + p.kXBX$X%Xw.*XdX3X1Xw.O.^ ) O.o.W ! W W ) ) ) _ ( 7 7 0 ( w 2 , 3 , q 0 A ( W E ^ ) ! Z 7 9 W ` Q o.#.+.5.5. .~ 9 9 8 8 9 0 8 6 6 q 6 8 q q 6 8 0 6 7 7 A A 9 _ 8.K.F.%.&.sXKXPX(.x b x t l y : y : y & & $ # t d c j.n.n.g.u.r   . e :.;.-.#.7.#.@. . . .^ Q E E Z 9 9 8 6 6 8 9 9 9 9 9 9 9 9 9 E W W W ! ) ) ] O.o.} ^ ^ ) ^ E o.o.o.) ^ `  .` o.o.$.$.$.$.$.@.o.o.$.$.$.$.$.+. .>.#.7.) W [ -._ F.;X}.T.F F gXZXnXgXiXxXiX X.X.X/./.Z.B.V.l.l.V.Z.S.B.C.C.Z.V.C.Z.Z.Z.A.Z.Z.A.V./.^.A.C.^.|.C.Z.Z.U.|. X X|. XrX9X9XuX}.&.sXPXGXK.8.-.J.w.&X&X&X7.] ] ) ! ^ ! ) ! ^ ! ! ) ) W Z Z W ! ! W W A 9 9 W S 8 9 ) ] S ! 7 2 S ] W 9 W 9 6 0 0 8 8 4 , 2 2 6 6 6 6 6 4 4 8 9 9 E W W 9 9 9 9 q 0 *.1.;XK.F &.kXKXJXu.",
"j.n d.n n % g d.n v n R f.N v c n c n g m k i.r   O :.H.8.-.[ W 7 q 6 , , 7 q 6 2 , , , , , , , , , , , 6 q 8 8 7 Z 7 7 W W W o.W W P 9 E W ^ ^ ) ^ W o.) 9 9 P 0 0 8 , , 0 0 q 8 8 W ^ ^ ` ` Q ! A Z A ! ) O.$.w.0.1X2X>X  O i hXmXxXgXiXrXpX9X|.U.B.l.l.S.S.i.B.i.l.l.l.B.Z.U.B.l.H i.C.Z.B.A.C.B.C./.B.i.l.u.G J l. X X XiXiXmXhXnXFXa.. F aXBXaXJ.J.J.#X&X#X#X#.! ^ ^ W ! ) ! W W ) [ ) W W 0 7 0 D D 3 < , < 6 6 8 ( ] ) ^ ] 7 Z 7 Z 7 E `  .+.~ @.4. .~ L 9 8 8 9 0 q 6 6 4 4 , 6 6 , 2 6 6 6 6 7 A ( *.H.K.M.&.E.HXKXSXu.u.z l y f f # t * y # # $ * # : f j.~.n.b.y.u.X   O %.;.-.-.=.#.o. . . . .^ Q Q W 9 8 6 8 8 8 8 8 9 9 9 8 9 9 9 9 W W W ^ ! W ^ W ^ o.^ ^ ^ } ^ } o.o. . . . . .o. . .` `  . . .+. . . . . .@.5.@.5.>.7.#.=.W ( [ 1.L.>XyXp.t.N.hXnXhXgXhXuX.X/./.A.Z.l.l.B.l.l.l.U.V.I.Y.U.Y.Z.Z.S.B.Z.Z.B.Z.Z.Z.C.C.A.U./.^.C.U.Y.^.|.|.|.9XeX8X8X9XuXt.a.BXPXaX8.=.7.0.*X*X#X#X#.W ! ! W ! ^ Q ! ^ ) ! ! ) W W ^ ^ W E W Z 7 9 9 W W 9 W ) W ! ] ! Z Z 7 9 ) W A 8 0 0 8 8 , 2 2 6 6 8 8 6 6 6 6 8 A ) ^ ) o.W 9 9 7 0 D *.1.K.F.e P.HXLXuXi.",
"d.f.d.v g c c d M j M v n m g C g g m n z k x t.X . 1 %.H.-.[ ! 7 2 6 0 0 A ( 0 2 2 , , , , , , , , , , 6 q 8 8 9 9 9 9 9 9 W ) W L L W W W W ^ ^ ^ W / W L 9 9 0 0 0 6 4 6 0 8 6 8 9 ^ } o.^ W Z 7 8 9 9 7 Z ) 7.8.{.=XyXF.  1 V.hXhXgXiX9XeX X/.Z.l.i.G J i.l.i.i.i.i.l.l.B.Z.C.C.i.i.l.C.l.A.B.B.C.A.A.B.i.u.x H U.|. X9XeXxXxXxXnXfXX . =XBXdX$X#XO.w.&Xw.7.7.` o.] 9 Z ) ! E W ) O.O.) W W 9 A ( ( w 2 , , < < 2 ( O.) E ! E Z 9 7 7 E ^ ` +.^ ~  . .| ~ ~ L 8 6 9 0 8 4 6 6 , , 4 6 6 8 0 6 7 0 0 7 A 1.{.K.:.&.CXLXJXP.u.u.Y l t t t t > $ # # # # # # & * c g.g.d.y.b x X   O ;.8.-.8.#.o.o. . . .` ~ E E Z 9 9 9 8 8 7 6 7 7 8 8 7 8 6 9 9 9 9 L W ^  .^ ^ ^ ^ ^ ^ ^ ^ ^ ^ ^ ~  . . . . . .^ `  . . . .@. . . . .X.@.,.,.....@.+.} ) O.) [ 8.2X>X}.&.p Y.hXhXrXeX9X.XZ./.B.z.z.l.B.B.B.l.B.Z.B.B.C.A.C.U.U.B.l.B.A.A.A.A.B.A./.U.U./.A.^.^.Y./..X X9XiXeX XhXR.r sXPXGX=XJ.=.=.7.#X#X'.7.^ ^ ^ ^ ` Q Q ^ ^ W ! ^ ^ ^ W ^ ^ Q W W 9 9 8 9 9 9 9 9 9 W ^ o.o. .^ Q W W Z W W 0 0 8 4 4 6 6 2 , 6 6 6 4 6 6 6 6 0 W ^ ^ W E 9 9 _ 7 q 1.;.p.u r jXKXFXu.i.",
"v N h.f.g % d h h d C C d d d C g M m c z z b t.+   O u 1.8.-._ D 0 0 0 0 A A 7 6 2 , , , , , , , , , , 6 6 8 8 9 8 7 9 9 9 E ^ L 9 E W ^ W W W ^ W W / W L 9 9 q 0 0 6 4 q 0 q 8 8 9 W ^ ) ^ W A 7 6 0 7 2 6 Z O.7.-.J.=XT.1 . r 8XxXrX|.|. X/.U.A.Z.B.l.i.l.i.i.i.i.i.l.B.B.B.l.l.i.i.l.C.l.A.B.S.B.C.C.B.i.H i.l.U.^. XeXpXhXxXiXnXt.  t.sXbX$XJ.J.$.7.#Xe.7.$.Q ^ ^ 9 9 ! E W ^ ) ) ) ) W 9 9 0 0 D D q q q , , 2 A ) W E ^ ^ ! E Z E Q ~ ~ Q E E ~ ~ ~ Q E 9 8 6 9 0 8 4 6 4 , , , 6 6 q 0 A 7 7 7 6 ( F.=XL.%.T.LXKX9Xu.y.T b f t : t y > # # # # # # # # & - m c.h.n b i.r   + %.F.r.O.=.$.o. . . . .^ / E Z 9 9 9 8 6 8 6 8 8 8 6 6 8 8 8 6 6 8 9 E W / / ~ / / ^ ^ / /  .^ ^ `  . . . . . . . . .@.X... . . . . .X.....,.,...@.+.} ) ) [ [ -.F.{.}.M.1 G 8XuXrX9XY.U.U.Z.B.l.l.l.l.l.l.l.l.i.i.B.C.C.B.B.B.l.z.B.A.A.A.A.A././.U.Y./.U.^.^.U.Y.|.|. XrXrXuXgXt.p.BXPXaXJ.w.=.#.>.#X#Xw.$.Q ^ ^ / ^ W ^ o.^ ^ ^ ^ ^ ^ ^ W Q W Q W W E E W W W W W W ) o. .+.` ~ Q W Z 9 9 0 0 0 q 4 4 4 6 , , 6 q 6 4 6 6 6 6 9 W W W E W 9 W 9 7 -.F.;.p.1 R.HXKXtXu.y.",
"d.v N h.N h d d d % & & & % : : h M c l z b y.b p     = %.L.-._ _ ( ( ( W W W 9 8 6 4 , 4 6 4 , , , , , 6 6 6 6 6 6 6 8 8 9 9 W 9 9 E W ^ W W E W W E W W 9 9 0 q 0 q , 4 q q q q 6 8 0 W W W W ( q q 0 0 8 6 9 ! =._ 1.J.=XF.  X u.fXgX(.^.(.^./.A.A.C.l.i.l.i.l.l.l.l.B.B.B.l.i.i.i.i.l.C.l.A.C.B.S.C.U.C.l.i.V.V.Y./..XeXpXiXxXxXiX  o -XBXaXH.0.0.o.! 0.w.0.o.^ ] o.Q W ^ W W ) ) A 9 W A 8 9 7 q q 0 q 3 2 < < , 7 W Z W O.^ Q E Z W ^ / E E E E ~ ~ ~ Q E 9 6 6 8 8 6 4 4 , , , , , 2 6 7 ( 7 0 q 3 _ F.K.F.:.BXKXjXu.y.b z l y : : t : $ # # # * * * # # & & z h.d.n d.x.g.@   O ;.F.*.7.=.O.o. .+.+. .~ E Z 9 9 9 8 6 6 8 7 9 E 9 6 6 8 8 8 8 8 9 L E E / / / / ^ ^ ^ ^ ^ ^ ~ ~  . . . . .`  . . . . . .' |  . . . . .| ......@.+. .^ ^ ] ) [ *.L.=XL.u p Y.rXuX9XU.Y.^.B.l.l.l.B.B.l.l.S.l.l.l.V.U.A.B.B.C.Z.Z././.A.Z./.|.^./.A.A.C.C.^.U.^.|.|. X X9X9XhX|.r 7XPXVX8.0.0.>.$.@.#X'.>.^ Z ^ ^ E E 9 W W W Z Z E E E E E Q W ^ ^ ^ ^ ^ W W W W W W ^ o.`  .` Q E 9 9 9 9 8 8 8 q 4 , 6 , , , q q 6 4 4 6 6 6 8 9 W W E A 9 ) 7 0 0.H.M.p.r jXKXCXu.x.u.",
"h.c c d.f.n f % % % $ & & $ % % d g c z z b b H y.#   . e H.*._ _ ( ( _ ) ) ) ! 9 7 6 6 8 q 6 4 6 6 2 2 6 6 6 6 6 2 6 8 8 8 9 E 8 9 9 W W W E Z E 9 9 W 9 9 8 8 q q 3 , , 4 q 5 6 6 8 0 0 W 9 9 0 q q 0 ( 0 0 9 W =.<.[ 0.H.=X1   @ P.uX8X^.^././.A.A.V.l.i.l.i.l.l.l.l.B.B.B.l.i.i.i.i.i.B.z.Z.A.B.l.B.U.Y.Z.l.B.C.^.^.|.XXeXiXiXZXV.  &.aXBX$XJ.0.O.] Z 7.w.7.^ Q ^ ^ Z 9 9 9 9 0 0 0 0 0 9 8 7 6 6 6 6 2 2 3 , , < 2 9 9 E o.^ / W Q ^ o. .^ E E ~ ~ ~ ~ E E 9 8 6 8 8 4 , , 4 , , , , , , 2 7 q ( D w ;.L.L.:.T.HXKXv.b c.m l f t : : : : $ # # # * * * # # # # l z f n h.Y n.i.  . 1 ;.;.-.=.O.o.o.@.@. .~ E E Z 9 9 8 6 6 8 7 ! O.) 9 6 7 9 9 9 9 9 E E E E E E / / / / / / / Q ~ ~ ~ | ' ~ ~ ~ ~ ~ ~ ~ ~ ~ ~ ~ ~ ` ` ' ' X.X. . . . .^ ^ ^ W [ -.H.{.}.G.F Y.qX9X7X|.Y.U.U.Z.l.l.B.V.B.B.l.B.C.B.B.B.B.B.A./././..X^./././..X.X/.|..X^.^.Y.A.^.|.|.|. X X8XgXt.F jXPXaX-.8.<.#.@.>.w.9.! W 9 ! W 9 9 8 9 9 9 9 9 9 9 9 9 W Q ^ ^ ^ W W W W W 9 9 9 9 L W ^ ~ / E 9 9 9 8 8 6 6 6 6 4 , , , , , 6 q 6 4 , 6 4 , 6 9 E W W W 9 ) ) [ H.H.F.&.a.DXLX).c c.g.",
"v M c n M h d d $ $ $ $ & $ % % d f M m c z m y.g.u.@   = ;.-.[ _ W ) ) } o.o.] E 9 9 8 9 8 8 6 6 6 8 6 6 6 8 6 6 6 6 8 9 9 9 E 7 9 9 9 Z Z Z 9 9 9 9 9 9 6 6 6 6 6 , , , , 4 , 4 6 6 8 0 9 9 7 6 , 2 0 0 0 9 9 E =.0.) <.8.K.p..   i wX9X|.(.Z.A.A./.Y.V.v.v.i.i.i.i.z.l.l.l.l.i.i.H i.H l.i.l.C.S.i.l.C.Y.C.l.l.C.Y.^.|. XeXpXiXmX+ X }.bXdXJ.J.<.W O.! =.7.] ! ! ! Q 7 6 8 6 7 6 6 0 0 8 6 6 2 2 6 6 6 6 q w q 6 , , 8 9 8 E E E E E E ^ ^ ^ L E E E E E L 9 9 9 9 9 8 4 , , 4 4 , , , , , , 2 0 D ( -.K.=XF.&.kXKXzXx y.b m f y t t : : $ & # # # # * # # # # # y % & c j.m y.Y.i . o F 8.*.=.O.o.o.@.@. .| ~ E E Z 9 8 6 6 7 9 ! O.] 9 8 9 9 9 8 9 9 9 9 9 9 9 9 L E E E E E E E E Q ~ ~ ~  .^ ~ ~ / / / ~ ~ ~ E E E ~ ~ ~ ' ' |  . .} ^ ^ ] W ] ) 1.F.}.}.t.Y.qXqX9X|.^.Y.^.U.B.l.l.l.l.i.i.i.l.i.J i.l.l.^.^./.U././.|. X/..X(./.^.^.U.U.Y.B.V.C.V.I.|.|.rX(.; R.PXGXJ.8.7.<.>.>.7.9.<.S ! 7 Z Z 7 7 8 9 9 Z W W W W W W Z E W W W Z 9 9 0 9 0 9 9 7 9 E E / W E 9 9 9 8 8 6 4 4 , , , , , , , 6 6 , , < 4 , , 6 9 W W W ) ) W O.0.J.K.;.u fXLXZXn.d.g.H ",
"M M c j d C d % % % $ & & $ : t d h l c z g c d.n n.y   O F *.-.) ) } O.o.o.o.` ~ E 9 9 9 9 9 8 8 7 7 7 7 7 8 8 8 6 8 7 9 9 9 E 7 9 9 9 9 9 9 9 9 8 8 8 8 6 4 6 2 2 , , , , , , , 4 6 8 9 7 8 6 6 , , q 0 0 9 9 ^ 7.7.O.O.0.F.T.1   + }.uX X^.Z.A.Z.U.U.V.V.B.l.l.l.l.l.i.i.z.l.l.i.u.i.H l.l.B.C.B.l.l.C.Y.U.V.V.C.C.^. X XeXeXnXrX  r sXBX;XJ.0.=.! ] W ) [ ) ! ] ` S 7 6 8 7 8 , , 0 0 6 , 2 , , 6 6 , , , q 3 , , , 0 9 8 9 9 Z 9 9 E E E E E E ~ E E E E E W E E 9 9 8 4 , 4 4 4 4 6 q q 6 D D 0 D 8.=XK.;.p.PXLXv.z g.h l f y t t t : $ $ # # # # * * # # > # # : % g f.f.Y x.v.    w p.*.O.O.o.$.@.@...| ~ ~ E Z 9 6 6 7 7 7 Z W E 9 7 9 9 9 9 9 9 9 9 9 9 9 L L L E E E L 9 Z E E ~ / ~  .~ ~ E ~ ~ ~ ~ E E E E L E E E Q ~ / / ^ ^ ^ ^ ^ ^ ) ! *.8.K.F.&.a.wXfXqX|.Y.|.Y.Z.l.i.l.l.i.H i.i.i.J i.l.B.Z./.^./././.A.A./.U./.U.Z.C.A.B.l.U.B.V.C.C.C.Y.|.uXt.p kXKXNX1.8.7.7.7.>.7.<.$.S ! 8 9 9 9 9 9 0 9 0 W W 0 9 0 9 7 9 Z Z 9 9 7 7 0 8 6 8 8 8 0 E W Q W E 9 9 9 9 8 6 4 , , , , , , , , 6 4 , , < 4 , , 6 9 W Q ! ) O.A -.J.$XK.u a.JXLX8Xh.d.d.n ",
"n g h f f g d & t % $ $ $ % t t d f l z k k c n n g.u.+ . 1 %.-.) ) o.$.+.+. .~ ~ Q E L L 9 9 9 6 7 9 9 7 7 7 7 9 7 7 9 9 9 9 E 8 7 7 7 7 9 7 7 7 6 6 6 6 , , 6 6 2 , , , 2 2 , , 6 6 8 8 6 6 6 6 2 6 q q 8 9 E ` 5.>.$.[ J.J.$X&..   t.7X9XI.Z.Z.Z.Z.V.l.l.V.B.C.B.B.l.l.l.z.i.B.i.H i.H B.B.Z.A.C.l.l.Z.U.I.Z.C.C.V.Y.^.Y. XeXZXl.X s.kXkXK.J.0.=.O.! ) W _ [ Z S S 7 2 2 , 6 2 , 2 7 7 2 , , 6 4 , , , < < < < , < , 8 9 9 E W Q W / ^ o.{ Q E ^  ./ / / ^ ^ W W W E 9 8 6 6 , 6 6 4 6 q q q D D q _ H.K.M.:.sXKXCXy b Y c h d t t t t $ $ $ # # # # # # # > y # # : h j N k.b.g.I.r   < :.-.O.O.O.$.@.@...X.| ~ E E 9 7 8 7 9 7 7 7 7 7 9 9 W 9 9 9 9 9 L 9 9 9 9 L L E E E 9 9 9 Z E Q ~ / E E E E E Q Q Q E E E E E E E E E Q W E E / ^ ^ ^ ^ ) ] O.0.H.;.&.i N.7X8X|.I.Y.V.B.l.i.l.l.i.i.l.l.B.B.B.B.C.U.A.U./././.A.S.l.l.l.Z.U.U./.^././.C.B.U.Y.I.^.9X8X; P.IXGX;X;.=.<.w.'.<.7.$.] ) W 6 0 9 8 8 8 0 8 8 8 6 , , , , 7 9 E E 9 9 8 8 8 6 , 6 6 8 8 9 W / / E 9 9 9 9 8 4 4 4 , , , , , , , 6 6 4 , 4 6 4 4 8 L W ^ ! ) _ ] 7.[.[.1.%.kXKXZXn.d.K d.H ",
"m h d g c c f % % $ $ $ $ % $ $ d g l k k c m c n z n.y   O F *.} ) o.$.+.@. .~ ~ ~ W E 9 9 9 9 6 7 9 9 7 7 7 9 9 9 9 9 9 9 9 L 8 7 9 7 9 9 7 2 9 6 6 6 6 , 6 6 6 2 , , 2 2 2 2 , 6 6 6 6 6 6 6 2 , 2 6 6 8 9 E ` @.7.+.] 0.$XH.;.=   . E.hX^.V.l.v.C.U.V.V.V.l.B.l.l.l.S.B.l.l.l.H G H H B.B.B.A.Z.B.l.B.C.C.V.V.C.V.U.Z.l.^.eXxX# @ }.BX;XJ.J.7.-.<.) O.) A A 7 ! A 7 7 6 6 q , , 2 2 6 6 2 , , , , , , , , , < , , , 8 8 8 P 9 9 9 E ^  ./ 9 E ~ ^ E L E E E E E W E 9 7 8 6 4 6 6 , 4 6 q 2 , 0 D -.K.L.:.M.PXPX(.u.g.l Y d t : : t t $ $ $ # # # # # # $ t $ # # $ d g m f.n._.(.7X.   u ;.*.$.O.+.+...@.@.X.~ E E 9 7 7 9 7 9 9 7 7 9 9 9 L 9 9 8 9 9 9 9 8 8 9 9 9 9 9 9 9 9 9 9 E W Q Q E E E E ~ / / Q W W / ^ / W E E E E E E L / / / ^ ^ W ] [ 8.H.F.p.u F V.7XrXY.v.V.V.l.i.i.l.l.i.H l.U.U.B.l.l.C.A.C.B.B.A.Z.l.S.l.l.Z.U.Z.U././.|.U.l.l.I.I.^.gXE.+ sXKXBXK.8.=.>.#X*X<.7.o.) ) A 6 0 7 2 , , 6 6 6 , , < < , 2 9 E ! W Z 9 6 6 8 2 , 4 6 6 8 9 E W W 9 9 8 8 8 6 , 4 6 , , , , , , , 4 3 6 4 q 6 6 6 8 Z W ! W ) W <.[.$XH.%.M.HXLXrXn.d.f.n H ",
"m g h g f d % % $ $ & & $ $ $ % % h g z b c m H d.n v.z.    1 F _ _ } O.+.~ E E E L L / ) ^ 9 8 7 6 6 7 7 7 7 7 9 7 8 7 7 9 9 9 9 9 9 9 9 9 9 9 9 6 8 9 8 6 8 q 6 6 2 2 2 2 , , , 6 6 6 6 8 8 2 2 2 q 2 8 0 8 W o.>.#.] ] <.H.{.H.%.. O r wXfXV.l.l.C.C.C.B.l.l.Z.B.l.B.B.B.l.i.J H i.l.J S.z.l.B.B.B.B.Z.B.Y.Z.V.C.U.B.Y.B.U.zXrX  p sXdX0.%XJ.=.<.*.D _ [ ) ! Z 9 9 7 6 2 , 2 < < , , , , , , , , , , , , , < , , , , , 6 q 0 8 9 9 9 Q ~ E Z Z Q / E Z Z Z Z E E Q E 9 9 9 9 9 8 4 4 8 6 8 ( 0 ( *.1.K.p.1 fXKXDXv.x y.Y d z t : % t t $ & & & & & & & & $ % t : : y z f z d.h.I.I.9Xp   O &.*.[ ) o.#.>.@.@.| ' ~ E E 9 0 8 9 9 9 9 9 9 8 8 9 9 8 8 8 8 8 8 8 8 8 8 8 8 8 9 9 9 9 9 L E E E E Z 9 Z E W E 9 E E E E E Z 9 9 E Z E E E E ~ ~ E ^ o.) W *.J.{.F.u 1 t.V.|.8Xi.i.i.u.i.i.i.i.i.H i.l.B.l.l.l.l.i.B.C.C.B.l.l.C.S.l.A.l.A.^.U.B.H i.I.8X^.Y.|.gXr P.AXPX,X;.<.<.>.<X#X7.>.] ] A D 6 , , < < < < , < < , , < < , 9 E W E 9 7 6 6 2 2 6 2 , , 6 9 E E E 9 9 9 6 , , , , , , , , , , , , , , , , , , 2 2 6 7 7 9 ) ! A <.H.{.H.F yXKXHX(.b.n.n K c ",
"n l f g f : $ $ $ $ & & & $ $ $ f g l c c z l n n d.y.(.;   O p.;.*.O.O.o./ E Q E 9 9 E ^ ^ E 9 7 7 q 7 7 7 7 7 9 7 9 9 9 9 9 9 8 9 9 9 9 9 9 9 9 8 9 9 9 8 0 0 6 2 2 2 2 , , , , , 4 6 6 8 6 , 2 2 6 , 6 8 8 W / 7.#.Q ! ) <.$X$XL.1 . + t.9X/.i.l.Z.B.B.C.B.B.Z.B.B.B.B.B.l.i.l.i.z.l.J S.l.l.Z.B.S.l.B.B.^.C.Z.Z.U.I.I.B.9XmXx   G.BX:X0.#Xw.0.J.8.D 6 Z ^ ` Z 7 7 7 2 2 2 6 , , < < , , , , , , , , , , , < , , , , , , 6 q 8 L 9 9 E Q E E Z E E E E E E Z Z E E E 9 9 9 9 9 9 6 6 8 8 8 0 A _ 8.M.M.e t.SXLXgXg.y.y.b d y t t t y y % $ $ % % % % $ $ $ % % % : y k k k b y.d.D.8XP.  . &.;.*.[ ] o. .X.>.' ~ Q E 9 9 8 8 8 8 8 8 8 9 9 9 9 9 8 8 8 8 8 8 8 8 8 8 8 8 8 9 8 9 9 9 L E E E Z Z 9 9 E E 9 9 9 Z 9 9 9 Z 9 9 E 9 E E E E ~ ~ X./ ^ ] ) _ ;.H.;.F 1 i u.Y.|.l.H u.i.a.l.i.i.u.u.l.l.l.l.l.l.l.i.i.H i.l.S.S.C.J H B.S.A.A.B.i.B.|.|.|.V.^.gX7Xp wXPXGX;.-.O.$.>.3X'.' ` ! ! A 7 , < , < < < < , , , 2 , , , 2 9 W W Z 9 7 q 6 2 2 6 2 , 2 6 8 9 Z Z 9 9 9 7 6 , , , , , , , , , , , , , , , 4 2 , 2 6 6 7 Z A 7 ( 1.8.L.:.G.AXLXhX~.h.f.N n m ",
"c g h f f t % : % % $ $ $ $ $ % f z g l z f g m H c.x.(.P.  @ p.:.*.[ $.$. .^ / ^ L 9 9 P 9 9 6 8 6 8 8 q 7 6 6 8 7 9 9 9 9 9 9 6 q q 8 8 0 0 9 9 8 9 9 0 0 0 0 , , , , , , , , , , , , 6 6 6 , , < , < , 4 , E Q 7.#.S W A _ [.$X=X%.o   p 8X9Xi.i.l.i.B.U.C.Z.Z.Z.B.B.S.l.l.i.l.i.z.l.H l.l.S.Z.S.l.i.B.B./.U.C.V.U.U.V.C.gXhXX @ 0XBXH.0.#X0.w.#XJ._ 2 9 Q E 9 7 2 2 , , 2 q 6 , , < < , , , , , , , , , , , < , < , , , 2 q 8 P E 9 Q Q E Q E E E E E Q E E Z Z E Z 9 9 9 9 9 9 8 6 9 0 9 9 0 ( H.M.%.O 0XKXJX(.y.u.b b z l : t f f t % $ % % % $ $ $ $ $ $ $ t t d k k k z m y.v.8X9X@   &.1.-.[ ] o.` '  .~ ~ E Z 9 9 q 8 8 8 8 8 8 8 9 9 9 9 9 9 8 8 8 9 8 8 8 8 8 8 9 9 8 9 9 9 9 9 9 9 9 9 9 9 9 9 9 9 9 9 9 9 9 9 9 Z Z Z E E E E ~ ~ +.Q ^ ] _ _ *.;.M.M.u = p i.^.^.l.l.l.i.i.i.u.G u.z.l.i.i.l.l.l.B.l.H H i.i.l.S.l.J S.S.C.C.Z.Z. X XC.^.I.8XzXG t.BXKXkX*.8.=.! w.3X'.7 S S Z A q , , 2 , , , , , 2 6 2 , 2 6 7 9 E W 9 9 7 q q 2 2 2 2 6 6 6 8 Z Z 9 9 0 9 0 q 6 6 2 , , , , < , , , , , , 4 6 6 , 6 8 6 9 ! Z A 1.{.J.{.%.0XKXJX).D.h.v d.n m ",
"l f d h h t : t % % % % % $ % % t h h f k f g c m x.c.I.7X+   e ;.*._ O.$.o.^ ^ W 9 8 8 9 8 6 , 6 2 2 6 6 6 2 2 6 8 7 9 9 9 9 8 4 6 6 6 6 8 9 8 7 6 8 0 8 q 0 q , , , , , , , , < , , , , 6 6 2 , < , < , 4 , W +.7.@.^ ^ ! ) 8.;X;XL.u   G Y.9XU.i.H J Z.^.Z.S.B.B.B.B.B.l.l.i.i.J i.i.G i.J l.B.l.l.J l.l.^.U.Z.Z.U.I.l.^.zXY.  t.BX,X-.0.%X0.#XJ.<.A 7 W Q 7 7 2 2 , , < , 6 6 , , < < , , , , , , , , , , , < < < < < , , 6 8 W ^ ^ ^ ~ Q Q E E E W W ^ / Q 9 Z Z 9 9 8 9 9 8 9 8 6 9 W P 9 _ -.H.F.%.e CXKXSXn.b y.z b m z : t y f t $ $ $ & & & & & $ $ $ $ h d d g z l z c g.y.Y.9Xi X u K.8.) ! ]  .~ Q ~ Q E 9 9 8 8 8 8 8 8 8 8 8 8 9 9 9 9 8 8 8 8 8 8 8 8 8 8 8 9 9 9 9 9 9 9 8 8 8 7 7 7 8 6 8 8 8 9 9 7 7 7 9 9 Z E Z E E E E ~ ' ~ ` o.) ) [ -.-.K.}.F o ; x C.Y.^.U.C.S.l.l.i.H u.u.u.u.H i.l.B.l.l.J H J i.l.A.A.C.C.C.A.U.^.^. X8X^.^.^.9XnXG R.HXPXL.:.1.<.<.<X3Xq.S S S ! ) 7 , , 6 , , , , , 6 6 , 2 7 0 9 9 E E 9 8 6 8 6 2 2 2 2 6 6 8 9 Z Z 9 8 8 8 6 6 q q q 6 2 , , < , , , , , , 4 6 q , 8 9 7 ! O.A -.H.{.{.{.G.SXLXZX_.~.n.n d.m c ",
"c l g h d % $ $ $ & $ $ $ $ $ $ & - d f k f f c m h.g.I.8Xt.  + L.8.-.[ ] ! Q ^ 9 8 6 8 0 7 6 6 , , , 2 6 6 6 6 7 7 8 9 9 9 0 8 , , , , , 6 q 8 6 , 6 6 , 6 6 , < < < < < < < < < < , , , q 6 2 2 , 3 , 6 6 6 ^ 7.4.4.@.^ ] =.8.$X=XK.M.  r Y.rX|.i.G i.A.U.l.i.B.B.C.C.Z.B.l.l.i.J i.i.G i.H i.l.l.l.i.l.l.Y.U.B.C.C.B.l.9XzXx   R.GX,X0.#X&X&X&X0.( 7 7 ! ` Q 7 6 2 , , , , , , , < , , , , , , , , , , < < < < < < < < < , , 8 W ^ ^ ` ' Q ~ E W / ^ W E W ^ 9 E E 9 9 8 8 8 8 9 9 8 9 E 9 E ! <.8.1.&.G.KXKX9Xu.b m m b f f t % % t % $ & & & & & & & & $ $ % f f d f l z c m j.m u.OXi   + ;XJ.=.) ! ` ` ' ~ Q E 9 9 8 8 6 8 8 9 8 8 8 8 9 8 8 8 8 8 8 9 9 9 8 8 8 8 8 8 8 9 9 9 9 9 7 8 8 7 7 7 6 6 6 6 8 8 8 7 7 7 7 9 Z L 9 E W ~ ~ ~  .~ o.#.] ) -.0.H.L.-XF = a.8XfXeX|.Y.Z.Z.C.Z.l.J u.G G H H H i.B.Z.Z.B.l.l.S.C.^.A.U.C.A.A./.^.Y.Y. X(.v.Y.iXxXa.wXPXBX;.H.8.<.#X5X*X5. .Q E ^ ^ 0 , < , < < , , , , , , 2 0 A A 8 9 9 9 6 6 2 2 2 2 , , 6 q 0 0 E Z 9 6 6 6 , , 6 6 6 6 6 6 2 2 , , , , , , , , 6 , 8 A 7 ! ] S =.8.8.F.1.-XKXLX8X_.~.n.j.H c z ",
"z l f d : % $ $ & & $ & $ & & $ & - d g z k g c j.d.x.I.OXt.  O L.H.0.8.=.! Z Z 9 9 8 7 0 7 2 2 2 , 2 6 8 7 7 7 8 8 8 6 6 6 6 6 , , , , , 6 6 6 6 , 6 6 , , 6 , < < < < < < < < < < , , 6 q q 2 2 < , , , 4 6  .9.4.5.>.E ^ e.J.J.$XK.p.. X 7XhXU.G x i.C.B.i.l.B.B.C.C.Z.Z.B.l.l.i.i.l.H l.i.z.l.l.B.l.l.i.U.U.B.Z.B.V.^.uXhX;   -XBX>X$X3X3X3X&X7._ ( S ! o.^ 7 6 2 2 2 , , , < < < , , , , , , , , , < < < < < < < < < < < , 8 W W E E Q Q ' Z E W W E 9 9 E 9 L E 9 9 8 6 6 9 9 9 9 9 9 9 ! ! 7.8.8.:.}.HXJXI.g.b l y.b z f d t % t t % $ & $ & & & & & & & d g f d g l z c d.z b x Y.#   . K.#XJ.7.] ^ ` ` / E E 9 8 8 6 8 8 9 9 8 6 6 8 8 8 8 8 8 8 8 9 9 9 9 8 8 8 8 8 8 9 9 9 9 9 9 9 9 7 7 7 8 8 8 6 8 6 6 q 8 6 7 9 9 9 9 E W / ~ '  .` ` o.$.O.<.[.>XK.=Xu r qXJXLXnXrX^.B.S.C.B.z.i.l.u.H i.i.H u.l.C.Z.B.l.Z.B.B.C.U.U.S.B.S.C.C.Z.U.U.V.v.8XgXeXP.kXKXaXK.:X:Xw.3X5X+X5.,.~ E ` ! 0 , < , < < < < , , < < , 7 A ( 9 9 9 9 8 6 6 2 8 6 2 , 6 q 0 0 Z 9 7 6 6 6 6 , , , , 2 6 6 q q 6 6 6 6 , , , , 6 < 6 9 7 Z W S [ <.8.F.:.-XPXDXv._.~.n.m.m c k ",
"h h d : % % % % $ $ $ $ $ $ $ $ $ t d f k g g m j.d.n.c.v.X   . M.F.H.H.<.! 9 9 W 0 q q q 2 , , 2 2 6 8 0 9 A A 8 8 6 8 8 6 4 4 , , , < , , 6 6 6 , 6 6 , , , < < O < < < < < < < < , , 6 q q 6 , < , , , 4 6  .5.4.5.@.Q ^ 7.J.:X2X=Xe o i (.uXY.H k H l.l.z.B.Z.C.C.Z.C.Z.C.B.S.l.z.l.J B.l.l.S.B.B.l.l.i.U.C.V.Z.B.U.9XuXrXH   s.T.K.;XdXvX3X#X7.$.O.! ! ^ 9 0 6 2 2 , , , , , < < < , , , , , < < < < < < < < < < < < < < < 4 9 9 8 Z E E Q 9 9 L E L 9 8 9 9 9 L 9 9 6 6 6 9 9 9 L E 9 W $.0.w.H.8.:.p.7XqXD.n.y.l d.b c f d t d d d % $ $ $ & & & & % % $ h j g g z c c n d.g y.T u.X   o :.J.%XJ.$.^ ^ Q / E 9 9 8 6 6 6 6 8 9 8 8 6 8 9 8 9 8 8 9 9 9 9 9 9 7 8 7 7 8 8 9 9 9 9 9 9 9 9 9 7 6 q 7 q 6 6 , 6 q q 6 6 7 9 9 9 L W / ~  ...` ~ o.$.O.<.J.{.=XL.= &.nXKXFXhXxX XB.l.l.z.z.l.l.l.i.i.i.i.u.H x G H i.l.B.S.C.C.B.G l.i.l.l.V.V.l.l.^.9X9X|.(.kXGXK.$X2X3X<X5X4X+Xq.,.~ Q ^ ^ 0 , , 2 , , , , , , , , , , 0 _ E W W 9 8 6 8 8 0 8 6 4 6 8 q 8 9 9 7 6 6 6 6 2 , , , , , 2 6 6 6 6 6 6 6 6 6 , 2 < , 7 9 7 W ] <.1.0.F.;.G.qXlXc.~.~.n.h.m x f ",
"h h d % $ & & & $ $ $ $ $ $ # & $ - t d f f g m d.~.I.~.y   X o F.F.0.8.[ S 7 W 0 q , 2 2 2 , 2 , 2 6 7 9 W W W 9 9 9 P P 0 8 4 , , , < , , 6 2 6 , 6 4 , , , < < O < < < < < < < < , , 6 q 7 6 2 < 2 , 6 6 8 @.5.5.4.X. .+.7.J.2XaX,X. @ fX(.uXrXB.G x J l.z.l.A.C.C.Z.C.C.Z.C.B.l.i.z.J B.l.l.B.B.B.l.l.i.U.Z.U.Z.l.(.iX9X XI.X 1 M.K.2XdXVX5X#X7.$.] S Q ^ 8 7 2 , , , , , , , , < < < , , < , < < < < < < < < < < < < < < < < 6 6 8 Z Z 9 9 9 9 9 L L 9 8 6 8 9 9 9 9 8 6 6 8 8 9 E W 9 ^ 7.w.8.0.1.;.u i v.v.D.g.y.c.m z & % d d f d % $ % % % % % : d d d g M M c n m m H Y z g.u.#     O %.J.#X8.) ) ` ~ ^ W 9 9 6 6 6 6 6 8 8 8 8 8 9 9 9 9 8 9 9 9 9 9 9 9 7 7 7 7 7 7 7 9 9 9 9 9 7 7 7 6 6 6 q q 6 , , 6 q q 6 6 6 7 9 9 9 W / ~  .X.` +.#.] ) -.-._ L.u . E.LXLXZXhXnX9XC.C.A.S.l.Z.i.l.i.H H i.H k x H l.V.V.l.B.C.i.J k l.l.i.i.i.V.G y l.U.9X^.a.G.>XM.;X2X%X<X*X*X*X+X..Q ' `  .9 , , 6 , , , , , , , , , < 0 [ ^ ^ W 9 6 8 9 9 W 0 8 6 6 6 8 8 9 9 7 6 , 6 2 , , , , , , , , , q q 8 6 6 6 6 6 2 , , 7 A S ! <.8.8.8.;.;.u U I._.~._.Q.j.n z y ",
"t t t t t : % $ $ $ % % $ $ # # t t d f f f z n b.b.D.v.    o F =XJ.1.-.) A A W 6 6 2 2 2 2 2 2 6 8 8 0 9 Z E L 9 8 9 ) ) 9 P 6 6 q 4 , , , 6 2 8 6 6 6 , , < < < , < < < < , < 4 , , 6 0 8 6 7 6 6 2 6 9 8 E  .6.q.3...+.^ r.0.{.yX%.  a.9XI.hXuXU.G l.C.U.z.Z.l.B.C.A.C.C.C.C.B.B.S.i.i.l.l.S.C.B.l.i.i.z.B.Y.U.Z.l.l.9XiX^.|.+ + p.K.1XNXvXvX[.9.$.Z ! ^ o.9 6 2 , < < < , , < < < < < , , , , < < < < < < < < < < < < < < < , , 4 9 E E 9 9 9 9 9 9 P L 9 9 9 9 8 8 8 8 8 6 6 9 9 9 W E ! #.w.0.[.8.:.:.a i u.D.D.~.j.c.m c z g c c g h f d d d d d % % d g v n n n n H n m m m y.x   X o u ;.{.0.O.) ! ^ W ! E 9 8 8 0 q 8 9 9 8 8 8 8 9 9 8 8 9 9 9 9 9 9 7 7 7 7 9 7 7 7 7 7 9 9 9 9 9 9 7 7 6 7 0 0 q 6 , , , 6 6 7 0 9 8 9 9 E / `  ...`  .o.<.W *.-.*.M.o i UXKXLX|.xXeXZ.C.U.S.l.S.A.B.l.u.H u.G G H i.G G l.I.C.i.H G H H H H H H l.V.G G H V.|.I.V.e F F.{.1X1X%X3X<X*X5.4.Q ~ @. .9 0 , , 8 , < 8 6 6 4 , , 4 6 0 9 / ^ 9 8 9 9 9 9 8 2 6 8 6 6 7 9 9 8 6 , , , , , , , < < < , , , 6 6 6 6 6 6 8 0 8 , 6 A Z Z $.=.<.0.1.M.&.r u.D._.~.~.d.y.k y ",
"d d d t t : % % $ $ $ % $ $ $ # t t t f f f z y.c.c.n.x     + M.{.F.-._ W S 0 D 6 6 3 3 6 2 2 2 6 8 9 9 9 9 9 9 E 9 L ) W 8 9 6 0 0 0 8 8 0 9 9 9 9 q 6 6 , , , , , < , 2 < , < 6 6 4 6 9 7 6 7 6 6 6 7 9 9 ' 5.q.q.5...` ^ 7.J.>X,X= o P.P.|.gXuXS.H U.|.^.l.l.l.B.B.C.C.C.Z.Z.C.Z.l.i.z.l.B.B.Z.B.B.l.l.l.B.Z.B.B.l.l.|.eX X XG O p.p.8.2XNX5X<X7.S ! ! W 9 9 0 6 , < < < , , < < < < < < < < , < < < < < < < < < < < , , , , < , 8 E ~ Q E 9 Z 9 9 E W L 9 L 9 9 8 8 8 8 8 8 8 9 9 E W W Q ] <.0.0.J.H.F.u + i g.D.D.c.c.d.H f h c n n m c d d d d d C % d j N N N N n m m n n g.y.#     a :.;.H.-.( ) ! ) W W 9 8 6 8 q 6 6 8 8 9 9 9 9 9 8 8 8 9 9 9 9 9 9 9 9 9 9 9 9 9 9 9 9 9 9 9 9 9 9 7 6 8 8 8 7 8 6 6 6 6 6 8 6 8 8 9 9 9 W  .+.@... .+.E ) O.-.*.=X%.o E.AXKXgXeXhX|.l.l.V.l.i.z.l.l.i.G G G G x G I.i.G G u.u.G G x i.l.i.H H i.C.l.x i.G l.9XI.S.t.e :.1.J.%X&X3X3X*X..| ' | >.Q 8 8 6 , 8 8 6 6 6 4 6 6 6 q 0 P E ^ ^ E 9 9 L 9 9 9 8 7 9 9 0 0 W W 9 9 8 6 , , , , , , , , , , , , 6 , , 4 6 6 q 0 q 8 Z W W ! 7.[.[.8.F.;.r p c.D.~.~.d.y.z y ",
"g f t t : % % % $ $ $ % $ $ $ $ : : d f f f c y.x.c.x.@ X   1 T.K.1.[ D A 7 7 A 6 6 3 3 6 6 2 6 6 8 0 9 9 9 9 8 9 9 9 ^ E 8 L 9 9 0 8 6 6 8 9 7 9 Z 9 6 6 9 0 0 0 8 2 W ( 6 6 6 8 0 9 8 9 Z 9 9 9 9 9 9 9 9 | 6.6.6.5.,.~ ! 0.$X>XG.. r E.P.gXxX8Xi.B.Y.Y.U./.U.B.B.B.B.Z.C.B.B.B.l.z.i.l.B.B.l.B.B.B.B.l.l.l.l.l.l.l.l.U.9XrX|.R.o F L.;.J.NXvX3X'.S +.o.o.L ^ 0 7 2 , < , , 5 , , , , < < < , , , , < < < < < < < < < , , , , , 4 L ^  .~ Q Z 9 9 9 E L 9 9 9 9 9 8 8 8 8 8 8 8 6 8 9 9 9 9 9 ` w.7.J.8.:.&.+ > i g.x.b.j.f.K v g j n N n v g h d d C C d g c N B N K m g g m b c.b       u F.;.;.0 6 A W ! Z 9 9 6 6 6 6 , , 6 8 9 9 P 9 9 8 9 9 9 9 9 9 9 9 9 9 9 9 9 9 9 9 9 9 9 9 9 9 9 9 9 7 9 7 8 8 8 8 8 8 8 8 8 8 8 8 9 9 9 E  .@.@. . .$.W O.0._ -.=X= u jXKXDX(.gXgXU.J l.B.l.l.i.z.i.H G G G G x G x G u.i.u.G x G x H H G u.i.i.i.H x i.x i.9X^.a.P.1 F :.;.H.&X3X3X&X5.| ' ' 5.@.9 9 9 9 W ) ) 9 9 9 9 8 8 8 8 9 W ^ ^ W E E / Q E 9 9 9 9 9 9 A W W W 0 0 q 6 6 , , , , , , , , , , , , , , , 4 6 7 0 8 7 ) ] S <.#X[.H.H.M.&.1 T g.D.~.h.d.c k ",
"f h t t % % % % $ $ $ $ $ $ $ $ : t d f k z H g.n.v.b     . &.}.K.1.( A A S 9 0 6 6 4 4 6 2 2 2 6 8 0 9 9 9 9 9 8 9 9 ^ E 9 E 9 8 8 6 6 8 7 9 9 Z W E 9 9 E W E 9 Z 9 ) ^ 9 9 9 9 ^ / E E ~ E Q E E E E E E X.@X6.6.6.5.` ^ J.:X=Xe   p v.|.zXgXC.l.U.C.V.C.(./.B.B.B.S.S.l.l.l.i.i.l.l.l.B.l.z.B.B.B.B.B.l.z.i.i.l.l.V.V. XiX^.|.+ O K.F.;.2XvXvX<X<.+.$.<.o.) 0 q q 6 2 , , , , , , , , , , , , , , , , , , , , , , , , , , , 4 8 E  .` ~ Q E 9 9 L E 9 9 9 9 9 9 9 8 8 8 6 6 9 6 9 E 9 9 Z 7 Q 0.8.0.8.;.p.e + r T u.b.h.d.v v g g n N n v j h d C d h g c n v B N K m k g k x u.y     + p.F.8.*.6 6 A W Z 9 9 8 6 6 6 , , , 6 8 9 9 P 9 9 8 8 9 9 9 9 9 Z 9 9 9 9 9 9 9 9 9 9 9 9 9 9 9 9 9 9 9 9 9 9 9 9 9 9 9 9 9 9 9 9 9 9 9 E /  .@.@. . .` $.7.0._ $X%.+ R.HXKXgX XxXiXC.l.V.A.V.S.l.l.l.i.u.u.H G G x G G G G x i x x x x y p H i.G y x H x G u.I.9XV.P.u u ;.*.;.$X3X3X4X+X..~ ~ q.7.E 9 W ^ ^ o.$.! W W E 9 8 8 8 8 Z Q ^ / Q ~ ~ ~ E E 9 9 9 9 Z Z Z Z 9 0 8 8 6 6 < , , , , , , , , , , , < < < , 2 6 q 2 , W O.! $.0.0.[.{.F.;.r y x c.D.b.h.n z ",
"f f d t t : : % $ $ $ $ $ $ - % : t d f z x y.x.I.g.#     + G.{.{.<.A 7 A W 9 6 4 4 4 , , 2 2 2 2 6 8 8 8 8 9 9 E E E ^ ~ 9 E 6 9 9 9 9 E E ~ ` / ^ ^ E E E E 9 9 Q Q Q E 9 E 9 E ^ ~ E ~ ~ ~ ~ Q Q ~ | | | 6.+X6.@Xq.9. .$.#X,XG.o . s.I.uXzX Xi.l.U.B.U.C.B.l.l.l.l.l.l.z.i.i.z.l.B.B.B.B.l.z.B.B.B.B.l.l.l.l.H i.V.C.l./.iX X XV.. p.F.;.$X3XvX3X[.o.+.O.} W 0 0 0 q 6 , , < , , , , , , 2 , , 6 6 , 4 6 6 6 q 8 6 6 6 6 6 6 6 8 E ~ ' ~ Q ~ E E E W E 9 9 E E 9 9 9 9 9 8 8 9 6 9 L 8 8 E Z Q #.w.J.{.$XK.&.1 r i g.c.b.K v g h M f.f.N v g C C C h M v n N B R f.N n d.H b g.b @     u K.L.1._ q q A A 9 7 9 9 8 6 6 6 , , 6 6 8 8 9 9 9 9 9 9 9 9 9 9 9 Z E E E E E E E E E E E E E E E E E E E E E E E E 9 9 E E E Z E E E Q ~  . ...@.@. .Q 7.<.0.%X;X< &.CXKXDX9XxXzXuXU.C.Y.Y.C.B.z.S.l.i.J J G G u.G i.G p y i G x i y x x x G G p p x G i G G i. X8XP.p.1 ;.:.*.J.%X3X3X*X@.'  .q.+.W 9 E ^ W ^ o.^ W ^ W 9 9 9 9 9 9 E ~ ~ ~ ~ { ` ^ / E 9 7 9 Z Z 9 9 7 8 6 6 6 , , , , , , , , , , , , < < < < < , < , , , 9 ) ! ] 7.0.{.{.J.L.F r y u.v.b.x.d.g ",
"l f f f t t t t $ $ $ $ $ $ - % t d h f z b u.v.n.f       u T.K.J.-.A 7 W W 9 6 4 4 4 4 4 , 2 2 6 6 6 6 6 6 8 9 E E E `  .~ ~ 9 E E Z E E E Q ~ ' ' ` ^ / / E E Q  .' ~ Q S Q E E ~ ~ ~ | ' ~ ~ ' ' | ,.3.X.6.+X].].6.4. .7.%X;XF   + R.8XxXxXC.l.C.U.C.C.i.G i.l.l.S.S.l.l.l.l.B.C.Z.S.l.l.l.l.B.B.S.l.l.l.l.l.H l.U.I.i.V.eXrX X X@ i T.F.;.:XvX3X&X<.$.S 9 0 ( 0 q 6 , , , , 6 6 6 6 6 6 6 6 6 0 0 8 8 0 0 8 0 8 8 8 8 6 6 6 6 9 E ~ ' ~ ' ' E E E E E 9 9 L 9 9 9 9 9 9 9 9 9 8 9 L 9 9 E ! ^ ] [.#X#X%X$XL.u u p u.c.b.f.N N v n f.N v M j h C h j v v B B B f.B v N m.c.j.I.y       :.=XL.;.w 0 0 0 0 8 7 9 9 8 8 6 6 , , 4 6 6 8 9 9 9 9 9 9 9 9 9 E E E E E E E E E E E E E ~ ~ ~ ~ ~ ~ ~ Q Q Q E Q Q / E W / / Q E E Q ~ `  .X.X.X.X. .` ^ 7.<.J.BX;.< 7XJXLXgXuXZXxX9X^.U.|.U.V.B.l.B.B.i.J G G i.B.l.i G G x x x x p y x G G G x p p G x G G G i.U.iX|.}.e &.;.;.8.0.4X3X&X5.' X.q. ./ 9 E / E E / ^ Q ^ ^ E 9 9 9 9 9 E ~ ' ~ ~ |  . . .Q Z 9 9 Z S Z 9 8 6 , , , , , , , , < < < , < , , , < < < < , < , 6 8 9 0 Z S <.'.[.w.{.}.p.1 r x y.x.g.d.c ",
"z z l f t t t t $ $ $ $ $ $ - % t d f f z y.g.c.y.*   @ + p.L.K.1.[ A A ! W 9 8 4 4 4 4 4 , 2 6 4 6 8 8 8 7 9 9 E Q ~  . .'  .~  .^ ~ ~ ~ Q ~ ~ ' ~ ~  .@. . ...X...| ....| X.|  .X.X...4.X.| | | X.3.6.3.,.3.+X].6.6.4.+.0.%XK.O   t.wXrXxXeXv.V.C.U.C.J G H B.B.B.S.S.B.B.Z.C.B.B.B.l.l.l.l.z.S.B.B.l.l.l.l.l.i.l.U.I.l.C.(.eX|.|.p + G.F.w 8.1X5X3Xw.<.! 9 P 0 0 6 2 , 2 2 6 q q q 0 q 7 7 7 9 P P 9 9 9 9 8 9 8 8 8 8 8 8 8 9 9 W  . .' ' ~ Q E 9 E E 9 9 9 9 9 9 9 L L 9 9 P W W W ^ W W ] ] ! 0.w.w.H.K.K.&.u i T c.h.k.k.b.R N N v M v v g h h j v v v v B B B n d.b.n.z.v.#   X 1 G.=XL.:.q D D 0 0 8 8 9 9 q 8 6 , , 2 , 4 8 8 9 9 9 9 9 9 9 9 9 E E E E Q Q ~ ~ ~ ~ ~ { |  .|  .| | '  .| ~ ~  . . .^ E /  . .| |  .X. . . .X...X. . . .$.0.0.$X2X5 :.CXLXDXrXzXzXuX(.|.^.Y.V.B.B.l.B.C.i.i.i.J l.C.V.G u.u.x y y y p x i p x G x p p G G i.G G i.B.uXwXwXa.F ;.;.;.-.J.1X<X+XX. .7.@.W W E E E Q E ~ E  .@.^ E 9 9 9 E ~ ` ' ~ ~ | ..|  .~ E 9 Z S S 9 9 8 8 6 , , , , , , , , , < < < < , , < < < < < , , , 7 0 0 Z S ` w.'.8.{.=XK.u r x x y.y.j.Y ",
"b z l d t : % : % % $ $ $ $ - % d d f f z y.g.c.x   # + i T.F.K.-._ A ! ! W A 0 4 4 4 4 4 4 6 6 4 6 9 9 9 Z E E / ` '  .' ~ X.' 5.@.@.@.>.@.,.5...|  .@.@. . .4.,.X.| 4.5.,.4.4.5.5.5.5.6.5.X...| ,.6.6.6.3.6.+X@X@Xq.6.7.w.$X;..   fXfXuXzX(.Z.Z.B.C.B.G l.B.B.Z.B.l.l.B.B.Z.B.S.S.l.l.S.B.l.i.B.Z.Z.Z.V.V.B.l.l.l.C.I.U.Y.C.(. X9XE.  s.T.;._ $XvX3X[.<.=.) ) 8 6 6 6 6 6 6 6 0 0 0 0 q 7 7 6 9 W W 9 9 9 9 8 9 9 9 9 9 9 9 9 L E ^ @...| Q E ~ E E E E E 9 9 9 9 9 9 9 9 8 6 6 8 6 6 L 9 9 Z ) 6 ] 7.w.0.K.F.p.&.t.x c.d.Q.Q.m.N v N N v n N M j h j v v M M B B B f.m.b.c.z.b X   o p.}.T.L.-.w ( D 0 A 6 6 9 9 8 6 , , , 2 , 4 8 9 9 9 9 9 9 9 9 9 9 9 E E ^ {  . . . . . .@.@.@.@.@.@.@...@.X.| |  .@.+. .E /  ...@.@.4.4.4.@.....>.,.X. .+.$.e.0.$X_ 5 T.HXLXzXgXmXgX X/.^.U.V.i.l.C.B.C.C.l.S.S.i.l.V.i.G x p y x G x y x p p x G x p G p i.G G i.i.V.|.|.R.}.F ;.;.-._ 7.&X4X<X9.X.@.~ 9 ^ 9 7 E ~ E Z 9 ^ $.o./ E E E ` `  .' ~ ~ | ..~ | ~ E Z Z S Z 9 7 8 8 6 6 , , , , 2 6 , , < < < , , , , < < < < 6 , < q 0 0 ! $.Q 0.[.0.[.{.=XF p x k b n m.h."
};
