/* XPM */
static char *_b869808af0841bed37e39cf75066266sR5HpCrZiNfuVxY7[] = {
/* columns rows colors chars-per-pixel */
"480 480 256 2 ",
"   c #030303",
".  c #0B0404",
"X  c #0C0B0B",
"o  c #0A0708",
"O  c #150B03",
"+  c #1B0C03",
"@  c #160907",
"#  c #1D120B",
"$  c #1A1406",
"%  c #150E12",
"&  c #141314",
"*  c #1C1C1C",
"=  c #1B1516",
"-  c #0E0D11",
";  c #250D02",
":  c #241403",
">  c #2B1403",
",  c #2C1B04",
"<  c #23140C",
"1  c #251A0C",
"2  c #2C1C0C",
"3  c #281709",
"4  c #331C04",
"5  c #331C0C",
"6  c #381907",
"7  c #231513",
"8  c #251A13",
"9  c #2C1C13",
"0  c #231C1C",
"q  c #2B1D1B",
"w  c #291613",
"e  c #331C14",
"r  c #3B1D14",
"t  c #3A1E19",
"y  c #321A15",
"u  c #340D00",
"i  c #2C220C",
"p  c #2A2309",
"a  c #34230C",
"s  c #3B240C",
"d  c #392709",
"f  c #2D2213",
"g  c #2A221B",
"h  c #342313",
"j  c #3C2315",
"k  c #352A14",
"l  c #3C2B14",
"z  c #34231B",
"x  c #3C241A",
"c  c #3D2B1B",
"v  c #352A1B",
"b  c #3C3218",
"n  c #343210",
"m  c #271E22",
"M  c #331F24",
"N  c #242423",
"B  c #2B2424",
"V  c #292926",
"C  c #2C2C2B",
"Z  c #2C2529",
"A  c #332524",
"S  c #352A25",
"D  c #3B2B24",
"F  c #342B2C",
"G  c #3B2D2C",
"H  c #352628",
"J  c #2E302D",
"K  c #3C312D",
"L  c #33322D",
"P  c #3B2E32",
"I  c #352C31",
"U  c #323232",
"Y  c #3D3333",
"T  c #3D3639",
"R  c #2F3230",
"E  c #1E1D1F",
"W  c #441C06",
"Q  c #421E15",
"!  c #531D0A",
"~  c #45270B",
"^  c #422315",
"/  c #432C14",
"(  c #4B2B15",
")  c #44251A",
"_  c #4A261B",
"`  c #442B1C",
"'  c #4C2B1C",
"]  c #4B2515",
"[  c #522C1D",
"{  c #5B2D1D",
"}  c #542917",
"|  c #433115",
" . c #44331B",
".. c #4C331C",
"X. c #4B3618",
"o. c #54331D",
"O. c #5B321D",
"+. c #56381B",
"@. c #522A0C",
"#. c #622D1C",
"$. c #64341D",
"%. c #69361D",
"&. c #71371A",
"*. c #442D21",
"=. c #4C2D21",
"-. c #422D2A",
";. c #532D21",
":. c #5B2E22",
">. c #542821",
",. c #453322",
"<. c #4C3323",
"1. c #4C3A23",
"2. c #48362B",
"3. c #543223",
"4. c #5B3423",
"5. c #543B24",
"6. c #5C3A25",
"7. c #5C3529",
"8. c #553B2B",
"9. c #5C3C2A",
"0. c #543529",
"q. c #433434",
"w. c #443935",
"e. c #43363A",
"r. c #453A3B",
"t. c #4B3C3C",
"y. c #4A3936",
"u. c #553E37",
"i. c #422E33",
"p. c #632E21",
"a. c #633424",
"s. c #6B3523",
"d. c #643A24",
"f. c #6C3B25",
"g. c #643C2A",
"h. c #6B3C2B",
"j. c #673529",
"k. c #723C25",
"l. c #733D2A",
"z. c #7A3D2B",
"x. c #753825",
"c. c #673D31",
"v. c #733E31",
"b. c #5C422B",
"n. c #584327",
"m. c #4C413D",
"M. c #55433A",
"N. c #4E4429",
"B. c #6B4126",
"V. c #64422C",
"C. c #6C422B",
"Z. c #6C4A2D",
"A. c #644528",
"S. c #744226",
"D. c #74432C",
"F. c #7B442C",
"G. c #73492D",
"H. c #7C492D",
"J. c #7A4326",
"K. c #644432",
"L. c #6C4432",
"P. c #6C4B33",
"I. c #674B36",
"U. c #744532",
"Y. c #7C4531",
"T. c #744B32",
"R. c #7C4B33",
"E. c #774C3A",
"W. c #6C5238",
"Q. c #7C5235",
"!. c #74533B",
"~. c #7C533A",
"^. c #785639",
"/. c #75512D",
"(. c #60441F",
"). c #4A3D42",
"_. c #523E42",
"`. c #4D4343",
"'. c #4C4547",
"]. c #534444",
"[. c #554945",
"{. c #5B4A46",
"}. c #554A4A",
"|. c #5B4C4B",
" X c #564648",
".X c #5D514D",
"XX c #5C4D51",
"oX c #5E5252",
"OX c #5C5656",
"+X c #614E4C",
"@X c #634D45",
"#X c #63524D",
"$X c #69554A",
"%X c #7B5842",
"&X c #645453",
"*X c #695654",
"=X c #6B5A55",
"-X c #6C5C5B",
";X c #665957",
":X c #715E5C",
">X c #674E4D",
",X c #6E615D",
"<X c #73625D",
"1X c #7D6145",
"2X c #6E5E61",
"3X c #6D6262",
"4X c #736463",
"5X c #7B6C6B",
"6X c #786866",
"7X c #7D7070",
"8X c #823E29",
"9X c #82452C",
"0X c #834B2D",
"qX c #884A2C",
"wX c #89522E",
"eX c #824532",
"rX c #834C33",
"tX c #8A4D32",
"yX c #874C38",
"uX c #855234",
"iX c #8B5335",
"pX c #84533A",
"aX c #8B543A",
"sX c #835A3D",
"dX c #8C5A3B",
"fX c #8B5935",
"gX c #925435",
"hX c #945B35",
"jX c #92553A",
"kX c #935B3C",
"lX c #9A5D3A",
"zX c #995937",
"xX c #924F33",
"cX c #9C623D",
"vX c #96623C",
"bX c #8A623E",
"nX c #A2633E",
"mX c #A05F3E",
"MX c #835C42",
"NX c #8A5B43",
"BX c #975D42",
"VX c #8A6447",
"CX c #9B6443",
"ZX c #976746",
"AX c #956F52",
"SX c #A36542",
"DX c #A56A47",
"FX c #A87350",
"GX c #887775",
"HX c #85726F",
"JX c #A2664A",
"KX c #998276",
"LX c #978784",
"PX c #AC9A96",
"IX c #CFBDB8",
"UX c #887F80",
/* pixels */
"U U U U U U U U U U U U U U U U U U U U U U U U U U U U U U U U U U U U U U U U U U U U U U U U U U U U U U U U U U U U U U U U U U U U U U U U U U U U U U U U U U U U U U U U U U U U U U U U U U U U U U U U U U U U U U U U U U U U U U U U U U U U U U U U U U U U U U U U U U U U U U U U U U U U U U U U U U U U U U U U U U U U U U U U U U U U U U U U U U U U U U U U U U U U U U U U U U U U U U U U U U U U U U U U U U U U U U U U U U U U U U U U U U U U U U U U U U U U U U U U U U U U U U U U U U U U U U U U U U U U C C C C C N * N N = X X &   X % o F oX)._.].|.|.|.}.}.|.oXH P [.t.t.}.[.t.K q < # < # $ < : : : : 3 3 3 > > > > > > > > > > 4 4 4 4 4 , a s s l / |  . .4 4 4 4 6 4 4 4 4 4 4 4 4 4 6 6 6 5 5 5 h c c c v i i b b , , b D v h f f f 2 2 : , a h c c l l 3 3 3 2 2 e h h h h h k k h e 9 3 w 1 1 w w 1 < 1 1 < < < < < < < 7 @ @ 7 A Y }.`.Y oX3Xt.t.&Xt.{.|.{.t.M.|..X}.t.3X'.o   = - o o o & * * V V C C C C C U U U U U U U U U U U U U U U U U U U U ",
"U U U U U U U U U U U U U U U U U U U U U U U U U U U U U U U U U U U U U U U U U U U U U U U U U U U U U U U U U U U U U U U U U U U U U U U U U U U U U U U U U U U U U U U U U U U U U U U U U U U U U U U U U U U U U U U U U U U U U U U U U U U U U U U U U U U U U U U U U U U U U U U U U U U U U U U U U U U U U U U U U U U U U U U U U U U U U U U U U U U U U U U U U U U U U U U U U U U U U U U U U U U U U U U U U U U U U U U U U U U U U U U U U U U U U U U U U U U U U U U U U U U U U U U U U U U U U U U U U U U U C C C C C N E N E & X X &   o X   A  Xq.y.q.].;X-X}.}.;X&Xq.t.oXt.e.].].m.K z < # < # $ $ : 3 h z c c c ,.,. . . .`  . . . ...5.5.5.1...1.5.5.n.b.b.b.b.b.b.b.b.b.b.9.6....... .` / / / 8.<.` x e 2 i i k 3 : i k h k b v v h h h h h 2 2 a a l l l j j h e e e e e h h 2 2 e e e 2 2 3 9 9 9 9 9 9 9 w 9 9 w w 7 7 < < < w @ @ 7 B Y [.w.F |.;Xt.t.*X+XM.{.{.M.[..X&X[.e.,Xr.    & & & o o & * E V V C C C C C U U U U U U U U U U U U U U U U U U U U ",
"U U U U U U U U U U U U U U U U U U U U U U U U U U U U U U U U U U U U U U U U U U U U U U U U U U U U U U U U U U U U U U U U U U U U U U U U U U U U U U U U U U U U U U U U U U U U U U U U U U U U U U U U U U U U U U U U U U U U U U U U U U U U U U U U U U U U U U U U U U U U U U U U U U U U U U U U U U U U U U U U U U U U U U U U U U U U U U U U U U U U U U U U U U U U U U U U U U U U U U U U U U U U U U U U U U U U U U U U U U U U U U U U U U U U U U U U U U U U U U U U U U U U U U U U U U U U U U U U U U U U C C C C C N N N * & X o &   o X . P oXe.F A q.;X-X`.`.&X}.e.].&X].q.t.].M.q.z < # # < # < 3 h D ,.2.,.,.1.1.1.1.5.8.5.5.5.5.b.b.b.b.b.b.b.b.b.b.b.K.K.K.I.I.I.I.I.K.K.K.b.b.b.9.5.5.5...8.8.<.c h 5 h v k p : , k b b k 2 9 9 f z c x h h j l c c j s a x x x h h h e e 5 2 5 e e 2 2 2 e 9 9 9 9 9 9 9 9 9 9 9 9 9 9 9 w q + O 7 B G `.Y F ].&Xt.].:X:XM.+X+X{..X;XoXm.`.3Xr.    & & & o X & * N V V V C C C C U U U U U U U U U U U U U U U U U U U U ",
"U U U U U U U U U U U U U U U U U U U U U U U U U U U U U U U U U U U U U U U U U U U U U U U U U U U U U U U U U U U U U U U U U U U U U U U U U U U U U U U U U U U U U U U U U U U U U U U U U U U U U U U U U U U U U U U U U U U U U U U U U U U U U U U U U U U U U U U U U U U U U U U U U U U U U U U U U U U U U U U U U U U U U U U U U U U U U U U U U U U U U U U U U U U U U U U U U U U U U U U U U U U U U U U U U U U U U U U U U U U U U U U U U U U U U U U U U U U U U U U U U U U U U U U U U U U U U U U U U U U U C C C C C N N N * & o o &   o - % ).2X XF P _.;X-X}.m.].r.e.[.oX].Y e.].].q.g < # # < < 9 h c D ,.,.,.` ` ` `  . .......<.5.5.5.8.5.5.5.8.8.8.8.9.9.b.b.6.6.b.9.9.5.5.5.b.b.b.9.6.5.5.5.<.<.<.` j k c ,.k v k i k b k 3 : : : < h z c x l c c c j j j j ` x x j j j j e j j j j j e e e z q q q q z q e e e e e q q q q q q < @ 7 B G `.r.F m.&X|..X-X-X{.+X&X#X;X;X}.e.&X5X'.X o % X & o X & * N V V V C C C C U U U U U U U U U U U U U U U U U U U U ",
"U U U U U U U U U U U U U U U U U U U U U U U U U U U U U U U U U U U U U U U U U U U U U U U U U U U U U U U U U U U U U U U U U U U U U U U U U U U U U U U U U U U U U U U U U U U U U U U U U U U U U U U U U U U U U U U U U U U U U U U U U U U U U U U U U U U U U U U U U U U U U U U U U U U U U U U U U U U U U U U U U U U U U U U U U U U U U U U U U U U U U U U U U U U U U U U U U U U U U U U U U U U U U U U U U U U U U U U U U U U U U U U U U U U U U U U U U U U U U U U U U U U U U U U U U U U U U U U U U U U U C C C C C N N N * X o o &   X - % '.6X|.q.|.-X-X;X;XoX`.r.].|.oX Xq.K `.].q.z < + # < w z z c D c c ` ` ` ` `  ...<.<.<.5.5.8.8.8.8.8.8.9.9.9.b.9.b.9.b.b.b.b.V.b.b.b.9.6.6.6.6.6.5.5.5.<.0.8.2.` h h h 2 b ,.b h k i $ : + O + 3 h c c x j c c ^ ^ / ^ ) ) ) x ) ) x x ) ) j j j j j x x x t z x x x t t t t t z z x t A A 7 @ 8 B K `.[.Y y.oX-X;X+X].{.+X#X#X&X|.t.F |.3Xr.X X X o o X X & * N V V V C C C C U U U U U U U U U U U U U U U U U U U U ",
"U U U U U U U U U U U U U U U U U U U U U U U U U U U U U U U U U U U U U U U U U U U U U U U U U U U U U U U U U U U U U U U U U U U U U U U U U U U U U U U U U U U U U U U U U U U U U U U U U U U U U U U U U U U U U U U U U U U U U U U U U U U U U U U U U U U U U U U U U U U U U U U U U U U U U U U U U U U U U U U U U U U U U U U U U U U U U U U U U U U U U U U U U U U U U U U U U U U U U U U U U U U U U U U U U U U U U U U U U U U U U U U U U U U U U U U U U U U U U U U U U U U U U U U U U U U U U U U U U U U U C C C C V V N N * X o o &   X o . ).2X).q.&X2XoX|.-X;X`.XX;XoX|.|.e.G t.].q.g < + < w f v c c D c *.,.<.<.<.<.<.<.<.5.5.0.0.8.8.8.9.9.b.9.9.8.9.9.b.b.b.b.V.V.V.V.b.b.b.b.b.b.b.b.9.9.9.5.0.9.8.<.c h a + k ,.b i 3 3 : ; + O + 3 j c c x j j ^ ^ / / ` j ) ) ) ) ) ) ) ) ^ r r r r Q r x t t t t t t t t t t t t x x x A H 7 @ 0 B K [.[.Y Y |.-X+Xt.q.{.{.{.#X#Xt.G A w.}.F   o o   X X - & * N V V V C C C C U U U U U U U U U U U U U U U U U U U U ",
"U U U U U U U U U U U U U U U U U U U U U U U U U U U U U U U U U U U U U U U U U U U U U U U U U U U U U U U U U U U U U U U U U U U U U U U U U U U U U U U U U U U U U U U U U U U U U U U U U U U U U U U U U U U U U U U U U U U U U U U U U U U U U U U U U U U U U U U U U U U U U U U U U U U U U U U U U U U U U U U U U U U U U U U U U U U U U U U U U U U U U U U U U U U U U U U U U U U U U U U U U U U U U U U U U U U U U U U U U U U U U U U U U U U U U U U U U U U U U U U U U U U U U U U U U U U U U U U U U U U U J C C C V N N N * o o o -   X . . e.2X).t.oX&X].`..X|.`.;X3XoX].|.t.G `.M.q.z # + < 9 z z c D *.,.,.<.<.<.<.<.<.<.<.5.5.3.3.3.3.0.0.0.8.8.0.8.8.8.9.9.9.6.6.6.6.6.6.6.5.V.V.V.V.b.9.9.9.5.5.5.8.8.1. .c : i c v 2 : : : : ; ; 3 x ` ` ) ^ ^ ^ ^ ^ ^ ) ) ) ) ) _ _ _ _ _ ) Q r r r r Q r t t t t t t t t t t t t x x x x A H 7 @ 7 B G `.`.w.q.}.-X[.y.t.+X[.{.;X&Xt.G Y e.`.B     o o & X & & * N V V V C C C C U U U U U U U U U U U U U U U U U U U U ",
"U U U U U U U U U U U U U U U U U U U U U U U U U U U U U U U U U U U U U U U U U U U U U U U U U U U U U U U U U U U U U U U U U U U U U U U U U U U U U U U U U U U U U U U U U U U U U U U U U U U U U U U U U U U U U U U U U U U U U U U U U U U U U U U U U U U U U U U U U U U U U U U U U U U U U U U U U U U U U U U U U U U U U U U U U U U U U U U U U U U U U U U U U U U U U U U U U U U U U U U U U U U U U U U U U U U U U U U U U U U U U U U U U U U U U U U U U U U U U U U U U U U U U U U U U U U U U U U U U U U U J C C C V N V N = o o o X   X o . ).4X X|.oX|.}.`.`.].].;X2X].r.|.].q.].m.q.z # + < z v z c ,.,.,.*.` ` <.<.<.<.<.<.<.<.<.<.<.<.<.3.0.0.0.0.8.8.9.9.9.9.9.9.9.9.b.9.6.6.V.V.b.9.6.5.3.o.I.b.9.8.8.8.,.c k k k h 3 $ : 3 3 3 2 x <.0.*.x ) ) ^ ^ ^ ^ ^ ) _ _ _ _ _ _ _ _ ) Q Q Q Q Q Q Q Q t t t t t t t t t t t t x ) x t A 7 @ 7 g F `.m.r.e.|.*X].t.+X*X{.|.<X-XM.e.`.[.|.V   o o o * X & & * N V V V C C C J U U U U U U U U U U U U U U U U U U U U ",
"U U U U U U U U U U U U U U U U U U U U U U U U U U U U U U U U U U U U U U U U U U U U U U U U U U U U U U U U U U U U U U U U U U U U U U U U U U U U U U U U U U U U U U U U U U U U U U U U U U U U U U U U U U U U U U U U U U U U U U U U U U U U U U U U U U U U U U U U U U U U U U U U U U U U U U U U U U U U U U U U U U U U U U U U U U U U U U U U U U U U U U U U U U U U U U U U U U U U U U U U U U U U U U U U U U U U U U U U U U U U U U U U U U U U U U U U U U U U U U U U U U U U U U U U U U U U U U U U U U U J C C C C V C N * N X   X X X -   . XX7X).r. X|. X].}..X|.`.|.].].|.[.e.q.t.G z < O < S v -.*.*.*.,.*.*.` <.<.' ' <.3.5.5.<.<.<.3.3.0.0.0.8.8.8.8.8.8.8.8.b.9.6.6.6.6.9.V.K.V.V.A.9.9.9.9.b.....5.5.1.<.h : 2 c c : + 3 e 3 5 c 0.*.5 5 *.) ) ) ^ ) ) ( _ _ _ _ _ _ ] ) ) Q Q Q Q Q Q Q Q *.*.) Q Q t Q Q t t Q Q Q Q t t t A 7 @ 7 g G `.[.[.e.oX|.G t.-X+X#X[.[.&X|.t.t.m.`.C .   X X X X & * * N V V V C C C C U U U U U U U U U U U U U U U U U U U U ",
"U U U U U U U U U U U U U U U U U U U U U U U U U U U U U U U U U U U U U U U U U U U U U U U U U U U U U U U U U U U U U U U U U U U U U U U U U U U U U U U U U U U U U U U U U U U U U U U U U U U U U U U U U U U U U U U U U U U U U U U U U U U U U U U U U U U U U U U U U U U U U U U U U U U U U U U U U U U U U U U U U U U U U U U U U U U U U U U U U U U U U U U U U U U U U U U U U U U U U U U U U U U U U U U U U U U U U U U U U U U U U U U U U U U U U U U U U U U U U U U U U U U U U U U U U U U U U U U U U U U J C C C C V C N * E X   X - o -   . }.7X_.|.&X;X|.].`.`.t.`.|.].].|.[.e.q.&Xt.D w O < S v -.*.*.*.*.*.*.` *.*.' ' <.<.5.5.<.<.<.3.3.0.0.0.8.8.8.8.8.8.8.8.9.9.6.6.6.9.V.V.K.K.V.V.9.9.9.9.I.5.6.b.8.8.1.l : 2 D c 3 : 3 y x 5 5 j r 3 6 ^ ) ^ ^ ^ ) ) ( _ _ =._ _ _ _ _ _ Q ) ] ) ) ) ) ) *.*.) Q Q t t t t t t t t r y y t A 7 @ 7 g G `.}.`.e.oX[.G t.{.{.*X#X{..X].t.`.m.`.V     X X X X & * * N V V V C C C C U U U U U U U U U U U U U U U U U U U U ",
"U U U U U U U U U U U U U U U U U U U U U U U U U U U U U U U U U U U U U U U U U U U U U U U U U U U U U U U U U U U U U U U U U U U U U U U U U U U U U U U U U U U U U U U U U U U U U U U U U U U U U U U U U U U U U U U U U U U U U U U U U U U U U U U U U U U U U U U U U U U U U U U U U U U U U U U U U U U U U U U U U U U U U U U U U U U U U U U U U U U U U U U U U U U U U U U U U U U U U U U U U U U U U U U U U U U U U U U U U U U U U U U U U U U U U U U U U U U U U U U U U U U U U U U U U U U U U U U U U U U U C C C C V C N * E X   X - o - . . }.5X_. X|.|. X].`.`.`.].|.].].|.].q.q.;Xm.G w O # S D 2.*.*.*.*.*.` ` ` ' ' ' 3.3.3.3.3.3.3.3.0.0.8.8.8.8.8.8.8.8.8.8.9.6.7.7.7.9.g.V.L.K.V.V.V.V.V.V.P.9.9.b.5.8.8.j : h ,.,.e < 9 y c 5 3 e ) x j ` ^ ^ ^ ^ ^ ) ( _ =.=.>.=._ _ _ _ _ _ _ _ _ _ _ =.) *.*.) t t t t t t r y y y y y t A 7 @ 7 g G `.`.Y e.;X|.].2X*X{.=X-X#X{.y.e.].m.'.V     X o o X & & * N V V V C C C C U U U U U U U U U U U U U U U U U U U U ",
"U U U U U U U U U U U U U U U U U U U U U U U U U U U U U U U U U U U U U U U U U U U U U U U U U U U U U U U U U U U U U U U U U U U U U U U U U U U U U U U U U U U U U U U U U U U U U U U U U U U U U U U U U U U U U U U U U U U U U U U U U U U U U U U U U U U U U U U U U U U U U U U U U U U U U U U U U U U U U U U U U U U U U U U U U U U U U U U U U U U U U U U U U U U U U U U U U U U U U U U U U U U U U U U U U U U U U U U U U U U U U U U U U U U U U U U U U U U U U U U U U U U U U U U U U U U U U U U U U U U U C C C C V C E * N X   X - o - o o '.6X].&X|._.t.m.].}.}.[. Xt._.}.t.G K [.q.A < O < D D *.*.*.*.*.*.` ` ` ' ' ' =.3.....3.3.3.5.0.5.8.8.8.8.8.8.8.9.8.8.6.6.7.7.7.g.V.V.L.K.K.V.V.V.V.V.I.6.9.b.5.5.<.5 : 5 ,.2.v 9 e e 3 3 e *.0.0.<.*.^ ^ ^ ^ ^ ) ] _ _ =.=.=._ _ _ _ _ _ _ _ _ _ _ =.) *.*.x t t t t t t y y y y y e t A 7 @ 7 B G `.m.S w.3X;X;XGX6XM.*X=X#X{.y.q.`.`.'.V     o o o o X & * N V V V C C C C U U U U U U U U U U U U U U U U U U U U ",
"U U U U U U U U U U U U U U U U U U U U U U U U U U U U U U U U U U U U U U U U U U U U U U U U U U U U U U U U U U U U U U U U U U U U U U U U U U U U U U U U U U U U U U U U U U U U U U U U U U U U U U U U U U U U U U U U U U U U U U U U U U U U U U U U U U U U U U U U U U U U U U U U U U U U U U U U U U U U U U U U U U U U U U U U U U U U U U U U U U U U U U U U U U U U U U U U U U U U U U U U U U U U U U U U U U U U U U U U U U U U U U U U U U U U U U U U U U U U U U U U U U U U U U U U U U U U U U U U U U U U C C C C V C E * E X   X -   X X o ).6X XGX2X Xt.t.`.`.`.].].t.).[.e.S G q.H z 7 O < D D *.*.*.*.*.*.` ` ` ' ' ' ' =.' ' 3.o.3.3.0.4.6.6.7.7.7.7.8.6.8.6.7.7.7.7.g.g.V.V.L.L.L.V.V.V.V.K.L.6.b.9.5.5.<., ; , ,.2.D z z z 3 e x x j x x j j j j j ^ ^ ) _ ) ) ) ) _ ` _ ) _ ) _ ) _ ) _ *.) D x x x t t t t t e e e t t x t A 7 @ 7 g G `.[.F e.4X&X}.5X&Xt.#X#X{.|.t.q.m.`.'.V     o o o o X & * N V V V C C C C J U U U U U U U U U U U U U U U U U U U ",
"U U U U U U U U U U U U U U U U U U U U U U U U U U U U U U U U U U U U U U U U U U U U U U U U U U U U U U U U U U U U U U U U U U U U U U U U U U U U U U U U U U U U U U U U U U U U U U U U U U U U U U U U U U U U U U U U U U U U U U U U U U U U U U U U U U U U U U U U U U U U U U U U U U U U U U U U U U U U U U U U U U U U U U U U U U U U U U U U U U U U U U U U U U U U U U U U U U U U U U U U U U U U U U U U U U U U U U U U U U U U U U U U U U U U U U U U U U U U U U U U U U U U U U U U U U U U U U U U U U U U C C C C V V * * E X   X -   X X o ).2X XUX6X|.[.[.].].].[.].t._.].q.A q.q.S A 9 + w D D *.*.*.*.*.*.` ` ` ` _ ' ' ' ' ' o.o.o.3.3.4.6.6.7.7.7.7.6.6.6.6.6.7.7.g.g.g.V.V.V.V.V.V.V.V.V.V.C.A.V.b.5.9.5.5 ; > D 2.D z z z *.2.*.y ; ; 3 6 j j j j ^ ^ ) ` ) ) ) ) ) ) ) ) ) ) ` ) ) ) ) *.x D x x x x t t t t r t t x x D t A 7 @ 7 B G `.[.F K 3X-Xt.&X{.].#X+X{..X].e.r.`.'.C     o o o o X & * N V V V C C C C J U U U U U U U U U U U U U U U U U U U ",
"U U U U U U U U U U U U U U U U U U U U U U U U U U U U U U U U U U U U U U U U U U U U U U U U U U U U U U U U U U U U U U U U U U U U U U U U U U U U U U U U U U U U U U U U U U U U U U U U U U U U U U U U U U U U U U U U U U U U U U U U U U U U U U U U U U U U U U U U U U U U U U U U U U U U U U U U U U U U U U U U U U U U U U U U U U U U U U U U U U U U U U U U U U U U U U U U U U U U U U U U U U U U U U U U U U U U U U U U U U U U U U U U U U U U U U U U U U U U U U U U U U U U U U U U U U U U U U U U U U U U C C C C V V * * E X   X -   X X o e.2X|.-XoX}.|.|.}.}.}.[. X).].].K A e.y.G S 8 O < D D *.*.*.*.` ` ` ` ` ` _ _ ' ' ' [ ' o.o.o.3.3.5.6.6.6.6.6.9.6.6.6.4.7.d.g.g.V.V.V.V.g.g.g.g.g.V.V.I.A.Z.A.5.b.8.5 ; 3 c *.v e t 9 2.2.<.3 ; > , > j j s s j ^ ) ) ) ) ) ) ` ` ` ` ) ` ` ) ` ` ) *.x D x x x x t t e t t x x x x x t A 7 @ 7 g G `.`.S B ,X5X[.{.*X{.*X&X#X#X].e.e.].}.F .   o o o o o & * E N V V C C C C U U U U U U U U U U U U U U U U U U U U ",
"U U U U U U U U U U U U U U U U U U U U U U U U U U U U U U U U U U U U U U U U U U U U U U U U U U U U U U U U U U U U U U U U U U U U U U U U U U U U U U U U U U U U U U U U U U U U U U U U U U U U U U U U U U U U U U U U U U U U U U U U U U U U U U U U U U U U U U U U U U U U U U U U U U U U U U U U U U U U U U U U U U U U U U U U U U U U U U U U U U U U U U U U U U U U U U U U U U U U U U U U U U U U U U U U U U U U U U U U U U U U U U U U U U U U U U U U U U U U U U U U U U U U U U U U U U U U U U U U U U U U C C C C V V E * E X   X %   X - o e.2X X_._. X&XoX].m.`.|.|.].}.[.Y H t.y.D g < O # D K *.` *.` ` ` ` ) ` ` ` _ _ ' ' [ ....o.o.3.3.3.6.6.6.6.6.6.6.6.6.4.7.d.g.g.V.V.V.g.g.g.g.g.g.V.V.C.A.C.A.5.b.8.5 : 3 c *.z 9 9 < 9 x x 3 > e 5 ; j r r s j ^ ^ ) ) ) ) ) ) ` *.*.` ` ` ` ` ` ` ` x x x x x x t e e e t x x t e e t A 7 @ 7 g G ].}.F 0 -XGX{.M.-X{.:X:X*X&XM.q.r.].}.F .   o o o o o & * E N V V C C C C U U U U U U U U U U U U U U U U U U U U ",
"U U U U U U U U U U U U U U U U U U U R U R U R U U U R R R U U U U U U U U U U U U U U U U U U U U U U U U U U U U U U U U U U U U U U U U U U U U U U U U U U R R R R U U U R R R R R U U R U U U U U U U U U U U U U U U U U U U U U U U U U U U U U U U U U U U U U U U U U U U U U U U U U U U U U U U U U U U U U U U U U U U U U U U U U U U U U U U U U U U U U U U U U U U U U U U U U U U U U U U U U U U U U U U U U U U U U U U U U U U U U U U U U U U U U U U U U U U U U U U U U U U U U U U U U U U U U U U U U C C U U C C C C C N N N * o   o X   % % % `.7X-XGX;X-X{.|.&XG e.q.m.].].].G A e.e.K S < O 9 K D *.` ` ` c c ^ j / / / / ` ..o.o.o.o.o.o.4.4.6.4.4.4.6.7.7.7.6.9.g.g.g.g.g.g.g.g.g.g.g.g.g.V.C.C.C.B.L.V.6.b.n.j ; 3 e 9 3 3 e v 3 x c e > 3 5 3 5 e j ) ` ) ^ j ) ) ) ) ) ) ) ) ) ) ) ) ) ) ) ) ) x x x t t t t x j x j x j x x x z < O 7 g K [.].G D |.5XD t.=X6X<X6XGX6X].q.e.}.}.V & o   X o o o X * N V V C C C C C U U U U U U U U U U U U U U U U U U U U ",
"U U U U U U U U U U U U U U U U U U U U U U U U U U U U U U U U U U U R R U R U U U U R R U R U U U U U U U U U U U U U U U U U U U U U U U U U U U U U U U U U U U U U U U U U U U U U U U U U U U U U U U U U U U U U U U U U U U U U U U U U U U U U U U U U U U U U U U U U U U U U U U U U U U U U U U U U U U U U U U U U U U U U U U U U U U U U U U U U U U U U U U U U U U U U U U U U U U U U U U U U U U U U U U U U U U U U U U U U U U U U U U U U U U U U U U U U U U U U U U U U U U U U U U U U U U U U U U U U U U U U U C C C C N N N * o   o X   X o . e.6X;X:X{.=X&X&X2X X|.|.&X|.[.m.G g Y e.K S < O 9 K D *.` ` c c c ^ j / / / / ` ....o.o.o.o.o.4.4.6.4.6.6.6.7.7.6.9.g.g.g.g.g.g.g.g.g.g.g.g.g.g.C.C.h.h.s.h.g.6.9.5.a : i z k 9 2 e z 2 h h 5 > : : > j x ) ) ) x ) ^ ) ) ) ) ) ) ) ) ) ) ) ) ) ) ) ) ) ) x x r t t t t t r r r r r x x z < O 7 z G ].].A z {.6Xq.M.=X:X=X<XHX6X[.K G e.`.0 X o   X o o o X * N V V C C C C J U U U U U U U U U U U U U U U U U U U U ",
"U U U U U U U U U U U U U U U U U U U U U U U U U U U U U U U U U U R R R R U U U U R R R R U U U U U U U U U U U U U U U U U U U U U U U U U U U U U U U U U U U U U U U U U U U U U U U U U U U U U U U U U U U U U U U U U U U U U U U U U U U U U U U U U U U U U U U U U U U U U U U U U U U U U U U U U U U U U U U U U U U U U U U U U U U U U U U U U U U U U U U U U U U U U U U U U U U U U U U U U U U U U U U U U U U U U U U U U U U U U U U U U U U U U U U U U U U U U U U U U U U U U U U U U U U U U U U U U U U U U U U C C C C N N N * o     -   X o . e.5X-X-X-XHX5XHXGX5XHX&X*X}.t.e.A q G q.K S < O 9 2.D *.` c c ` ` ^ ^ / / / ( ` ....o.o.o.o.o.4.4.4.4.6.6.7.7.6.9.g.g.g.g.g.g.g.g.g.g.g.g.g.g.h.h.C.C.h.d.h.g.6.b.5.a , h c c h 9 9 e k 2 5 j j 5 5 e *.` ) j r j ) ) ) ) ) ) ) ) ) ) ) ) ) ) ) ) ) ) ) x x x r t t t t t t t t t t t z z < O 7 z G ].[.A q [.HXM.:X6X=X*X=X6X6X.Xe.S F m.=       o X o o X * N V V V C C C U U U U U U U U U U U U U U U U U U U U U ",
"U U U U U U U U U U U U U U U U U U U U U U U U U U U U U U U U U U R R R R R U U U R R R R R U U U U U U U U U U U U U U U U U U U U U U U U U U U U U U U U U U U U U U U U U U U U U U U U U U U U U U U U U U U U U U U U U U U U U U U U U U U U U U U U U U U U U U U U U U U U U U U U U U U U U U U U U U U U U U U U U U U U U U U U U U U U U U U U U U U U U U U U U U U U U U U U U U U U U U U U U U U U U U U U U U U U U U U U U U U U U U U U U U U U U U U U U U U U U U U U U U U U U U U U U U U U U U U U U U U U U U C C C C N N N * o     &   X X . t.HX4X|.&X:X&X+X&X|.|.y.M.y.G G H A q.q.G S < O 9 2.D *.` c c ` ` / ^ / / / ( ' ....o.o.o.o.o.4.6.6.4.6.6.7.7.6.9.g.g.g.g.g.g.h.h.h.g.g.h.g.h.h.C.C.C.C.f.C.C.9.b.8.a : i c c z 9 9 2 k : > x *.x x ` *.` ) j j j ) ) ) ) ) ) ) ) ) ) ) ) ) ) ) ) ) ) ) x x x r t t t t t t t t t t t z z < @ 8 z G m.[.A z [.6X#XHXHX=X*X=X,X6X-X].F F }.N       o o o o X * N V V V C C C U U U U U U U U U U U U U U U U U U U U U ",
"U U U U U U U U U U U U U U U U R R R R R R R R R R R R R R R R R R R R R R R R R R R R R R R R U U U U U U U U U U U U U U U U U U U U U U U U U U U U U U U U R R R R R R R R R R R R R R R R U U U U U U U U U U U U U U U U U U U U U U U U U U U U U U U U U U U L R R R U U U L U U R R R U U U R R R U U U U U U U U U U U U U U U U U U U U U U U U U U U U U U U U U U U U U U U U U U U U U U U U U U U U U U U U U U U U U U U U U U U U U U U U U U U U U U U U U U U U U U U U U U U U U U U U U U C C C C C C C C U R U U J C C C C N E N * o     X   - X @ `.GX5XoX=X&X Xq.G G G K y.q.G q.G H G Y G S < O 9 q.D ` ` c c ` ` ` / / / / ` ....o.o.o.o.o.o.4.6.6.4.6.6.7.7.6.6.g.g.g.g.g.g.C.C.C.C.g.g.g.g.C.h.L.C.C.f.C.C.9.V.8.a : 2 c c c h h h h ; ; h ` x j ` ) ) ) ) ) ) ) ) ) ) ) ) ) ) ) ) ) ) ) ) ) ) ) ) ) x x j r t t t t t t t t t r t z z < @ 8 z G `.t.q S t.#XM.HX6X=X=X*X*X4X6X|.G T 3XY o X   o o o o X * N V V V C C C R U U U U C C C C C C C C U U U U U U U U ",
"C C J C C C C C C C C C C C C C C C C C C C C C C C C C C C C C J J J J J J J J J J J J J J J J C C J J C J C C C C C C U U J U C C C C C C C C U U C C C C C J C C C C C C C C C C C C C C C C C C C C J J U J C C C C C C C C C C C C U U J U C C C C C C C C R R F F F F F F R R F F F F F F F F F F F F R R F F F F R R R F C C C C C C C C U U C C C C C J U U J J C C C C U U J J C C C C C C C C J J U J C C C C C C C C C C C C U U J U C C C C C C C C U U J J C C C C U U J J C C C C C C J J C J C C C C C C C C C C C C C C C C C C C N E N * o         - X . r.7X4XHXGX5X:X{.y.].t.t.{.].y.t.q.A H Y G H < O 9 q.D ` ` c c ` ` ` ` ` / / ` ....o.o.o.o.o.o.4.4.6.4.6.6.7.7.6.6.g.g.d.g.g.h.L.L.L.L.g.h.g.h.C.L.L.C.h.d.h.V.9.b.5., : i c ,.D c c c x 5 5 x ` c j j r j ) ) ) ) ) ) ) ) ) ) ) ) ) ) ) ) ) ) ) ) ) ) ) x x j r t t t r r r r r r r e z z < @ 7 A G ].e.A q.t.y.D <X=X:X<X-X#X-X6X.XS t.GX'.X % o   o     o * N V V V C C C C C C C C C C C C C C C C U U J J C C C C ",
"C C C C C C C C C C C C C C C C C C C C C C C C C C C C C C C C C C C C C C C C C C C C C C C C C C C C C C C C C C C C C C C C C C C C C C C C C C C C C C C C C C C C C C C C C C C C C C C C C C C C C C C C C C C C C C C C C C C C C C C C C C C C C C C C C C C C C C C C C C C C C C C C C C C C C C C C C C C C C C C C C C C C C C C C C C C C C C C C C C C C C C C C C C C C C C C C C C C C C C C C C C C C C C C C C C C C C C C C C C C C C C C C C C C C C C C C C C C C C C C C C C C C C C C C C C C C C C C C C C C C C C V V C N E N * o         & % . Y 4X&X4XHX=X:XoXy.].t.M..X[.y.t.e.H A K G S < O 9 q.D c ` c c ` ` ` ` ` ` / ` ..o.o.o.3.o.o.o.4.4.4.4.4.4.6.6.7.7.6.6.d.g.g.C.C.L.L.L.g.C.h.C.L.L.L.C.C.d.C.C.b.V.5., , a c ,.D D D c ` ` ` ` ` *.` ) r j ) ) ) ) ) ) ) ) ) ) ) ) ) ) ) ) ) ) ) ) ) ) ) x j j r t t t r r r t r r r e t t + O 7 A q.[.y.e.&X#Xy.D HXHX<XHXHX:X<X5X|.0 r.LX'.X & o   o     o & N N N V V C C C C C C C C C C C C C C C C C C C C C C C ",
"C C C C C C C C C C C C C C C C V V V V V V V V V V V V V V V V V V V V V V V V V V V V V V V V C C C C C C C C C C C C C C C C C C C C C C C C C C C C C C C C V V V V V V V V V V V V V V V V C C C C C C C C C C C C C C C C C C C C C C C C C C C C C C C C V C C C V C C V V C C C C C C C C C C C V V V C C C V V V V V V C C C C C C C C C C C C C C C C C C C C C C C C C C C C C C C C C C C C C C C C C C C C C C C C C C C C C C C C C C C C C C C C C C C C C C C C C C C C C C C C C C C C C C C C C C C C C C C C C C C C C V V V C N E N * o     o   * & . G ;X].&X2X{.=X+Xi.t.i.e.].y.G e.q.G G K G S < O 9 q.D c c c c ` ` ` ` ` ` / ` ..o.o.o.3.o.o.3.4.6.6.4.4.4.4.6.7.7.6.6.d.g.g.C.L.L.L.L.C.C.h.L.L.L.L.C.U.h.L.L.V.I.n.a , a c c D c v x e x x j j ` ` j ) ) ^ ^ ^ ^ Q Q ) ) ) ) ) ) ) ) ) ) ) ) ) ) ^ ^ ) x x j r t t t r r t r r r r t t q + O 7 A q.|.].}.GXHX|.M.PXPX6XGXGX6X5XHX|.= Y KX`.. % o   o     o & N N N V V V C C C C C C C C C C C C C C C C C C C C C C ",
"C C C C V V V V C C C C C C C C C C C C V V V V C C C C C C C C N N N N V V V V V V V V N N N N C C C C C C V V C C C C C C C C C C V V V V C C V V C C C C C C C C C C C C C C N N V V C C C V C C C C C C C C C C C C C C C V C C C C V V V V V V V V C C V V V V V V V V V V C C C V V V C U V V V V V V V C V V N V C C C C C C C V V V V V C C C C C C C C C V V V V V V V C C V V V V V V C C C C C C C C C C V V V V V V V V V V V V V V C C C C C C C C C C V V V V V V V V V V V V V V C C C C C C C C C C V V V V V V V V V V V V N N E * * E = o         % % @ e.5XGX*X*X+X&X2X Xq.[.y.m.m.y.t.t.K q K q.D # O w K 2.c c ` ` ` ` ` ` / / / ` ........3.4.4.6.6.6.6.4.6.4.4.o.4.4.6.4.g.h.C.C.L.L.L.L.L.L.C.h.h.g.g.h.U.s.C.C.V.K.b.j , i c ,.2.,.v e x ) ) ) ) ) ) ) _ ) ) _ =.=._ _ ^ ^ ^ ) ) ) ) ) ) ) ^ ^ ^ ^ Q r t t t t t r r r r t t t t t t t z q < @ < z e.}.m.].#X4Xt.#XPXPX+X:X4XHXKX7X&X[..X3XY   & X o       o = N V N N N N N V V V V V C C V V V V V V C V V V V V V V ",
"V V V V V V C C N N N N N N N N 0 0 0 0 g g g g N N N N N N N N C C V N V V V C N N N N N N N N N N N N N V V N * N N N N N N N C C C C V C C C V V V V V V V V N g g g N N N N N N N N N N N g N N N N N N N N V N * * * N V C C C C C C C C C N N N V C C C C N N N N N N N N * * g g g g N N g g g g g N N N N g 0 0 g g 0 * C C V V V V V V N N N N N N N N V C C C C C V V V V V V V V V V V V V V N N N N V V V N V N V V V V V V V V V V V V V V V V V V V V V V V V V V V V V V V V V V V V V V V V V N V V V V V V V V V V V V V N N N * * * E & o         X X . A ;X4X=X=XoX*X2X Xe.[.y.w.q.G G q.G B G K S # O 9 2.2.c c c ` ` ` ` ` / / / ` ......o.o.4.4.4.6.6.6.4.6.4.4.4.3.4.6.6.g.h.C.C.L.L.L.L.L.L.h.h.g.g.g.g.h.s.L.P.K.I.b.a : 2 c ,.,.D c z x ) ` ` ` ` =.*.) ) ) ) _ ' _ ] ) ) ) ) ) ) ) ) ) ) ) ^ ^ ^ ^ r t t t t t t r r r r r t t t r t z q < @ < z e.}.t.t.|.5X+X{.KXGX=XHXGXGXHX,XoXoXoX6Xr.  & X o       o & N N N N N N N N N N V V V V V V V V V V V V V V N N V V ",
"C C C C V N N E C C C C C C C C C C V V V V V V V V V V V C C C g 0 * * = * 0 0 N N N N N N V V V V V V C C C C V V V V V C C C * * * * * * * * V V V V V V V V V V N V V V V V V V V B V V N N C C C C C C C C V V N N V V V C V V V V V V V V C C V V V V N N C V V V V V C V N V V C C C V V C C C C C C C C V V V V V V V V V V V V V V V V C C C C C C C C N N V V V N N E N N V V V V V N V V V C V V C C N N N N N N N N N N V V N N N N N N N N N N N N V V V V V V V V V V V V V N N N N N N N N N N N N N N N N N N N V V V V V V N N N * N N * o         - X . B |..X-X:X&X*X2X|.e.[.|.M.t.t.t.K H A G G H # O 9 2.-.c c c c ` ` ` ` / / / ` ..o...o.o.3.4.4.6.4.6.4.4.4.3.3.4.6.6.7.g.h.C.C.L.L.L.L.L.L.C.C.C.C.g.g.h.f.U.P.V.K.1.> : , h c c c v x j j j j ) ) ) ) ) ) ) ] _ _ _ ] ) ) ) ) ) ^ ^ ^ ) ) ) ) ^ ^ ^ j ) x t t r t t t t t t t t t t e z q < @ < z e.}.`.].}.5X#Xz y.#X{.=X4X-X[.q.e.`.}.3X`.o & o o       o = N N E * N N N N N V V V V V N N N N N N V V V V N N N N ",
"V V N N * * * * * * * * * * * 0 N N 0 * * = = = = = = = = * * * N N V V B V B V * * = * * * 0 0 * * = = * * * * * * * * * * * * V V V V V V C C * * * * * * * * * = = * * * * * 0 0 * 0 0 g N N * * * * * * * * * N V V V N * * * * * * * * * * N N E * * * * * * * * * * * * * g 0 * * * * = & * * * * * * * * = * * * * * g N N N N m * N N N * * * * * * N N N N * * * * E E * * * * * * * * * E N N N N N N * * * N N N N N N N N N N N N N N N N N N N N N N N N N N N N N N N N N N N N E V N N N N N N N N N N N N N N N N N V V V N N N N * N N * o         & % @ Y ;X&X=X:X&X&X-X|.e.].[.y.y.M.`.G A A G G S # O z -.,.c c ` ` ` ` ` ` ` / (  ...o.o.o.o.4.4.4.6.4.4.4.4.4.3.3.4.6.7.7.g.h.C.C.L.L.L.L.L.L.C.C.C.C.g.g.C.C.U.C.6.b. .+ : 3 h z z k z x ` ) ) ) j r r r ) ) ) ] _ _ _ ) ) ) ) ) ) ^ ^ ^ ) ) ) ) ) ^ ^ ^ ) x x t r t t t r t t t t t t e z q < @ < z e.}.}.[.{.4X&X< w :X{.M.{.M.K G q.Y r.,Xm.o %     o     X * N N * * N N N N N N V V V V N N N N N N V V V V N N N N ",
"N N V V V C C C N N N N N N N N V B N 0 0 N V B N N N N N N N N = = 0 N 0 0 = & B N m 0 0 N B B V N N N E N E E V N N N E * * * * * * * * * * * N N N E N N N N N B B B N V V N V B N N N B B N m N N N N N N N N N N N N N N N V V V V V V N N N E N N V C C C N N N N N N N N N g * * 0 N N N V N N N N N g g g N N N g 0 g N N N N N N N N V * * * E N N N N V N * * * * N N V V V V V N N N * * * * N N N N * E N N N N E * * * * * * * E * * * * * * * * * * * * * * E E N N N N * * * * * E * * * * * * * * * * * * * * * * * * * * * * * * & * * & o         & & = t.3X&X&X=XoX|.;X{.y.].y.S z G G H A G G G S # O z -.D c c ` ` ` ` ` ` ` ` ` ..o.o.o.o.o.3.4.6.6.4.4.4.4.4.4.4.4.7.7.7.g.g.C.L.L.L.L.L.L.C.C.C.C.C.h.h.C.C.L.g.6.b.1.: > i z c h e h z <.<.=.*.` ` ) ) ) ) ) ] _ ' _ _ _ ) ) ) ) ) ^ ^ ) ) ) ) ) ) ^ ^ ) ) x t r t t t r r r t t t r e z q < + < z q.}.[.].{.4X4Xy.M.IXGX=X#X#X#X-X-X`.Y ;Xr.X %     o     o & * * & & & & & = * * * * * * * * * * * * * * * * * * * * ",
"U U U C C C V V C C C C C C C C F F F F Y T `.'.r.r.r.r.r.r.r.r.r.r.`.`.`.r.Y F e.T Y Y Y Y Y Y U U U U U U R C C C C V V N N N T T T U U U U U T U U U U T T T T T T T T T T Y Y Y U F F F Z V C C C C C C C C C N * * * V U T U U U U U U U U U J C C C C V V C C C C V V V V C V N V R T m.m.T T T T U U U U U T T U C C C C C C C V V V C C V V V V V V V V * * * & & = * * C C V V N N N V * * * * * * N N * E N N N N * * * * * * * * * * & & & & = = = = & & & * * * * * * * * * * = * & & & & & & & & & & & & & & & & & o o X X X X X X X o o X o           % % # e.;X[.{.*X|. X*X|.t.].-X[.K H H S Y y.y.e.S # O 9 K D c c ` ` ` ` ` ` ` ` ` ..o.5.o.o.o.3.4.6.6.4.4.4.4.4.4.4.6.7.9.g.g.g.C.L.L.L.L.L.L.L.L.L.L.L.C.h.h.C.U.g.9.W.I.j 3 h c c z 9 h z ` ` ` ` ` =.=.=.) ) ) _ ' ;.=._ ) ) ) ) ) ) ) ) ) ) ) ) ) ) ) ) ) ) x t r t t r r r r r r r r e z e < + < z q.}.[.m.|.-X<X#X6XIXPX6X-X6X6XGX7X].Y -X`.% & o           o X X o o o o o o o o o o - - - & - - - - & & & & & & & & ",
"T U U C V E * = * * * * * * * * 0 0 0 0 B F U T Y Y U F F F C C F F F F F F B B r.e.Y P F F F F V V C J U U C C N N N N V N V V C C C V N * * & & & & & & * * * L F F F F F B B B C C F F Z B N * * * * * * * * N * = & * N C U U U U U U U U U U R C N * * * = = = = = = = = = * & & * V F R C C V V V V N N N N V C V g * g V U C C C V C C C N N N E * * * * * * N N N N * * N E * & & & & & & & & & & * * * * * N N * * * & * * * * * * * * & & & & & & & & & & & & & & = = * = * & & & & & & & & - - X X X o o o o o o o o       o o o o o o     o       o     X o @ e.&Xt.].&X{.{.;X&X].|.5X-X[.q.Y t.m.t.].t.D # O 9 D c c c ` ` ` ` ` ` ` ` ` ..o.5.5.o.o.3.4.6.6.4.4.4.4.4.4.6.7.9.g.g.g.C.C.L.L.L.L.L.L.L.L.L.L.L.L.C.d.C.T.C.V.%XI.j , h ,.,.c h z v j j ^ ) ) ) _ ` _ ] ] _ ;.;.;.;.) ) ) ) ) ) ) ) ) ) ) ) ) ) ) ) ) ) x t r t r r r r r r r r r e z q < @ 7 A e.}.|.m.&X#X#X&X:XPXLX=X=X6X-X6X5X`.Y ;Xr.% = o     o                         o o o o o o o o o o o X X X X X X X X ",
"U U U U T U T U C C C C C C C C V B m 0 m B F F I F F F Z B B B F F F F G Y e.r.r.T Y G F F F F Y T `.'.}.}.'.'.).m.`.'.'.'.'.'.'.'.).T U C N * U J J C U U T T T T Y Y Y U I F 0 0 B C I I F Z C C F F F F C C 0 N V V V N 0 * C C C C C Z Z Z U C C C C J U U Z V Z V Z V Z V m * * N C F C V V V V N N N m m * N C C V V F Y J C C V V V V Z ).r.T T T Y U U C U U T T U U C C C N * & * * * * * E N N V V V * * * * * * & & * * * * * * * * = = = = = = = = X X X & & & & & & & & & & & & - & & & & - - - - o o o o o o o o       o o o o o o     o     o %     X o @ e.&Xt.].&X{.{.=X*X XoXm.M.t.K q.].].y.}.m.G + O 9 D v c ` ` ` ` ` ` ` ` ` ' ..3.3.3.3.3.4.4.4.4.4.4.4.4.4.4.4.7.g.g.g.g.h.C.L.L.C.L.L.L.L.L.L.L.L.C.C.a.C.E.L.V.W.b., > h ,.,.c x c ` ` ` ` ` _ _ _ _ ) _ _ ' ;.3.;.;.) ) ) ) ) ) ` ` ) ) ) ) ) ) ) ) ) ) x j t r r r r r r r r r r e z q < @ < B e.}.}.t.-X|.{.=X=XLXHX#X<XHX#X-X7XoXF oXT o = X     o o                 o o o o o o o o o o o o o o X X X X X X X X ",
"Y T ).).).`.).).).).).T Y Y P I F H P '.XX}.).).).).).Y P T '.oXoX}.}.}.`.r.`.oX`.).r.`.[.`.e.F Y T r.T Y Y T w.T Y Y Y T Y Y F T T e.).).r.T T ).r.T Y T e.).r.e.Y P Y e.r.).).B I T '.`.).OX).}.`.t.`.`.`.`.`.t.r.r.r.Y S B F U J J C Z Z Z Z J T T T T T T I T r.T F I I I Z Z F ).}.'.T Y T T Y I F I Y ).}.`.).e.T e.r.).).F I F F C V V C T T U F F F F C C C V V V V V V V C C Z N N C U C C C C C V N E * N N N N V E * N C U C V C Z N N Z C Z V N N N N E * = & - - & = & & - X - - & & - & = = - - - & - X X - & - X X & = = & X o o   o o o o X X X     % @   F &X].}.oX|.+X:X-XoXoXy.M.y.q.{.&X[.q.M.y.D < O < D D ` ` ` ` ` ' ' ' 3.3.3.3.3.3.3.3.4.4.7.7.7.7.7.7.g.g.7.4.7.7.g.g.g.g.g.h.h.h.C.C.d.s.s.f.f.f.B.h.s.a.h.B.A.P.V./ l a a c ` c j ` ` ) ) ) _ ' ' _ _ _ _ _ _ _ _ _ ^ ^ ) ` ' ` _ ) ) ) ) ) _ _ ) ) j j j j x j x j j j t j j j t e e q < O 7 B Y [.}.}.;X;Xm.M.6XLXHX=X@X*X=X#X;X4Xt.w.H = o   o o           o o o   o o o o X X X X o - - - - - - & - - = & - - - ",
"F F Z Z Z Z Z F m m m m m Z F F T F m F P P P T T ).'.'.).e.).).r.r.r.r.r.r.r.[.t.r.e.r.t.t.r.Y B F F F G G G G Y Y Y Y Y Y Y P Z Z F I I I I F ).).T Y Y T T T F F I T e.e.T T m I I T P I '.T q.G G e.e.q.G G G Y e.e.Y H H G Y Y U I J F F C I U C m m Z F F B B m 0 0 m m m F Z Z F F Z F P T T T Y P Y e.).Y P I I P Y T P I I U F F C C F F C B B V B 0 0 V V N N N N N N E N N m * E C T C V N N E E E N & * * = = * * = & E m E E N N E & & & & & = & = * * = = = = = * & & - X X X X X * & - - X X - &   o o o         X X o o     o X                 .   = = @ Y ].F &X-X&X|.*X+X].{.{.*X*X{.{.{.t.q.M.y.D < O w D *.` ` ` ` ' ' ' ' 3.3.3.3.3.3.3.3.4.7.7.j.j.j.j.j.g.7.7.7.7.7.g.g.h.h.h.h.h.C.C.D.f.s.f.f.f.f.f.f.D.h.G.C.A.I.V./ s a s `  ./ ^ ` _ ( / / ` ' _ ( _ ( _ _ _ ( _ _ ^ ) ` ' =.' ` _ ) ) ) ) ) ) ) ) j j j j j j j j j j j j j j j t t z < O 7 B Y [.[.`.}..XM.{.6XKX:X#X@X#X#X{.#X4Xy.K B = % X o   o                               o   o o o     o o     o - o     ",
"m m m m m B H F P P P T T T T T ).P m m M A F P e.).].].).e.P F F F F Y e.Y Y T G F F F G Y Y Y K G K Y e.r.e.T e.Y Y Y e.w.e.T P P Y Y Y P I F e.T I I I I I I F I I Y e.).e.T Z r.T e.T T }.`.P G q.e.e.e.Y G Y e.e.e.q.F A A F F F F C Z B N 0 m 0 & = m C F H F F F P P Y P Y H m m B H F P ).).).r.T I I I I I I I I F F F B B B B m 0 m B F F F F H B B 0 V V V N N N N N * * * & & & N C C V m * * * N N * * * & = m m * & * E & * E E E * * * * * * * * & & & % X X X o % & & % % X X X X o       o - & X - & & - o o X o o         o o % X o o o o o o . . # # % F T = t.[.t.t.{.|.{.*X#X*X{.M.[.{.m.y.].y.S < O 9 D *.` ` ` ' ' ' ' ' 3.3.3.3.3.3.3.3.4.7.7.7.j.j.j.7.7.7.4.4.7.7.g.g.c.h.h.h.C.D.D.D.h.h.f.f.f.f.f.f.U.C.G.C.g.V.9.s a a l  ...` ` ` ` _ ( _ ` ' _ ( ( ( ( ( ( ( ( ( ) ` ' =.;.=.' ' ) ) ) ) ) ) ) ) x x ) x ) ) j j j j j j j j j t t z < @ 7 B P '.}.).].[.y.m.=XHX@X@X+X*X+X{.|.<X].q.q @ % = = % & % X X X X X o o o o o o o o o X X - - - o X - & X X - & - X - ",
"Z I T T T Y T r.).).).'.'.).r.r.].t.q.P q.e.P P P e.e.e.q.q.e.e.e.r.e.).`.r.T Y G Y e.e.Y Y T r.K G F F F G G G F S F F G K G F e.e.e.Y I H m 0 Z m m m H F I P T Y I I T ).).T % P Z Z F B P H A A A F G G G H G G G G Y G B 7 0 m m N N 0 * = m C I F C U T r.F P q.r.).r.e.e.P F A F e.e.P H F P Y Y P F I F I I P I F Z B m B B B B m 0 m B B B q 0 0 0 0 0 * * * * * * * * 0 * 0 = & & = * * = & & & & = = * * = & & * = X % - X o o X X o % % - - - - X o % X X X X X o   o o o o o o     o X - - - - - X o X X X o   o o     o X X o .   o   . X % % % % = # = @ % F t.G G P A H _.+XoX-XHX*X2.-.{.&X[.y.].e.S # + 9 D D ` ` ` ' ' ' =.3.0.0.4.3.3.3.3.3.7.7.7.7.7.7.7.7.7.7.7.4.7.j.g.c.v.v.v.D.U.D.D.D.B.h.h.f.f.f.f.d.C.s.h.g.6.A.6.s 4 a / <.<...` ` ..' _ ' ' ' _ ( ( ( ( ( ( ( ( ( ' ' =.=.=.=.=.' _ _ _ _ _ _ _ ` ) x ) ) ) ) x x j j j j j j j j z z < O 7 B P '.`.r.`.].q.2.#X<X*X*X*X:X;X#X&X-X5X|.B O . % & % X o o o X X % X o o X X X o X o o o X - X o X % X o o X X X o o ",
"P Y Y F H H P e.e.G I Y e.e.r.`.XX X).e.t.t.e.P G P P e.e._. X|.H F G G Y G A q B F Y Y F B B A B B 0 7 # # 7 0 7 7 7 q g B q q B B H B m 0 = % 0 0 0 m F Y e.e.r.e.Y Y ).[.).F 0 ).Y F Y H B 7 G G G F G e.t.e.e.G A G t.].q.0 B B Z H Z B m m B F I Z m B I Y P G F P P F P i.e.P F G i.e.F 0 m B H F F G Y e.0 q B B m 0 0 0 0 0 0 0 7 = 7 7 7 = @ O @ @ @ @ X X % & & & % % X % % % X o     . o o % % & & & & & & & = = -   % X . o @ @ o . .       o . o .       o % % o           .       o X o     o o   % o     o X X X % - - % = % - o .   . % = % - % . @ O . @ q Y e.}.].q.G _. X X&XGX<XM.y.#X*X[.y.].e.A + + 9 -.*.` ` ` ' ' <.3.3.0.0.3.3.3.;.;.3.7.7.7.7.7.7.7.7.7.7.7.7.7.g.c.c.L.v.v.U.D.D.G.D.B.B.h.f.f.f.f.s.s.a.f.g.6.V.9.s , s  .<.<.....` ..' ' ' ....' ` ( ( ( ( ( ( ( ( ' =.=.=.=.=.' ' ` ` ` ` ` ` ` ` ) ` ` ) ) x x x x j j j j j j j z z < O 7 A Y [.T T ].}.q.q.*XHX:X*X#X*X;X&X#X.X7X&XF % . . o o         . o       o - % % % X X @ % % % o   o %   o X X . o . o ",
"r.e.P B m F [.-X6X&X}.}.}.}.oX3XoX Xe.P P e.t.e. X|.oXoXXX].t.q.H G T T e.e.e.Y e.t.`.`.e.Y G G e.e.Y F B g B B 0 q B F G G F A F G Y e.e.e.e.Y H A H G e.e.t.t.r.`.[.}.oX;X[.G Y 3X|.}.4X-XoX].;X-X&X|.&X3X6X4X6X-X|.oX3X6X&XY e.r.r.r.r.r.T T F Y I B 0 F `.oX4X;X|. X X].XX-X|.).i.F P e.e.G  X}.[.`.r.e.Y Y F P e.e.Y Y e.e.e.e.e.q.Y G G G q.G H B q q q q 0 m Z F F C V N m V F I F Z N m 0 N V F I U U U U Y Y T r.r.U 0 `.Y F e.`.].t.w.r.r.T r.m.].].`.`.).T r.`.r.I N V Z Z Z C Z Z B B B m = m U `.'.}.'.).r.).'.'.`.Y F m m Z I Y Y r.T e.r.T B 0 q q F F F F A F e.3X3X|.]. X|.oX4X:X#X{.@X;X|.m.m.].e.z # + z -.*.` ` ` ' ' <.3.3.3.3.3.3.3.3.3.4.7.7.7.7.7.7.7.7.7.7.7.7.7.g.c.c.L.U.U.D.D.D.D.D.f.f.f.f.f.f.f.f.s.a.f.g.g.I.K./ 4 l <.1.<.<.<.' <...' ..o.3.o.' _ _ _ _ ( ( _ _ =.=.' ' ' ' ` ' _ _ _ _ _ _ _ ` ` ` ` ` ) ) x x x j j j j j j j z z < O 7 A T }.).).oXoXq.G +X6X@X{.y.y.t.t.y.q.[.`.w.F B B S F U U J F C V N m V C F I U U U P w.e.r.y.G F F T F e.].`.w.e.w.y.",
"[.[.].e.q.t.-XGXGX5X4X6X4X&XoX;X X_.q.G q. XoXoX4X4X4X4X;X].i.A &X4X6X3X-X4X6X6X6X5X5X6X4X-X-X;XoXoXoXoX|.[.t.e.e.e.`.}.oXoX}.].&X;X-X,X4X3X-X-X X].t.t.t.e.q.G t.}.oX|.&X-X&X].t.6X}.].7XGX5X3X3X4X-X&X;X4X4X-XHX5X3X-X4X5X;Xt.`.`.`.`.`.`.`.`.[.|.}.r.e.}.3XGXHX5X4X5X4X-X-X2X|. Xy.i.t.|.*X&X6X6X6X-X|.t.q.G -X3X4X4X-X-X4X5X6X5X5X6X4X-X-X-X&X&X|.|.[.].t.t.r.`.}.OX;XoX}.`.3X6X5X5X5X6X3X-X}.}.[.`.`.`.).).}.XXXXoX-X3X;X].7X-X&X4XGXGX6X,X5X4X3X3X6X7X5X5XGX7X7X7X7X5X;X}.}.}.[.[.[.}.}.}.oXoX}.r.'.3XGXUX3X6X5X6X2X;X;X2X`.r.e.r.].OX;X-X7X6X3X3XoXr.e.).4X6X3X4X6X|.t.[.-X5X6X&X|.|.3XLX=XM.y.M.&X.X].].[.q.z + + z 2.*.` ` _ ' ;.3.3.0.3.3.3.3.:.:.:.:.7.7.7.7.4.4.4.4.7.4.4.7.7.g.c.c.L.U.U.C.C.C.C.C.f.f.f.f.f.f.h.h.s.a.f.g.g.I.K./ 4 / 1.1.....<.' ..' ' ' 3.5.3.o.` _ _ _ ` ` ` ` =.=.' ` ` ` ` ` _ _ _ _ _ _ _ ` ` ` ` ` ` ) x x ) ) j j j j j j h z < O 7 F e.}.r.r.}.}.q.G {.-X{.M.y.-.-.i.q.G y.]..X|.].}.;X3X6X3X3X2X;XOXoX}.}.}.`.`.`.`.}.oXoX;X-X-X&XoX;X4X.X5XGXGX4X,X4X6X",
"t.].].e.F A q.`.e.q.t.oX|.q.B g e.r.e.e. X2X5X6X2X2X2X2X-XoX_.e.-X5X5X4X;X-X4X6X-X-X;X;X&XoX|.|.}.|.oX;X;XoX_.q.].}.&X3X6X4X-X&X6X5X5X5X5X6X,X-X2X-X|.].t.G A q e.].].e.e.}.&XoX;XGXoX].5XGX6X-X[.|.}.t.t.[.].e.e.t.e.e.t.|.[.e.).r.r.r.r.r.r.t.t.}.[.T A F r.`.y.e._.&XoXr.H M e.r.y.t.|.4XHX5X&X-X,X-X&X[.e.Y 6X5X5X4X;X;X-X4X-X-X-X;X&X|.|.|.&X&X;X&X|.[.t.q.}.oX-X6X6X3X;XoX7X7X7X5X6X3X-X;X2X;X}.).T F F H `.`.`.`.oX;X&X}.7X;X#X,XHX7X-X.X;X|.].M.[.[.M.t.r.r.r.`.}.}.r.F `.`.`.`.`.`.`.].[.[.r.F H T r.r.r.}.oX}.e.F F Y e.e.t.}.;X6X4X3X4X;X;X;X|.r._.oX6X3X|.&X-Xm.H e.&X7XGX2X}.].4XPXLX*XD 2.&X;X[.t.[.q.z + + z 2.*.` ` _ ' ;.3.0.0.3.3.3.3.:.:.4.4.j.7.7.4.:.:.4.4.4.:.:.:.7.g.c.c.L.v.v.h.h.C.h.h.s.f.f.f.f.f.C.C.s.a.d.g.6.V.b./ 5  .5.1.....<.' ..' ' ..3.3.3.3.` ` ` ` ' ` ` ` =.=.' ` ` ` ` ` ` ` ` ` ` ` ` ` ` ` ` ` ` ) x ) ) ) j j j j j j h z < O 7 S e.}.B 0 G r.q.y.*X6X*X&X|.t.y.t.[.{.;X4X7X4XoXoX4XGX5X5X6X6X6X3X2X-X}.`.T F F Y t.].t.[..X&X#X&X<X7Xm.,XHX7X;X#X;X-X",
"[.t.G A H G G S 7 q e.<Xt.G ].].&X&X*X-X-X;X+X X X+X+X+X;X2X&Xy.-X6X-X#X&X&X;X4X,X;X|.|.|.|.{.[.}.oX}.}.-X&Xt.q.;X&X&XoXoXoX&X&X&X<X6X-X;X-X-X&Xm.&X;X6XHX}.D y.&X;X;X#X|.|.&X-X;X4X[.4X7X|.&X&X5X7X&X-XLXGX[.`. X|.&X}.e.F H G `.].}.].t.e.t.`.`.t.Y A A F G A w M  X6XH -._.|.&X=X:X:X*X>X+X+X|.{.#X.X4X4Xm.].-X-X4X,X-X;X-X<X&X#X{.{.{.M.[.{.|.{.{.*X-Xt.q.}.3XoXoXoX}.oX&X|.;X-X3X4X4X-X&X|.].3X3X-X;Xe.P oX;XoX|.}.oXOX&XoX-X[.+XGX4XM.=X&X6X6X{.HXLX|.y.M.}.}.].t.P F F G t.].|.|.[.`.`.`.`.r.A q G K B B q Y &Xm.F [.oXoX&X3X4X;X;X-X;X|.|.&X-X;X4XoXq.-X-X;X-X-X}.q.e.|.t.t.;X4X|.t.|.3XLX:Xy.{.<X.Xt.|.[.e.z < < z -.*.*.' ;.3.3.3.;.;.[ ;.;.4.7.7.7.7.7.7.7.4.4.4.4.7.:.:.4.7.7.7.j.j.h.h.h.h.h.h.C.C.G.D.D.C.h.h.s.s.s.s.a.O.7.V.b.5.> s  .1... ...<.0.0.3.5.3.o.....' ' ' ....o.3.3.3.3.3.=.=.` ` ` _ ` ` ' =.=.=.<.<.<.*.*.` ` ` ` j j j j j j j j e z 9 $ < A e.`.F Z H Y q.y.+X6X&X X4X{.q.;X4X&X|.oX-X&X`..X,X;X4X3X-X,X&X}.|.-X6X3XoXr.G }.;X`.[.[.#X-X:X#X+X#X-XGX:X[.#X-X<XGX",
"y.q.G G y.{.#X#Xt.|.&X;XH G -X4X4X2X-X-X;X&XoX{.*X-X;X&X:X4X&Xy.;X5X7X6X6X,X;X<X4X;X&X-X-X#X{.{.}.oX}.|.;X|.e.P -X-X;X&XoXoX&X&X-X<X-X;X-X6X,X|.|.-X4X7XHX{.G t.}.{.[.[.|.&X-X-Xt.;X#XGXLX-X;X&XoX&Xe.t.6X4X|.-X&X}.].|.&X|.e.A A Y e.e.e.Y Y Y F F F G t.oX-X3X_.{.*X*Xw y.2X5X2X2X:X=X&X+X{.{.;X&X;X&X<X<Xm.[.5X5X5X6X<X-X-X-X*X*X;X-X&X|.{.{.|.{.{.*X;Xy.G [.4X&X;X&X}.|.;XoX3X-X-X3X6X4X;X|.}.6XGX7X3Xr.Y &X&X|.|.oX;X3X4X4X-X&X-XGX,X{.-X+X{.#Xq.=XHX+X+X=X}.}.oXoX}.t.G A G Y q.Y G G q.e.e.e.Y w.|.oX[.}.}.OX3XY q oX5X6X-X4X-X;XoX&XoX|.&X;X-X;X4XoXq.;XHX6X4X-X}.G G t.t.Y G `.}.`.[.-XKX=X2.M.,X.Xt.].}.e.z < < z -.*.*.' ;.3.3.3.;.[ ;.;.;.4.7.7.7.7.7.4.4.:.:.4.:.4.:.4.4.7.7.7.7.j.h.h.h.h.h.h.h.C.D.C.B.B.h.f.s.s.D.D.h.d.g.V.9...> a  .<.<...<.<.5.3.3.3.o.....' ..' ' ....o.3.3.3.3.3.=.*.` ` _ ` ` ` ' =.=.;.<.<.<.*.*.` ` ` ` j j j j j j j j h x 9 $ 7 A e.`.F F F Y q.y.{.4X}.{.-Xt.G &X-X|.#X|.oX.X}.;X3X;X;X3X6X4X&X].oX3XGX6X;Xt.e.&X4X|.&X#X;X,X:X=X*X-X<XGX6X+X-X=X{.&X",
"M.].[.|.&X<X<X-X4XGXHX;X9 D 4X6X2X-X&X+X&X&X&X*X-X:X=X&X-X2X+Xq.#X6X5X4X<X=X#X=X-X#X*X6X6X#X{.|.}.&X|.|.;X Xi.G ;X-X;X;XoX&X;X-X5X4X;X#X4XGX5X{.&X,X6X5X6XM.D t.-X&X|.|.&X-X;X&X&X-X{.;X<X|.<XGX;X-X].t.oX}.t.;X&X}.`.|.-X3X}.q.t.].[.[.].].].[.|.oX&XoX&X-X;X&X5XHXHX*X< t.6X5X4X:X*X&X*X*X*X*X*X;X-X#X;X-Xt.M.5X6X4X-X-X;X;X&X#X;X<X4X-X#X{.{.|.|.|.*X*Xq.D t.-X&X;X;X}.&X4X-X5X3X;X3X5XHX2X|.}.5XGX7X&XG Y &X;X&X|.|.&X&X;X;X[.+X*X5X<X:XGX6X+X*Xt.{.*X].{.&X[.}.}.&X-X&X_.Y |.|.}.[.].[.}.&Xe.[.{.&X6X6X<X6X5XHX7XG 7 &X5X,X-X;X&X&X&X&X;X-X;X;X;X|.-X{.G }.5X-X&X&X}.e.e.].t.e.A Y }.r.m.5XLX=X2.M.,X#Xy.t.}.e.z < < z -.,.=.3.3.3.3.3.;.;.;.;.:.4.7.7.7.7.7.4.4.:.:.:.:.:.4.4.7.7.7.7.7.a.g.g.h.h.h.f.h.C.h.h.h.h.h.f.f.f.U.U.G.B.V.A.5./ > a  .<.<...<.<...o.o.' ' ' ' ' ........3.3.3.3.3.3.;.=.' ` ` ` ` ` ` ' =.=.;.<.<.<.*.*.` ` ` ` x x x x j j x x k c 9 $ w S T `.I F F Y e.e. X=X{.|.;XG m |.;X[.;X|.|.&X*X6X7X,X|.4XGX7X-X|.-X5XGX3X}.e.e.&X4X|.|.{.{.+X+X+X&X*X-XHX:X{.4X4X+X+X",
"|.;X4X5X5X6X-X#X4XGXGXHXq.q.<X:X4X-X&X+XoX&X*X*X&X&X+X{.&X;X XG =X4X=X.X#X.X{.&X#X[.|.<X4X.X[.#X|.;X&X&X;X].G G &X|.|.|.|.&X;X-X5X6X-X&X5XLXGX&X;X-X,X6X;Xt.G t.&X#X}.{.{.}.{.[.#X-X;X<X-X[.{.4X4X4X;XoXoXe.G ].}.}.[.}.}.|.&X;X4X-X&XoXoX&X&X;X}.;X6X5X5X5X4X;XHXHXGXHXH  X:X:X6X:X&X&X;X=X=X&X&X&X;X[.#X&Xq.t.4X-X&X&X&X&X&X|.{.#X=X<X=X#X{.{.+X#X#X;X#Xq.z t.&X}.}.|.}.;X6X4XGX6X;X4XGXGX5X&X;X5X5X-Xt.G e.;X&X|.}.[.[.[.}.}.6X5X:X6X*X{.-X=X4X4X+X Xt.y.t. X{.].t.[.&X-X;X|.-X;X&X|.}.}.|.|.#X<X<X<X6X<X-X<X5XHXGX[.G ;X4X-X<X&X|.;X-X&X;X4X&X&XoX[.;X{.G [.;X X]. X{.t.t. Xe.|.].}.oXK e.KXPX5XM.M.-X&Xt.t.|.y.z < < z 2.2.<.3.3.3.3.3.;.;.:.4.4.4.7.7.7.7.4.4.4.:.:.;.:.:.7.7.7.7.7.7.7.7.j.j.j.s.h.f.h.C.h.h.B.h.C.C.C.C.D.U.D.B.A.A.o.s , s  .1... .' <.` ' ' ' ' ' ' ' 3.3...o.o.3.3.5.3.3.;.=.=.` ` ` ' ' ' =.=.;.;.<.<.<.<.*.` ` ` ` x x x x ) ) ) x k c 2 $ w S Y `.I F F Y e.q._.|.|.;X-XH q oX&X].;X{.|.*X=X6X7X<X|.5XLXGX4X-X4X7X5X+Xt.e.q.}.-X+X{.{.{.{.oX&X*X*X*X6X|.t.2X5X;X*X",
"&X-X5X5X5X6X4X-X4X6X5XLX*X{.6X4X5X4X:X=X*X*X+X+X+X+X{.].+X=X{.i.4X6X#X{.*X=X#X=X{.M.M.=X=X#X{.*X&X;X&X*X;X_.G i.;XoX X X+X&X;X*X5X5X6X4XHXLXGX6X4X;X-X4X;Xt.t.{.&X*X-X-X;X;X;X-X-X*X*X&X|.t.].5X-X&X}.|.|.t.e.].t.[.}.}.[.}.&X3X;X.X[.[.|..X}.].|.-X6X5X5X5X6X,X5X6XHXLX{.+X:X:X6X:X&X+X*X&X+X].&X&X;X].&X-Xt.t.6X:X-X*X-X-X*X&X[.{.#X&X&X#X.X#X#X#X#X;X#XD z M.&X].].{.{.&X-X&XGX6X-X6XGXLXHX-X:X:X4X-X[.t.{.+X-X-X-X;X-X-X:X4X6X:X{.&X|.i.{.6X=X&X&X{.t._.]. X{.M.t.].|.*X-X-X{.{.|.|.|.{.{.[.4XHX6X,X-X*X#X<XHX6XGX<X|.,X4X6X4X&X#X-X-X#X|.&X#X#X|.].;X&XK ].2X+X]. X].t.e.t.Y oX&X-X;XF S 5XPXKX{.M.;X;X[.M.|.y.z < < z 2.2.3.3.3.3.3.3.;.;.7.7.7.:.:.:.:.:.4.4.4.:.:.:.:.:.7.7.7.7.7.7.7.7.j.j.j.d.s.f.h.B.B.C.C.D.D.G.G.G.h.D.C.h.A.A.o.s 4 l <.1...` ` ' ` ` ` ' ' ' ' ' 3.3.3.5.3.5.5.5.3.3.3.=.=.=.=.=.=.=.=.=.=.=.=.<.<.<.<.*.*.` ` ` ) ) ) ) ) ) ) x h k 3 + w S Y r.I Z F Y q.P e._.oX-X&XA F ;X&X}.{.]..X=X&X,X6X4X-XHXLXGX6X-X:X4X4X|.[.[.M.#X:X-X-X-X=X-X:X2X2X=X+X-X_.y.:X5X+X X",
"-X4X4X-X;X-X:X6XGX5X4XGX&X].-X-X-X*X&X+X*X*X*X&X*X*X+X{.*X4X*Xy.*X,X=X#X,X=X#X#X#X{.{.#X=X=X*X;X&X*X&X*X*Xt.G q.5X-XoXoX*X-X-X;X:X6X5XHXGXGXGXGX4X|.-X5X*X}.{.{.-X4X6X4X*X&X&X*X*X].t.H G q.t.GX4X}.t.[.}.`.].oX].].].|.;X-X&X}.[.[.{.&X-X;X|.m.6X7X5X-X&X&X;X-XGX6XHXGX].{.*X-X*X+X+X+X&X*X&X+X*X*X*X{.-X6X].t.6X4X-X-X-X*X&X+X#X{.{.#X=X=X#X#X#X#X#X=X{.D D {.<X+X+X&X#X-X<X&XHX6X4XHXKXLXGX5X&X&X4X6X&X+X+Xt.:X:X:X=X&X&X&X*Xt.y.M t.{.i.&XLXoXt.+X{.t.{. X{.{.{.{.+X#X&X#X+X|.+X&X;X:X:X;X&X,X5X<X=X=X#X=XHXKX5XGX<X{.#X*X<X&X|.|.&X;X;X&X;X&X&X#X[.<X,Xq.].:XoX X{. Xt.t.].e.t.m.oX;Xw.B `.PXKX#Xy.#X&X{.[.|.y.z < < z q.0.0.3.4.4.3.3.;.;.7.7.7.:.:.:.:.:.7.7.7.7.7.4.:.:.7.7.7.7.7.7.7.7.j.j.j.d.h.h.C.C.D.D.D.D.G.G.U.U.C.D.C.g.g.9.o./ 5 / 1.1.<.` ` ' ..o.......' ' ' 3.3.5.5.5.5.3.3.3.3.3.3.3.3.3.3.=.;.=.=.=.=.=.<.<.<.<.*.*.` ` ` ` ` ) ` ) ) ) c 5 a : + w S T r.F Z F T e.P i.y.XX&X XA e.3X;X;X|.{.=X<X;X=X6XHX5XGXLXGX5X;X#X&X5X&X|.#X|.#X:X-X*X*X&X|.+XoX Xt.i.].q.y.4X5X{.y.",
"-X4X4X;X{.|.*X:XGXHX2X5Xt.].6X6X=X*X+X+X+X&X*X*X=X=X+X+X=X4X*Xy.M.*X=X=X:X*X{.#X=X=X#X#X=X<X:X#X+XoX+X&X&Xy.G y.4X-XoXoX&X-X-X-X&X-X5XGXGXGXGXGX-X+X6XGX6X&X&X|.&X&X|.{.t.q.G G G H t.y.t.t.G ;XHX}.t.}.[.`.[.|.}.].].|.-X-X|.t.|.#X&X-X-X-X&X|.#X;X-X&X.X;X6XHXGX6X2X6Xq.+X6X4X-X*X+X+X&X*X-X-X;X*X&X{.-X5X].q.;X-X-X-X*X&XoX+X=X#X{.#X,X<X=X#X#X#X#X#X{.D D #X:X+X*X-X*X:X4X=X:X4X5XHXGXGXGXHX{.#XHXGX-X*X*X].#X#X+X].y.i.i.i._.|.i.y.t.A t.5X;Xi.|.|.t. X_.].{.{.{.+X+X{.{.].{.{.{.+X&X&X+X+X#X<X:X*X*X*X=XHXGX6XHX#XM.=X:X<X;X;X.X|.&X,X,X-X;X;X#X[.<X<Xq.y.oX X X{. X_.].|.].Y G ].OX}.m.`.LXHX{.2.[..X[.[.#Xy.z < + z 2.2.0.3.4.4.4.4.;.;.7.7.7.:.:.:.:.:.7.7.7.7.7.7.7.7.7.7.7.7.7.7.7.7.a.j.j.s.h.h.C.D.D.D.D.D.G.G.G.G.h.h.d.O.o.o.( s 4 l 1.5.1. .' <.5.5.5.3.3.5.3.3.3.3.3.5.5.3.3.3.0.0.0.0.0.0.0.0.3.3.3.=.=.=.;.<.<.<.<.*.*.*.` ` ` ` ` ` ` ` ` ` 5 i : + w S e.r.I Z I e.r.e.i.r.&XXX).M `.-X}.&X#X.X,X6X=X;X6X7XGXGXGXGXHX:X*X*XLX:X&X*X+X+X*X&X{. Xt.q.q.t.y.G A t.i.q.2X5X|.t.",
"M.#X-X-X&X&X;X,X-X6X:X<Xt.-XPXLXGXHX4X-X*X+X+X+X=X*X+X{.&X:X+Xq.t.=X4X-X=X#X#X<X-X<X;X#X=X6X:X{.|.|.}.|.|.q.H t.|.[._._.}.&X-X-X|.&X4XGXGXGXGXGX:X;XGXPXGX:X-X&X*X&X|.|.|. Xt.e.{.q.t.q.y.t.q.4X5X`.e.|. X_.`.`.|.|. X X}.}. X].&X#X|.[.M.M.{..X{.;X<X-X;X;X-X<X4X:X=X=Xy.HXPXLXGXHX6X=X+X+X&X*X*X&X+X_.-X5Xt.A }.&X-X:X-X;X;X-X<X#X{.#X4X<X*X{.|..X|..XM.z D &X[.t.{.#X|.*X:X*X&X:X5XGXGXGXGXGX-X4XLXLX:X=X6X:X*X*X*X+X{.t.u. Xi.&Xr.q._.q.|.4X2XG |.oX_.|.].|.[.].].].].].].{.-X&X{.{.{.{.{.{.{.=X=X#X*X#X#X6X<X=X<X@X@XGXLXKXGXGX4X.X.X-X;X|.&X&X|.].,X-XD G |. X X X].t._. XoXe.e.}.oXOX3X3X5X,Xt.G t.{.].[.#Xy.z < ; h 2.2.0.0.4.4.4.3.3.3.4.4.4.4.:.:.7.4.7.7.7.7.7.7.4.7.j.7.7.7.7.7.7.4.a.j.j.d.f.C.C.D.C.C.C.C.C.C.C.C.h.d.O.] ] / s > , j ..5.1.<.<.3.9.9.9.6.6.5.0.3.3.o.3.5.3.3.3.0.4.0.7.0.0.0.4.0.3.3.;.3.;.=.;.=.<.<.<.*.*.*.` ` ` ` ` ` ) ` ) ` 5 5 : + 9 G r.`.I F I ).).e.e.r.2XoXe.B ].&Xt.[.|.[.#X,X#X.X=X,XGXHXGXKXGX6X<X6XPXHX-X-X#X+X#X#X&X|._.q.t. X X_._.oXy.i.&X2X].y.",
"&X<X<X4X7X6X<X7XGXPXPX<Xy.4XIXIXGXLXLXGXHX6X4X:X=X-X-X=X#X{.y.q.H G q.t.t.t.t.t.t.t.t.t.t.t.[.|.;X|.].t.e.w.r.m.GXGX;X`..X.XoX5XHXGXHXHXLXPXPXPXLXLXPXLX[.4XLX5X;X].e.&X5X&Xt._._.t.t.t.].].t.t.;XXX]._.]. X X]. X XoX-X-XXX).).t.;X;X|.&X-X;X-X-X-X-X5XGX5X-X5XGXPXLX@Xt.KXIXIXGXKXLXKXHX<X:X:X4X4X2X-XoX].q.G G q.t.t.e.e.t._.t.t.m.t.t.t.].{.|.{.t.t.t.G q.-XGX4X.X}..X&X4XHXGX5X5XLXPXPXPXPXGXPXPX:X-XLXLX*X:Xy.q.-X5X Xy.{.[.t.t.].[.t.t.}.|.}. X[.[.[. X}.t.t.+X-X*X{.t.].]. X+X&X*X*X=X:X#X;X=X<XHX4X<XHXLXPXLX{.M.PXIXIXHXKXLXHX6X4X,X&X<X,X-X&X{.t.-.D G i.P G F H F H P G P P e._.].].6X2X|.t.e.t.t.M.M.2.D 3 + e 8.8.8.5.8.5.0.3.3.o.4.3.3.o.3.O.4.4.4.3.[ ' [ ;.;.:.7.7.7.7.g.g.g.j.d.d.d.g.g.g.g.g.B.B.B.C.T.T.C.C.L.j.:.' ^ 5 , , l  .1.1.8.1.<.5.5.6.7.9.g.9.g.9.9.6.6.3.o.o.o.o.o.o.o.o.[ ' ' ' o.3.;.3.3.0.3.3.3.3.3.<.<.<.<.<.3.*.` ` ` ` ` ) 5 h : + 9 S K `.F I T ).).).).].t.t.q.S [.KXGXq.|.*X,X,X<XHXHXHXHXPXIXPXLXLXPXPX:X,X6XHX5X+Xy.-.4X:X&X_.t.].].e._.].e.e.}.oX]._.",
"y.t.y.[.<X<X&X#XHXLXLX#Xz K *X6X4X6X6X,X;X=X&X{.[.[.[.[.M.y.q.K A A H F G G G G q.e.e.q.P P e.t.t.r.w.e.Y K F F LXLX7X;X3X;XoX3X-X-X*X*X5XGXGX4X<X+X&X+X].4XHXt.;X Xt.|.-X].P t.t.t.e.t.t.t.t.e.&XXX).).).).).).].). X&X;X}.).).q.t.y.[.6X6X|.y.M.t.y.#X5X6X;X-XLXPXLX{.v M.,X=X<X<X<X,X=X#X+X|.|.|. X].).e.P G F F F G P q.i.q.t.y.y.y.q.q.y.t.t.t.q.q.q.S S m.LX7X,X;X&XoX&X-X4X;X&X-XGXGXGX6X&X:X*X].+X6X2X].-Xt.y.&X*Xt.q.t.t.e.e.].].t.t.[.}.}.].].`.`.`.`. X]. X&X#X].e.q.t.i.y.&XHX5X*Xt.w.w.w.{.4X<X*X,XLXPXGX2.9 {.6X#X,X4X4X=X&X*X#X[.{.[.[.M.t.q.G D H F H A A A A B P P G P P Y q.Y [.`.).t.t.e.q.D y.D e : + h 8.0.8.5.6.5.3.3.3.3.6.4.4.4.4.7.7.7.;.3.4.7.7.7.4.4.g.g.g.g.g.g.g.j.g.g.g.g.g.d.d.d.B.B.g.B.C.C.Z.B.L.7.3.;.` a 5 a k b 1.1.2.1.3.3.6.6.7.9.9.9.g.g.9.6.7.6.6.6.6.6.4.+.o.o.o.[ o.[ 3.[ ;.3.3.3.3.;.3.<.<.=.=.=.=.=.3.<.' ' ' ' ` ^ j x w ; 9 S G `.Y T r.).e.T ).).m.t.q.D M.KXLX6X{.#X#X#X#X=X=X#X*XHXKXHX*X#X=X=XM.#X=X*X*X*X{.y.&X{._.y.t.t.t.e.].}.t.e.}.|.].].",
"{.t.D q.&X.XK z w.M.{.y.g z w.m.M.m.q.G G Y K S q.K K K G K G G q.Y P G G Y e.r.q.e.q.Y G F G P F K Y e.w.K S B r.].r.e.r.w.G w.M.M.y.y.[.#X{.y.t.G z D M.&X].A [.].r.)._.G H _.q.q.q.q.e.e.q.P oX X).).)._.).).).).). XXX X].].].e.A G |.#Xt.e.[.e.G t.&X}.G D G t.M.D 9 q.M.y.M.y.q.K -.K D S q.Y P P P P P P Y F H F P e.q.P q.q.q.G G G G G G q.q.e.t.H q G |.`.t.t.t.e.e.y.}.t.q.t.{.+X{.t.t.G H i.t.].t.i.{.t.t._.t.G G t.e.P Y ).).e.e.t.[.[.`.).t.t.r.e.t.e.t.].|.}.t.t.{.H w q.+X+Xt.q.m.w.K m.&X[.D S y.m.y.z < q.{.t.t.t.q.S G K G z K K K K q.K K K G P P P P F F F P P G F F F G F T e.).`.[.[.M.y.y.v w + ; c M.8.8.8.4.4.4.4.4.4.4.4.7.7.7.j.j.j.4.4.7.7.7.7.j.g.j.j.j.j.j.j.j.j.h.h.h.s.s.d.a.a.h.h.s.s.h.h.h.h.L.g.4.3.' j h l k b ,.1.<.3.8.0.6.6.7.7.9.6.6.6.6.6.7.7.6.9.g.g.6.6.6.o.o.o.3.3.3.o.3.3.3.3.;.=.<.=.*.' ' ' *.*.<.<.=.<.<.' ) j ` *.e : 9 S G t.e.e.r.e.T Y e.`.q.K G z z m.*X{.m.m.t.y.y.m.y.q.q.{.#XM.q.-.G D -.M.{.2.y.{.|.t.t.i.G q.y.e.q.y.e.].r.Y ).].`.}.",
"GX6X&X.X-X#Xq.S t.w.m.[.].M.[.[.[.`.e.K K K q.K G S S S S S G K r.e.e.T Y T e.r.Y Y Y G F F F F F Y t.m.m.m.w.G 0 B S F Y K F G q.q.G D q.t.t.q.t.].q.q.[.t.D G P e.e.P G q A _.P G P P P P P G `.).).t.)._.).).).e.).). X X X[.}.[.y.t.[.t.].-X5X-X[.}.;X].G G q.t.[.M.t.{.#X[.[.m.y.q.K K q.q.G F A B H F P Y Y P F I Y T e.Y G G G H H H H H G t.t.t.[.t.G G F S F G Y Y G G t.K H D q.t.y.q.].i.G e.t.e.G G i.e.y.G A M G y.P F P e.e.P G P ).).t.t.t.t.t.t.e.q.q.t.[.}.{.[.&Xt.y.].{._.{.:X6X,X.X.X;XM.D S q.q.M.M.t.M.{.t.[.m.w.K G K Y K A S S S G K Y Y Y Y T T Y Y Y Y P F I I P Y Y Y XX}.].].[.|..X#Xu.D 2 + ; ,.M.<.8.4.4.4.4.4.4.4.:.:.:.:.4.7.a.a.7.7.:.[ [ :.j.c.j.j.j.j.j.h.h.h.h.h.f.j.f.f.s.f.l.l.h.h.l.D.U.U.P.c.0.3. .j h k k  .,.1.<.3.0.9.6.6.7.7.6.6.7.7.7.7.7.7.9.g.V.V.6.6.6.6.6.3.3.3.3.o.3.3.3.;.=.' <.*.*.*.*.*.<.<.*.*.*.<.<.` ^ r ` ,.h : 9 S G e.T T T T Y Y ).}.|.{.|.M.G K q.D q.K D S G K G S S q.y.y.y.y.y.G y.M.t.D D q.y.i.i.M M i.r.i.P e.G r.T F e.r.).}.",
"}..X[.t.].y.q.t.-X|.}.&X&X|.|.}.}.[.`.r.e.T t.}.F S A B B S F F F F I F I F F Z I F F F F F F A Y t.`.m.[.[.[.r.m.r.m.m.w.w.w.K K K G G q.m.[.[.M.;X|.M.}.y.G }.P ).).P F m A ).P G P P P P P F P P q.e.r.t.)._._.t.t.e.).).).e.G e._.|.|.t.t.;X X[.y.y.t.G G ].-X&X&X.X}.|.}.`.].].].r.q.q.t.[.F F B B B H F I Z F F F H H F P G H H H G G G G q.]._.].|.}.t.t.r.w.w.w.q.q.K G q.G D G y.t.M.t.}.}.[.m.t.t.t.t.G t.t.G q A G q.P F P Y Y F H H Y Y Y e.r.r.r.t.t.m.t.t.e.e.e.e.i.i.t.oX|.t.].*Xm.m.r.w.r.G G m.|.[.&X-X+X{.{.t.[.[.`.r.Y T m.'.B B B B A S F L F F P P Y Y P I P I P Y Y T e.e.2X&X}.`.t.M.[.[.y.c 3 + : 2.M.<.8.4.7.4.4.4.4.4.:.:.:.:.:.a.a.7.:.:.7.7.:.:.j.c.j.j.j.j.j.h.c.v.j.s.j.j.f.l.l.z.U.z.l.z.U.Y.Y.U.P.b.0.<.` h i h k b ,.<.<.3.8.7.4.4.6.6.6.6.6.6.4.3.4.6.6.7.9.V.6.6.6.6.6.6.5.3.3.o.=.' ' ' ` ` <.<.*.*.<.<.<.<.` ` ' ' ' ` j 6 j ,.h ; 9 A D Y T T T Y P Y ).|.-X;X-X-X|.[.[.y.e.K G G G G K K G q.t.M.}.|.}.].{.M.t.y.e.K q.e.e.H M q.).P P e.P r.T H P T T `.",
"# g A q 0 7 B t.;X].t.].].[.[.`.e.r.r.r.Y Y r.}.S S B B B B B B Z F I Y Y I F Z P I I I Y Y I F Y m.`.m.m.}.}.m.[.r.m.m.Y w.m.Y G q.q.y.t.[.|.&Xt.|.M.y.|.[.t.&Xt.XX].e.e.P F T P P F P P P P F A H P Y q.e.e.e.].].t.e.q.q.P G e.t.i.P e.G H q.7 q q q q 7 q `.}.r.e.m.`.`.].].e.e.t.w.Y Y t.}.F F B B B Z Z Z B F I P F F F Y G G H G G G G G q.].].t.|.oX[.].m.m.m.w.y.t.y.q.G G q.t.].{.{.|.].|.|.].t.[.|.}.t.].[.e.G G G G G P P P F H B B H F I Y Y e.e.e.t.`.].t.q.G q.q.y.G G i.i.G H G # 0 0 8 0 = g ].|.t.t.[._.[.|. Xe.r.m.r.Y Y m.}.B B B B B B B B F F I P Y Y Y U Y Y Y Y Y Y Y P }.[.[.[.[.[.M.m.z 9 : O : 8.@X8.0.6.4.4.4.0.3.3.4.4.7.7.7.7.7.4.' 4.c.P.c.g.7.7.j.j.j.j.c.c.v.v.h.h.h.h.l.l.U.Y.U.U.v.U.U.U.U.h.K.8.<.,.c a p i k b ,.<.3.0.7.g.4.6.6.6.6.6.3.5.4.5.3.3.4.6.6.9.6.6.6.6.6.5.3.5.o...' ' ' ' ` ` <.*.*.*.<.<.<.3.' ' ` ' ` ) r 5 e ,.z : 7 z A F T T e.Y G Y t.|.&X}.|.|.`.].}.t.`.t.e.e.Y G Y t.`.].].[.}.}.].t.[.t.t.[.[.t.t.[.t.i.F i.e.P P P I e.I m Z F Z I ",
"F e.e.Y P H G ].&X[.].].].}.|.`.}.}.'.}.'.`.`.XXC F F F F F C B U T T ).).).T T T T T T T T T I e.m.[.m.m.|.|.m.[.w.[.|.m.[.&X[.G q.m.[.{.[.}.|.t.[.t.y.[..X[.]._.oX X).).).P F P P F P P P P H H G q.e.q.q.q.q.`.].t.e.e.t.t.q.-X-X_.G q.q.G q.q.e.q.q.q.A H [.;X}.}.oX}.[.}.[.}.}.}.}.].`.}.}.F F F F F F C B F U T r.r.r.T r.e.i.G G q.q.G G q.}. X_.|.;X}.].m.[.[.M.[.|.|.[.G q.M.{.|.{.{.{.M.].[.[.[.{.}.[.].].].m.t.q.G F G P G F F F F F F P Y T T T T Y q.y.t.e.y.M.].t.-X&XM.q.i.y.y.q.Y r.r.T e.F P |.2X|.|.}._.].|._.|.}.}.}.'.'.}.XXF F F F F F C C Y Y T r.r.r.r.T T T Y Y Y U F F ].[.|.#X#X{.y.2.9 3 : + : 8.@X8.0.0.0.0.3.3.3.3.0.0.4.4.4.3.;.;.[ 8.L.I.c.7.7.7.g.g.g.c.c.c.c.L.U.h.h.h.h.U.U.E.U.U.U.L.h.h.a.{ 9.1. . .l i i h k c ,.<.3.0.7.9.4.0.5.5.6.5.0.5.9.8.6.5.0.0.5.5.5.5.5.5.5.5.........' ' ' ' ` ` ' ` ` ` ' *.<.<.<.<.' ' ` ` j 5 5 ,.D < 9 z g q G Y Y Y G q.`.oX|.|.&X}.t. XoX`.].].].].e.G e.[.].].].].].`.`.`.t.`.].`.`.].].`.).e.P F I P P F A P Z m F F Z Z ",
"`. X_.t._.e.P t.].].].].].oXoX`.OX}.`.'.`.r.T T F U Y T T Y U F I U Y T T T T T T Y U Y T Y J B w.[.|.[.[.&X&X[.[.w.[..Xm.[.;X[.G y.}.&X#X[.].].M.|..X].].{.[.t.e. X).e. X XP M P G F G P P G H Y e.t.t.y.q.q.q.y.t.t.t.].|.oX}.t.;X-X}. X[.t.t.|.|.].[. Xq.G ].}.`.[.oXXX}.}.}.oX}.}.`.`.`.r.T F L Y T T Y Y F U L Y r.'.`.m.T t.e.P P q.q.G H e.&X&X}.&X-X|.].].|..X}.|..X.XM.q.t.|.&X#X{.{.[.{.t.t.}.#X[.t.t.t.y.y.M.].y.G H F G G F F Y Y Y r.r.r.e.e.e.T Y t.M.t.t.].#X|.M.t.#X*X{.].{.[.t.}.}.[.].}.r.q.]. X_. X&XoX;X;X].OX}.'.'.'.m.T Y Y Y T T T Y Y L Y T T r.r.r.r.r.T T Y Y Y Y U F <X,X=X#X[.q.z < 9 9 2 + : 8.@X8.8.8.1.1.1.1.1.<.<.<.<.<.<...' ` 8.b.b.0.<.<.9.I.8.8.9.9.c.K.K.P.P.P.L.L.C.L.U.E.P.L.L.h.g.4.} ~ 5. .c c k i i k k c ,.5.5.0.7.7.5.5.5.5.5.0.5.5.b.9.9.5.5.0.3.5.o.+.5.5.5.5... .....' ' ' ` ` ` ` ` ` ` ` ` ' <.3.<.<.' ` ` j h h w.D 1 9 z 0 7 A S K Y q.e.[.-Xe.].&X|.t.}.oX_. X}.|.|.t.q._.;X].].].}.].`.].|.t.|.}.e.e.`.t.G t.r.P M M P P A F P F Z e.).r.r.",
"`.`.`.].].`.t.t.|.}.}.[.].].].`.}.}.}.[.[.[.`.`.`.`.`.`.`.m.r.r.e.r.r.r.r.r.r.e.Y Y Y Y Y Y Y Y `.[.&X;X;X.X{.[.[.[.[.[.[.{.{.[.A q.[.&X&X|.|.|.[.[.[.{.}.}.[.}. X|.XX|. Xt.P A P G P P P G P P q.q.q.q.q.e.y.y.;X.X[.[.}.|.}.].}.}.[.[.].].].].{.{.[.[.]._.t.t.oX.X}.}.[.[.`.`.}.}.[.'.[.}.}.[.`.`.`.`.`.`.m.m.T w.r.r.m.r.w.Y q.q.q.q.q.q.q.q.].&X:X-X-X-X&X|.[.[.|.&X.X.X#X.XD w.[.{.#X#X#X#X[.[.{.{.{.{.[.[.{.{.{.{.[.y.K S K K Y Y Y Y Y Y e.Y e.t.t.y.r.].4X#X{.M.+X#X+X{.{.{.{.[.M.[.[.[.}.}.}.[.].`.`.`.oX|.|.}. X{.].[.[.[.[.[.}.}.}.}.'.'.`.`.`.`.`.m.m.r.r.r.r.r.T Y Y Y Y Y Y Y Y Y &X#X{.u.2.D 9 w 3 h h 9 f v c c v k f f k h i i i i 2 2 a h h h , a h l l c c c 1.8.<.` ` 3.b.b.K.V.9.6.o.o.3.6.o.3.6.6.3.' ' 5.5.<.c k k k k k b k k  .0.9.4.;.3.<...<.5.5...` 5.3.5.5.5.5... . ...............`  .' ` ` ` ` <.x j j ` ` ` ` ` ` ` ` ` ` ` c x c ,.D 9 < 8 7 @ 0 B G K q.M.#X,XoXoXoX|.|.|.}.}.].|.&X Xe.q.].&X|.|.|.}.}.}.[.[.].`.t.t.].[.[.]. X_.e.P i.q.P H P F F F Y e.r.e.",
"q.q.q.q.e.q.Y G e.e.e.e.e.e.e.q.r.r.r.r.r.e.e.e.e.e.e.e.e.w.e.Y e.e.r.e.e.r.e.e.Y Y Y Y Y Y Y K K w.m.m.m.w.w.K K K w.w.w.w.w.w.z G y.t.y.q.q.y.e.y.y.y.y.y.y.y.e.e.t.t.t.t.q.G q.e.e.e.q.e.e.q.q.q.q.q.q.q.e.w.[.m.y.y.t.m.t.y.q.q.q.q.e.y.t.t.e.y.y.y.e.e.e.e.r.r.r.r.e.r.w.w.r.r.w.w.e.r.e.w.r.r.t.t.t.r.w.w.w.w.w.w.r.r.w.K q.q.q.q.e.e.q.q.q.t.[.t.t.t.t.e.w.w.w.m.w.w.y.q.S D w.y.y.y.y.y.y.y.y.y.y.y.y.y.{.M.M.M.M.y.2.G q.q.e.q.q.q.q.q.q.K K q.q.G G e.{.y.-.-.2.y.y.q.y.y.y.2.2.2.2.q.e.e.e.y.w.w.e.e.e.e.t.t.t.t.y.e.r.r.r.m.r.m.m.m.r.r.r.r.w.w.y.y.r.w.w.w.r.r.w.w.w.w.w.w.w.w.w.w.M.u.2.-.D z 9 < 3 h h 9 3 f f 2 1 $ $ p p p p p i p p i h k k h 2 1 , 3 , , 3 , , a l h j x h 4 6 s s s s s 4 4 s s / / / / /  ./ l h a a k k k k h h c <.0.3.' <.' ` ` ........<.<.......` ` / / / / l l s s l / / ` ` c c ` ` j j c ` ` ` ` ` ` ` c ` ` ` j k ,.,.S 9 9 z g # 8 q H D D -.y.M.t.t.t.t.t.t.y.e.e.t.t.e.G H q.t.t.t.t.y.y.y.y.y.M.t.t.t.m.].].].t.y.i.-.i.y.y.i.q.G G F F G F F ",
"g g z A A A g q g g g z A A A z S A S S S S S S S S F S F S S S S F G G G G F S S S S S S S S S 8 g v v v f f f g g g g v v v v g A S S B g S G S S S S S S S A H H H S G G G G G G G G G G G G S S S S D D D D q.D S z S D S z z z A S S S D D z z S S S S D G B B S S S S S S S S S S F F S S D G K K K K G G K K K K K K K G D D G -.q.q.q.K H D D z g z S A g f g v v S D S v v D D D z z z z z v v v v z z *.D D v D D D v S z z z z z z z -.D D D D D D 2.-.D c v D D D D e e z z z D D D A S S S S S H H g g A S H H H S S S S S S D G K S S S S D G G G K K K K q.w.q.K K K K K K K K 2.c x x z z e 2 3 f z z 9 3 3 : $ $ $ $ $ $ p p $ $ $ $ : i i 2 1 k k i i i f k k , i h h h h 2 : 4 d s s s / / l 4 4 d s s / | / / c h h a f f f i p 2 a ` ' ' _ ' ` j j / ` ` ` ` ` ` ^ ^ ^ ^ ^ l d s a a a a 4 j l c l j j j c j x x c c c ` ` c c j c ` ` c k ,.D g 1 f z g # # # 8 9 9 9 9 9 w w 9 9 9 9 w w q q q q 9 9 9 9 9 9 9 9 9 9 9 9 w 7 < < 7 w w w y w w w w y y w q q q q g g g q ",
"w w w w 9 9 w w w w w 9 9 9 9 w 7 7 w 8 9 9 9 9 9 9 9 q q q q q 9 9 9 9 9 9 9 9 z z z z z z z z 8 f f f 8 1 # 1 f 8 8 1 1 1 1 1 7 8 8 8 7 8 q g 0 0 8 8 8 8 8 8 9 w w 9 q z 9 9 w 9 9 9 9 w w w w 1 w w 9 9 9 9 z 9 w w w 9 w < 9 9 9 9 w 7 7 < 7 < w 9 9 9 9 9 w 8 9 f z 9 9 8 9 8 w 8 z z 9 9 9 9 q z z z z z z z 9 f z z z z 9 z z z S S S z q 9 9 9 9 q z z 8 8 f f < 1 f f z v v v D D D D x x x x x x x x h e e e j x x x z x x x v v c c 2 2 9 e h e h z e e e e e e e h x z x z h h e 9 8 8 8 f g g z z < w 9 9 z q q q 9 9 9 9 9 f f z 9 f 9 z z z v v z z z v z S S z S v S S S v S v h h e e h h f 9 v c c f 1 : $ $ f p $ $ $ $ $ O . . . O + $ + O $ + + $ 3 i a a h h a , , h x a / / s d s | ....s d 4 4 d s s 4 s j a a a h f f f i i a j / ` ` / j j j j ^ j j j s r r r s j j l l d d a a a a a j h a 5 2 2 5 5 5 5 5 a h j j c j x c c c x k D v f 1 # 1 # O # 1 w 9 9 9 9 9 w w w 9 9 9 9 9 w < < w e z 9 < w 9 9 9 9 e e e 9 w w w 9 9 9 w y y y w w 9 w < 9 9 9 9 9 9 7 < ",
"< < 3 1 8 9 1 1 9 9 9 f f f 1 1 w 9 9 9 9 9 9 9 9 9 9 9 9 z z z 9 9 9 9 9 9 9 9 9 e e 9 h h h f f g g g f 8 8 8 f 8 1 # $ $ $ O O @ @ @ @ @ # # # # # @ # # # # # $ < 1 1 1 < + < < 1 1 1 < < $ $ $ # : < < < < w 1 < < < < # + < < < < < # + + < < 7 < < < < < < 1 1 1 1 < < < < $ : < 1 1 1 < < < < w 9 3 9 w < < < : < w 9 9 < < 9 9 9 1 9 9 < < w 9 q z z v D D D g O . O + 9 9 z z D -.2.y.u.9.9.u.u.u.u.u.0.0.0.0.0.0.*.) 2.8.8.8.b.M.M.M.M.M.I.@X$X$XI.M.I.@X$X$X$X@X@X$Xu.u.8.<.c 2 : + 1 1 8 f f f z f 9 f h v z z h h 2 2 9 9 9 f h h 9 9 f h h k z z z h 9 e z h h 9 z z z z z z z z c x x c c c v k c v v f 3 + $ $ f f 1 1 1 1 $ + + + $ : 3 3 : + $ $ : > 2 a a 5 j j 5 > > j ` ` s s 4 4 4 ~ ~ s d d 4 4 4 ~ d 4 6 5 5 a h k k k k k k k l c / / j j c ` ` j h 5 5 , > , 5 5 h j d d d d k k k k a a a 2 > : : : , , 3 , 3 , 2 5 j h h h x x h h v S v 8 O O O $ g z z v c *.2.2.2.2.2.2.2.2.2.2.2.*.D *.2.2.*.z ,.,.2.2.0.2.8.8.u.u.u.u.M.M.u.8.0.u.u.u.u.u.u.2.2.2.*.c z 9 : + ",
"1 3 3 2 9 i 9 2 h h v v v h f 9 h h z h z h z h x z z z x x c c c c x x x x c c x x x x x x x v g v v v g g g g g 8 1 $ O O O O # # # # # # # @ O O O O O @ # # + $ $ 3 2 2 3 : f h h h h f 2 9 < < 3 1 1 1 1 1 1 1 1 1 < < $ $ # < < < < < < < 9 9 9 9 1 < < < 3 3 3 3 < : < : < : : : 3 3 < < < 3 w 2 2 2 w 3 w : ; : 3 2 9 9 < 9 9 9 < < 1 9 < < w f f 9 9 9 g S K v O . O $ < < < 9 D 2.y.y.b.b.K.b.b.b.b.b.b.b.9.9.8.<.) r ' ' ..<.5.0.9.b...3.0.0.0.0.<.) <.3.8.8.8.3.3.3.8.8.2.<.` h 3 : 2 1 f f f f v h h v c c D c c x x x x x x c x x x x c c c c ` *.D c v v c c c x *.*.*.*.*.*.*.*.<.,.,.<.,.,.,.D c v f 1 + O + 1 h h k z c D D c *.` *.,.2.2.*.` <.<.<.1.3.<.' ` <.3.3.=.3.9.K.g.o.6.A.6.A.A.+.~ o.6.6.+.6.A.A.4.5.0.8.<. .k f i b b b b b c c c c ` ,.<.<.<.j 5 5 5 5 5 5 h j j d d d d d l l l k k h a , , 3 2 x k h a a h k x l x j j x x h 2 v S S f $ . O 7 z z 9 z D 2.u.u.u.u.u.u.u.u.u.u.u.2.2.2.2.,.c h ` ` *.*.=.<.<.<.0.2.0.8.8.8.0.<.` <.0.0.0.8.8.2.<.,.*.c x e : + ",
": : 3 1 2 i 2 2 h k v v c v v h x x x x x x x x c c x x x c *.` ` ` c x c c ` ` c c c c c c c c h v S S v v v v f 8 # $ O O O O 8 8 8 8 8 8 8 8 # # # # # 7 0 f 2 3 3 2 f h h f v v c c v v h h 9 f f f f v f f 9 9 9 9 1 3 < < 1 1 3 9 9 9 9 9 f f f f 9 9 9 9 h h 2 2 2 h h k h f 2 2 h h e 9 h h h j h h e e h e e e x x x x z v v z 9 3 f v v h z z f < 1 9 $ 8 v f + O < f 1 < 1 9 c ,.2.2.<.<.3.3.3.<.3.<.3.3.3.3.3._ ^ 5 s s ^ ^ ^ ) / / ..3.5.' ' 3.' ^ ' ' <.3.3.<.' ` ^ ` ` ` ` j 5 > 2 1 i i f f f f h k c D ,.,.c c *.` ` ` ` ` ` ` ` ` ` ` *.` ,.,.,.*.*.*.,.,.<.,.2.2.2.<.2.<.2.<.<.<.<.1.2.8.2.2.,.c f 3 + . + f k x c *.2.u.b.b.b.b.u.K.I.@XI.I.8.8.8.5.0.3.3.3.P.%X%XE.E.%X%X%XE.MXVXVXVXZX~.d.C.~.MX~.~.NXNX~.%X%X$XI.1.b i p f k b K ,.b b c ,.<.1.8.M.b.2.<.<.<.<.<.,.,. . . . . . . . . . .,.,.,.,. . .,.1.1.2.<.,.,.1.2.8.<.<.,.,.,. .c c v v v f # O # 8 z 9 9 h D ,.2.<.<.<.<.,.*.*.*.*.*.,.<.<.*.x x x r r t j j j ) ^ ) j ) ` ` ` j r 6 5 j j j j j h h h h k k h 3 : ",
"$ : : 3 1 2 2 2 i f k v c c c k x j j j j r e e x x j j j x x ` x j j j j j j c c ` ` ` ` ` ` c z v D D D D v v f 8 < $ + $ $ # # # # # 7 q g B q q 8 q g A S D c k f f h h v c k k l l k h a 2 h k z z v c z z 9 9 h h 9 3 < 3 9 9 9 9 2 3 3 < h h h h h h h h c x x x j c  .,. .c c c ` c ` c ` ` ` ` ` ` ) x ` ` ` ` *.<.<.<.,.,.,.c h h c ,.2.,.*.D k < 3 h $ 8 v g $ O 1 9 h h e z *.,.,.,.*.' ' ' ' ' ' ' 3.3.3.3.7.8.7.0.3.3.3.5.3.3.5.3.' o.' ^ ( o.3.' 3.5.3.3.0.3.' _ ..<.<.<.` a > $ 1 1 p i i f i i i h c ` ,. .` ` ` ` ` ` ` ` ` ^ ` ` ` ` ` ` ` ` *.` ` *.<.0.0.0.<.<.<.<.<.<.<.<.<.<.<.1.8.8.8.8.N.,.h 1 + O $ h 5 5 t ` 3.9.9.u.K.K.c.L.@X$X%X%Xg.g.g.7.a.g.h.L.E.%XE.U.U.E.MXMXQ.pXpXQ.pXNXR.$.h.pXNXpXR.pXpXT.E.E.E.I.8. .k i p k b 1.,. . . .1.5.8.b.K.K.K.K.I.I.I.K.b.b.0.5.b.b.b.b.n.n.n.b.b.b.b.b.b.I.W.W.I.I.K.b.b.K.I.I.b.b.b.b.b.8.1.,.v f 8 8 1 $ # f v z h c <.<.<.` <.<.<.<.<.*.*.*.j *.0.0.*.*.<.8.*.<.<.<.<.3.0.3.) ) ` ` ' ` ^ r ) ' <.*.` ` ) j c c c l x 5 : + ",
"1 9 9 2 3 3 9 h 2 9 h k c c c c x x x x x x x x ` ` ` ` ` ` ` ` ` ` ` ` *.,.*.*.x c ` ` c x x j ` ` ` *.,.2.2.2.D 9 + + + O O O + @ # 8 7 O # q 9 w < # 9 S A w 9 e h h h k x x x j j j j j s r j j x j x j x x x j x j x j j j ` h ` <.` c h : : 3 3 , h ` *.x ` ^ ^ j j j j j ` ` ` ` ` ` ` ` =.=.;.3.3.3.3.3.` =.3.3.=.=.0.8.b.b.5./ ^ ..3.<.<.8.8.<.c h 3 : 1 f g # O $ f c h x ` *.*.' ` ` =.=.=.' =.=.=.' _ ' 3.9.c.9.3.[ ' ' ' ' o.3.3.3.3.3.o...' ' ' ' <.<.' ' ' ' ' ' =.<.....<.<.h : 2 1 f 2 f h k c c c c ` ` <.<.3.<.<.<.<.=.=.*.*.3.3.3.3.<.<.<.<.3.5.5.3.3.0.0.5.0.3.5.0.5.5.5.3.( o.6.b.K.K.K.I.8. .a : : 3 2 h 5 5 j _ 3.8.c.K.P.L.P.P.U.U.E.E.D.D.U.C.f.h.D.U.U.R.Q.pXpXpXpXpXR.T.H.F.F.F.T.R.R.R.R.rXpXrXF.D.R.R.T.U.P.b.j + a k  .1. ./  .5.n.o.A.!.A.o.g.C.g.Z.P.C.h.d.d.d.A.A.A.A.A.Z.Z.Z.Z.P.P.Z.Z.A.C.P.!.P.A.A.Z.I.A.6.o.6.n.V.K.K.K.I.2.c 2 + O $ f v x ` ' 3.0.5.<...*.' ` ' ' *.<.<.' ) ^ ' 8.9.0.' *.` ` *.` *.*.*.` ` ` ` ` ` ) ) ) ` ` ) j j ) ) j x c ` c c h : ",
"w 9 f 9 1 1 9 h 2 2 h k x l l c x x x x x x x x ` ` ` ` ` ` ` ` ` ` ` ` *.,.*.*.c ` ` ` ` c x x *.*.*.*.<.<.2.,.c 3 + + $ + + + + + < g q < < 9 < 7 7 w q S 9 + e e h h j j j x j j j j j j j r j j j j j j x x ) ) x x ) j j x x 5 j ` c ` *.h : 3 , , j ` ` j ) ) ^ ^ ^ ^ ^ ^ ` ` ` ` ` ` ` ` ' [ ;.;.3.3.3.3.;.3.4.4.3.3.7.9.5.6.5.....3.5.5.3.3.3.*.x e 2 3 7 g g # O $ 9 x x ` *.<.3.' [ [ ;.;.[ ;.;.;.;.;.;.;._ ] _ ;.7.9.' ' ' ' ' ' ` ` o.o.o...' ' ' ' <.<...' ' ' [ [ ' ' ..' <.,.l 3 9 f f f h k z c x j j j ` ` ' ' 3.3.<.=.=.=.=.=.3.3.3.3.3.3.3.3.5.5.5.3.3.3.5.5.5.3.3.5.6.6.3.o.4.6.V.V.K.K.I.I.8. .5 : : 3 f k r s _ o.6.g.K.L.L.L.L.U.U.U.U.U.h.l.D.R.rXrXR.F.D.G.Y.T.T.Y.T.R.R.H.H.F.F.F.H.H.H.H.H.H.R.H.F.S.F.H.Y.G.T.V.` , / | 1.5.<.` ..6.A.o.d.T.C.B.T.~.f.C.G.D.h.s.f.h.D.G.G.G.G.G.G.G.G.T.T.G.G.D.G.G.Q.T.C.C.T.T.C.d.d.A.C.I.P.P.I.I.0.D 2 $ O $ i c ` ' [ 4.4.3.o.....' ' ' *.=.<.<.3.' ) ^ ^ ' 3.0.` ` ` ` ) ) ) ) ` ` ` ` ` ` ) ) ` ` ` ) j j ) ) j ) c c ` c h : ",
"1 9 f f 9 9 9 h e e h x l c c c ` ` ` ` ` ` ) ) ` ` ` ` ` ` ` ` ` *.*.*.*.,.,.,.` ` *.*.*.` ` c 0.<.<.<.<.<.2.,.D 9 + # < # # < + + < z S 9 < < < < < < 9 q 9 + e h j x j j j j x j j j j ^ j j j j j j x x ) ) ) ) ) ) ) ) ) ) ) 5 e x x *.<.c : , 5 5 j ` ` ) ` / ) ^ ^ ^ ^ ^ ` ` ` ` ` ` ` ` ' [ ;.;.;.3.3.3.3.3.4.4.3.3.7.8.X.o.5.5.3.6.3.o.=.<.<.` j e e 9 8 g g # O + 3 k ` *.<.3.3.3.3.3.;.;.;.;.;.;.;.;.7.;.] Q Q _ ;.7.3.o...' ' ` ` _ ..........o.o...3.<...' =.3.;.[ _ ' ' ` `  .c a 2 f f h k k x c x j ) ` <.3.3.3.3.3.3.;.=.=.=.=.3.3.3.3.3.3.3.3.5.3.3.3.3.3.3.5.5.5.5.6.6.6.6.3.A.C.L.I.K.K.K.K.b. .a 3 : : f c / ' 0.g.K.L.L.C.L.U.U.U.U.U.Y.U.D.k.f.D.R.pXpXR.D.D.G.D.D.l.D.D.R.H.H.F.F.H.H.R.H.F.D.D.F.F.D.S.l.F.F.G.T.L.5.j / / ..1... ...6.+.~ @.d.g.B.T.G.D.G.G.G.C.C.D.D.T.T.Q.Q.Q.Q.T.T.T.Q.Q.R.T.G.T.R.~.R.T.T.R.T.C.A.Z.Z.T.W.E.E.!.W.8.*.9 $ O $ i c ..3.7.7.7.3.o...<.*.' ' *.=.<.<.<.<.' ^ r r ` 0.` ` ` ` ) ) ) ^ ` ` ` ` ` ` ` ` ` ` ` ) ) ) ) ) ) ) c c ` c h : ",
"< w f f 9 9 9 h h h k x c c ` ` ` ` ` ` ` ` ` ` ` ` ` ` ` ` ` ` ` *.*.*.*.,.,.,.*.,.,.,.,.*.*.*.0.0.<.<.0.2.2.2.D 9 < < < < < < < + # 9 z z 9 < 9 < + + < 9 z z e h x x x x x j ` ) ^ ^ ^ ^ ^ j ) ) ) ) ) ) ) ) ` ` ` ` ` ` ` ` ` j x x j ` ,.h : 2 e e j ` ` ) ` / / / / / / / ` ` ` ` ` ` ` ` ' ' ' [ [ ;.;.3.3.3.3.;.;.;.3.3.( X.o.o.3.o.o.' =.<.' j 5 5 5 2 8 g f < O + < k *.<.3.0.3.3.3.3.;.;.;.;.;.;.;.;.;.;.;.;.;._ Q r 3.5.5.5.3.3.o...........o.o.5.5.3.<.<.' 3.3.;.;.' 3.<.` ` ` l a 2 9 f v k k x x e j ) ..3.0.8.8.=.=.=.=.=.=.=.;.3.3.3.3.3.3.3.3.5.5.3.3.5.3.3.5.6.6.6.9.9.9.6.6.A.A.L.K.K.V.K.K.K.<.a , : : 2 c 5.7.K.P.E.T.L.C.U.U.U.U.U.U.Y.U.pXG.$.#.$.D.T.rXF.Y.F.G.D.k.D.D.R.H.F.F.F.H.R.rXrXH.F.S.D.F.F.F.D.F.Y.G.T.P.9.` l / ..<.....5.9.+.~ ( d.g.B.G.B.T.T.G.G.C.C.D.G.G.T.Q.Q.Q.Q.T.G.T.Q.Q.Q.T.T.T.Q.~.R.Q.Q.~.R.T.C.T.T.!.!.!.E.!.W.u.*.9 $ + + 2 c 5.7.a.j.7.4.o...<.<.*.' *.<.<.<.) ' 3.<.` ^ j j =.*.*.*.*.` ` ` ` ` ` ` *.` ` ` ` ` ` ) ) ) ) ) ) ) ) x ` c e : ",
"< 1 9 9 9 9 e h h h h k x c c ` ` ` ` ` ` ` ` ` ` ` ` ` ` ` ` ` ` ` ` *.*.*.*.*.<.<.,.,.,.<.<.<.0.<.<.<.0.0.2.2.,.h < < 1 < < < 9 < < 9 z D q w 9 w < < < 9 z D e h j x x x x ) ` ` ) ) ) ) ^ ^ ) ) ) ` ) ` ` ` ` ` ` ` ` ` ` ` ` ) ` ` j ` ` 3 > 5 j j j ` ` ^ ` ( ( ( ( ( ( ` ' ' ' ' ' ' ' ' _ ' ' ' [ [ ;.;.3.;.[ [ ;.;.3.3.+.o.o.o.o.o.' ' 3.<.` r 6 3 3 3 8 f 8 1 + O < x ,.<.3.0.3.[ [ 3.;.;.;.;.;.;.;.;.;.;.7.c.9.;.Q 6 3.3.3.3.0.0.3.3.[ [ o.o.3.3.3.5.3.<.<.=.3.3.;.;.3.0.3.' ` ` h , : 1 h k k k h j 5 5 s ^ _ ` ' ' ' ' ' ' ;.;.[ 3.3.3.3.3.3.3.3.3.3.3.3.3.3.3.4.4.6.6.9.9.9.9.9.9.A.A.L.K.K.I.I.I.I.<.h 3 : : 2 c V.C.T.E.E.T.U.D.U.U.U.U.U.U.U.U.R.T.D.s.$.$.s.f.T.R.R.R.Y.G.F.H.R.H.F.F.F.H.R.rXuXrXH.F.F.H.H.R.H.Y.Y.U.T.P.6./ / ..1.5.5.5.6.7.g.O.g.T.T.R.~.T.R.R.G.G.D.D.D.D.D.G.R.R.R.G.D.C.T.R.R.R.T.G.R.R.Q.Q.Q.~.~.R.T.C.T.T.E.E.E.E.E.W.I.,.9 < $ + 2 ` 8.g.j.j.a.4.o...3.3.=.=.=.;.=.=._ ` 3.0.0.=.^ 6 ` ` ' <.<.<.=.*.' ' ' ' ' ' ' ' ` ` ) ) ) ) ) ) ) ) j x ` c h : ",
"< < 9 f h h h e 5 5 5 5 h j x j ` ` ` ` ` ` ` ` ` ` ` ` ` ` ` ` ` ` *.*.*.*.*.*.<.<.,.,.<.<.<.<.0.<.<.<.0.2.2.2.D h < < w < < w z e 9 z D D z 9 w 9 z D z w < w y e j x x c ` ` ` ` ` / / / / ) ) ) ` ` ` ` ` ` ` ` ` ` ` ` =.=.) ) *.` ) <.,.3 : 5 j x j ) ` ^ _ ( ( ( ( ` ' ' ' ' ' ' ' ' ' ' ' ' ' [ [ ;.;.;.4.3.;.3.3.4.7.4.6.o.o.o.3.o.o.3.0.3.' r 3 3 3 2 8 8 8 7 $ + w c <.<.3.3.;.[ [ ;.;.;.;.;.;.;.;.;.;.;.7.7.7.7.;._ ' ' o.3.3.3.3.3.3.3.3.3.3.3.3.3.3.3.3.;.3.3.;.;.4.0.3.' .. .a : : 3 h z x x j j j j ^ ^ ^ ^ ^ ] ' ' ' ' ;.3.3.3.3.3.3.3.3.3.3.3.3.3.3.3.3.3.4.4.6.9.g.V.V.V.V.V.C.C.P.P.P.I.W.W.I.<.5 3 : : 2 ,.T.T.R.R.E.T.U.D.U.U.U.F.U.z.z.F.k.T.pXpXT.f.#.} F.R.rXpXrXR.R.R.R.H.F.F.H.H.rXrXpXuXrXH.H.H.R.rXeXR.G.G.T.P.3.s s / ....o.o.' ( ( @.$.C.d.C.T.D.T.G.G.G.G.G.D.D.D.G.G.G.G.D.B.B.G.T.R.T.G.G.R.R.Q.Q.Q.~.Q.R.T.T.T.T.E.E.E.E.!.%XI.,.9 1 $ $ a <.9.g.j.j.a.4.5...3.3.=.=.=.;.=.=.0.=.` =.3.3.` ^ ^ ^ ` =.<.<.*.' ' ' ' ' ' ' ' ' *.` ) ) ) ) ) ) ` ) j j ` ` h : ",
"< 1 9 z z z h h h h 5 e h j c ` ` ` ) ` ` ` ` ) ) ) ` ` ` ` ` ` ` ` ` ` *.*.*.*.<.<.*.*.*.<.<.0.0.0.<.<.2.2.2.2.c 3 : < w w 9 9 e z v v D D v 9 < 9 v *.v < ; < 2 5 h x ) ` ` ` ' ' _ _ _ ( ( ( _ _ _ _ _ ` _ ` _ _ ` ` ` ` ` ` ) ) *.` j <.<., ; 5 ) j j ) ) ^ _ ] ( ( ( ' ' ' ' ' ' ' ' ' ' ' [ [ [ ;.;.;.3.3.4.3.;.3.7.9.9.7.6.o.o.6.7.o.3.6.0.0.=.j e 5 e h 8 = 7 8 # + 9 ,.0.0.0.0.;.[ ;.4.;.;.;.;.;.3.3.;.7.0.;.;.0.7.7.7.;.[ 3.3.4.3.3.[ 3.3.3.3.3.;.3.3.0.3.3.3.;.;.;.;.4.;.' ' 5.<.j + : 3 h c ` c c j ` ` ` _ ( ( [ [ ' ' ' [ [ [ 3.3.3.3.3.3.3.3.3.3.3.3.3.4.4.4.4.6.7.g.V.V.V.V.V.K.P.T.P.P.P.I.I.I.b.` , , : : h 8.!.R.R.T.Y.Y.Y.Y.Y.U.U.F.F.z.z.z.l.Y.pXNXNXR.f.$.f.D.R.pXpXrXrXrXR.H.F.F.H.R.rXuXuXrXrXR.H.H.H.R.rXF.D.C.E.T.5.4 > s ` ..3.3.[ ~ @.~ } O.@.O.f.d.h.s.h.D.Y.R.Y.G.G.G.G.G.D.C.B.B.G.G.R.R.G.G.R.Q.Q.Q.pX~.R.R.R.R.R.Q.!.!.%X!.%X%XI.*.9 3 : $ h 2.K.c.h.j.a.7.3.5.0.3.;.;.;.;.=.=.0.;.' ' =.3.3.=.^ ) _ ' ;.' ` _ _ _ _ _ _ _ _ ` *.` ) ) _ ` _ ) ` ) r j ` ` h : ",
"< w 9 z c v h h x x x x j ` ` ' ` ` ) ` ` ` ` ) ) ) ` ` ` ` ` ` ` ` ` ` *.*.*.*.<.<.*.*.*.<.<.0.8.8.0.<.<.<.,.*.h < + # w 9 z z w t D D D D e < < w z v e ; < e 3 5 h x ` ` ` ' ' ` ' ( ` ( ( ( ] ) ) ) ) _ _ _ ) _ _ _ ` ` ` ` =.*.*.) r *.<.3 ; 5 ) x j ) ) ^ _ ] ( ( ( ' ' ' ' ' ' ' ' ' ' ' ;.;.;.3.3.4.4.4.4.;.[ ;.4.9.7.4.[ ( ( 6.7.o.o.4.4.0.3.` j j ) c w # # 8 < + 9 <.8.8.8.0.;.;.4.4.;.;.;.;.;.3.;.;.7.7.7.3.0.7.7.7.4.4.7.7.4.4.3.[ 4.4.3.3.3.;.;.3.0.3.3.;.;.;.;.;.;.' _ ` 0.8.j + : 3 k ` ,.,.` ` / / _ ( ' o.6.g.' ' ' [ [ [ 3.3.3.3.3.3.3.3.3.3.3.3.3.4.4.4.4.6.7.g.V.K.V.V.K.L.T.T.P.K.V.b.b.b.9.x > : : : v b.%XrXR.D.D.F.Y.eXU.U.F.F.F.z.z.z.rXT.F.T.pXpXrXY.$.f.G.R.rXR.R.R.R.H.F.F.H.R.rXuXR.R.R.H.F.F.F.H.rXD.h.C.E.!.5.> > s ..5.V.P.V.+.C.d.d.$.@.O.C.f.$.$.$.h.T.R.R.U.R.R.G.G.G.D.D.D.G.T.R.R.T.R.R.Q.pXpXpXQ.R.R.R.~.~.~.%X%X%X%X%X%XI.,.9 3 3 : h 8.K.c.h.g.g.7.6.5.0.3.;.;.;.;.;.=.' =.3.3.3.3.3.3._ _ ' 3.3.;.' _ _ _ _ _ _ _ _ _ =.` ) ) _ ` _ ) ` ) r j ` *.h : ",
"< 9 z z 9 9 e v x x x c ` ` ` ` ` ) ) ) ) ) ) ) ) ) ) ) ) ) ) ` *.*.<.<.<.<.<.<.<.<.<.<.<.<.0.<.<.0.0.8.8.2.*.c 9 < + + + < w 9 ; ; x 2.*.< ; 3 3 w e e e 9 w : > 3 j ` ' ' _ ` _ ` ' ' ' ' ( ( ' ' _ _ _ _ _ ( _ _ _ ) ] ] ] _ ` =.) j ` <.) > ; e ) j r ) ` _ _ ] ] ( ' ' [ [ ' ' [ [ [ [ ' ' ;.;.;.;.3.4.4.4.;.[ ' ' ;.4.4.3.[ X.o.+.4.4.4.4.3.3.=.' ` ` ) e f # # 7 < + e 8.8.0.3.0.7.7.:.[ 3.3.7.7.7.7.3.;.3.3.3.4.4.3.3.3.;.o.o.[ [ [ [ [ [ [ 3.3.4.4.3.3.3.3.0.4.4.4.:.;.[ ;.3.3.0.<.j : , c c x c j j ' ....' ' [ [ [ [ 4.4.4.4.4.4.4.4.3.[ [ [ 3.4.3.3.7.7.7.6.4.4.7.g.4.g.V.V.g.g.L.E.P.P.I.K.K.V.b.b.<., : a 2 : v @XT.Y.Y.Y.Y.Y.F.F.F.Y.Y.F.l.l.F.Y.F.F.U.Y.Y.T.T.T.R.rXpXpXR.R.Y.F.F.H.H.rXrXrXR.R.F.H.H.R.rXrXrXrXD.k.s.C.!.!.3.> > / b.K.K.g.g.a.g.f.f.C.C.G.G.T.U.G.F.G.D.D.D.D.B.D.T.R.Q.Q.pXpXG.G.G.G.T.R.R.R.R.Q.pXpX~.~.pXpX~.~.~.Q.P.L.P.!.7.y ; h h : 2 8.P.g.a.j.h.V.3.( 3.3.3.7.3.3.;.;.3.;.;.;.3.;.;.;.3.o.[ [ [ [ [ ' ' ' ' ' ' ' ( ) _ ` =.=.=.=.` ` ` ) ` ` ) ` x ; ",
"< 9 z z e e h c x x c ` ` ` ` ` ` ` ` ` ` ` ` ` ` ` ` ` ` ` ` ` *.*.*.<.<.<.<.<.0.0.0.0.0.0.0.0.9.u.u.8.8.2.2.,.9 < + + # w 9 9 ; 3 e *.x ; ; y y y e e e y w 3 3 5 j ` ' ' _ / _ ` ' ' ' ( ( ( ' ' _ _ _ _ _ ( _ _ _ ) ] ] ] ] _ =.) j ) <.) > > r ) j j ) ` _ _ _ ] ' ' ' [ [ [ [ [ 3.3.3.[ [ ;.;.;.;.3.4.4.4.3.;.[ [ 3.4.4.3.[ X.o.o.4.4.4.4.3.3.;.=.*.*.) h 9 # # w < ; e 8.8.0.;.;.;.;.[ } 4.3.7.4.7.4.3.;.3.3.4.3.4.4.3.3.3.3.3.o.o.[ [ [ [ [ 3.4.4.4.4.3.3.3.3.4.4.4.:.;.;.4.4.3.3.<.j : > c c x ` ` ^ ....[ o.o.[ [ o.o.4.4.4.4.4.4.4.4.4.3.3.3.4.7.4.4.+.4.6.7.7.g.A.V.L.P.!.E.P.P.!.%X%X%X%X%X!.I.K.b.8.5 > h h 3 c @XE.eXY.Y.Y.Y.Y.F.eXrXrXeXF.F.F.R.F.F.G.Y.Y.T.T.T.rXrXrXrXR.R.T.F.F.H.R.rXrXrXR.H.F.F.H.R.R.R.R.R.F.G.D.U.^.!.5.4 6 ..V.K.7.7.d.d.B.B.C.C.G.G.T.T.U.U.Y.Y.F.F.D.D.h.B.D.D.D.D.D.G.R.R.Q.Q.Q.R.G.D.U.T.R.R.R.R.~.~.VXVXMX!.E.V.7.3.8.y : h h : 2 2.K.g.j.j.g.g.6.6.3.3.7.7.7.3.;.;.3.;.3.3.;.;.;.;.3.o.o.[ [ [ o.o.' ' ' ' ' ' _ _ _ ` =.=.=.=.` _ =.) ` *.` *.x ; ",
"w e v v z h x ` ` ` ` ` ` ' ' ' =.=.=.=.=.=.=.=.=.=.=.=.=.=.=.=.*.*.*.*.=.=.<.<.<.<.0.0.0.0.0.0.9.8.8.8.8.2.2.2.3 ; + + 1 f 9 1 3 3 e x e ; > e y y e e e e e e 5 j ) ` ' ' _ ( ' ' ' [ ( ( ( ( ' ' ' ' ' ' ' ( ] ] ( ] ] ] ] _ _ =.` ^ ` <.) > > r ) ^ ^ ) _ ) _ ' ' ' ' [ [ [ [ [ 3.3.4.4.4.4.;.;.;.;.;.4.4.4.4.:.;.;.:.4.4.4.o.o.o.+.4.4.4.4.4.4.3.3.<.<.` j 9 # < 9 < : e 0.u.9.0.3.4.4.:.[ 4.4.4.4.4.4.3.[ 3.3.3.3.;.3.;.3.4.4.4.4.4.3.4.3.;.3.4.4.4.4.4.4.3.3.3.4.4.4.:.:.4.4.7.0.3.<.j > > c ` c  .` ` 3.3.o.o.o.o.O.O.4.4.4.4.4.4.4.4.4.7.4.4.7.7.g.7.7.4.4.d.g.g.g.g.g.V.L.P.P.L.L.E.E.E.!.!.%X%X%X%X$X5.5 : h k 2 c I.E.eXY.Y.F.Y.Y.Y.rXrXrXR.Y.F.F.Y.F.F.F.Y.Y.T.T.T.pXrXR.R.T.T.T.T.F.H.R.rXrXrXH.H.F.F.H.R.R.H.H.F.F.T.R.R.!.!.3.6 s 5.V.g.4.7.h.C.G.D.D.G.G.T.T.T.Y.Y.Y.Y.Y.Y.Y.Y.D.D.B.B.h.h.h.h.D.D.G.T.R.R.Q.Q.Q.~.pXpXpXsXMXNXpXQ.Q.^.MX%X%XI.0.y : f f $ 2 <.K.c.h.j.4.3.6.b.7.7.7.7.7.3.;.;.;.;.;.;.;.;.;.;.;.[ [ [ [ [ [ [ [ [ [ [ [ [ ' _ _ ' =.;.;.=._ _ =.) *.<.` <.` : ",
"w z D D v z x *.*.*.*.*.' ' *.=.=.=.=.=.=.=.=.=.=.=.=.=.=.=.=.=.*.*.*.*.=.=.<.<.*.*.*.<.<.<.0.0.<.<.<.<.<.<.2.,.w + O + 9 z 9 < 3 3 e x e 3 3 e e y y e e x ` ` j ) ` ' ' ` _ ( ' ( ' [ ( ( ( ( [ ' ' ' ' ' ' ( ( ( ' ' ' ' ( ' ' =._ ) ` 3.) > 6 r ) ^ ) ) _ ^ ' ' ' ' ' [ [ o.[ [ [ 3.3.4.4.4.;.;.;.;.;.;.;.4.4.4.;.;.;.4.:.4.o.o.o.+.4.4.4.4.7.7.7.3.0.0.=.x 9 7 1 9 3 < e <.8.8.7.7.7.7.4.:.4.4.4.4.4.4.3.o.3.3.3.3.3.3.3.3.7.7.7.4.4.4.4.4.4.4.4.4.4.4.4.4.3.3.3.4.4.4.:.:.7.7.7.0.0.3.j > > ` ` ` <..._ 3.3.3.4.4.+.4.4.4.4.4.4.7.7.7.7.7.7.7.4.7.d.g.g.7.d.g.A.V.g.g.7.7.4.7.g.d.7.d.g.V.A.A.g.A.K.I.W.%X' > ; 2 h 2 c I.E.eXY.Y.F.Y.Y.R.R.R.R.T.F.D.D.D.F.F.F.Y.Y.T.T.T.pXrXR.T.Y.T.T.R.H.H.R.rXrXR.H.H.H.H.R.R.R.H.H.F.D.R.R.R.E.P.o.4 6 o.V.g.a.g.U.T.T.G.G.G.T.T.T.R.T.T.R.R.rXrXrXR.R.R.G.G.G.G.G.G.D.B.h.h.B.G.R.pX~.pXpXpXpXpXMXMXVXMX%XMXMX%X%X%X*.2 : f f : f 2.K.c.g.j.4.o.o.5.7.7.7.7.7.7.3.;.;.;.;.;.;.;.;.;.3.3.3.3.;.[ ;.[ [ [ [ [ [ [ ' ' ' =.=.=.=.=.=._ ;.` 3.0.*.<.` > ",
"w z D *.c x c *.*.*.*.*.*.*.=.=.=.;.;.;.;.;.;.;.;.;.;.;.;.;.;.=.*.*.*.*.=.=.=.=.*.*.=.<.<.0.0.0.<.<.0.0.2.*.c z < + + + 9 z 9 < 3 5 t ) x 5 5 5 5 5 5 e j ` =.<.` ` ' ' ' ` _ ( ' [ [ ( ( } } } [ [ [ [ [ [ ' ' ' ' ' ' ' ' ' ' ' =._ ) =.0.) > 6 r x ) ) ` _ ^ ' ' ' ' [ [ [ 3.[ [ [ [ ;.3.4.4.4.4.4.4.;.;.;.;.;.;.;.;.;.;.;.3.+.+.O.O.4.4.4.4.7.7.7.0.8.0.*.x 9 w 9 9 w < e *.=.=.7.7.7.7.:.{ 4.4.3.o.4.O.o.o.3.o.o.o.3.4.4.4.7.7.7.7.4.4.4.4.4.4.7.7.7.7.4.4.3.3.3.3.4.4.:.:.7.7.7.7.8.3./ > > ` ..' <.../ o.3.4.4.4.4.a.d.d.7.7.7.7.7.7.7.7.7.4.4.4.7.d.d.7.g.g.A.C.C.A.g.7.g.g.V.C.C.C.L.L.P.P.L.V.9.5.5.<.j : ; 2 h i D I.E.Y.Y.Y.Y.Y.Y.T.Y.T.Y.U.U.G.D.D.F.F.F.Y.Y.Y.Y.Y.pXrXR.T.F.Y.T.R.R.H.R.rXrXR.H.H.H.H.R.R.R.H.H.H.F.R.Q.R.E.P.o.4 6 o.L.L.g.h.v.U.T.T.T.T.T.R.R.R.R.R.rXrXrXyXyXyXpXR.T.T.R.Q.uXR.uXR.T.G.D.B.h.f.C.C.D.C.B.B.B.C.B.Z.T.T.E.!.%X%Xx 3 : f f 1 h 8.b.c.g.g.g.9.5.o.7.7.7.7.7.7.3.3.;.;.;.;.;.;.;.;.3.o.o.o.o.o.[ [ [ [ [ [ o.[ [ ' ' =.=._ =.=.=.=.;.=.3.0.<.0.*.> ",
"w z *.*.D v c *.*.*.*.*.*.=.=.<.;.;.;.;.;.;.;.;.;.;.;.;.;.;.;.=.=.*.=.=.=.=.<.<.0.0.0.0.0.8.9.9.9.b.u.u.2.*.x e < : + # w 9 9 9 2 e x ) ) j r r r r r r x ` =.<.` ' ' ' ` ` ( ( [ ' ( ( ( } } ( [ [ [ [ [ [ [ [ ' ' ' ' ' ' ' ' ' ;.` ) =.0.) > 6 r j ^ _ =.=.^ ' ' ' ' [ [ 3.3.[ [ [ [ [ ;.3.4.4.4.4.4.;.;.;.;.[ ;.;.;.[ [ ;.4.4.+.+.O.4.4.4.4.7.7.7.7.8.8.*.j 9 9 9 9 w < e ` =.0.9.g.j.7.a.4.3.o.[ [ o.O.4.4.4.4.4.o.4.4.4.4.7.7.7.7.7.7.4.4.4.4.7.7.7.7.4.4.4.3.3.;.:.4.:.7.7.j.7.7.8.0.` 5 > ` <.' 5.' / [ 3.3.+.4.a.d.d.d.d.7.7.7.7.7.7.7.7.4.4.4.d.d.d.7.4.6.g.V.L.L.L.C.L.P.T.E.!.!.%X%X^.%XMX%X%XI.5. .j , > h h h ,.I.T.Y.rXR.R.T.Y.F.R.T.U.U.T.T.T.G.G.F.F.Y.Y.Y.Y.Y.R.R.R.T.T.Y.T.H.R.R.rXrXrXR.H.F.H.H.H.F.F.H.H.R.R.pXpX~.%X!.4.6 s 4.E.E.L.h.h.h.Y.T.T.T.T.R.rXrXR.R.rXpXrXrXyXrXrXT.G.G.R.uXR.T.G.R.pXsXpXR.D.s.h.B.C.B.f.g.B.B.O.d.A.A.7.7.c.I.e < : f f 1 h 8.b.9.g.c.L.K.b.5.7.7.4.3.3.3.7.7.3.;.;.;.;.;.;.;.3.o.o.o.o.o.[ [ [ [ [ [ o.[ [ ' [ =._ _ _ >.=.=.3.=.3.0.<.0.*.> ",
"w z *.*.D x x ` ` ` ` *.' =.=.<.=.=.=.=.=.=.=.=.=.=.=.=.=.=.=.=.=.=.=.=.<.<.<.<.0.0.0.8.8.9.9.u.I.I.M.M.u.0.*.c w < < < < w 9 9 t j ) ) ) ) ) ) ) ) j j ) ) ` ` ' ' ` _ _ ` ( ' [ [ ( ( ( ( } ( o.o.[ [ [ [ } [ [ [ ( ' ' ' ' ' ' ;.=.) =.0.) > > 5 r ^ _ 3.;._ [ [ [ [ [ [ ;.3.4.4.[ [ [ ;.4.4.4.4.4.4.4.:.;.;.[ ;.4.;.;.;.4.7.4.+.+.O.O.O.4.4.7.7.7.7.8.8.=.t 9 9 9 9 < < e ` 0.7.9.4.:.{ :.4.[ [ ( [ o.+.4.4.4.4.+.+.4.4.4.4.7.7.7.7.7.7.7.7.7.7.7.7.7.7.4.4.4.3.3.;.:.:.:.7.:.7.7.9.9.9.' 5 > ^ ....5...( o.o.o.+.4.4.d.d.d.d.d.d.d.d.d.g.g.d.d.4.d.g.g.g.d.4.4.d.g.L.T.T.U.L.L.T.E.!.%X%X%X%XMXVXVXVX%XW.K.j a j l h 3 D I.U.Y.R.pXpXR.Y.D.T.G.D.D.T.T.T.U.G.F.F.Y.Y.T.Y.T.R.R.R.R.T.T.Y.F.R.H.rXrXR.R.H.F.F.D.S.k.k.D.H.R.rXpX~.~.%X%X6.6 ^ 6.E.U.v.h.h.h.G.G.U.T.T.R.rXpXR.rXrXpXyXrXrXrXR.G.D.G.R.R.T.D.h.D.R.pXsXpXuXR.R.R.Q.Q.Q.Q.~.~.VXVXMX!.V.o.^ 6 e 3 3 f p $ f 1.9.9.g.g.4.3.o.5.3.3.;.;.;.4.7.7.4.;.;.;.;.:.;.;.3.o.o.o.o.o.o.o.[ [ [ [ o.[ [ ( ;.=.>._ _ >.;.;.;.=.3.0.<.0.` > ",
"3 e *.*.c x x x ` ` ` ` ' =.=.;.=.=.;.=.;.=.;.=.;.=.;.=.;.=.;.=.=.=.3.3.3.3.3.3.3.3.0.0.8.8.9.9.K.b.9.9.u.u.u.u.2 3 3 < < 1 9 z ) ) ) ^ ) ` =.*.=.` ) ) ) ) ) ) ` _ _ _ ( _ ( ' [ ( ( ( ( ( ( } O.o.[ [ [ o.[ [ [ [ [ [ [ [ [ [ ' ;.' _ =.0.) ; > 5 r j =.3.;._ [ [ [ [ [ [ ;.4.7.4.3.[ [ o.4.4.4.4.4.4.4.4.;.;.[ 3.4.4.;.3.7.g.4.4.+.O.O.O.4.4.7.4.4.7.8.8.=.r 9 9 9 9 < < e ` <.<.` ^ W W Q ] [ ( ( ( [ +.4.7.4.4.+.+.+.+.4.4.7.7.7.4.7.4.7.4.7.7.7.7.7.4.4.4.4.4.3.:.:.:.4.7.:.7.7.g.c.9...5 ; j ` ' 3.3.' 3.o.O.3.4.4.d.d.d.g.g.g.d.d.d.g.g.g.d.d.d.g.h.h.g.g.d.d.h.C.U.U.C.B.C.C.T.Q.~.~.~.MX%X^.!.!.!.!.%Xl j l l 3 : v M.P.T.Q.~.~.R.U.C.G.h.s.f.C.T.G.G.G.G.F.F.Y.H.T.H.Y.T.R.R.R.H.G.D.R.R.rXrXrXH.H.F.D.S.&.%.&.k.F.R.rXrXT.R.%X%X6.4 ^ 4.L.L.L.D.U.z.D.D.G.H.R.rXpXrXR.rXrXrXrXeXrXeXrXH.F.H.rXrXH.S.rXH.F.D.F.R.pXpXR.~.pXsXsXNXVXVXMXMXMXVXVX%XW.b.h 2 1 f 1 $ i ,.9.K.c.3.] 6 s / 3.;.;.;.;.3.4.7.4.4.4.4.;.;.:.3.3.o.3.o.o.o.o.o.[ [ [ [ [ [ [ ( ;.' _ ' _ =.;.;.;.>.3.0.<.0.*.> ",
"+ k c c ,.` x ` ` ` ` ` ` ' ' ' ' ' ' ' ;.[ ;.;.;.;.;.[ ;.;.;.;.3.3.3.3.3.3.3.3.;.;.7.7.c.g.9.9.K.K.K.8.8.2.,.,.f 3 2 9 < 9 c h j ^ ^ ) _ ` =.' _ _ ` ` =.' =.=.' ' [ [ [ [ 3.;.[ [ [ [ [ [ [ } 4.O.O.o.[ o.} [ [ } } [ } [ } [ [ ' [ ;.=.0.*.; 2 e x ` ` ' [ [ } } { O.4.4.7.4.a.4.4.4.{ [ } } a.g.g.g.a.4.4.7.7.{ } [ 4.a.a.7.O.O.} } { 4.4.7.g.7.4.4.6.3.^ 6 e 9 9 9 9 2 9 2 f h x ) ) _ ' ] [ o.4.7.7.7.d.g.7.7.7.7.7.7.4.4.d.d.g.d.j.7.7.7.7.4.7.4.7.4.7.4.4.7.a.a.j.j.j.j.a.j.a.7.g.b.` > + 5 0.9.8.0.0.3.;.3.7.7.4.4.4.4.6.6.g.g.g.g.g.d.g.g.d.g.g.A.g.d.f.f.C.D.G.D.C.h.f.h.G.R.pXMXpX~.sX~.^.^.W.P.I.I.5...` l i 3 i v W.W.L.6.o.+.g.g.O.d.B.f.d.f.T.pXR.R.R.R.R.H.H.H.rXrXR.R.R.R.R.H.rXR.R.H.H.H.F.F.F.H.F.F.H.R.R.rXF.eXR.R.Q.E.6.s > 5.!.T.h.D.z.%.D.F.R.R.H.H.H.R.rXrXR.H.R.R.eXR.rXH.H.H.rX0XR.J.rXJ.F.H.uXuXrXF.pXT.R.NXVXNXsXdXZXNXpX~.%X!.W.I.h 9 v v 1 < 9 9 e j ) ' ` _ ` ` ' o.6.9.9.7.6.4.4.4.4.4.4.4.4.4.7.7.4.4.4.4.4.o.[ [ [ o.[ [ [ [ ;.;.3.;.;.;.;.;.;.' ;.3.=.0.<.5 ",
"+ k c c ,.` x ` ` ` ` ` ` ' ' ' ' ' ' [ [ [ ;.;.[ ;.[ [ [ ;.;.;.3.3.;.;.;.;.3.3.[ ;.4.7.g.g.9.9.9.9.9.0.3.1.,.,.f : 3 2 < 9 c j ^ ^ ^ _ _ ' ' ' ' ' ' ;.;.;.;.;.[ [ [ [ [ [ 3.3.[ [ [ [ [ [ [ [ 4.O.O.[ O.{ [ } [ [ } } } } } [ [ ] ' ' _ 0.0.3 w e x ` ` ' [ [ } } { O.4.4.4.4.a.a.4.4.4.O.[ [ 4.4.d.g.d.d.d.g.4.O.} { 4.d.d.7.4.O.{ { O.4.7.7.g.7.6.7.6.3.( r h h 9 9 2 1 i i k c c ` ' ' ' [ [ o.4.7.7.7.d.g.7.7.7.7.7.7.6.6.g.d.d.d.7.7.7.7.4.4.4.4.4.4.4.4.4.4.a.d.g.g.j.j.a.j.a.7.g.9.( > + 5 0.9.8.0.3.3.;.4.4.7.4.4.3.4.6.+.6.d.d.d.d.d.d.6.+.d.g.A.A.d.f.f.C.D.D.D.C.h.h.h.D.T.~.pX~.R.~.Q.^.^.W.W.I.I./ a 2 2 2 , f v 5 j / ~ ^ ( o.o.6.B.T.T.G.G.~.sXR.R.R.R.H.H.H.H.rXrXR.R.R.R.H.H.H.H.H.H.F.F.F.F.H.H.H.H.H.R.R.rXJ.eXrXR.Q.!.9.s ; ..E.T.D.D.F.k.S.D.F.F.D.D.H.R.rXrXR.H.H.H.R.R.0XH.F.H.0X0XH.F.rX0XH.0XuXuXrXF.R.F.R.aXBXdXaXdXdXpXpX~.!.E.K.b.v g S D h h D c *.,.0.0.<.*.' ' / ..5.6.6.6.7.6.4.4.4.4.4.4.4.4.7.4.4.4.4.4.4.3.[ [ [ o.[ [ [ [ ;.3.3.3.;.;.:.;.;.' 3.3.=.0.*.3 ",
"; l c c ,.` x ` ` ` ` ` ` ' =.=.' ' [ [ [ [ [ [ [ [ [ [ [ [ ;.[ 3.3.3.3.;.3.3.3.;.3.7.g.g.g.9.9.7.9.9.0.5.1.<.,.h 3 3 2 < 9 c x ^ ^ ] _ _ ' ' ' ;.;.;.;.;.;.;.;.[ [ [ [ [ [ o.o.3.3.3.3.3.3.3.o.4.O.{ { { { { [ O.{ [ [ } } } [ o.( ' ' ) 0.0.y w 9 x ` ` ' } } } [ { 4.4.7.7.7.d.d.d.7.4.4.4.O.4.7.d.g.d.d.g.g.4.4.O.4.7.d.a.7.a.a.O.O.4.4.7.d.g.7.7.9.V.6.o.^ x z h f 2 2 2 i v c ` ' ' ' ' [ [ { 4.a.d.d.d.d.d.d.d.d.d.d.d.4.d.d.d.d.a.7.4.4.4.4.4.4.4.4.4.4.4.7.d.d.h.h.j.j.a.j.a.7.g.9.^ ; ; e <.8.0.0.3.3.;.4.7.7.4.4.4.6.+.$.d.d.d.d.d.d.d.+.O.d.g.B.g.g.f.h.B.D.D.D.C.h.h.h.G.T.R.~.R.R.~.~.~.^.^.W.I.A. .a 2 i h k v b  .5.b.9.6.A.A.g.d.C.Q.~.~.R.pXpXrXR.R.R.R.H.H.H.uXrXrXR.rXrXH.H.F.F.F.F.F.F.F.F.H.H.H.H.R.R.rXrXH.eXrXR.!.!.5.6 + / P.T.G.F.F.z.l.S.D.S.S.S.F.R.H.H.H.F.F.H.H.H.H.F.F.F.0X0XH.F.rXrXrXrXrXrX0XH.Y.G.T.pXsXaXaXfXuXuXQ.~.!.!.I.b.v 8 f v f h D x <.<.8.8.<.' _ ( ( ' 3.6.6.6.6.6.7.4.4.4.4.4.4.4.7.7.4.4.4.4.3.3.[ 3.3.3.3.3.3.3.3.3.3.3.4.;.:.:.;.' 3.3.*.<.` ; ",
": c  .c ,. .j ` ` ` ` ` ` ' =.=.' ' ' [ [ [ [ [ [ [ [ [ [ [ [ [ 3.3.3.;.;.;.3.3.;.3.7.g.g.g.9.7.g.g.9.9.8.1.,.b h 1 3 3 : 2 c x ) ^ _ _ ' _ ' ' 3.3.3.;.;.;.;.[ [ [ [ [ [ [ [ [ 3.3.3.3.3.3.3.3.4.O.{ { O.O.O.{ O.O.O.{ [ } } } 4.[ [ [ ` 0.0.3 w 2 h ` _ ' [ } } { O.4.7.a.7.7.g.g.g.d.a.7.4.4.g.g.g.g.d.7.7.a.7.7.a.d.g.g.g.a.d.a.4.O.4.a.d.d.g.7.7.g.V.9.3.` c v h f 2 2 i f k c ` ` ` _ ' ] } { 4.a.4.4.4.d.g.g.g.d.d.d.d.d.d.d.d.a.4.4.4.4.4.4.4.4.4.4.4.4.7.d.d.d.h.h.j.j.a.j.a.7.9.6.^ ; ; r <.8.0.3.3.3.3.4.7.7.4.3.4.7.6.$.$.$.$.d.d.d.$.+.+.$.g.g.A.g.f.h.B.D.D.D.C.h.f.C.G.R.~.pX~.~.pXMXMX%X~.P.I.b.n. .a k v v v b 1.b.V.9.6.4.+.o.O.B.T.~.Q.T.T.R.rXrXrXR.R.R.R.R.uXrXrXR.R.rXH.H.F.D.F.F.F.H.H.H.H.H.R.R.rXrXrXrXeXyXR.R.E.E.5.4 + / P.E.U.F.F.z.k.S.F.F.D.S.D.F.F.F.F.F.F.H.H.H.F.F.F.F.H.H.H.F.0XrXrXrXrX0X0XR.G.G.R.pXaXaXaXaXrXuXpXMX%X%XW.I.v 1 1 9 3 h x e ` *.<.<.=.' _ ` ` ..o.6.6.6.6.4.7.7.4.4.4.4.4.4.7.4.4.4.4.3.3.3.3.3.3.3.3.3.3.3.3.3.3.3.4.4.:.:.;.' ;.3.*.<.` ; ",
": c  .c ,.` j ` ) ` ` ` ` ' =.=.' ' [ [ [ [ [ [ [ [ [ [ [ [ [ [ ;.3.3.3.3.3.;.;.3.4.7.g.c.g.9.7.g.K.9.3.<. .c k k 3 3 3 $ 3 c c ) _ _ ' _ ' ' ' ;.;.;.;.' ' ' ' [ ' [ [ [ [ [ [ 3.3.3.3.4.4.4.4.4.O.O.O.4.4.4.O.O.O.{ O.{ } [ [ [ ' 3.4.3.9.0.5 2 2 h ` ' [ } } { O.4.4.a.d.d.d.g.g.g.g.d.d.d.d.g.g.h.g.g.a.a.a.d.g.h.C.C.g.g.g.h.d.4.4.4.a.d.d.g.7.7.g.V.g.4...c c h f f f f f k c ` ` _ ( ] ] } { 4.7.4.4.4.7.g.g.g.g.g.d.d.a.d.d.a.a.4.4.4.4.4.4.4.4.4.4.4.4.7.d.d.g.h.h.j.a.a.a.a.4.g.6.~ ; > j 0.8.0.3.3.4.4.4.4.4.3.o.4.6.6.$.$.$.$.d.d.d.d.$.$.d.d.A.g.g.f.f.C.D.G.D.C.h.f.C.T.R.pXpXpXpXpXMXMX~.Z.A.6.+.N.l i i k k f k ^ ' o.( ( o.o.o.O.d.G.T.T.G.D.D.rXrXR.R.R.R.R.R.rXrXR.R.R.R.H.H.F.F.H.H.H.H.H.H.H.R.rXrXrXrXrXeXyXrXR.T.E.P.` ; > ` E.Q.U.l.l.x.&.S.H.R.H.F.D.D.F.F.D.D.D.F.H.H.F.F.F.F.H.H.H.F.H.0XrXrX0XH.H.R.G.R.pXpXpXdXdXdXuXsXMX%X%X%XI.I.2.g f f 9 k c h *.<.<.3.<.=.3.o.' o.3.6.6.4.4.4.d.7.d.a.a.7.a.7.7.4.4.4.4.4.3.3.3.3.3.3.3.3.3.3.3.3.3.3.4.4.:.:.;._ ;.3.=.<.` ; ",
": c ,.` <. .) ` ) ` ` ` ` ` =.=.' ' [ [ [ [ [ [ [ [ [ [ [ [ [ [ ;.;.3.3.3.3.3.3.3.4.7.g.c.g.9.7.9.7.0.` ^ j h i v 1 3 : + 3 c ` _ _ ' _ ' ' ' ' ' ' ' ' ' ' ' ' [ [ [ [ [ [ [ [ 4.4.4.4.4.4.4.4.4.O.O.O.4.4.4.4.4.4.O.O.O.{ { o.] ] [ 4.0.9.8.e e e k ` ' o.{ } { 4.4.7.d.d.d.d.g.g.g.g.g.d.d.d.4.d.g.g.g.g.g.h.d.h.L.T.P.L.g.g.h.d.a.4.4.7.7.7.7.7.7.9.g.9.3...c z h f 2 i f h c `  .....[ [ [ } 4.7.d.d.4.7.a.g.g.g.g.g.g.g.d.a.a.a.a.4.4.4.4.4.4.4.4.4.4.4.4.7.d.g.g.h.j.a.a.{ a.4.4.9.9.^ > 6 ` 8.9.0.3.4.4.4.4.4.4.o.o.4.6.g.d.$.$.$.d.d.g.g.d.d.d.g.B.A.g.f.h.C.D.G.D.C.h.h.D.T.~.pXpXMXMXQ.~.~.Z.+.o... ...l 2 i h k v v ..6.6.6.4.g.B.B.d.f.G.G.G.G.D.D.rXrXrXrXrXR.R.R.rXR.R.H.H.H.H.F.H.H.H.H.H.H.H.H.R.R.rXuXuXrXrXeXrXeXY.G.T.P.( ; 4 o.!.~.U.k.x.x.&.S.H.R.H.F.D.D.F.F.F.F.F.H.H.H.H.F.F.F.H.0XH.F.F.H.rXrX0XH.0XrXG.~.pXpXpXdXBXdXsXVXMX!.I.V.9.8.y.v v v 9 h c x 0.8.8.0.0.3.3.3.3.4.6.7.7.4.4.4.g.d.d.d.d.d.a.a.4.4.4.4.4.3.3.3.3.3.3.3.3.3.3.3.3.3.3.3.4.;.:.:.;.' ;.=.=.<.` ; ",
"> ` ,.` <.' ` ' ) ` _ _ ` ' ' ' ' ' ' [ [ [ [ [ [ [ [ [ ;.;.;.;.;.;.3.3.3.3.3.;.4.7.9.g.c.g.9.7.7.8.;.^ s a h f v 1 : : + 3 D ` ` ' _ _ _ _ ' ' _ _ ' ' ' ' ' ' ' ' [ [ [ [ [ [ 4.4.4.4.4.4.4.4.O.O.O.O.4.4.4.4.4.4.4.O.O.O.O.o.( ] ' [ =.0.<.3 h h x ` ..3.{ { { 4.4.a.d.g.g.g.g.g.g.g.g.d.d.d.7.d.g.g.g.g.g.h.d.C.T.E.T.L.g.g.h.d.a.4.4.4.4.6.4.4.4.7.9.6.3...x k f 2 2 i h h `  .<.5.3.4.4.4.O.4.g.g.d.a.a.d.g.g.g.g.g.g.d.d.a.a.a.4.4.4.4.4.4.4.4.4.4.4.4.4.6.d.d.g.h.j.a.a.{ O.4.4.7.9.( > r ' 9.9.7.3.4.7.4.4.4.4.o.O.4.d.g.d.d.d.d.d.f.B.C.B.f.f.f.B.g.d.f.h.C.D.G.D.C.C.D.G.R.~.pX~.~.~.R.Q.W.d.X.X.......l a h k k v ,.5.g.A.6.+.d.g.d.B.C.G.G.F.F.H.H.rXrXrXrXrXrXrXR.rXR.H.H.H.H.F.F.H.H.H.H.H.H.H.H.R.rXuXuXuXuXR.H.H.F.D.G.E.E...> 6 5.!.~.T.k.x.z.k.S.F.F.S.S.D.F.F.F.F.F.J.H.H.rX0X0XF.H.0X0XH.F.J.F.rXrXrXrXrXuXG.~.NXsXsXNXVXdXsXsX~.A.o.5.<.,.2.v h f : 3 c x <.<.0.0.0.0.4.4.4.6.7.7.7.7.7.7.g.g.d.d.d.d.d.d.4.4.4.4.3.3.3.[ [ [ [ [ [ [ [ [ ;.3.3.3.;.;.:.;.;._ ' ' ` 0.*.; ",
"> ` <.` <.' ) ' ) ) _ _ ` ` ' ' ' ' ' [ [ [ [ [ ;.[ [ [ ;.;.;.;.3.3.3.3.;.;.3.3.4.7.9.c.c.g.9.7.9.8.=.^ s j l k v 1 : : + 3 D *.` ' ' ' _ ' ' ' _ _ ' ' ' =.;.[ ' ' [ [ [ [ [ [ 4.4.4.4.4.4.4.4.4.O.O.O.4.4.4.4.4.4.4.4.O.O.O.o.+.( ' ( ] ` ) ; h h l ` 3.4.O.{ { 4.4.a.d.d.g.g.g.g.g.g.g.d.d.d.g.h.L.C.g.d.d.g.d.C.E.E.T.L.g.g.h.d.4.O.4.4.4.4.4.4.4.6.6.4.o.` x h i 2 2 i h h  . .<.3.4.4.7.a.4.a.g.h.g.g.g.g.g.g.g.g.g.g.g.d.d.7.a.4.4.4.4.4.4.4.4.4.4.4.4.4.6.d.d.g.h.j.a.a.{ { { o.9.9.' 4 j <.9.c.7.4.4.7.4.4.4.O.O.O.4.d.B.f.d.d.d.g.B.C.C.C.B.B.B.B.f.d.f.h.B.D.G.D.D.C.G.T.R.Q.~.R.R.R.Q.~.T.d.X.X.5.n. .l h h f f v  ...6.A.A.B.C.T.G.G.D.D.D.F.F.0XrXrXrXrXrXrXrXrXrXR.H.H.H.H.F.F.D.H.H.F.F.F.F.F.D.R.rXuXpXpXuXR.H.z.z.l.G.Q.!.5.> 4 5.!.~.T.k.l.J.k.S.S.k.&.f.D.H.F.F.F.H.H.H.R.rXrX0X0XH.0XrX0XF.J.F.0XrXrXrXuXuXD.~.NXpXpXdXVXdXQ.Q.T.6.X...5.1.,.k h h : 2 c ` ` ' 3.0.8.7.g.C.4.7.d.d.d.7.g.g.g.g.g.d.d.d.d.7.4.4.4.3.3.3.[ [ [ [ [ [ [ [ [ [ ;.3.3.3.;.;.;.;.;.' ' ` ` 0.*.> ",
"j ` *.*.' ` =.3.` ` ' =.=.=.' ' ;.;.[ [ [ [ ;.;.;.;.;.;.;.3.3.3.3.3.;.;.;.;.[ [ 4.4.7.7.7.9.7.7.g.8.' 6 6 5 h h f 2 : $ : 2 x *.` ' _ _ ] ] ] _ _ _ _ ` ' ' [ [ ' ' ' [ [ [ [ [ ' [ 3.4.4.7.7.7.4.4.O.O.O.4.d.g.O.O.4.4.O.{ [ } ( o.o.[ 7.K.<., , h c ..o.3.O.O.d.a.7.7.d.g.g.g.a.a.d.d.d.d.d.d.C.C.h.h.g.g.g.g.C.L.L.L.L.L.g.g.g.d.4.4.d.d.7.4.7.7.4.o.o.' ( ` ` h : 3 2 i a h ,.<.5.4.7.d.j.a.j.g.g.h.h.h.h.h.h.h.h.h.h.h.h.g.g.g.g.g.d.a.4.4.7.7.4.4.4.4.4.4.g.g.d.d.a.a.a.{ a.{ } 4.9.5.^ 4 ) 3.8.8.7.7.g.L.g.a.a.a.d.7.6.+.d.d.d.d.d.s.d.d.f.f.h.C.C.C.C.G.G.D.C.h.f.s.f.h.G.T.R.~.~.R.R.R.Q.Q.Z.+.~ ~ / / ..l 5 i i i v ,.o.o.4.A.G.T.R.T.T.G.H.H.eX0X0XH.uXuXuXrXrXR.R.R.H.H.H.F.F.F.D.D.H.H.H.F.F.F.F.F.S.F.H.rXR.F.S.k.&.x.k.h.T.!.5.4 ` b.!.T.G.D.F.J.rXk.&.D.D.&.k.R.rXR.F.F.F.R.uXuXaX0XH.rXrXJ.S.H.H.rXuXrXF.J.J.F.R.~.pXsXpXuXuXQ.uXQ.C.6.o.5.5.1.c k f i 9 h c <.0.5.8.9.g.g.g.g.d.g.g.g.g.g.g.g.g.d.d.g.a.a.7.7.4.4.4.4.4.3.3.3.3.[ [ [ [ [ [ [ ;.;.;.[ ' ' ' ' [ ] ' ;.` *.` > ",
"j ` *.*.' ` =.3.` ` =.=.;.=.' ' [ ;.;.[ [ [ [ [ ;.;.;.;.;.3.3.3.4.4.4.3.3.;.;.;.4.4.4.7.7.9.7.7.7.4._ 6 4 a c v h f 1 : < 2 x *.` ' _ _ ] _ _ _ ` ' ' ' ' ' [ [ ;.[ [ [ o.4.3.3.[ [ 3.4.4.7.7.7.4.4.4.O.4.4.a.d.4.4.4.4.4.O.{ o.( o.( [ 4.K.<.5 , a l  .o.+.O.O.g.g.d.g.g.g.g.g.a.a.a.d.d.d.d.d.g.g.h.C.L.C.L.C.g.h.L.L.P.L.h.g.d.a.4.4.d.g.7.7.7.7.6.3.o.' ( / ` h 3 3 i i a l ....5.6.7.g.j.j.j.g.h.h.h.h.h.h.h.h.h.h.h.h.h.h.g.g.g.g.d.d.7.4.a.a.a.7.7.7.7.4.g.d.d.d.j.a.a.a.4.{ { 7.g.9.` 6 ( 3.9.7.4.7.g.g.a.a.a.a.d.d.d.O.d.d.d.d.d.d.d.d.f.f.f.h.C.C.C.C.G.D.D.D.D.D.D.G.D.G.R.R.R.R.R.R.Q.T.d.~ 6 d ( 5.5. .a a i i v 1.9.g.A.C.T.R.T.G.H.H.H.0XrXrX0X0XrXuXrXrXrXR.R.R.H.H.H.H.F.F.D.D.D.D.D.F.F.F.F.F.F.H.H.R.H.D.k.k.F.H.F.D.T.P...> ` b.!.T.G.D.F.H.H.k.k.H.H.k.k.H.R.R.H.F.F.H.rXuXuXH.H.uXuX0X0XuXrXrXuXrXF.F.H.rXT.~.pXsXpXuXQ.Q.dXpXZ.+.( / `  .c k i 2 9 h c ..3.3.8.9.g.g.g.g.g.g.h.g.g.g.g.g.d.d.d.g.a.a.7.4.4.4.4.4.4.3.3.3.3.3.[ [ [ [ [ [ ;.;.;.[ ' ' ' ' [ _ ;.3.=.*.` > ",
"j ) *.<.' ` =.3.` ' =.=.;.;.;.' [ [ [ [ [ [ [ [ ;.[ ;.;.;.;.3.3.7.7.4.4.4.4.3.3.4.4.4.7.7.7.7.7.7.8.' j s ` ,.,.c k f 3 3 9 z ` ` ' ' _ _ _ _ _ ;.;.;.;.' ' [ ' ;.[ [ [ [ 3.[ [ ' [ [ [ 3.4.4.4.4.4.4.4.4.4.a.d.4.4.4.4.4.4.O.O.( o.( ( 3.9.<.5 , a l  .o.4.d.d.g.g.g.g.g.g.d.d.7.7.7.a.7.d.d.d.d.g.C.L.P.P.P.L.g.g.L.L.P.L.C.g.d.a.4.a.d.g.g.d.7.7.6.4.o.' ( / c a , 2 i i a l ....3.6.d.d.d.j.g.h.h.h.h.h.h.h.h.h.h.h.h.h.g.g.a.d.g.g.g.g.d.d.d.d.d.d.d.a.a.a.d.7.a.a.j.a.a.a.{ a.a.g.V.9.o.s / 3.9.7.7.7.g.g.a.a.a.a.d.g.d.d.d.d.d.d.d.s.s.s.f.f.f.h.h.C.C.C.D.D.G.G.G.G.G.G.C.G.T.R.R.R.R.R.pXQ.C.} ~ ( A.I.b...c h h h b 1.A.B.B.G.T.R.T.G.H.H.H.0XrXrXrXrXrXuXrXrXrXR.R.H.H.H.H.H.F.F.F.F.k.S.D.F.F.F.F.F.H.H.H.H.F.S.k.k.k.l.D.D.T.E.5.6 ` b.!.T.D.D.F.eXS.f.S.rXuXD.k.S.R.H.H.H.F.H.H.H.0XF.F.rXuXrXrXaXrXuXuX0XH.H.rXuXT.R.pXpXuXuXuXQ.sXuXC.o.~ ~ / <.b v h i h h c <.3.3.8.g.g.h.g.g.d.g.h.h.h.h.g.g.d.d.d.d.7.7.7.4.4.4.4.4.4.4.3.3.4.3.[ [ o.3.[ [ ;.;.;.[ ' ' ' ' ;._ ;.3.*.<.*.3 ",
"j ) =.<.*.' =.3.` ' =.=.;.;.;.;.[ ' [ [ [ [ [ [ ;.;.[ ;.;.;.;.3.4.4.4.4.4.4.3.3.3.3.4.7.7.7.7.7.7.9.8.' ' <.2.,.k h i 3 3 9 x ` =.' ' ' ' ' ' ' ;.;.;.;.' ' ' ' [ [ ' ' ' ' ' ' ' ' ' [ [ [ 3.o.4.4.4.4.4.4.7.a.a.a.4.4.4.4.4.O.o.o.( ] o.9.<.5 5 a j / 5.6.g.h.g.g.g.d.d.a.4.O.4.4.4.7.7.d.d.d.d.g.L.P.T.P.L.L.a.g.C.L.P.L.C.g.a.a.4.d.g.g.g.g.7.7.7.6.3.' ( ) c h 2 a a a a l ....o.7.d.h.h.j.j.h.h.h.h.h.h.h.h.h.h.h.j.j.j.j.a.d.g.g.g.g.g.g.g.d.d.d.d.d.d.d.4.4.a.a.j.j.j.j.{ j.h.g.V.b.o.s ^ [ 7.g.g.g.g.g.a.a.$.a.g.g.g.d.f.f.f.f.f.f.f.f.f.f.f.f.f.f.f.f.C.D.G.G.G.G.D.D.h.D.T.R.R.R.R.R.pXsXpXT.Z.Z.P.I.5. .c c l k c 1.+.$.g.G.T.R.R.R.H.H.0XrXrXtXtXrXrXrXrXrXR.R.H.H.H.H.H.H.H.H.H.H.S.D.F.H.H.F.F.D.H.H.H.F.F.D.S.k.%.l.D.D.T.!.b.^ ` b.!.T.D.D.eXeXS.k.S.rXuXH.S.D.H.H.H.H.H.F.F.F.F.J.F.H.0XH.0XrXrXrXuXuXrXrXrXuXT.R.pXuXuXuXuXuXuXQ.D.O.( o.6.b.,.b k k k l ` <.5.3.6.g.h.L.h.h.h.h.h.h.h.h.g.j.g.g.d.d.7.7.4.4.4.4.4.4.4.4.4.3.4.3.3.3.3.3.[ [ ;.;.[ [ [ ' ' ' ;.[ 3.3.*.0.<.3 ",
"r ) =.3.=.` ' ;.' =.=.;.;.;.;.;.[ [ [ [ [ [ [ [ [ [ [ [ ;.;.;.;.;.;.;.;.;.;.;.;.3.3.4.7.7.7.7.4.4.9.9.0.3.1.,.v f i 3 3 3 9 x ` =.' ' ' ' ' ;.;.;.;.;.;.' ' ' ' [ ' ' ' ' ' ' ' [ [ [ [ [ 3.3.3.7.4.7.7.4.7.7.7.a.4.4.4.4.4.4.4.o.o.( ] o.9.<.5 a a l / 5.g.h.B.h.g.g.d.d.7.4.4.4.4.7.a.d.g.g.g.g.g.L.P.P.L.g.g.4.d.C.L.P.L.C.g.a.a.a.d.g.g.g.g.7.7.7.7.3.[ ( / c a i a h a l / ....3.7.g.h.h.h.h.h.h.h.h.h.j.j.h.h.j.j.j.j.j.j.d.g.g.g.g.g.g.g.g.g.d.d.d.d.d.d.4.4.a.a.j.j.j.j.a.h.L.g.V.b...6 6 ' 7.g.g.g.g.h.a.a.O.d.f.f.f.g.f.f.s.f.h.h.s.s.h.h.f.f.f.f.f.f.B.C.D.D.C.h.s.d.h.D.G.T.R.R.R.R.T.R.R.R.T.T.V.6.` ^ j `  .c c <.o.$.f.G.T.R.rXrXH.0X0X0XtXtXtX0XrXrXrXR.R.H.H.H.H.H.H.H.H.H.H.H.H.R.R.R.H.F.D.S.D.D.F.F.F.F.D.J.F.9XR.G.T.P.5.6 ` b.!.E.U.F.eXeXF.S.S.F.R.H.F.H.H.H.H.F.F.F.F.F.H.F.F.H.H.F.F.H.F.0XuXiXuXrXH.H.R.R.pXpXuXuXuXuXuXuXR.B.g.V.I.W.,.v k h h j ` ..5.3.7.g.h.L.h.h.h.h.h.h.h.h.j.j.d.d.g.d.7.7.4.4.4.4.4.4.4.4.4.4.3.3.3.3.3.3.[ [ [ ' [ [ [ [ ' ' ;.;.7.3.*.8.<.3 ",
"r ) =.3.=.' ' =.' =.=.;.;.;.;.;.;.;.[ [ [ [ ;.;.[ [ [ [ ;.;.;.;.[ [ [ [ [ ;.;.;.3.3.3.4.7.7.7.4.3.6.9.0.3.<.c h 2 2 3 3 3 h x ` =.' ' ' ;.;.3.3.;.;.;.;.' ' ' ' ;.[ [ [ 3.3.3.[ 4.4.4.4.4.4.4.7.7.7.a.d.d.a.4.4.4.4.4.4.4.4.4.4.+.+.( ( o.9.<.5 a a c  .5.A.f.h.U.L.g.g.g.g.d.d.7.7.d.d.g.g.g.g.h.C.L.L.L.h.g.d.4.g.C.U.T.P.C.g.d.a.4.d.g.g.g.7.4.6.7.7.4.o.' / j a a k k a l  .....o.7.g.h.h.h.h.h.h.h.h.h.j.j.h.h.h.h.j.j.j.g.g.g.g.g.g.g.g.g.d.d.d.d.d.a.a.7.4.4.a.a.j.j.j.a.j.h.L.g.V.K.' > 6 ( 7.V.g.g.g.g.a.$.$.d.f.h.f.f.s.s.s.s.s.s.s.s.h.h.h.f.f.s.s.s.h.h.h.f.s.d.$.$.C.D.G.T.T.T.R.R.R.R.G.C.C.G.g.o.^ s j `  .c c <.6.f.G.T.R.rXrXrX0X0X0X0XqXqX0X0XrXrXrXR.R.H.H.H.H.H.H.H.H.R.R.rXuXuXrXR.H.F.F.D.k.S.D.F.F.F.F.J.z.H.Y.G.T.E.5.6 / b.!.!.R.H.eX9XF.S.k.S.H.H.R.H.H.H.F.F.F.F.H.H.rXrXrX0XH.0XH.F.J.F.rXrXrXF.J.S.T.R.pXuXrXrXuXaXuXuXR.C.C.K.K.b.c k i i a h l  .5.3.7.g.C.L.C.h.h.h.h.h.h.j.j.j.g.d.g.d.7.7.4.4.4.7.7.7.7.7.4.4.3.3.o.[ 3.3.[ [ [ ' [ [ [ [ ;.;.;.;.7.3.` 8.<.> ",
"r ) ;.3.3.' ' =.' =.=.;.3.3.3.;.;.;.;.;.;.;.;.;.[ [ [ [ [ ;.;.;.[ [ [ [ [ [ ;.;.;.;.3.4.7.7.7.4.3.8.8.3.<.<. .k f f f 2 9 h x ` =.' ' =.;.;.3.3.;.;.;.;.;.' ' ' 3.3.3.3.4.4.4.4.4.4.4.3.3.4.4.4.7.a.d.d.d.a.4.4.4.4.O.O.O.O.4.+.+.+.o.( 6.V.<.5 a h l ..6.A.f.g.U.L.g.a.7.d.g.g.a.d.g.g.g.h.h.C.C.L.L.L.C.g.g.g.7.g.L.T.E.P.C.g.a.a.a.d.g.g.7.4.+.4.7.7.6.3.[ ` j h a l l a l  .....5.6.h.h.l.h.h.h.h.h.h.h.j.j.h.h.h.h.h.h.h.h.h.g.h.h.g.g.g.g.a.7.7.7.7.7.7.4.6.6.a.a.j.a.a.a.j.h.h.g.L.P.o.> 6 [ g.K.V.g.a.a.a.a.a.d.f.B.f.f.f.f.f.f.h.h.s.s.h.h.h.h.f.s.s.s.h.f.s.s.d.d.d.s.C.G.G.T.T.T.T.T.pXuXR.G.T.T.C.4.' ^ ^ / c c  .<.6.f.G.R.R.R.R.R.0X0X0X0X0XqXqX9XrXrXR.R.H.H.H.H.H.H.H.R.R.rXrXrXrXrXH.F.F.F.F.F.k.S.F.H.H.F.S.l.x.z.D.G.E.!.9.6 ^ 9.%X%XQ.R.eXH.F.S.k.S.H.rXR.H.H.H.F.D.D.F.H.rX0XrXrX0XH.0X0XF.F.F.F.J.S.k.k.S.G.Y.R.H.H.H.0XuXuXR.G.C.C.L.9.<.v k i a a j / ..5.3.7.g.C.L.U.l.h.h.h.h.h.j.j.j.g.g.d.d.7.7.4.4.7.7.7.7.7.4.4.4.3.3.[ [ [ [ [ [ ' ' [ [ [ [ ;.;._ ;.7.=.` 8.<.> ",
"r ) ;.3.;.' ' ' ' =.;.;.3.3.3.;.3.;.;.3.3.3.3.3.' [ [ [ [ ;.;.;.[ [ [ [ [ ;.;.;.;.;.;.4.7.7.7.4.7.g.9.0.<.5.1.,.k h f i 9 h x ` ` ' ' [ ;.3.3.4.;.;.;.;.;.[ ;.[ 3.o.;.3.4.4.7.4.4.o.[ [ [ [ ;.4.4.d.d.d.d.a.4.4.4.4.O.{ { O.O.O.+.+.o.o.6.V.5.6 h j ` 5.b.V.g.d.L.g.7.o.O.4.a.g.d.d.g.g.h.C.L.L.C.C.C.C.C.h.g.g.a.g.L.T.T.L.C.d.d.d.a.d.d.g.6.+.o.4.7.7.7.3.o.` j a h l l a l ....o.4.d.h.h.l.l.h.h.h.h.h.j.j.j.h.h.h.h.h.h.h.h.h.h.h.h.h.g.g.a.a.a.4.4.4.4.4.4.7.6.a.a.a.a.a.a.j.h.g.d.L.!.3.> ^ o.V.L.V.d.$.{ a.a.$.d.f.h.f.f.h.h.h.h.h.h.h.h.h.h.h.h.s.s.s.s.f.f.s.d.s.f.h.C.D.D.U.Y.Y.U.U.T.H.rXpXpXpXQ.C.+.3.` j j j j ` 5.O.$.S.G.R.R.R.rX0X0X0X0X0X9XJ.J.rXrXR.R.R.H.F.H.F.H.R.R.rXrXrXrXR.R.F.D.D.F.H.R.D.D.F.R.R.F.k.f.Y.eXY.G.T.T.o.> ^ 9.^.MX~.R.Y.F.l.k.S.D.H.rXR.F.H.F.D.S.D.F.R.uXD.H.H.F.F.H.H.F.H.F.l.&.%.&.k.S.l.D.F.F.F.H.0XrXpXR.G.G.T.T.V.5.` k k k l l  .5.o.4.a.h.h.D.U.l.h.l.h.h.h.j.j.a.h.g.d.d.d.7.4.4.7.7.7.7.7.4.4.4.3.[ [ [ [ [ [ [ ' ' ' [ [ [ ;.;.' ;.7.=.) 8.<.> ",
"6 *.=.) 3.0.' _ ;.=.' [ ;.;.;.;.;.[ [ [ [ [ [ [ 3.3.3.o.[ [ [ ' ' ' ' [ [ [ [ [ 3.3.3.4.4.4.7.7.4.7.7.7.7.3...` ,.h 2 3 : 5  .` ' [ ;.3.3.3.4.3.;.[ [ [ [ [ [ [ [ [ [ } [ o.4.4.4.O.[ [ [ } } } 4.4.d.g.g.d.7.4.O.} } } { O.4.O.+.+.o.( o.P.9.> 6 j ..5.9.V.L.L.g.g.d.7.7.7.g.g.C.g.7.7.g.V.L.L.g.g.g.g.g.g.d.g.O.d.h.B.g.d.d.g.g.g.g.g.g.7.7.4.g.4.o.o.4.3.[ ^ / d a l l s ~ / o.+.g.f.h.f.f.k.l.l.h.f.f.f.f.h.f.f.f.f.f.f.f.s.s.g.g.j.a.a.a.a.j.j.g.j.a.a.{ { d.d.d.a.a.4.a.a.a.j.a.O.V.W.6.4 6 3.9.4.g.g.a.d.d.s.s.s.s.s.f.f.k.k.k.f.f.f.f.f.D.l.l.f.s.s.s.s.f.f.f.d.%.%.s.h.%.h.D.Y.T.R.rXrXY.R.R.rXR.Y.C.A.5./ a l  ./ ..g.$.f.H.R.uXuXuXpXuXrXeX0X0X0XH.H.rXeXrXeXrXeXrXeXyXrXyXrXrXeXR.Y.k.l.D.F.F.D.D.l.D.F.Y.Y.D.D.D.F.l.rXR.D.T.E.4.4 ( V.E.T.R.R.l.f.F.D.S.D.F.H.H.F.H.H.H.H.H.H.H.H.F.F.F.D.D.D.D.D.l.S.k.S.k.S.k.k.F.Y.Y.R.R.R.rXrXR.R.T.T.U.C.f.g.5.s a k a l ..| o.a.l.z.l.k.h.D.l.l.l.h.h.h.h.h.j.j.j.a.a.d.a.d.4.4.3.3.3.[ [ [ 3.[ [ [ ' ' [ [ ' ' ;.;.;.;.;.;.[ ;.=._ 3.8.' 6 ",
"6 =.<.` 3.0.' ` ;.=.' [ ;.;.;.[ ;.[ [ [ [ [ [ [ 3.3.o.[ [ [ [ [ ' ' ' [ [ [ [ [ [ o.3.4.4.4.7.7.4.7.7.7.4.3.' ` c 2 2 i , h ..` [ [ 3.3.3.3.3.[ [ [ [ [ [ [ [ [ } } } [ [ } } } 4.4.O.} } } [ { 4.4.a.g.g.d.4.4.4.O.O.O.4.4.7.4.+.+.o.( o.P.9.> 4 j ..5.9.V.V.V.g.g.g.g.g.g.g.g.V.g.7.7.g.V.C.C.g.g.g.g.d.d.d.d.+.d.B.C.B.d.d.g.A.V.V.g.g.g.7.7.7.4.o.o.4.4.[ ( / k a l l s ~ ( o.d.f.C.h.f.k.k.l.k.f.f.f.f.f.f.f.f.f.f.f.f.f.s.s.h.g.j.a.a.a.a.a.a.a.a.a.a.a.a.d.d.d.a.a.4.a.j.j.g.a.o.6.K...> > o.g.7.C.C.j.d.s.s.s.s.s.s.h.h.k.k.k.f.f.f.f.f.l.l.h.f.s.s.s.s.s.f.f.d.%.%.s.h.$.s.l.D.D.F.Y.R.Y.R.rXyXrXY.D.A.5.l d l | / ' d.s.S.R.rXuXrXrXuXuXrXR.R.R.R.H.F.rXrXrXrXrXrXrXrXrXrXrXrXrXY.Y.Y.D.D.D.D.D.l.f.f.D.Y.Y.Y.D.D.D.D.k.F.D.C.T.!.6.6 ] V.E.T.R.Y.l.k.D.D.S.D.F.H.F.F.H.H.H.H.H.H.H.H.R.R.T.F.G.G.G.G.k.k.l.k.l.l.l.l.D.D.F.F.Y.R.R.R.T.R.R.R.T.D.h.g.o.s a k a l ....O.s.x.z.l.l.h.D.l.l.l.h.h.h.h.h.j.j.j.j.a.a.a.a.4.4.3.3.3.[ [ [ [ [ [ [ ' ' [ [ [ [ ;.;.;.;.;.;._ ;.` ) =.0._ > ",
"6 =.<.` 3.3.` ` ;.' ' [ ;.;.;.[ ;.[ [ [ [ [ [ [ [ [ [ [ [ ' ' ' [ ' ' [ [ [ [ [ [ [ 3.3.4.4.4.7.4.4.7.7.7.3.<. .a 3 i k a l ..) 3.4.3.3.3.[ [ [ 3.3.3.3.3.3.3.o.{ [ } } } } [ { 4.4.O.O.O.O.4.4.4.4.a.d.d.7.4.4.4.4.4.4.4.7.7.4.O.+.o.( o.P.9.> > s ..5.9.9.8.4.7.7.7.7.7.7.7.7.g.7.7.g.g.V.V.A.g.g.g.g.d.d.d.d.+.g.C.C.B.g.g.A.C.V.V.V.V.g.g.7.7.4.+.4.4.7.o...| d a s s s ~ ( O.a.f.h.h.f.k.k.l.k.f.f.f.f.f.f.f.f.f.f.f.f.f.h.s.h.j.j.a.a.a.a.{ { { O.a.a.j.j.d.d.d.a.a.a.a.j.j.g.a.4.g.V.' > > ..g.g.L.L.d.h.s.s.s.s.f.f.h.h.f.f.f.f.f.f.f.f.l.h.f.s.s.s.s.s.d.d.d.d.d.d.s.f.$.s.k.D.D.D.Y.R.F.T.rXyXrXY.G.A.5.l d l | / ' d.D.F.rXrXrXrXeXrXuXrXrXeXeXeXH.H.rXrXrXrXrXrXrXrXR.R.R.Y.Y.F.F.l.D.D.D.l.k.k.f.f.D.Y.Y.F.D.l.l.D.D.D.l.h.T.!.4.u W g.T.T.R.R.D.F.D.S.S.S.F.F.F.F.R.R.R.H.H.H.H.H.R.R.Y.G.D.D.D.D.k.k.k.h.h.h.h.h.l.D.D.D.F.Y.T.T.Y.T.R.R.T.G.h.g.o.s a k a l ....O.s.l.z.l.l.h.D.l.l.h.h.h.j.j.j.j.j.j.a.a.a.a.a.4.4.3.3.3.[ [ [ [ [ [ ' ' ' [ [ [ [ ;.;.;.;.;.;._ ;.' ) =.0.) > ",
"> <.3.` 3.3.' =.;.' ' [ ;.;.;.[ ;.[ [ [ [ [ [ [ [ [ [ [ ' ' ' ' [ ' ' [ [ [ [ [ [ [ [ 3.4.4.4.4.4.4.7.7.4.3.<.<.a 2 a k a l ' ) 3.3.3.3.3.3.3.3.4.4.4.4.4.4.3.3.4.4.4.4.4.4.4.4.O.O.O.O.O.4.4.4.4.4.7.a.7.4.4.4.O.{ O.O.4.4.4.O.O.o.o.X.4.P.g.> > r ' 5.8.8.0.o.4.4.4.7.7.4.4.+.7.7.g.g.g.g.g.6.d.d.d.d.d.d.d.d.d.B.G.T.C.B.B.B.C.C.L.V.V.g.g.7.g.7.7.7.7.7.4.o...l a s s s ~ ( o.a.s.f.f.s.s.f.k.k.f.f.f.f.f.f.h.h.k.k.k.h.h.h.s.h.j.j.a.a.a.a.{ { { { O.a.j.g.a.7.d.a.a.a.j.j.j.j.a.7.V.I.o.4 > 3.V.g.L.L.d.h.s.s.s.s.f.f.h.h.f.f.f.f.f.f.f.f.f.f.s.s.s.s.s.s.d.d.%.%.d.d.s.f.s.k.D.D.G.F.eXrXD.F.Y.rXrXY.G.A.5.l d l | / ' d.k.F.eXrXrX0XeXeXuXrXrXeXeXeXH.H.rXrXrXrXR.R.R.R.Y.Y.Y.F.F.l.l.k.k.f.f.f.f.l.D.D.D.F.Y.D.l.l.l.l.Y.D.f.h.R.!.o.u u +.T.R.R.R.R.rXD.S.S.S.F.H.F.F.rXrXR.R.H.H.H.F.F.G.D.l.h.h.f.f.f.f.f.f.f.h.h.f.l.l.D.D.F.F.Y.T.F.T.R.R.T.G.D.f.o.s d n p n X...O.a.l.z.x.k.h.h.l.l.h.h.j.j.j.j.j.j.a.a.a.a.a.a.4.4.3.3.3.[ [ [ [ [ [ ' ' [ [ [ [ >.;.;.;.;.;.;.;.3.;.` 3.8.` > ",
"6 <.0.' ;.3.' =.;.' ' [ ;.;.;.[ ;.[ [ [ [ [ [ [ [ [ ' ' [ ' ' ' [ [ ' [ [ [ [ [ [ [ [ 3.3.4.4.4.4.4.4.4.4.3.3.<.c a k k 2 h ' ` [ [ 3.3.3.4.4.4.3.4.4.4.4.4.4.3.{ O.O.O.O.4.4.4.{ { O.O.O.O.O.O.4.4.4.4.4.4.4.O.O.O.O.4.7.4.4.O.+.+.+.o.6.W.V.4 > r ' 5.8.8.4.3.4.4.7.7.7.7.4.4.7.7.g.g.g.g.7.6.d.$.d.d.d.g.g.g.g.C.T.T.C.B.B.C.V.V.V.V.g.g.d.7.g.g.g.g.7.4.+.o.5.| a s s s ~ ( o.O.d.s.s.%.%.s.k.h.h.f.f.f.f.f.f.f.f.f.f.f.f.h.s.g.g.j.a.a.a.a.a.4.{ { 4.a.j.j.a.7.g.d.a.a.j.j.j.a.7.7.V.K.o.6 6 9.L.g.C.g.d.U.s.s.s.f.f.f.f.f.f.f.f.f.f.f.h.h.s.s.s.s.s.%.s.d.$.$.$.%.d.f.f.h.f.h.l.D.D.D.Y.R.D.G.Y.Y.Y.F.G.Z.5.l d l | / ' d.f.S.H.rXeXH.eXeXrXrXeXeXeXeXH.H.Y.Y.eXeXY.R.Y.R.F.F.F.F.D.l.k.f.f.f.s.s.f.l.D.F.D.D.F.D.l.l.l.l.Y.l.s.h.Q.Q.+.u 6 6.!.Q.R.T.Y.eXD.D.S.D.F.H.H.F.R.R.H.H.H.H.H.J.D.D.D.h.f.f.f.f.h.h.f.f.h.f.f.f.l.D.D.D.F.Y.Y.Y.G.F.T.R.T.G.D.f.5./ l l p d  ...{ $.k.x.x.s.s.s.h.l.h.h.j.j.j.j.j.a.a.a.4.a.4.4.4.4.3.3.3.[ [ [ [ [ [ [ [ [ [ [ ' ' ;.;.;.;.;.;.;.3.;.` 3.8.` > ",
"> 3.0.' 3.3.' ;.;.' ' [ ;.;.;.[ ;.[ [ [ [ [ [ [ ' ' ' ' [ [ ' ' ' ' ' [ [ [ [ [ [ [ [ [ 3.3.4.4.4.4.4.4.4.3.3.1. .h k a , a ' ' [ [ [ 3.3.4.7.7.3.3.4.4.4.4.3.o.] ] } } } } } } { O.O.4.4.O.{ [ 7.4.4.4.O.O.O.O.4.4.7.d.g.g.d.4.+.+.6.+.9.!.I.6 > s ' 5.9.9.g.7.7.g.g.g.g.g.g.7.7.g.g.V.g.g.7.7.O.$.$.d.d.g.g.A.g.C.T.T.C.B.B.C.g.g.g.g.g.7.4.4.g.g.g.g.7.4.o.o.5.| a a s s / o.o.O.d.s.s.$.%.s.k.h.h.h.f.f.f.f.f.f.f.f.f.f.f.s.s.h.g.j.a.a.a.a.a.a.a.a.a.a.j.j.4.7.g.d.j.j.j.h.h.j.7.7.g.9.^ > 6 9.P.g.g.g.d.U.s.s.s.f.f.f.f.f.f.f.f.f.f.h.h.l.s.s.%.%.%.%.s.s.$.$.$.$.d.f.h.h.s.f.f.f.f.l.F.Y.D.D.F.F.F.G.G.Z.5.l d l  ./ ' d.s.l.H.eXeXH.H.eXrXrXeXH.H.H.H.H.Y.Y.Y.Y.Y.Y.Y.Y.Y.Y.F.F.l.k.k.f.l.k.f.f.f.f.k.l.l.D.D.D.l.l.l.D.l.f.s.C.Q.Q.6.6 ~ V.%X~.R.D.D.F.F.D.S.D.H.H.H.H.F.H.F.F.F.J.F.H.D.D.D.k.h.h.k.k.h.h.h.h.h.h.h.h.l.l.D.D.F.F.Y.Y.D.G.G.G.G.D.D.C.5./ | b p d  ...O.a.l.x.x.s.s.s.h.h.h.h.j.j.j.j.a.a.a.a.4.4.4.4.4.4.3.3.3.[ [ [ [ [ [ [ [ [ [ o.' ' ;.;.;.;.;.;.' ;.' _ =.0.) > ",
"> 3.8.*.3.3.=.3.;.' ' [ ;.;.;.[ ;.[ [ [ [ [ [ [ ' ' ' ' [ [ [ [ ' ' ' [ [ [ [ [ [ [ [ [ 3.3.4.4.4.4.:.;.3.3.0.8.` a a a , a <.' 3.3.3.3.3.4.4.4.;.3.4.4.4.4.3.[ Q ] ] } } } } [ 4.4.4.7.4.4.O.[ 7.4.4.O.O.{ { { 4.4.a.g.g.g.d.4.6.6.g.6.A.%XI.s > r ..6.9.K.L.K.g.d.7.7.7.7.7.g.g.V.V.V.g.g.9.g.O.O.+.$.d.g.B.A.A.C.T.T.C.B.B.C.7.7.7.7.4.4.o.o.o.4.7.7.4.4.4.6.1.l 4 4 s / ..6.+.d.f.h.f.s.s.f.f.f.h.h.h.f.f.s.s.s.s.s.s.s.s.s.s.g.g.j.a.a.a.a.a.a.j.j.j.g.j.j.4.7.d.d.j.j.h.h.h.j.a.d.A.6.^ > > 5.P.V.g.g.d.U.s.s.s.s.f.f.f.f.f.f.f.f.f.h.l.l.s.s.s.s.%.s.s.s.%.$.$.%.s.h.h.h.s.f.f.f.f.k.l.Y.F.F.D.l.D.G.T.W.5.l d l | / [ d.h.J.0XrX0XH.H.H.eXeXH.H.9XH.H.J.F.F.H.F.Y.Y.U.U.Y.Y.Y.F.F.l.k.f.f.f.f.f.k.k.l.l.k.l.D.D.D.D.D.F.l.f.f.D.T.P.o.6 ~ C.%X~.R.Y.D.F.D.S.S.D.F.H.H.F.S.S.D.D.F.F.F.H.l.k.h.h.h.h.k.k.h.h.h.h.k.k.k.k.k.k.k.l.D.D.D.G.D.D.D.D.D.l.l.C.o./ | b a n 1.5.O.j.l.z.x.k.s.h.h.h.h.j.j.j.j.j.a.a.a.a.4.4.4.4.4.4.3.3.3.[ [ [ [ [ [ [ [ [ 3.3.' ' ;.;.;.;.;.;.;.;.=._ =.3.) > ",
"> 3.8.=.=.3.=.3.;.' ' ' ;.;.;.[ ;.[ [ [ [ [ [ [ ' ' ' ' [ [ [ [ ' ' ' [ [ [ [ [ ' [ [ [ [ 3.3.4.4.;.:.;.3.3.0.8.l i a a , h <.<.4.4.4.3.3.3.3.4.[ 3.4.4.4.4.3.[ ] ] } } O.4.4.4.7.a.d.d.a.4.O.{ a.4.4.O.{ { { { O.O.4.d.d.d.4.O.d.d.A.6.V.%XW.~ > s ..8.V.P.P.W.7.4.+.o.o.+.4.7.V.V.C.V.g.g.g.A.O.O.+.$.d.g.A.B.g.C.T.T.C.B.A.A.4.4.4.4.4.o.[ [ ( [ +.4.4.4.7.6...a , 4 s / o.A.6.g.C.D.k.f.k.k.f.f.h.h.h.f.f.f.s.s.s.s.s.s.s.a.s.g.g.j.j.a.a.a.4.a.j.h.h.h.h.h.7.7.d.d.j.j.j.h.h.a.a.g.L.A.' 6 ; o.L.V.C.g.j.C.s.s.s.s.f.f.f.f.f.f.f.f.f.h.l.l.s.s.s.s.$.s.s.s.%.$.$.%.f.B.D.D.h.h.k.k.k.l.F.R.R.F.l.x.l.G.R.^.5.l d l | / ' d.D.F.eXrX0XF.F.F.eX0XH.H.H.H.J.F.F.F.F.F.F.F.F.F.rXeXY.Y.F.l.k.k.$.%.s.f.l.D.D.F.f.l.D.D.D.D.F.Y.Y.F.D.G.T.g.] u W A.!.Q.Q.R.R.rXD.S.S.S.F.H.F.F.S.S.S.S.D.F.H.H.s.s.s.s.s.f.f.h.k.k.k.k.k.k.k.k.f.f.f.k.l.l.D.D.D.D.l.h.h.h.l.C...s l b a l N.b.d.h.F.Y.z.l.h.h.h.h.h.j.j.j.j.j.a.a.a.a.4.4.4.4.4.4.3.3.3.[ [ [ [ [ [ [ [ o.3.4.' ' ;.;.;.;.;.;.3.4.;.` 3.0._ > ",
"> ` 3.<.3.' _ ;.;.;.;.;.;.;.;.[ ' ' ' [ [ [ [ [ [ [ [ [ [ [ [ [ [ [ ' [ [ 3.[ [ [ [ [ [ 3.3.3.3.4.:.:.;.4.4.3.<.l 2 i a i c <.<.4.4.4.4.4.4.4.4.3.3.4.4.3.3.[ [ ] ] ] } } 4.a.g.a.a.a.a.a.a.a.7.{ { [ } } [ } O.4.4.4.4.7.a.d.7.O.+.C.I.K.%X!.6 6 / 5.5.9.I.P.K.V.g.7.4.4.4.6.7.V.V.V.A.A.g.g.A.O.O.$.d.g.B.B.B.B.B.B.B.g.g.d.d.( } o.O.O.o.[ [ [ } [ o.4.6.4.3.<.l a 4 4 / 5.K.6.d.f.h.k.k.k.k.l.l.l.h.f.f.s.s.f.f.s.s.s.$.$.$.j.j.a.a.a.a.a.O.j.j.j.j.j.j.d.d.d.7.4.4.a.j.j.j.h.h.h.V.L.V...4 > 3.L.g.d.4.O.h.s.s.f.f.h.h.h.h.s.s.$.s.f.f.f.s.l.l.l.k.l.h.h.h.f.$.O.$.f.D.k.f.f.h.k.k.D.D.F.D.k.D.F.z.z.D.G.A.b.l p n | 5.V.T.F.F.9XeXrXrXrXrXyXeXJ.J.J.J.J.F.Y.F.F.F.F.D.l.l.F.F.F.F.l.l.k.k.l.l.l.D.D.F.Y.Y.l.l.l.k.l.l.D.D.Y.F.D.T.E.C.o.W u o.T.~.pXR.F.eXD.S.S.S.S.S.S.S.f.F.H.S.k.F.F.S.l.k.h.h.k.k.l.l.h.%.$.s.h.D.D.k.f.k.k.l.D.D.G.G.G.D.D.D.D.G.Y.T.o./ k l n k ..I.d.h.l.z.l.l.h.h.h.l.h.j.s.a.a.p.j.a.a.a.4.4.O.O.[ 3.3.4.3.3.[ [ [ [ o.[ [ [ [ [ ;.>.[ ' [ ;.;.;.[ ;.;.' =.;.^ > ",
"6 ' <.` =.' ` 3.;.;.;.;.;.;.;.[ ' [ ' [ [ [ [ [ [ [ [ [ 3.3.3.[ [ [ ' [ [ 3.[ [ [ [ [ [ 3.3.3.3.4.;.;.;.4.4.3.<.c i i a 2 c 8.0.3.4.4.3.4.4.4.4.3.3.4.4.3.3.[ [ } } } } { 4.a.g.4.7.7.7.7.4.4.4.O.O.O.} [ [ } O.O.O.O.4.4.7.a.6.d.+.C.C.V.%XW.6 r _ 5.3.8.K.K.V.V.g.7.4.4.4.7.7.V.V.V.g.g.g.g.g.d.$.d.d.g.g.g.g.B.B.B.B.g.g.d.7.+.4.4.4.4.4.o.o.[ [ [ o.4.7.6.5.1. .l s l ..V.!.A.B.C.D.D.D.D.D.k.k.l.k.f.f.f.f.f.f.s.s.s.$.$.a.j.j.j.j.j.a.a.a.j.j.j.j.j.j.j.j.g.7.a.a.j.j.h.h.j.j.a.7.A.9.( 4 6 9.K.7.7.d.d.U.s.s.s.f.h.h.h.h.s.s.$.s.f.f.f.s.s.f.f.k.l.l.l.D.f.$.O.$.h.D.k.f.f.f.k.k.D.D.F.D.D.D.F.F.F.Y.T.Z.A.| a l | ..V.T.R.eXrXrXtXtXrXrXrXeX9XF.F.F.H.J.Y.F.F.F.D.l.l.l.l.l.l.l.l.x.k.k.l.l.l.D.D.D.D.F.D.l.l.k.l.l.D.D.Y.D.D.T.T.C.} W 6 4.T.E.U.h.k.R.D.F.F.D.D.D.D.D.k.D.F.k.k.D.F.S.D.D.D.D.D.D.D.D.f.%.$.%.k.D.D.k.f.k.k.l.D.D.G.G.D.D.h.h.h.h.l.C.+./ k n n d  .I.h.l.z.z.z.D.D.h.h.h.j.j.j.s.a.a.j.a.a.a.4.4.4.O.3.3.4.4.3.3.[ [ [ [ [ [ [ [ [ [ ' ' ' ' ' ' ;.;.' ' ' _ ` ` r > ",
"r =.` j ` ' ' 3.;.;.;.;.;.;.;.[ [ [ ' [ [ [ [ [ ' [ [ 3.3.3.3.[ [ [ ' [ [ 3.[ [ [ [ [ [ 3.3.3.3.;.;.;.;.4.4.3.<. .h i i : a <.3.3.4.3.3.3.3.3.3.3.4.4.4.4.3.3.[ 4.4.4.4.4.7.d.g.4.4.7.7.4.4.4.O.4.4.4.O.} } } { } [ O.O.4.4.a.7.B.+.A.A.9.%XW.6 j ` 3.3.0.9.V.g.V.g.7.4.4.4.7.g.V.V.g.g.g.g.g.g.g.g.g.g.d.d.d.d.B.B.B.B.g.g.d.6.+.4.4.7.4.4.o.o.o.o.o.4.7.7.7.6.n...l s s ^ ..6.A.B.C.G.G.G.F.D.l.l.D.D.D.D.D.D.f.f.s.s.s.%.$.a.s.j.j.j.j.j.a.a.a.a.a.a.a.a.a.a.a.4.4.4.a.a.j.j.j.a.4.4.7.6.( 4 ( b.9.[ 4.g.h.U.s.s.s.s.f.f.h.h.s.s.$.s.f.f.f.s.$.s.f.k.D.D.D.D.f.$.$.$.f.C.B.h.s.s.f.k.D.D.F.F.D.F.F.z.F.R.R.W.n.l d l | ..K.~.yXtXtXtXaXtXtXrXrXrXrXrXrXrX9X9XY.U.F.F.l.l.l.k.l.l.l.l.l.l.l.l.l.l.l.l.D.D.l.l.l.l.k.f.k.l.D.D.D.k.h.D.T.A.( 6 ~ g.T.T.f.$.f.eXF.F.F.F.F.F.F.F.k.S.S.k.k.S.S.k.D.D.G.F.F.D.D.D.k.f.%.s.k.D.D.h.f.f.k.k.D.D.D.G.k.k.h.s.f.h.h.B.+./ a k a a | b.g.l.l.z.z.l.h.h.l.l.l.l.h.h.h.h.j.j.a.a.4.4.4.4.4.4.4.4.3.[ [ [ [ [ [ [ [ [ [ [ ' _ _ _ _ _ [ [ ' ' ' _ ` ` r > ",
"j =.) r ` =.` ;.;.;.;.;.' ' [ [ ' ' ' [ [ [ [ [ ' [ [ 3.3.3.3.[ [ [ ' [ [ 3.[ [ [ [ [ [ o.3.3.3.;.;.;.;.4.7.0.1.1.k k a , a ' ' 3.4.3.3.3.3.3.3.3.4.4.4.4.4.3.o.g.d.d.d.d.d.d.d.7.a.d.d.d.7.4.O.7.d.a.4.O.} [ O.[ { O.4.4.a.d.d.A.+.6.6.3.!.W.6 s ` ..' 3.8.V.g.V.g.7.6.4.7.7.g.g.g.g.g.g.g.g.g.g.g.g.g.g.d.d.d.B.B.B.B.g.g.d.6.+.4.4.4.O.o.[ o.4.4.+.4.7.g.g.6.5. .l a 4 6 / o.g.g.f.h.k.k.k.k.D.D.D.D.F.Y.Y.Y.f.f.f.f.s.s.%.a.h.h.g.j.j.j.a.a.a.a.a.a.a.a.a.a.O.O.{ } { { p.a.j.j.4.4.7.9.' 6 ` 6.o.( 4.g.j.d.s.s.s.s.f.f.f.h.s.s.$.s.f.f.f.s.$.s.f.k.l.D.l.h.f.d.$.d.f.B.B.h.%.s.f.k.D.F.F.Y.G.F.F.l.F.Y.Q.^.n.| n l l / 6.T.rXrXrXtXtXtXtXrXrXtXtXtXtXrXrXeXY.Y.Y.F.D.l.l.k.Y.Y.F.F.F.F.F.F.D.l.l.l.l.l.k.k.l.f.f.f.f.f.l.l.l.f.f.C.C.g.( 6 o.V.P.C.f.f.l.rXF.F.F.F.F.F.F.F.S.S.k.k.k.S.S.k.f.k.D.D.D.D.D.D.k.f.%.f.k.D.D.h.f.k.k.k.l.D.D.D.D.k.h.h.h.D.D.G.6./ a a a p l 5.d.f.l.x.x.k.s.s.l.v.v.v.v.v.v.U.j.j.a.a.4.4.4.4.7.7.4.4.3.[ [ [ [ [ [ [ [ [ [ ' } } _ _ _ _ _ _ ;.;.;.' =.=.^ > ",
"r ' ` ^ =.=._ _ ;.[ [ [ ' [ ' ' ' ' ' [ [ [ [ [ ' ' [ [ 3.[ [ [ [ [ ' [ [ 3.[ [ [ [ [ [ o.3.3.4.;.;.;.;.4.8.0.5.,.k k k a c 3.<.3.3.3.3.3.3.3.3.3.4.4.4.4.4.4.4.g.g.g.g.g.d.d.d.a.d.g.g.g.g.7.4.d.g.g.d.4.O.O.4.4.4.4.4.d.g.g.g.+.( o.o.o.W.W.6 6 ^ ` ` o.8.V.V.g.g.7.7.7.7.g.g.g.g.g.g.g.g.g.g.d.d.d.A.g.g.g.g.B.B.B.B.B.d.d.6.4.4.4.4.o.o.o.o.7.4.4.4.7.g.g.6... .l l /  .5.V.6.d.s.f.f.f.s.%.l.l.l.D.D.D.D.D.f.f.f.f.s.s.s.a.h.h.j.j.j.j.j.a.4.a.a.a.a.a.a.4.O.o.} } { { { a.j.a.4.4.9.9.' 6 ^ 3.3.[ 7.g.$.O.s.d.s.s.%.f.f.f.s.s.$.s.f.f.f.s.s.s.f.f.f.f.f.s.f.f.d.d.f.f.h.h.%.s.f.k.D.F.F.Y.D.D.D.l.l.Y.R.^.A. .l l a 6 ( a.F.9X9XeXyXtXtXeX9XtXtXtXyXrXrXtXY.Y.Y.H.F.D.l.l.rXrXY.F.D.l.l.l.l.l.l.l.k.f.f.f.f.f.s.s.s.f.f.k.k.f.s.h.C.g.( 6 o.g.g.g.C.D.F.R.D.D.D.D.F.D.D.D.S.k.&.k.S.S.S.k.s.f.k.D.G.G.G.G.D.h.s.f.k.D.D.h.f.f.f.k.l.l.D.D.k.k.h.h.D.G.T.T.6./ a n n n | 6.d.f.l.x.x.k.s.a.h.l.h.h.h.h.h.h.j.j.a.a.4.4.4.4.7.7.4.3.o.[ [ [ [ [ [ [ ' ' ' ' } _ _ ] ] ' ' _ ;.;.=.' =.=.^ 6 ",
"6 ` ' ` =.' ^ ) ;.[ [ [ ' ' ' ' ' ' ' [ [ [ [ [ [ [ [ [ [ [ [ [ [ [ ' [ [ 3.[ [ [ [ [ [ o.3.3.4.4.:.:.4.4.8.0.1.l , i k k ,.9.0.3.3.3.3.3.3.3.3.3.4.4.4.7.4.4.4.g.g.g.g.g.d.7.4.4.d.g.C.C.g.g.a.d.g.g.g.d.4.4.4.7.d.a.d.d.g.g.g.O.( +.+.o.W.I.6 6 ^ ` ` 3.8.g.9.g.g.7.7.7.7.g.g.g.g.g.g.g.9.g.6.d.d.d.A.A.B.B.B.B.B.B.B.B.d.d.6.7.7.7.4.4.6.7.7.7.4.4.4.7.g.g.6.5. . .| / ..5.V.g.g.f.h.h.f.f.s.s.s.s.s.f.f.f.f.h.h.f.f.f.s.s.a.s.j.j.j.j.j.a.a.4.4.a.a.a.a.a.4.4.4.4.O.{ a.a.j.a.a.4.4.g.9.' 6 6 3.7.4.g.h.$.a.a.a.%.s.%.%.%.f.s.s.%.s.f.f.f.s.f.f.f.s.s.%.$.$.f.f.f.f.f.f.h.B.s.s.h.l.D.D.F.F.D.G.F.l.z.Y.R.W.5.d a n s ^ 3.B.F.J.9X9XeXeX9X9X9X9XtXtX9X9XrXtXY.Y.Y.H.F.F.F.F.rXY.F.l.k.f.s.f.l.k.k.f.f.f.f.s.f.s.s.%.s.s.f.f.l.f.s.h.G.g.( 6 ( 4.4.d.D.F.l.l.D.S.S.S.S.S.S.S.F.k.&.S.D.D.S.k.k.k.D.D.D.G.G.G.D.h.s.f.l.D.D.h.f.f.f.k.l.l.D.D.h.h.h.h.D.G.U.T.n.| d b b b ..V.g.h.l.z.x.k.s.s.a.s.a.a.a.j.j.j.j.j.j.a.a.4.4.4.7.4.3.[ [ [ [ [ [ [ [ [ ' ' ' ' } _ _ _ ] ' _ _ ' ' ` _ ` =.^ 6 ",
"6 ' <.` ` ) ^ _ ' ' [ [ [ _ _ ' ' ' ' [ [ [ [ [ o.[ ' ] ] ] ' [ [ [ ' [ [ 3.[ [ [ [ [ [ ;.3.3.4.7.4.4.4.4.8.0.<.j : : 2 a  .8.3.3.4.4.4.4.4.4.4.3.4.4.7.7.7.7.4.a.d.g.g.d.a.4.4.4.7.g.C.C.g.g.d.d.g.g.g.g.d.7.d.d.d.a.a.a.a.a.6.d.+.A.A.6.W.P.6 6 ) ' ..5.8.9.6.g.g.7.7.7.g.g.g.g.g.g.g.g.9.7.6.d.d.d.g.B.B.B.B.B.B.B.B.B.d.d.6.6.7.4.4.6.7.g.g.7.4.4.4.6.7.7.6.5.1. .| / / ( o.g.g.f.h.h.h.f.s.s.s.s.s.s.s.s.s.l.h.h.f.f.s.s.d.j.j.a.a.a.a.a.O.a.a.a.a.a.a.a.a.a.4.4.4.a.a.j.j.a.a.a.d.V.V.o.6 4 3.g.7.g.g.a.d.a.a.%.%.s.%.s.s.s.s.$.s.f.f.f.s.h.f.s.$.$.$.$.$.f.B.B.f.f.f.h.C.f.h.k.l.D.D.F.D.G.H.Y.F.Y.R.R.T...a , k | 5.K.E.Y.9X9X9X9X9Xz.z.x.9X9X9Xz.z.9XtXF.F.F.H.F.U.F.F.Y.F.l.k.s.s.f.k.f.f.f.f.f.f.f.f.f.s.s.%.s.s.f.f.F.k.f.D.U.B.o.~ ~ +.g.C.G.D.s.f.k.k.k.k.S.S.S.k.H.k.&.S.H.D.S.S.G.D.D.k.h.k.k.k.G.k.f.f.D.D.D.h.f.f.f.f.k.l.D.D.D.D.D.D.D.D.G.T.5.l a k b | 1.V.g.h.l.x.x.k.s.d.a.a.a.a.a.a.a.a.d.j.j.a.a.4.4.4.4.3.[ [ [ [ [ [ ' ' [ ' ' ( ( ( ' ' ' _ ' ' ' ' _ ' ` _ ' 3.) 5 ",
"6 *.<.) ) ^ ^ =.' ' ' ' _ _ _ ' [ [ [ [ [ [ [ [ 3.[ ' ] ] ] ( ' [ ' ' ' [ 3.[ [ [ [ [ [ ;.3.3.4.7.4.4.4.4.0.3.<. ., : , , ` 8.<.4.4.4.4.4.4.4.4.4.4.4.7.7.7.7.7.7.a.a.d.a.7.4.O.[ 4.d.g.h.g.g.a.a.g.h.h.g.g.d.d.a.d.a.7.4.4.4.4.C.A.T.P.9.W.I.6 6 / ..o.3.6.6.3.g.g.g.d.d.g.g.A.g.g.g.g.g.g.7.7.d.g.f.h.B.h.h.h.h.B.B.B.B.g.d.a.O.O.o.o.+.6.7.g.7.4.O.4.4.7.7.6.1. . . . . .5.6.g.g.h.f.h.f.s.%.f.f.f.f.f.f.s.s.k.k.k.f.f.f.f.s.j.a.a.$.$.$.{ { a.a.a.a.a.a.a.a.a.4.4.{ { a.a.a.j.h.h.C.T.P.6.^ > o.V.7.7.4.O.d.a.a.a.a.a.a.a.s.s.s.%.s.f.h.f.s.h.s.$.$.{ $.$.s.f.B.B.f.s.f.h.S.h.f.k.S.D.D.D.D.H.R.eXeXeXR.R.T.n.s a l  ...b.L.rXrX0X9X9Xz.x.x.x.z.8Xz.x.x.J.rXF.D.F.D.F.Y.F.Y.Y.F.l.k.k.k.l.D.f.f.f.f.f.f.f.f.f.f.s.%.s.f.f.k.F.l.h.D.T.C.o.~ W 6.T.E.R.l.s.s.k.k.k.k.k.k.k.k.eXk.&.J.R.F.D.D.R.F.l.f.%.$.$.%.D.k.f.f.l.D.l.f.s.f.k.k.k.l.D.D.R.R.Y.G.G.D.G.G.( 4 > a l l ..b.g.h.h.f.f.j.a.$.j.s.j.s.s.s.a.a.j.j.j.j.j.a.a.4.3.[ [ ' ' ' [ [ [ ' } ' ] ( ] ' ' ' _ ' ' _ ' ' ' ;.' ' 3.0.=.^ ",
"j ^ ` ) j ^ ) ` ` ` ` ` ' ' ' ' ;.} ] ] [ 4.4.[ [ 3.' ^ Q ( ' / 3.[ ' ' ' ;.3.3.4.3.4.4.4.4.4.4.7.7.7.8.8.8.8.2.l 2 : , a x ` =.g.a.4.{ { { 4.4.{ [ [ { a.g.g.g.g.g.c.h.h.g.7.{ 7.a.j.g.g.h.c.L.U.U.v.h.h.v.h.g.4.4.O.4.g.g.4.[ d.A.L.!.%XP.5./ / / ..6.g.g.7.O.g.d.7.4.O.4.d.g.g.g.g.g.d.d.7.4.d.s.d.d.s.h.h.h.h.h.h.h.h.d.a.O.6.6.6.6.6.6.4.4.7.6.g.g.7.7.6.b.1.l k b  .l j ../ ( { j.h.l.x.k.F.D.D.D.F.D.D.l.#.$.k.D.l.f.%.#.#.#.#.{ } } #.$.#.#.{ $.a.j.a.$.s.j.a.p.p.p.p.s.j.j.j.h.L.C.O.] } g.4.[ 4.g.a.g.g.d.j.a.{ $.h.D.f.%.#.%.f.f.k.D.k.G.D.$.O.$.d.$.B.f.s.%.f.B.D.D.R.H.G.S.k.k.F.R.rX0XrXrXrXH.H.T.X.( d d X.n.n.+.f.k.F.tX9Xx.x.9X8X8X8X8X9Xz.x.&.F.rXrXF.k.S.D.D.D.S.f.%.%.%.f.k.%.k.k.%.f.D.F.k.$.F.l.%.s.k.s.k.j.R.pXT.E.MXg.6 u g.E.U.z.s.s.Y.l.l.k.k.x.l.x.k.%.F.F.%.#.l.F.k.F.F.k.#.%.k.k.%.f.f.%.%.%.k.F.eXk.z.z.z.l.x.k.k.F.F.R.R.R.R.R.T.' j 5 l  . .l / ..` [ 4.C.T.U.h.z.v.l.l.l.l.j.s.#.p.a.j.j.a.{ } [ [ ' } } ' } [ 4.;.} ' [ ;.:.;.' _ [ ' _ _ ' ;.7.;._ ` 3.3.=.^ ",
"^ ` <.<.` ` ` ` ` _ ` ' ` ' ' [ ;.[ } ] } [ [ ' [ [ _ ^ r ^ / ^ ....<.3.0.0.0.0.[ ;.;.;.3.4.4.7.4.7.7.8.8.8.2.<.c h 5 h j j ` =.] ] ] } [ { { { a.a.g.h.h.h.g.a.g.g.g.g.g.g.j.7.7.a.g.g.g.g.c.L.U.U.U.v.h.h.a.{ 4.4.4.7.g.g.7.o.7.7.g.L.I.b.( s /  .o.6.9.7.4.[ 4.4.4.O.o.o.4.4.7.d.g.7.7.d.7.4.d.j.d.j.j.g.h.h.h.g.g.g.h.g.a.4.7.6.4.4.4.4.4.6.L.I.I.C.g.7.7.6.1.l a k v a h ` ^ ) ( O.s.l.l.x.k.h.f.f.f.h.f.s.F.f.$.s.F.R.D.%.#.$.#.#.} } #.$.$.%.s.s.f.s.$.$.a.a.p.p.a.j.j.h.a.j.h.h.L.h.4.} [ A.g.4.g.g.4.7.4.d.h.h.g.j.j.j.l.k.f.f.f.f.h.S.s.B.f.O.} O.O.O.%.%.s.f.D.D.G.D.f.B.B.B.h.f.B.S.H.0X0X0XH.H.G.Z.+.X.~ d X.X.X.X.+.$.&.F.9X9X8XqXxXxXtXqX9XJ.J.l.f.G.R.R.rXrXF.%.k.f.%.$.$.$.%.&.f.l.l.k.k.F.F.k.%.F.l.%.s.k.%.f.U.E.E.U.U.E.g.] ] g.L.j.j.s.j.U.F.l.s.s.%.s.k.x.k.z.z.s.s.F.Y.F.k.l.s.#.#.%.s.$.s.f.f.%.s.k.l.F.x.z.z.z.l.l.l.F.D.D.F.F.F.D.G.C.' x a x c l l l ` / ( 3.V.P.L.h.h.x.j.j.j.j.a.p.j.a.a.a.a.j.j.a.[ [ [ ' ' ' ' ' ;.;.;.;.:.;.;.[ _ ' ' _ ' _ _ ' ;.` ` =.3.3.` ^ ",
"`  .<.<.<.` ` ^ ^ ) ` ` =.=.;.;.[ ;.;.[ ' ' [ ' ' <.' ^ j / / ^ ^ / ` <.3.3.3.' ' ' ;.3.3.7.7.9.7.7.8.8.8.8.<.,.c k h h j j ` 3.4.7.7.a.a.4.{ } [ [ 7.g.L.L.g.7.g.g.7.7.7.7.d.d.7.7.g.g.g.g.g.g.U.U.U.L.L.g.a.[ g.g.d.g.V.V.6.6.o.o.3.6.6.5./ s / /  .o.3.4.o.[ ........` ` ` ` 3.5.5.5.5.5.5.3.4.4.4.4.4.4.4.6.4.4.4.7.7.7.7.4.7.6.6.6.6.6.6.6.V.K.K.V.g.9.6.5.N.b k k k h h c ` ^ ) } h.G.F.D.D.B.h.f.h.B.h.f.T.h.$.$.f.G.G.D.$.$.$.$.$.O.$.$.$.d.f.h.s.$.$.O.a.4.4.4.a.d.g.g.g.g.g.V.g.5.o.( ' A.A.6.V.g.o.4.o.7.g.h.g.g.g.d.s.f.l.h.s.$.$.f.g.B.g.O.o.O.+.O.} O.$.B.C.Z.C.C.g.B.B.B.B.C.G.T.H.H.rXuXQ.Q.G.Z.n.( d |  .l d / ( @.} f.eXrXyXtXtXtXtXeXeXF.D.D.f.l.D.Y.pXpXR.f.s.%.$.$.$.$.%.s.f.k.l.f.f.k.l.k.$.D.f.$.f.f.%.f.l.E.E.T.U.P.g.[ O.L.C.g.U.v.h.l.D.l.k.h.h.k.h.h.T.D.h.h.l.D.D.D.h.h.s.$.$.$.$.$.a.s.h.h.h.h.h.l.l.z.D.l.l.l.D.T.D.G.G.G.G.D.C.B...c h x c l a l ` / ` 3.V.L.L.g.h.h.h.j.j.j.a.4.a.4.{ [ [ o.d.g.3.;.;.[ [ ' ' ' ] ' ;.;.[ ' ' ' ' [ [ ' ' ' ' ' ` ' 3.3.<.` j 5 ",
"x c ` ,. .` ` j j j ) ` =.<.=.;._ 3.4.3.' ' 3.3.<.<...` ` ` ` / j c ` ' <.<.<.<.<.3.3.0.7.8.9.9.8.9.9.9.9.8.2.,.k a a h 5 h <.b.0.4.4.4.3.[ [ ( [ o.7.g.L.L.g.7.7.6.3.o.o.4.7.g.7.g.g.A.A.g.V.V.C.C.h.g.g.V.g.7.g.g.9.9.9.6.3.o.' ' ( ....../ l s s / ( o.3.o.o.....<.<.<. . .` <.1.1.<.<.1.1.<.<.............5.......5.5.9.5.5.6.6.6.6.6.6.9.9.9.b.V.A.g.9.9.b.n. .b b v k k b ,.` ) [ g.T.T.D.T.Z.Z.Z.Z.Z.C.Z.B.C.Z.d.O.+.Z.~.d.d.d.d.$.$.d.d.d.g.B.g.d.$.$.g.C.V.V.A.g.g.7.6.K.V.b.9...l s s ( 5.5.5.b.6.o.3.o.o.o.o.4.7.g.C.O.h.C.C.d.O.d.g.A.A.A.g.6.o.+.+.o.o.+.g.Z.Z.Z.Z.T.P.Z.Z.Z.P.!.~.R.Q.Q.~.~.Q.T.P.n.~ s X...d a | ( ~ ~ $.T.aXaXrXeXeXeXH.F.G.G.G.T.Y.l.f.k.R.rXR.f.f.s.s.s.f.f.f.s.f.f.s.j.s.f.f.$.h.s.$.l.l.j.D.d.h.U.E.P.9.o.o.3.P.E.E.%XE.h.d.a.f.D.G.T.G.B.d.pXD.f.C.C.d.%.f.C.C.h.d.$.O.O.O.O.d.B.C.C.C.C.C.D.D.C.C.h.C.T.R.T.T.T.T.T.G.C.V.5.` x l l h a l  . ...5.V.K.C.V.C.V.g.g.g.g.g.7.6.6.o...` ..6.b.6.7.4.3.3.;.;.;.' [ 3.3.[ ' ' ' 3.;.;.;.;.3.;.=.3.3.0.<.` j 6 > ",
"h h h h x l c c h j ^ ` ' ' ` ` ` <.0.<.` ) ` ` ` ` ` ` ` c j j ` ` c / ` <.<.<.<.<.<.<.<.<.3.3.0.3.0.<.<.,.,. .v k a a 2 h <.K.6.6.6.6.9.V.I.P.I.K.K.K.I.I.V.A.6.6.+.o.o.6.6.A.A.A.V.V.V.V.V.V.V.V.d.6.7.g.V.9.3.3.5.5.5.o... ...' ( ( / / l d , a s / 5.5.6.5.1.2.N.N.2.1.,.,.,.1.2.,.,.,.,.,.1.1.......1.1.1.....1.5.n.n.n.5.5.5.6.5.9.9.b.b.I.K.I.K.K.V.9.b.8.,.b b v v c b <. .` ` 6.g.g.d.A.A.A.n.A.A.6.6.6.A.Z.A.o.X.+.A.+.+.+.+.+.+.+.+.6.6.6.+.+.d.A.Z.I.K.b.b.b.b.5.5.b.5.1...| a p a s / / / ....( 5.( ( ( ( [ 4.7.g.4.V.P.V.6.+.+.o.6.6.6.5.o.....o.+.+.o.+.6.n.A.A.A.A.A.b.n.b.V.Z.Z.A.Z.Z.Z.A.A.n.+.s s ....d d ..X.( ( +.G.pXpXR.Y.Y.Y.G.T.T.T.T.R.pXY.s.%.D.rXpXh.k.k.D.D.D.S.l.h.h.h.h.C.h.h.h.C.U.h.s.U.D.h.C.L.g.V.L.9.( ^ ( ' K.I.K.P.L.7.7.+.+.d.A.Z.Z.Z.A.^.Z.g.Z.Z.d.+.A.L.C.V.A.6.o.o.o.o.4.g.C.C.L.L.P.Z.Z.Z.C.C.Z.T.!.T.T.T.T.T.C.C.V.3. .c c l k k k b  . .1.5.9.6.6.9.6.6.6.6.5.5.5.5.5.5.1.....1.5.3.3.3.3.3.<.=.=.5.5.3.<.<.<.3.0.3.=.' ' ;.<.*.` <.<.<.` x 5 > > ",
"a 2 2 i h l c c 5 h x j c j j j ` *.*.` j 5 5 , h 5 h x x a 5 a h a 5 a a j c ` / j j j j j ^ ^ ) ) ) j x k h h c k i 2 3 , x <.b.b.6.6.9.b.K.I.6.5.5.6.b.V.I.I.6.+.6.+.5.6.n.n.6.n.A.A.A.A.A.A.I.V.9.6.6.9.b.9...o.5.5.5.5.5.5.5.5.o...| l a a a a l ..5.5.5... .D ,.,.,.b D b b D ,.D ,.,.,.b ,. ... ...1.1.1... ...1.5.N.1.1.<.5.0.5.0.9.9.9.I.K.b.9.5.3...` / k l k h h v v ,.c c / / ( ( X.( ( ~ ~ ( ~ ~ ~ X.( ~ ~ X.X.~ d ( ( X.X.( ( ( ( ( ~ ~ ~ ( +.+.+. . . ..... . ./ ..l l  . .n a l a s d s  ./ / ..4 s ^ ..3.o.' ( ' 6.9.o./ / ~ 6 ^ ~ / / / s s / / ~ s s / / ....s / ..+...| / / X.X.X.X.X.X.( ( ~ s s | | s l ..+.+.o.+.A.T.T.C.D.D.U.G.T.P.P.T.C.T.R.D.s.h.D.G.f.h.B.D.C.B.h.s.U.h.g.L.T.T.L.L.E.E.C.C.T.h.O.d.!.V.4.o.( 6 s / / 5.../ ..o.o.6.o.X.( ( X.+.n.A.6.n.A.A.A.6.6.n.6.5.9.6.3.( ( ..` ..5.5.5.6.b.V.b.b.A.b.b.b.V.I.A.V.V.V.V.g.7.5. .c l v k h k k b k l l / ( ( (  . .| / ` / / / / |  . .| l d l / ` ` ` ` ` ` ^ ' / ^ j ` ` ....` ) j ^ ) ) j r ) j x j j h a 5 ",
"h h h k c c c l 2 5 h j j a 5 , j j j h h h , : 3 : , h k 2 3 2 , , , , , 2 5 5 5 5 5 5 5 5 r s 5 5 5 5 , , 2 2 h 2 3 2 2 3 , a / ~ s 6 4 4 > > ~ s s ~ / ..o.o.X.X.X.X.X.X.X.X.~ ( | X.+.X.+.+...5.o.o.5.5.5... ...5.1... . ... ....... .l l k l b  . .../ s 4 > 3 3 3 3 3 1 1 2 i f f h v v h h a j j l l `  .j a s j c l j a r j j / ` ` ` ` ` / j r r 6 6 4 , 2 2 i f h h h v c v l s d s ~ d d d d d d d d ~ 4 4 d ( ( d > d d / / d d d d d d 4 d | X.| d s s s s s s a 4 / a d 1.N.b n l l | l  .5.../ 5.s s / ( ..` ~ 6 s / ` s s j s , 4 4 a l j a 5 s a d d a s l l l 4 a d l l s l l s s d d d d s s d s l l s d l | | X...( ( o.6.+.4.4.7.6.6.6.+.o.( +.d.+.+.+.+.( +.+.$.d.d.+.+.+.g.o.[ 7.V.V.g.g.g.g.o.3.g.3.] [ V.o.( o.../ s | l  .a 4 / ....o./ / ~ / | X...../ 5.b.5.| X.| | s s /  ./ s j / l l c l l /  ...| X........... .|  .......( / ^ j h h h h i i k b k k a a s s s s s s s s s s a 4 a a s d a a , a a s s j j j j j 5 > 5 j ` ^ s j r 6 6 r j 5 > 5 5 5 h l c h 2 ",
"k k v b ,.,.c k 2 2 a h a 5 > : , , , 2 k c h , : : > h k 2 3 2 2 i a h h h a 5 > , , , 5 5 a j 6 6 > > > 3 3 2 1 $ : i k a 2 5 4 4 d d 4 4 > > / ~ s d 4 4 > > d d ~ ~ ~ d d d 4 4 d d d d d s > 4 s / /  ./ s / / / s 4 , > > 6 s / .. .| l l  . . . .l 4 ; O O O O O O O O + O + + ; : 3 2 , : > > > > 4 5 5 > > ; > > > ; ; + ; ; > > > > > ; ; + + ; > > > ; > , 2 9 h v f h v c k a 4 d ~ ~ ~ ~ ~ ~ ~ ~ ~ d d ~ ( X.( ( ~ d d ~ ~ d d d d / d d | n.n.X.d | | / / / s 6 4 / s l n.b...d k 1.1.1.n.I.b.1.n. ./ / s ~ ~ s s s / / j ` 1.1./ 4 4 a / / s s c s d l  ...1... ./ l a 4 4 l 1.n.l d a a 4 d s s 4 s / s a s s s s / | s 4 s / / ~ ] ( ( ~ ~ 6 4 ~ ~ ~ d ~ ( ~ 6 ( X.X.o.X.X.( ~ ( s 6 / o...` ` / ~ 6 s ../ s ( ^ 6 ^ 5.b.5. .| l b a a 5.b.5. .d d | ..X.X.l d d +.b...d d a > : > 4 j s 4 5 c s a 5 , , 4 a l , a d d s a 4 4 4 a s s s 5 6 > 5 2 2 h i p p k b b l a a 4 4 4 s 6 6 s s s 6 6 6 s s s / / s a 4 5 5 5 a s s a j 5 > a ` <.` a j 5 6 6 5 5 5 > 5 , , h c c a : ",
"2 i h h h h c ,.c c c c ` ` ` c k k c c c c c c c l h 2 , 2 2 5 2 2 i i a a 5 5 5 5 5 a s s 5 5 6 6 5 h a 2 2 h : 1 h v v l l c / ~ s d s / | / X./ ~ ~ / / s 4 d d d ~ ~ ~ ~ d +.( ~ +.A.A.+.~ / a s  .../ / 5./ /  . . ./ s 4 s / 5.n.n.N.1.1.a b  ...../ s s j ^ ^ j r r ) ` *.) j ) <.0.<.` _ ( ' ' o.o.' ( o.o.3.K.P.K.K.K.9.9.9.8.0.0.0.0.` ' 0.I.W.K.9.8.0.j h ,.8.D v D v v b  . .......6.A.A.d.+.o.o.+.@.+.d.o.+.A.Z.+.( n.X.| b.n.| +., d / | / / | X.o.3.4.4.o.[ ] ] 3.3.V.b.5.b.I.5., l 1.1.| d / ...... . . . . . .` `  . ...<.<.<... ./ l j j j l a a s l / | / / / .... ...5.1.l a l b l s a a a a , s  .d > s  .....5.+./ s / 6.o.o.o.+.o.......d ~ X.(.n.5.X.| ~ | X.X.X.| | | / / /  .b.I.V.+.b.5...o.o./ s 4 5.K.6.b.$Xb.d d N.1.1.b.%X%XK.1.5...| | | | d a s | / d l ..1. ., 5 l `  . .l a a a j l  . . . .p l | d a | ....| s , 4 a a a h 5 5 h k k k a k b b b b | / / / g.4.[ [ O.[ ] ~ o.o.o.o.o.3.5.5.j / ` ` <...` j 5 5 5 5 j / ` ` ) ` ' *.` ) j 5 ` `  .,.,. .c l ",
"2 h k k k l c ,.c c c ` ` ` ` ` c c c c c c ` ` ` c c x x x x x h h h a a a 5 5 a a a j j r 6 6 6 ) <.` c  .v i 1 p f k h h a a / / ~ s d s s s | ( ( ( X.X.( ~ ~ ~ d ~ ~ ( ( ( +.X.( X.+.+.X.~  .........5.5.......o.5.5.../ s 5.5.5... .l k a , a | 1.b.I.W.W.%X%X%X%X%X%X%X%X%X%X%X%X%X%X%X%XE.E.E.%X%X%X%X%XNXMXNXVXAXAXAXAXAXVXAXVXAXVXAXAXAXAXAXAXAX%X!.W.W.<.j ` ,.c h v c c v c  .| | X.Z.Z.G.Z.C.B.C.Z.d.G.G.d.d.C.C.+.~ +.X.| b.n.d d s / | X.+.n.n.b.!.E.E.U.L.L.C.h.C.h.P.L.7.7.5.s 4 | N.n.1...1.n.5.5.5.o.5.5.5.5.....<.<.3.5.5.5.5.5...( _ ` <.5.^ / / / / / / l s / / s / / / 4 , d  .1.1.5.5.1.l a l 1. .| ..../ / | ..| ~ ( 5.o.o.o.o.o.( o.X.| | X.n.n.n.+.X.X.X.+.+.X.X.X.+.d ~ / | +.n.+./ +.X./ / ( / / ( /  ...5.b.N. . .l 1.b.b.5. ...5...| / / | / s s s / l s s .... .l l l l j s a a s s l / `  . ./ d | | d s  ... .a a s s j c x h 5 5 h l k k a k k b k b / / / ( L.U.U.L.h.h.h.g.a.a.a.7.7.4.7.7.^ ` ` ` ' <.` a j j j j ` ` ....8.8.8.8.0.3.<.<.` ` `  . .` c l ",
"i k c c c c  .,.` ` ` ` ` ` ` ` ` c ` ` ` ` ` ` ,. . .,.*.*.*.<.<.,.,. .,. .` ` <.<.<.3.<...` ^ ^ 0.8.` c 2.,.h i f h k h 2 a j 5.n.n.+.+.X.+.+.+.+.6.6.6.5.+.+.X.X.( X.+.+.n.A.A.6.+.+.o.+.X./ ..b.b. . .b.b.5.6.6.9.V.V.V.7.3.b.6.5.5.1...| l p a | 5.K.W.!.%XE.%X%X%X%XE.E.%XE.E.U.U.U.L.L.L.E.E.E.E.E.E.E.~.E.E.E.E.E.%XMXNXMX%X1X1XVXVXVXVXGXAXAXAXVX%XP.P.1Xb.j x c k h v c c l l l / / ( C.G.G.T.G.G.T.R.B.T.G.f.f.C.h.O.~ +.+.X.n.n.~ d +.+.+.+.A.Z.P.Z.!.E.U.U.h.h.v.U.j.a.h.h.g.g.7.^ 4 / n.b.n.5.b.b.b.b.6.6.6.9.9.9.6.6.6.6.6.6.9.6.g.9.6.4.4.7.V.L.6.6.9.b.b.6.6.5.6.b.V.6.9.b.6. . .N.b.8.8.b.b.1...l | 5.n.I.K...~ ~ ( +.+.X.X.+.( X.X.( ( @.( ( X.X.X.X.X.X.+.+.X.X.X.X.X.X.X.+.X.+.+.+.+.6.6.+.( ( +.+.+.+.+.n. ./ ..5. . ... .a ..b.b./ 6 ( 9.5... . . . . ./ / / / s / ....|  ./ / s s s s s 6 s s s s s s s d d d d d ~ s d 4 l  .` c  .` h h h x c k k a k k k l l / / / ] h.l.Y.U.h.j.l.U.h.h.j.j.a.a.a.4.^ ` ` ` ' <.` 5 ^ / ` ' <.<.<.<.9.8.0.3.<.<.<.<.` ` ` ` ` c c j ",
"2 h c ` ` `  .<.` ` ` ` ' ` ' ' ` ` ` ` ` ` ` ` ` <.<.<.3.3.3.3.<.<.5.8.8.9.9.b.9.b.K.K.K.9.7.3.0.8.<.j a c ,.b k k k k h h c ..I.W.^.!.P.Z.P.W.Z.P.W.P.Z.A.A.A.Z.A.A.A.Z.W.^.!.P.Z.Z.A.g.6.+.+.o.b.6...` 5.K.P.K.K.L.P.E.E.T.L.V.V.I.W.%XW.n. .l l  .5.b.V.V.V.h.L.U.U.U.h.h.h.U.U.U.U.h.h.h.h.U.R.E.U.h.s.h.h.U.G.U.C.v.U.E.E.!.!.!.!.!.!.!.!.%X!.!.%X^.!.P.W.1Xb.c j c c c ,.c x h s s ~ ( ( h.k.l.k.h.h.k.l.%.h.k.f.f.D.k.%.@.o.o.( o.6.d.A.+.6.6.A.A.A.d.d.h.j.j.a.p.p.p.a.{ } { a.a.g.g.[ 6 / 5.b.b.5.6.b.V.b.9.9.g.V.V.V.A.A.A.A.g.A.g.g.g.g.g.g.C.U.T.T.P.T.!.!.^.^.^.^.%XMXMX%X%X%X^.!.I.@Xb. .c 1.5.<...| | ..+.I.I.X.o.+.6.A.Z.A.+.o.+.d.g.d.d.d.f.B.A.A.A.(.A.A.A.Z.Z.Z.Z.Z.A.A.Z./.^.^.^.Z.Z.^.^.T.@.+.Z.^.^.^.T.Z.b./ ..5.l / 1.| s | 5.6.6.4.7.g.9.6.6.5.6.6.6.5.o.o.o.' o.5.o...o...( ( ( +.5.6./ / ( ( ( ( ( ( X.@.( ( ( X./ s s ..5. .c ,.,.c x x c ` c k k k k k l l / / ( ] p.s.j.s.p.p.s.j.a.a.a.a.{ { { [ r ) ' ` ' <.` j ^ / ' <.3.3.<.' =.' ` _ ) ) ) ) ^ j j j j j j j ",
"2 h c ` ` ` ` ` ` ` ' ' ' ' *.*.` ` ` ` ` ` ` ` ` _ ' ;.3.3.3.3.<.<.3.0.0.8.8.8.8.8.g.c.g.9.7.3.9.' j j h 2 k ,.k k k k h l <.b.A.T.^.T.Z.Z.Z.P.T.^.^.^.T.Z.Z.T.T.T.^.Q.~.~.~.^.T.T.^.^.T.Z.C.C.V.9.6.5.o.' g.%XE.E.E.E.!.%X%XE.%X%X%X%X%XW.n.| d l  .6.K.P.P.L.U.U.U.T.U.U.U.h.U.R.E.E.U.U.U.Q.Q.Q.Q.T.D.C.C.D.U.R.Q.R.T.E.Q.R.T.^.T.T.T.T.T.T.C.A.Z.!.~.~.Q.^.1XK.` c c ` ,.2.x j s s ~ ( o.O.D.l.k.k.s.s.%.%.%.k.k.k.k.l.l.h.W @.O.O.} O.g.B.} +.B.B.d.O.O.O.d.h.j.h.j.j.a.p.h.{ { { ] } O.( s / 5.b.6.6.6.6.V.g.g.g.g.g.g.g.A.B.h.h.h.f.h.h.a.d.h.D.Y.R.Y.F.R.R.~.pXpXpXpXpXQ.pXpXpXpXpX~.!.P.K.5.j s ..5.8...| | / d X.n.X.A.C.T.Q.~.Q.Z.B.C.Z.T.R.R.R.pXpXQ.Q./.Q.Q.^.^.^.bXVXVXbXbXbXVXZXVXZXAXZXZXZXVXuX%.Q.VXVXVXVXsX~.b.l l  .l ..n.| l / 3.V.L.L.v.h.g.g.g.V.V.K.V.V.K.V.g.g.g.9.7.3.6.6.d.A.A.Z.P.P.A.V.C.P.T.T.T.P.Q.G.G.G.T.W.Z.b.o.b.8.c h ` ,.,.c c `  .c k c  .l l s ^ ^ ( ( } h.j.s.s.s.s.a.#.{ { { { { { { } 6 ] ' ' [ [ [ ' ] ] ' [ [ ' ' _ _ ' ' ' ' _ ) ^ ^ j j j j j j j ",
"5 a j j c ` ` ` ` ` ' ` ' ' ` ` ` ` ` ` ` ` _ ' _ ' ' ' [ ;.;.3.8.8.8.8.4.0.3.3.4.4.7.7.7.7.7.7.0.j r ` ` 5 a ,.h h i i 2 h <.b.A.C.C.B.d.$.d.d.C.Z.T.T.T.T.T.T.T.T.T.R.Q.R.T.C.G.G.T.Q.Q.R.T.T.!.K.V.V.7.[ 7.!.!.E.E.E.E.%X%XE.MX%X!.W.I.b.5. .s / ..b.P.W.W.P.U.G.G.G.U.U.D.C.s.C.G.G.h.f.C.U.T.G.C.C.G.G.T.G.f.G.T.C.C.U.T.C.T.G.G.Z.C.C.C.C.L.Z.G.Q.Q.T.T.T.1XI...l j c ,.2.c j ^ ~ ( o.+.f.F.z.x.k.k.s.%.%.s.s.s.s.s.%.%.$.! @.s.G.a.$.d.$.@.$.D.G.s.$.$.a.d.h.h.h.h.h.j.a.v.{ { { ] ] o.} ( o.6.9.g.7.7.g.V.g.d.g.d.g.g.d.f.f.f.f.h.h.h.h.%.s.k.F.Y.Y.F.l.pXuXpXpXpXrXR.T.Y.H.R.R.R.R.R.~.L.8.=._ ` ..5.5.../ | / d d X.X.d.S.H.R.Q.Q.Q.G.f.B.D.H.H.eXrXaX0X0XuXuXuXuXuXuXdXdXbXdXdXdXkXVXdXCXFXFXFXFXVX0XdXCXZXdXdXdXdXsXA.| d / |  . .a s ..V.L.h.j.j.h.h.g.g.g.h.h.h.g.U.P.L.L.L.h.g.d.d.d.B.C.C.C.C.C.T.T.T.Q.~.~.~.~.uXQ.Q.Q.Q.^.T.P.V.b...c j l ,.2.c c c c l l  .1.l / ^ ^ ] [ o.O.U.l.s.s.j.j.a.{ { { { { { { { } W Q ' ;.;.[ [ ;.] ] [ [ } ' ] ] _ _ ;.;.;.' _ ^ ) ^ ^ r j j j j ",
"5 h j j j ) ` ' ` ` ` ` ` ' ` ` ` ` ` ` ` ' ' [ [ [ [ [ [ [ :.:.9.9.9.7.7.4.4.4.4.7.7.7.7.7.j.g.;.^ r ` ` x l b k h 2 , : 2  .b.P.G.C.f.f.B.B.B.C.C.C.T.Q.Q.R.T.R.T.T.T.R.T.T.G.T.G.G.U.R.Q.Q.E.T.P.L.L.V.d.d.g.%XE.U.U.E.E.E.E.E.E.P.P.K.b.b.5./ ` 5.b.K.L.L.C.G.C.B.B.C.G.G.C.C.C.G.G.G.G.G.T.T.A.A.A.P.^.W.Z.Z.T.^.Z.Z.T.!.T.~.Q.~.Q.Q.Q.~.Q.sXQ.R.Q.Q.G.G.T.1XI. .a 5 j ,.8...` ` ' o.$.f.S.F.l.k.k.x.x.x.s.s.%.%.%.%.#.#.#.s.! %.R.D.f.s.} s.l.D.D.f.s.s.h.j.j.j.j.j.j.a.j.j.} 4.4.] ] 7.g.' o.4.7.g.g.g.g.L.h.g.g.g.g.g.j.s.%.f.f.f.f.k.k.x.k.x.x.z.8Xz.z.yXrXyXrXrXeXY.H.rXeXrXrXrXH.eXpXE.4._ ' [ / ' 6.5./ | X./ / X.+.%.S.H.J.D.H.H.G.D.F.H.0XeX0XtXiXtXtXwXwXiXhXhXhXkXjXlXlXkXjXkXlXgXCXDXDXDXSXBXgXCXSXlXtXtXgXiXH.6.5. .| ..| 4 4 ~ o.V.h.j.p.s.l.h.h.h.h.h.h.h.h.v.h.h.U.U.v.h.h.$.%.f.B.C.B.f.f.G.G.G.G.T.T.T.G.S.S.S.S.S.f.B.P.I.5./ / ` j c 1.j j h a a h  .1. .` / ^ ( } 4.d.h.j.j.a.a.a.a.{ { { O.4.4.{ [ ] ] Q ] 4.7.[ } [ [ [ ;.;.[ ' } ' ' _ _ _ ' _ _ _ _ ^ Q r r j ^ ^ ",
"h j j j ^ ) ' =.` _ _ _ ' ' ' ' _ _ _ ' ' [ ;.[ 3.;.[ [ [ [ :.7.;.3.;.3.3.3.:.:.4.7.4.:.:.:.7.g.' _ j 6 6 / ,.,.v k i 3 : , ` 9.T.G.C.C.G.R.R.R.~.R.T.R.~.pXR.T.pXR.T.T.R.R.Q.R.R.G.C.C.T.Q.~.~.d.C.L.g.C.T.h.] ~.E.U.U.U.U.U.U.T.!.MXMX!.P.b.5.( o.9.V.I.P.P.T.G.A.d.B.C.G.G.C.Z.C.C.C.C.C.C.Z.^.Z.+.A.Z.^.Z.A.A.T.Z.+.+.Z.^.T.G.G.G.G.H.R.R.Q.sXQ.G.G.G.C.G.Q.%XV./ , : a <.b.5.3.o.O.O.d.B.D.D.x.k.x.z.F.z.x.x.x.x.x.x.&.%.%.F.! ! k.s.s.s.! yXR.F.l.k.f.s.s.h.g.j.a.a.a.g.h.h.4.h.C.[ ] 3.b.( ' o.4.d.g.h.h.L.C.h.h.h.h.s.j.%.%.%.&.k.k.k.x.F.z.x.s.x.z.z.z.z.F.J.H.9XH.H.H.rXeXrXeXH.l.z.R.E.[ 6 ^ ( ~ o.W.n./ | n.+.X.+.n.D.rXiXH.S.J.J.F.F.H.0X0X0XqXqXtXtXqXqXqXqXgXhXlXgXjXlXlXlXzXzXlXCXSXBXgXtXjXSXDXBXSXlXgXgXgXqX&.~ 5. . .n...a / <.o.4.a.h.l.l.l.l.h.h.h.h.h.h.h.j.a.a.h.U.h.h.h.$.$.s.h.h.D.D.D.T.H.T.H.T.G.D.D.S.k.S.S.k.s.C.T.C.( s ` ..c c 2.h a 5 , , a ` 5...' ( ] } O.a.h.j.h.h.j.a.{ a.j.{ { 4.O.{ } ] Q :.Q Q 4.g.{ ] ] :.7.7.7.:.[ [ :.;.[ _ ' _ ' ' [ _ ^ Q r r ^ ^ ^ ",
"h h j x ) ` ` =._ _ _ _ >.=.;.;.' ' ' ' ' ' ' ' ;.[ ;.[ ;.[ ;.;.;.3.3.4.4.7.7.7.4.4.7.7.7.7.7.7...6 > u ] ' <.1.b k f p : > ` 9.C.G.G.G.U.U.T.T.Y.Y.T.T.T.T.T.T.R.R.R.R.R.R.R.R.T.G.T.H.T.H.T.T.Q.G.B.C.T.Q.T.B.C.T.~.~.T.G.T.Q.~.~.T.C.P.I.5.s / V.I.6.P.!.Q.T.T.G.C.B.B.C.G.T.B.B.B.C.C.G.G.T.Z.Z.Z.T.W.T.Z.Z.Z.Z.Z.Z.Z.^.^.^.G.G.T.T.Q.T.T.T.G.Z.T.sXsXT.Z.G.!.P...s a ,  .1XI.( ~ $.h.{ $.R.D.F.l.F.F.F.9XeXz.J.9X9X9X9X9X9Xz.%.#.! #.%.z.F.x.x.z.F.F.l.x.x.s.j.j.a.a.7.a.a.a.s.p.{ } [  ./ 1...5.4.j.h.h.h.j.d.d.g.h.D.F.F.k.k.x.x.k.k.x.l.Y.F.z.l.l.z.z.l.l.k.l.F.H.eXrXeXY.R.Y.R.eXeXeXR.G.} 6 6 ( 6.A.I.n.X.l d / n.C.g.S.0X0XJ.J.0X0XJ.J.J.F.qX0XtXtXtXgXiXtXqXqXqXqX0XtXtXiXjXkXkXjXiXjXkXkXiXqXqXiXkX9XqXtXtXlXBX0X#.@.( ( ( ` ` c ` 0.<.' 4.h.v.l.s.l.f.s.f.f.f.l.l.s.j.j.f.f.h.l.l.l.k.f.s.s.h.l.D.Y.D.D.G.Y.T.Y.D.l.D.F.D.D.C.C.C.g.( 6 6 s ^ ..8.8.2 k ,., ; ..I.W.o.~ } O.} } $.h.h.j.j.j.h.h.h.j.j.a.a.a.a.a.a.p.{ } } } } { :.4.4.4.4.4.4.4.4.' ' _ _ _ _ ] ) _ ] ^ ^ r r r r ",
"h h h j x ) ` ` ] ] _ _ _ =.;.;.[ [ [ [ ' [ ' [ ;.;.;.;.;.;.;.;.;.[ 3.3.4.4.7.7.4.4.4.4.7.7.7.7.3.^ W ] [ 4.5.5.,.b n f 1 , ` 9.U.G.G.T.T.T.T.T.T.Y.T.T.T.T.T.T.R.R.R.R.R.R.R.R.G.G.G.G.G.G.G.G.R.C.B.C.G.Q.T.D.$.B.D.G.G.G.T.Q.T.R.T.G.T.!.n./ d 6.A.6.P.~.T.G.T.T.C.C.B.C.G.T.C.C.C.G.G.T.T.T.Z.Z.Z.T.W.T.Z.Z.Z.Z.Z.Z.Z.W.^.^.G.T.T.T.T.T.T.T.T.G.G.Q.Q.G.G.T.MX!.5.d p : d W.^.$.} s.l.s.f.R.l.l.l.z.z.J.9X9Xz.J.9X9X9X9X8X9Xz.x.%.%.s.z.z.z.x.z.z.F.F.z.x.x.x.j.j.j.a.a.a.a.p.s.p.{ { 4.5. .|  . .o.a.j.j.h.a.d.d.f.h.D.F.H.x.l.x.k.x.x.l.l.F.F.l.l.z.F.F.z.F.D.D.F.R.eXrXeXY.Y.R.R.eXeXeXR.~.d.} O.A.P.P.W.n.n.X.d / 6.C.s.D.F.F.F.J.0X0XF.J.9X9XqXqXtXtXtXiXiXtX0X0XtXiXiXiXiXfXjXlXlXkXgXiXkXDXDXCXlXkXkXtXiXiXiXkXlX9X#.W ] ( ' .. .*.D 2.2.0.7.g.h.j.s.x.f.f.f.f.k.l.l.f.f.f.f.k.k.l.l.D.l.l.k.k.l.D.D.D.D.l.D.F.Y.Y.D.D.D.G.D.D.B.C.C.g.@.6 6 ^ ' 8.K.N.v k  .2 ; s 6.%Xd.@.{ $.$.$.s.f.j.j.j.j.j.j.j.s.s.s.s.a.a.a.a.a.p.#.{ { { { p.4.4.{ { O.O.{ { ' >._ _ _ _ _ ] _ ] ^ Q r Q r r ",
"2 5 e j j ) ) ) ) ) ] _ _ ;.;.;.;.;.;.;.;.;.;.;.;.;.;.;.;.;.;.[ [ [ [ 3.3.4.4.4.4.4.4.4.4.7.7.6.7.o.[ 4.7.o.` ` N.1.D n i 2 ` 9.U.G.T.T.T.R.T.T.Y.Y.T.T.T.T.T.T.R.R.R.R.R.R.R.R.G.G.G.G.G.G.G.G.G.C.B.B.G.T.T.T.$.$.d.B.C.D.G.G.f.C.C.Z.W.!.b./ 4 5.n.6.Z.Q.G.B.T.G.C.C.C.C.G.T.C.Z.G.T.T.T.T.T.T.Z.Z.P.W.W.T.Z.T.T.P.Z.Z.^.^.^.T.T.T.T.T.Q.Q.Q.sXQ.T.T.T.G.T.Q.MX%Xb./ a , a n.^.C.%.s.D.G.G.H.k.l.l.l.l.z.J.J.z.J.8X9X9X9X8X9X9XF.F.eXeXeXz.z.z.z.z.z.F.z.z.x.x.l.h.g.g.d.j.j.p.s.p.#.{ 7.6.1.d l / [ p.s.s.s.$.a.d.d.h.D.F.Y.F.z.z.z.l.z.z.z.l.l.l.z.F.F.F.F.D.l.l.F.H.R.H.H.R.R.eXeXeXeXrXR.pXG.f.C.T.P.A.n.n.b.n./ / 6.C.d.k.k.J.0X0XF.J.0X9X9XqX0XqXqXqXqXiXtXtXtXtXiXjXjXiXiXgXjXlXlXjXgXkXCXDXDXDXCXBXkXjXkXjXjXkXjX9X#.@.} [ 3.<.` c z ,.0.8.9.g.j.j.s.s.f.f.f.l.l.D.F.l.l.l.l.l.l.l.l.l.l.D.D.D.D.l.D.l.f.f.l.D.F.F.D.D.Y.F.F.D.B.C.C.C.o.W ~ [ 6.I.W.N.,.k v c , 4 5.%XB.O.$.s.s.f.l.a.a.a.p.p.a.a.a.s.s.s.a.a.a.a.a.j.s.a.p.p.p.a.a.{ { { { { { { { ;.;.>.>.>._ _ ] _ _ ^ Q ^ ^ r r ",
"2 2 e j j ) ) ) Q Q ] _ >.;.;.;.;.;.;.;.;.;.;.;.;.;.;.;.;.;.;.[ ' [ [ [ [ 3.3.3.4.4.4.4.4.7.7.6.6.3.4.7.[ ~ 6 , N.1.D b f a ` g.G.G.G.T.T.T.T.T.U.U.T.T.T.T.T.T.R.R.R.R.R.R.R.R.G.G.G.G.G.G.G.G.G.G.C.C.C.G.T.T.C.B.B.C.C.C.B.f.f.C.C.Z.!.^.b.~ s 5.6.o.A.T.C.C.T.T.G.C.C.Z.G.G.C.G.T.T.T.T.T.T.T.P.Z.P.T.^.T.P.^.^.^.T.^.~.~.^.Q.Q.T.T.T.Q.Q.~.VXsX~.~.Q.Q.~.~.T.P.5. .b a l n.!.G.s.%.l.R.R.D.k.k.k.k.x.z.z.z.z.J.8X9X9X9X8X9XeXeXyXyXyXeX9Xz.z.z.z.z.z.z.z.x.l.l.h.h.g.g.j.j.p.s.p.#.4.g.5...a s / [ p.s.s.j.$.a.$.d.h.D.F.Y.Y.Y.F.F.F.F.F.F.x.l.l.F.F.F.z.l.k.s.f.k.D.F.F.F.R.eXeXeXeXrXrXrXR.C.C.G.C.+.~ 4 n.b.N.d ~ 6.L.s.k.%.k.rXtXJ.J.0X0XqX0XtXtXqXqXqXiXtXtXtXtXiXjXjXjXjXjXjXjXjXiXtXDXDXCXjXiXiXjXkXBXBXkXkXkXjX9X&.d.d.7.5.' x 5 3 k ` <.7.j.j.l.l.s.s.f.f.l.D.F.Y.D.D.D.D.D.D.D.D.l.l.D.D.D.D.l.k.f.s.s.f.l.D.D.D.Y.Y.T.F.D.B.h.C.T.d.( +.V.V.V.b.2.y.k k 1./ s b.!.g.O.$.s.h.k.D.a.p.p.#.#.p.p.p.a.a.a.a.a.a.a.a.j.j.s.a.a.a.a.a.{ { { { { { { { ;.;.;.;.;.>._ ] =._ Q Q ^ ^ Q r ",
", 2 e j x ) ) ) Q Q ) _ _ =.;.;.;.;.;.;.;.;.;.;.' [ [ [ [ [ [ [ ' ' [ [ [ 3.3.3.4.4.4.4.4.4.4.6.3.o.o.4.[ 6 4 > ,.b b n i 5 *.K.C.D.D.G.G.G.G.G.G.G.T.T.T.T.T.T.R.R.R.R.R.R.R.R.G.G.G.G.G.G.G.G.G.G.G.D.D.D.D.G.Q.R.T.T.T.G.D.B.R.T.T.T.%X^.n.s | b.n.( +.C.G.T.T.T.G.Z.G.Z.G.G.C.C.T.T.T.T.G.Z.T.P.Z.P.T.^.^.T.T.^.W.T.T.^.^.T.Q.Q.Q.T.Q.Q.~.~.sXsXMXsXsXsXsX~.+.6...| | l l 5.Z.f.$.#.k.R.R.D.k.k.k.k.x.l.z.z.z.z.8X9X9X9X8X9XeXyXeXeXeXF.F.9Xz.z.z.z.z.z.x.x.z.l.h.h.g.g.j.j.s.s.p.#.4.7.5.l l l ` o.a.j.s.j.$.a.d.d.h.l.F.F.Y.F.F.F.F.F.F.F.l.l.z.z.z.l.k.s.%.%.%.k.D.F.H.F.R.R.R.R.eXeXeXR.G.B.C.G.B.o.4 > n.n. ., 6 6.T.C.S.&.k.rXiXJ.J.0XqX0XtXtXtXqXqX9XiXiXtXtXtXtXiXfXkXjXgXgXiXiX0X9XDXCXjX0X9X9XtXjXBXkXkXkXkXjX0XJ.R.T.g.o.^ 5 , 3 h ` <.4.a.j.l.l.s.s.s.f.l.D.F.Y.F.G.F.D.D.D.D.D.k.l.l.D.l.k.f.f.s.s.s.s.l.D.D.D.Y.Y.T.F.D.C.B.C.G.B.d.Z.L.7.] r ,.2.k a ,. ./ 9.V.+.} O.$.f.k.D.$.p.#.#.#.#.p.p.a.a.a.a.a.s.a.a.s.s.a.a.a.p.#.{ { { { { { { { { :.>.;.;.>._ _ ] =.] Q Q ) ) Q 5 ",
", 2 h j ) ) ) ) Q ) ) _ _ =.;.;.;.;.;.;.;.;.;.;.' ' ' ' ' ' [ [ ' ' [ [ [ 3.3.3.3.3.3.4.4.4.4.4.o.o.o.4.[ ] ^ / b n k i 3 , *.I.h.h.D.G.G.G.G.D.U.G.T.T.T.T.T.T.R.R.R.R.R.R.R.R.H.H.H.H.G.G.G.G.R.R.R.G.G.D.D.D.R.Q.Q.Q.R.R.R.R.R.T.Z.Z.!.W...> ..K.n.( O.C.T.R.T.T.T.T.T.G.G.G.C.C.T.T.T.T.G.C.^.T.Z.Z.T.^.^.^.Z.P.T.P.T.^.W.P.Q.Q.Q.Q.Q.~.~.~.Q.~.sXsXsXMXsXQ.o.3./ a n d d X.d.$.#.#.k.Y.F.k.k.k.k.k.x.l.z.z.z.z.8X9X9X9X8X9XeXeXeXz.z.z.z.eXz.z.z.z.z.x.x.x.z.l.h.h.g.d.j.j.s.s.s.a.d.6. .a l  ...4.j.h.x.s.$.a.d.d.f.l.z.z.z.z.F.F.F.F.F.F.z.l.l.l.l.k.s.s.k.f.k.l.F.R.R.R.H.H.H.H.R.R.R.R.G.D.G.R.T.d.X.( n.5.l , d 6.T.C.S.k.J.0X0X9X9X0X0XqXtXiXtXtXqX9XjXgXtXtXtXtXiXiXlXjXgXiXiXtX0XJ.jXjXjXiXtX0XtXiXkXjXjXkXkXjXtXrX~.T.g.o.^ a a h ` <.0.9.g.h.k.s.%.%.s.f.f.l.D.F.D.D.F.F.Y.D.D.D.f.k.l.l.k.f.s.s.s.s.s.f.l.D.D.l.D.Y.Y.G.D.h.C.D.f.d.g.C.g.' 6 > ,.,.k 2 h j ^ ..4.o.} O.$.f.f.k.a.a.p.p.p.p.a.a.p.a.a.a.a.a.s.s.s.s.a.p.p.#.{ { { { { { { { { { >.>.;.>.>._ ] Q _ ) Q ) ` ` ^ 6 ",
"2 e j c ` ` ) ) ^ ) ] _ _ _ =.=.' ' [ [ ;.;.;.;.' ' ' ' ' ' ' ' ' [ [ [ [ 3.3.4.3.3.3.3.4.4.4.4.4.3.4.7.4.[ ' 1.b k i p : > ' P.h.C.D.G.G.G.G.G.T.T.T.T.T.T.R.R.R.R.R.R.R.R.T.T.T.T.T.T.T.T.T.R.G.G.R.R.T.G.D.D.D.G.R.R.T.G.R.Q.T.T.A.A.P.I. .> s b.A.6.C.Q.T.T.T.T.T.T.T.T.G.G.C.T.T.Q.Q.T.T.Z.^.T.Z.P.T.^.~.~.Z.P.T.T.^.^.^.T.Q.Q.~.~.~.~.~.~.T.~.sX~.sXVXMX~.A.b./ , p p d X.A.$.%.k.F.F.D.l.k.k.k.l.l.z.z.J.z.z.8X9X9X9X8X9XeXeXF.z.x.x.z.eXz.z.z.z.z.z.x.x.z.l.h.h.g.d.a.a.s.s.s.j.h.V...a l / ..7.h.l.l.l.a.d.d.d.f.h.x.l.k.k.l.z.F.F.F.F.z.l.x.k.k.x.k.k.S.l.l.D.F.H.F.F.F.F.F.F.F.H.H.F.R.T.Y.R.T.C.A.A.+...l 4 ~ 6.L.f.k.J.F.J.J.0X0XJ.9XqXtXiXiXtXqXqXjXgXiXtXtXiXfXfXkXjXiXiXiXtX0X0XiXjXkXjXiXtXtXiXkXjXjXkXjXiXiXaXR.T.A.3./ j h h ,.<.0.g.L.D.l.s.%.$.%.s.f.k.l.D.D.D.D.Y.F.F.F.D.l.l.l.f.f.f.f.s.f.s.s.f.l.l.l.l.D.D.G.D.D.h.D.G.g.d.g.B.d.( Q r 1.b k 2 : 5 ` / 4.+.O.$.s.h.f.s.j.s.a.a.a.a.s.s.p.p.a.a.s.s.j.j.j.s.a.p.{ { { { { { { { { { [ [ ;.>.;.>._ ] ) Q _ ) ) _ ;.=.Q 5 ",
"2 h x ` ` ` ) ) ) ] ] _ _ _ _ _ ' ' ' ' [ ' ' ' ' ' ' ' ' ' ' ' [ [ [ [ 3.3.4.4.3.3.3.3.4.4.4.4.V.6.7.d.4.[ ' <. .k i 1 $ : ` K.B.D.G.T.T.T.U.G.T.T.T.T.T.T.R.R.R.R.R.R.R.T.T.T.T.T.T.T.R.R.R.R.D.G.T.R.R.R.G.D.B.G.R.R.D.D.G.R.~.^.P.Z.!.!.5.d , 5.A.A.!.MXR.G.G.T.T.T.T.T.G.G.G.T.Q.~.~.Q.T.Z.^.T.Z.P.W.^.~.~.T.^.^.^.^.~.~.~.Q.Q.~.sXsXsX~.~.Q.sXMX~.sXVXVXMXE.I./ : , p l +.C.d.s.F.rXF.l.F.l.l.l.l.l.z.J.J.z.z.8X9X9X9X8X9Xz.F.F.z.x.x.z.eXF.z.z.z.z.z.z.z.l.l.h.h.d.a.a.a.s.s.j.h.L.L.5.a l l ..7.h.v.z.z.d.d.d.d.s.f.x.x.s.x.k.l.z.F.F.F.l.x.k.k.k.l.z.z.F.S.l.l.l.l.l.k.F.F.F.F.F.F.F.F.pXY.D.D.D.f.A.Z.X.X.| d / 6.A.d.k.F.F.k.k.0X0XJ.J.qXtXiXiXtXqXqXjXgXfXiXiXfXjXjXjXgXiXiXiXiXiXtXkXBXBXjX0X9XtXiXkXjXjXjXjXiXtXaXR.T.C.6.` j a 2 ` ` ' 6.L.U.l.s.%.$.$.s.s.f.k.l.l.l.D.D.Y.Y.F.F.D.D.l.k.f.f.f.f.f.f.f.f.l.l.l.l.l.D.G.D.D.D.C.G.C.B.B.B.d.{ 7.c.1.v v a + 4 5.( 7.d.g.h.C.D.f.%.j.j.s.s.s.s.j.j.p.p.a.a.a.s.j.j.j.j.a.#.{ { { { { { { { { { } [ ;.;.>._ _ ] Q Q ] Q ) ` 0.=.r u ",
"2 h x x ` ` =.=.;.;.;._ _ _ _ _ ] ] _ _ _ ' ' ' _ _ _ ' ' [ ' ' [ [ [ [ [ [ [ [ [ [ [ o.3.3.3.3.4.7.4.{ a.g.4.` l p , i 2 , ` P.C.G.G.G.D.G.U.T.T.T.R.R.R.R.~.~.R.R.R.R.R.R.R.R.T.T.T.R.R.R.R.T.R.R.R.R.R.R.R.R.R.R.R.R.T.G.D.B.Q.^.^.!.W.!.I./ s n.A.+.A.T.T.T.T.T.T.T.T.T.T.G.Z.Z.Z.C.C.G.T.T.~.^.^.^.^.^.~.~.^.^.^.~.^.^.~.~.T.Q.~.Q.T.G.T.~.sXsXsXMXVXMXMXMX%X6.s , p p | +.Z.D.l.z.z.z.z.z.z.k.%.k.F.eX9Xx.z.F.8X9X9X9X9X9X9Xz.z.z.z.z.z.z.z.z.z.F.F.F.eXY.x.l.h.h.g.g.g.j.j.s.v.U.h.L.b.l a  .5.7.h.U.Y.U.U.U.C.C.h.f.s.s.%.%.s.s.x.k.k.k.k.k.s.k.x.x.l.k.k.l.F.F.F.F.S.k.D.S.S.l.D.F.F.F.yXyXyXY.T.~.T.A./ d d | ..o.g.~.R.9Xk.&.k.0X9Xk.9XqXtXiXtXtXtXtXjXjXkXfXkXBXjX0X9X0XtXtXtXiXiXtXtX0X0XjXjXtX9XtXtXtXiXjXjXgXiXtXpX~.T.6.^ 5 , , h <.9.V.h.D.l.l.k.f.s.$.%.s.f.f.D.D.l.l.D.F.Y.R.f.f.f.f.f.k.k.k.s.f.l.l.l.l.f.s.f.f.s.s.s.s.h.C.a.C.C.d.g.h.h.7.,.k 2 , , 5 / ` A.g.d.d.s.s.%.$.#.a.j.j.j.a.j.j.j.j.j.s.s.s.s.s.p.p.p.p.#.{ { { { { { { { { } [ ' >.>.>.>._ _ _ _ ) ) _ ` =.) 6 ",
", h x c ` ` =.=.;.;.;.>._ _ _ _ ] ] _ _ _ ' ' ' _ _ _ ' ' [ [ [ [ [ [ [ [ [ [ [ [ [ [ o.3.3.3.4.4.4.4.O.a.g.7.<.l i p i i 5 ' P.C.G.G.G.D.G.G.T.T.T.R.R.R.R.R.Q.R.R.R.R.R.R.R.R.R.R.T.R.R.R.T.T.R.R.R.R.R.R.R.R.R.R.R.R.R.T.G.D.Z.!.%X1X1X%Xn.p s n.b.+.A.T.T.T.T.T.T.T.T.T.G.G.C.C.C.C.G.T.T.T.~.^.^.^.^.^.~.~.^.^.^.~.~.^.^.~.Q.~.~.~.Q.Q.~.sXsXsXMXMXVXVXMXMX%X9.s a p a l +.Z.D.l.z.z.z.l.l.%.k.z.l.l.J.yXaX9X9XeXeXeXeXeXqX9XF.z.z.z.z.z.z.z.z.z.z.z.z.z.F.l.v.h.h.h.g.h.h.j.j.v.U.h.P.b.l l  .5.7.h.v.z.l.U.U.C.C.B.h.s.s.%.s.s.k.x.x.x.k.k.k.k.k.x.l.l.k.k.l.F.F.F.F.l.k.S.S.S.l.D.F.F.F.z.F.Y.F.Q.MX~.!...d d | ....6.T.F.F.J.k.J.9XJ.k.J.9X0X0XqXqXqXqXiXkXjXgXgXjXfX0XiXjXjXgXiXiXiX0XtX9XtXkXkXiXtXjXtXiXjXjXjXjXiXiXNX~.P.5./ s a h a ..b.V.C.U.Y.F.Y.D.k.f.s.s.s.%.f.f.f.f.k.l.l.D.f.f.f.f.f.f.k.k.s.f.l.l.l.l.f.s.f.f.s.s.s.s.f.B.G.T.U.h.h.h.h.4.,.k 2 2 a j ` o.g.d.a.$.a.%.$.$.h.s.p.a.j.j.j.j.s.s.j.s.s.a.a.a.p.p.p.p.#.#.{ { { { { { { } } } ' >.;.>.>._ ' ' ;._ _ =.=.=.) 5 ",
"3 h x c ` ` ` =.=.=.=.=._ _ _ _ ] ] _ _ ' ' ' ' _ _ _ ' ' [ [ [ [ [ [ [ [ [ [ [ [ [ [ [ 3.3.4.4.4.4.4.4.a.g.g.0.l i 1 i i 5 <.!.C.D.G.G.G.G.T.T.T.T.T.R.R.R.R.R.R.R.R.T.T.T.T.R.R.R.T.R.R.R.T.H.T.R.R.R.R.R.R.R.R.R.rXR.R.R.R.G.X.+.n.Z.W.W.N., a n.b.6.A.T.G.T.T.T.G.G.G.G.G.G.G.G.G.T.T.T.T.^.~.^.^.^.~.~.~.^.^.^.~.~.^.^.^.^.~.sXsXsXsXsXMXVXsXMXMXMXVXVXMXMX!.6.l k n a n X.Z.D.F.z.z.z.x.x.l.l.z.F.F.F.yXaX9X9X9XeXeXqXqXqXeXF.F.z.F.F.z.z.z.z.z.z.z.z.z.x.l.v.v.v.L.h.h.h.l.x.z.U.h.P.b.l l  .5.7.j.v.z.h.U.U.C.C.B.h.k.s.%.s.k.l.z.l.x.k.x.k.k.k.l.l.l.x.k.l.F.F.F.D.l.k.l.l.l.l.D.F.F.H.F.Y.Y.Y.pXpXQ.P.5./ d s ( X.4.C.l.F.H.F.J.F.J.x.9X9X9XqXqXqXqX9XtXfXkXgXfXfXiX0XiXgXgXiXtXtX0X9XtX0XtXkXkXjXiXjXtXiXjXkXkXjXiXiXNX~.Z.o./ /  . .a <.b.V.C.U.F.l.Y.Y.D.l.k.f.s.%.$.s.f.f.f.f.f.f.f.f.f.f.f.f.k.k.s.f.k.l.l.k.f.f.f.s.s.s.s.s.h.h.D.D.h.h.U.E.U.c.` h 2 h h l ` o.g.d.d.a.s.s.%.$.U.j.#.#.j.h.j.a.s.s.a.a.a.a.a.a.p.p.p.p.#.#.{ { { { { { } } } [ ' >.>.>.;._ ' ' 0.=.=.;.=.;.` 5 ",
"3 5 x c ` ` =.=.=.=.=._ _ _ _ _ ] ] _ _ ' ' ' ' _ _ _ ' ' [ [ [ [ [ [ [ [ [ [ [ [ [ [ [ 3.3.4.4.4.4.4.a.j.g.g.9.l , : p , , =.E.D.G.T.R.T.T.R.R.R.R.R.R.R.R.R.R.R.R.T.T.G.T.T.R.R.R.R.R.R.R.T.H.R.R.R.R.R.R.R.R.R.rXrXrXuXuXrXQ.+.( / / | N. ., , 5.b.6.Z.T.G.G.T.T.G.G.T.T.G.G.T.T.T.T.T.Q.Q.~.~.~.^.^.~.^.~.~.~.~.~.~.^.^.^.^.sXsXsXsXsXMXVXVXMXMXMXMXVXMXsXMX%X6.s k n p l X.P.U.F.8X8Xz.z.z.tXF.s.z.yXyXF.x.z.z.8X9X9X9X9X9X9XF.z.F.F.eXF.z.z.z.z.z.z.x.x.x.l.v.v.v.L.L.h.h.z.l.z.v.h.L.b.a a  .5.7.h.v.v.l.U.U.C.C.B.k.x.x.s.k.l.F.F.z.x.x.x.k.k.k.l.l.l.l.k.l.l.S.S.l.k.k.l.l.l.l.D.F.H.H.yXyXyXrXyXpXQ.W.n./ a d / o.6.f.D.F.0XH.J.J.F.0XtX0X0XtXiXgXtXqX0XtXiXfXjXjXgXiX0XtXtXtXtXiXtX0XgXiXjXkXkXjXiXiXiXjXkXkXkXkXjXiXNX~.A.X./ |  . .l 1.b.V.h.h.k.s.U.F.D.D.D.D.l.f.s.s.k.l.D.l.f.f.f.f.f.f.f.f.k.k.f.f.k.k.l.k.f.f.s.s.s.s.s.s.f.h.D.h.s.h.U.E.E.L.c 2 3 h l s j ( V.g.d.d.s.s.%.%.l.j.p.p.j.j.s.p.s.s.a.a.p.p.p.p.p.p.p.#.#.#.{ { { { { { } } ] ] ' >.>.>.;._ ' ' 0.;.=.=.=.=.) 5 ",
"3 5 x ` ` ` =.=._ _ _ _ _ _ _ _ _ _ _ _ ' _ _ _ _ _ _ ' _ ' ' ' [ [ [ [ [ [ [ [ ' [ [ [ 3.4.4.4.7.4.a.j.j.a.g.9.j , 3 i 2 5 ' E.U.T.R.~.~.~.pXpXR.R.R.R.R.R.T.T.R.R.T.G.G.T.R.R.R.R.R.T.R.T.T.G.R.R.R.R.R.R.rXrXrXrXrXrXuXuXpXpX~.A.X.l d n d : , 5.A.A.Z.T.G.D.G.G.T.T.T.T.T.T.T.T.T.Q.Q.Q.~.^.~.~.~.~.^.~.%X%X^.^.~.~.^.~.^.~.sX~.~.sXsXMXVXVXsXMXMXMXMXsXsX~.%X5.a a p p d +.C.D.F.z.z.z.z.x.eXl.k.H.rXH.x.&.z.z.8X8X8X8X8X8X9XF.z.z.F.F.F.F.z.z.z.z.x.x.x.x.l.l.h.h.h.h.h.h.eXv.v.v.g.V.5., a / 5.7.h.Y.Y.U.U.C.C.C.D.k.x.x.s.k.l.F.F.l.k.x.x.k.k.k.x.l.l.l.k.k.k.k.k.k.k.k.l.l.k.l.D.F.H.eXeXeXeXyXaXpXpX~.+./ a d / +.7.f.F.F.F.F.J.J.0XiXfXiXtXiXjXjXiXqXtX0X0XiXjXlXlXkXiXgXjXfXfXjXgXiXkXkXkXkXjXiXtX0XtXiXkXBXBXjXiXiXVXQ.d.( / / l k l 1.b.V.h.l.l.k.Y.Y.F.F.D.D.l.f.s.f.D.F.F.D.k.f.f.f.f.f.f.f.f.f.f.f.f.f.f.f.f.f.s.s.s.s.s.s.f.h.T.G.D.U.Y.Y.v.c.` 2 3 k c a s / 9.6.a.$.s.s.%.%.#.a.j.j.j.a.#.#.a.a.a.p.p.#.#.#.#.#.#.#.#.#.{ { { { { { } ] ] ] ' >.=.=.;.>.=.>.3.' _ ' ` =.) 5 ",
"> 5 x ` ` ` ` =._ _ _ _ _ _ _ ' _ _ _ _ _ _ _ _ _ _ _ ' _ ' ' ' [ [ [ ' ' ' ' ' ' ' [ [ 3.4.4.4.7.4.j.h.j.{ [ 5.c i i k h 5 =.E.U.T.~.pXpXpXpXpX~.~.Q.R.R.R.T.T.R.R.T.T.G.T.R.R.uXR.R.T.T.T.G.G.R.R.R.R.R.rXrXrXpXpXrXrXrXuXpXpX%XA.X.| l n d : , n.P.V.T.T.D.D.T.T.T.T.T.T.T.T.T.T.T.Q.Q.~.~.~.^.^.^.^.~.%XMXVX%XMX%X%X%X~.~.~.sX~.~.~.sXsXsXsXsXsXsXsXsX~.~.~.!...a k n p d +.A.h.x.x.x.x.x.x.%.%.F.rXF.%.&.9X9X9X8X8X8Xz.z.z.z.z.z.z.z.F.F.z.F.z.z.z.z.x.x.x.l.l.h.h.h.h.h.h.eXl.l.h.g.V.5., , l 5.g.v.E.Y.U.D.C.C.C.B.k.x.x.k.k.l.F.z.l.k.x.k.k.k.k.x.x.l.x.k.k.k.k.k.k.k.k.k.k.k.l.F.F.H.eXeXeXeXyXyXF.C.A.X./ d d / o.g.B.rXF.J.F.J.F.0XaXfXiXtXiXjXjXiXqXiX0X9XtXjXlXBXCXkXkXkXiXiXiXtX0XjXkXkXkXjXiX0X9XtXiXkXBXBXjXiXrXVXQ.+.( / / l p a ..b.C.U.T.eXR.rXR.Y.D.l.k.f.s.s.f.l.D.D.l.f.s.f.f.f.f.f.f.f.f.f.f.f.f.f.f.f.s.$.$.$.$.%.s.h.h.l.h.D.Y.R.Y.E.%X<.f 2 c  .s s / 4.O.O.O.$.$.$.#.} p.j.h.j.p.#.#.a.a.p.p.#.{ { { { { { { { #.{ { { { { } } ] ] ] ' >.=.=.;.>.>.>.;._ _ _ ) ` ) 5 ",
"> 2 x ` *.=.` ` _ _ _ _ _ _ ' ;.] _ _ _ ' ' _ _ _ _ _ _ _ ' [ ' ' ' ' ' ' ' ' ' ' ' [ [ 3.4.4.7.7.a.g.h.a.} ] ` l i i k h 5 ' P.C.G.R.pXpX~.pXpXpXpXpX~.R.R.R.T.R.R.T.T.T.R.R.R.pXQ.R.T.T.T.G.G.H.R.R.R.R.rXrXrXpXrXrXrXrXrXuXQ.W.+.| l l l l a 4 n.W.I.^.R.D.C.T.T.T.T.T.T.Q.Q.T.T.T.T.Q.~.~.~.~.^.^.^.~.MXVXVXVXVXVXVXMXMX%X%XsX~.Q.~.sXsXsX~.~.sXsX~.~.~.Q.^.W. .a b b a d +.A.f.x.x.z.8Xz.z.%.#.k.H.F.s.x.yX9X9X8Xz.x.x.x.x.z.x.x.z.z.z.z.z.F.z.z.z.z.z.x.x.l.l.h.v.C.L.L.U.Y.x.j.j.g.P.b.a , l 5.g.v.Y.Y.l.C.C.C.B.C.k.x.x.k.x.x.l.l.k.k.x.k.x.x.k.x.x.x.k.k.k.f.&.%.f.k.k.k.k.k.l.F.H.R.eXaXxXyXaXeXs.@.@.( / s s ~ o.7.f.rXJ.z.F.0X0X0XiXiXiXiXiXgXgXtXqXiXqX9X0XiXgXjXCXjXjXgXtX0X0XqX9XtXjXjXiXiXiXtX9XqXiXjXkXlXjXiXrXNXT.+.(  ...l p , / 9.A.G.R.rXrXR.Y.D.l.f.f.f.f.f.f.l.D.D.l.f.f.f.f.f.f.f.k.f.f.f.s.s.s.s.s.s.s.$.$.$.$.%.s.h.D.s.s.l.U.v.h.v.%X<.f 2 c ,.l j ..4.+.O.$.$.$.$.$.{ #.p.s.j.s.p.#.a.p.p.#.#.{ { { { { { { { { { { } } { { } ] ] ] ' >.=.=.>._ >.>.;.] ) ) ) ` ) 6 ",
"> 5 x *.*.*.` ` ` _ _ _ _ _ =.=._ _ _ ' ' ' _ ' _ ' _ ' _ ' [ [ ' ' ' ' ' ' ' ' ' ' [ [ 3.4.4.7.g.a.h.h.a.] Q ^ a , p k h 5 _ c.h.D.T.R.Q.R.R.Q.pXpXpX~.R.R.R.R.R.R.T.T.R.R.R.R.pXQ.R.T.T.T.G.G.F.F.T.R.R.rXrXrXpXpXrXR.R.rXrXuX^.n.| d d l | l a b.!.P.^.^.C.B.T.T.T.T.R.Q.Q.Q.^.^.T.T.Q.Q.~.~.~.^.~.~.MXVXVXVXVXVXVXVXVXMXMXMXMX~.Q.~.sXsXsX~.~.~.~.~.~.Q.Q.W.I.| d ..N.l k ..V.C.D.F.9X9X9X9X9X#.! %.eX9XF.9XF.z.z.x.x.&.&.#.x.x.x.x.z.z.z.z.z.z.z.z.z.x.z.l.v.v.v.U.L.U.U.U.v.s.s.j.h.P.K.^ d / 3.g.h.U.U.h.h.C.C.C.h.k.x.x.k.x.x.k.l.k.k.x.k.k.x.x.k.x.x.k.k.f.f.%.%.%.f.k.k.k.k.k.F.F.0XeXyXyXaXBXaXk.O.( ( | / s / ..6.g.rXJ.k.0XiXtX0XtXgXfXfXgXjXgXiXtXjX0X9X0XqX0XgXCXjXkXjXfXiXgXgXiX9XtXiXiXiXfXiX0X0XtXjXkXkXaXtX0XNXR.$.X.+.1./ a , / 5.A.C.U.R.H.D.l.f.f.f.k.l.l.l.l.D.D.D.D.l.f.s.s.f.f.f.l.l.h.j.s.s.s.s.s.s.s.$.$.$.$.d.s.h.D.Y.Y.Y.U.a.! ! [ ,.2 3 v ,.l j ..6.6.O.d.s.s.f.s.j.#.{ { j.h.j.{ a.a.p.#.#.{ } } } } } { { { { { } } } } } } ] } ' >.>.>.>._ _ _ =.) ) ) ) =.) 5 ",
"5 e j x ` ` ` ` *.*.` ) _ ) ) ) ) ) _ ) _ ) _ ) _ ) _ ) _ _ _ _ ] ] ] ] _ ' ' [ ' ' [ [ ;.:.4.4.7.7.7.a.h.c.7.' h k k k 2 5 ` 7.} O.s.T.pXpXpX~.pXpXpX~.~.R.R.T.pXpXpXQ.R.R.R.T.R.T.R.H.F.G.F.G.F.F.F.H.H.R.uXuXrXrXuXuXuXuXuXuXQ./.(.~ d d d d / ..n.P.!.^.T.Z.T.U.T.T.R.R.R.R.C.T.Q.~.~.~.T.Z.~.~.Q.~.~.~.~.~.sXMXMXMXMXMX~.~.sXsXsXsXsXsXsXsXsXsX~.~.~.Q.Q.T.V.5... . .,.,. ./ / o.C.rXrXtXtXx.x.x.&.&.&.x.z.9Xz.z.z.z.z.z.z.qXeX8Xz.z.z.z.x.x.x.l.l.l.l.v.v.v.v.v.v.v.h.j.j.p.s.v.v.U.E.P.[ ( ( +.g.C.U.U.D.U.G.D.h.f.f.l.l.l.k.s.%.s.s.s.s.l.k.l.k.k.k.l.k.s.s.f.h.f.f.%.%.k.l.J.k.x.k.J.F.9XrXyXrXpXpXT.A.| | / l /  .8.C.F.J.J.J.0XiXaXaXiXiXaXaXjXkXkXkXtXiXgXiXtXiXjXBXgXgXjXjXlXlXBXBXBXBXCXCXkXaXiXrXrXrXtXiXiXiXtXrXuXQ.G.A.+.| s a l  .5.A.G.F.F.F.F.D.l.h.f.f.s.s.f.f.f.f.f.f.f.f.j.j.j.j.j.j.j.j.s.s.s.a.a.a.p.p.a.a.a.a.s.f.l.l.U.U.R.Q.T.g.( 6 c v h i i k 1.n...` ' 4.d.d.h.U.p.{ { { { { { { a.a.a.O.{ { } } p.#.#.{ p.p.{ { { } } ] } } ' [ ;.;.;.;.=.>.' =.Q ) ) ) ) =.` t ",
"5 e j c ` ` ` ` *.` ` ` ) ) ) ) ) ) ) ) ) ) ) ) ) ) ) ) _ _ _ _ _ ] ] ] _ ' ' [ ' [ [ ;.;.;.:.4.7.7.a.j.h.c.7.' c k f p : , ' K.a.$.O.$.C.R.MXNXpXpXpXpX~.R.R.R.pXpXpXR.R.R.R.R.T.R.R.H.H.H.F.G.F.F.H.H.R.rXuXuXrXrXrXrXuXuXuXQ.Q./.B.+.~ ~ d d d / ..+.n.W.~.VXR.~.pXpXpXR.G.C.T.T.^.Q.~.~.MXMXsX~.Q.~.~.sX~.~.MXMXMXMXMXMXsX~.sXsXsXsXsXsXsXsXVXsXsXsX~.~.Q.T.V.5...l i i k k a s ..Z.R.eX9XqXz.z.x.&.&.&.&.x.z.z.z.z.9X9X9X9X8X8Xz.z.z.z.z.x.x.l.v.l.l.x.l.v.v.v.v.v.v.v.v.l.j.v.U.U.v.U.g.] ( ( +.g.C.G.G.D.D.D.l.l.f.h.l.l.z.x.s.s.s.k.l.x.x.s.s.s.x.x.s.f.s.s.s.h.D.D.k.k.k.l.J.J.J.J.J.0XF.0XeXeXrXpXT.A..... .| ` ..8.g.rX9XJ.J.0XtXiXfXfXfXaXjXkXkXkXkXlXBXlXzXgXgXzXBXgXgXgXjXjXBXBXCXBXBXCXBXkXaXiX0X0XrXrXiXaXiXuX0XpXQ.T.A.+./ s a /  .6.A.G.F.H.F.D.D.l.h.f.s.s.s.f.f.f.f.f.f.f.f.j.j.j.j.j.j.j.j.a.s.j.j.j.a.a.a.a.d.a.a.s.f.l.l.h.h.D.T.E.Z.+. .h k k f p p a k a s / 3.g.g.h.U.a.a.4.{ { { { { 4.a.a.a.a.a.{ { { #.{ { :.{ { } [ } } } } ' ' ;.>.=.=.>._ _ _ _ ) ) ) ) ) =.) 5 ",
"2 5 j c ` ` ` ` *.` ` ) ) ) ) ) _ _ _ _ _ _ _ _ ) ) ) ) ) ) ) ) _ ] ] _ ' ' [ [ [ ;.;.;.;.;.;.;.7.7.a.a.j.g.3.`  .k p : + > ' W.Q.G.s.$.d.D.R.pXpXpXpXpX~.R.R.R.pXpXuXrXR.R.R.R.R.R.R.H.H.H.H.F.F.H.H.H.R.rXuXuXrXrXrXrXrXrXrXQ.uXuXQ.A.+.X.~ 4 | 1.n.5.6.A.T.~.T.G.G.G.T.~.sXMX~.Q.Q.^.^.~.~.~.~.^.~.^.~.MXMX~.MXMXMXVXMXMXMX~.sXsXsXsXsXsXsXsXVXsXsXsXsX~.Q.T.A.5...a : : a k , s ( C.rXeX9X9X9X9X9Xz.x.&.x.x.&.x.z.9X9XqXqX9Xz.z.x.x.z.z.z.x.x.x.l.l.x.j.j.j.h.h.v.v.v.v.v.v.Y.E.E.U.h.h.a.~ @.( +.d.C.C.D.C.D.D.D.l.l.l.l.h.z.l.s.s.s.l.l.s.s.s.s.s.s.s.s.s.$.s.h.D.G.F.F.F.k.S.F.F.9X9X0X0Xz.F.eXH.R.R.G.6.o..... . .<.8.g.pX0X9X9X0XrXiXiXjXjXkXkXkXkXkXkXBXBXBXlXjXjXlXBXgXgXgXjXjXBXBXSXBXCXCXBXkXfXiXrX0X0XrXiXiXiXuX0XsXuXT.A.+./ s a  ...6.A.G.F.H.F.D.D.D.h.f.f.s.s.s.s.s.s.s.s.s.j.j.j.s.s.j.j.j.j.a.a.s.j.j.j.j.j.d.d.d.d.f.f.l.l.s.s.h.C.T.P.A.5.h k k i 3 : , 2 , 5 / 6.C.g.g.h.j.j.a.a.a.a.a.{ { { { a.a.a.a.a.{ { } } { { } ] { [ ' } _ _ ' ' >._ _ _ _ _ ) ) ` =.` ) ) ` j 6 ",
", 5 h x ` ` ` ` ` ` ) ) ) ) ) ) _ _ _ ) _ _ _ _ ) ) ) ) ) ) ) ) _ _ _ ' ' ' [ [ ;.;.;.;.;.;.;.;.4.7.a.a.j.j.4.` l n p : $ : ` E.pX~.T.T.G.G.G.G.~.~.pXpX~.~.R.R.pXuXuXrXR.R.R.R.H.R.R.H.H.H.H.F.D.F.F.H.H.R.R.R.R.R.R.rXR.rXrXuXuXfXbX^.^.Z...d / b.!.!.!.P.A.$.pXpX~.R.R.R.R.Q.T.T.^.~.~.^.P.Z.~.~.~.~.~.MXMXMXMXMXMXVXVXMXMX~.sXsXsXsXsXsXsXsXsXsXsXsXsXsXQ.T.A.5.| a : , l  .4 s [ C.R.0X9XqXtXtXtXtXqX9X9X9X&.&.z.9X9X9X9X9X8X8Xz.z.z.z.z.x.x.z.l.l.x.s.s.j.h.h.h.h.v.l.v.z.E.R.E.U.h.h.d.~ ~ ( +.d.B.C.C.h.l.l.D.D.D.l.l.h.k.s.s.s.s.s.s.s.s.s.s.s.s.s.s.%.s.s.k.D.F.H.F.H.S.J.0X0X0X0XJ.J.x.J.H.H.R.Q.T.A...........5.8.g.pXrX0X0X0XiXfXfXkXkXkXkXkXkXkXkXtXtXxXgXjXlXBXSXgXgXgXjXjXBXSXSXBXBXBXkXkXfXiXrXrXrXrXiXiXiXuX0XaXQ.C.A.o./ s s  ...9.C.G.F.F.F.D.l.l.l.f.f.f.f.s.s.s.s.%.%.s.s.a.a.a.a.a.a.a.a.a.a.j.j.j.h.j.h.d.d.s.s.f.f.l.l.f.s.s.d.g.A.6...c c h 3 $ : a  .a s ..g.L.g.j.j.h.j.j.j.j.j.a.a.{ { { { :.:.O.{ { { } { { { } ] [ [ [ ' ' _ _ _ _ _ _ _ ] ] ) ) =.=.` ) ) ` r 6 ",
", 5 j x c ` ` ) ` ` ) ) ) ) ) ) ) _ ) ) _ _ _ _ ) ) ) ) ) ) ) ) ' ' ' ' ' [ [ ;.;.3.4.4.4.;.;.[ ;.4.j.j.g.g.7.5.a p p p , : / W.U.G.T.R.~.pX~.R.Q.Q.~.pX~.~.Q.R.uXuXrXrXrXR.R.R.H.H.R.F.F.F.H.F.D.D.D.J.H.H.H.H.R.R.R.R.R.R.rXuXH.uXdXVXVX^.6.s s n.!.%X%X%X^.B.O.d.T.MXVXVXsXQ.T.T.^.^.^.^.~.~.~.~.%X%X%X%XMXMX~.MXMXVXVXMXMXsXsXsXsXsXsXsXsXsXsXsXsXsXVXsXQ.^.A...l a , a l l a s ( B.F.F.qXqXqXqXtXtXqXqXqXqXx.8XqXqXqX9X9X9XeXqX9X9XeXz.z.x.x.z.z.l.x.s.s.j.j.d.s.s.l.l.z.z.z.U.Y.D.h.U.h.] ~ ( O.d.B.C.h.f.h.l.l.D.D.D.l.k.s.s.s.s.k.k.f.s.s.s.s.s.s.s.s.s.f.h.D.G.F.F.F.F.H.F.0X0X0X9XJ.k.S.H.rXrXaXsX~.T.( |  . . .5.9.L.uX0X0X0XiXaXkXjXBXkXkXkXkXkXkXkX9XqXqXtXgXlXBXBXjXjXgXjXjXBXSXDXBXBXkXkXdXaXiXrXuXuXuXiXiXiXrX0XrXD.g.g.o./ l l  ...9.A.G.G.F.z.k.l.l.l.h.f.f.f.s.s.s.s.s.s.s.s.$.$.a.$.a.$.a.$.a.a.j.f.h.h.h.h.d.s.f.h.l.k.k.f.f.l.s.a.d.A.6...` c l i , , k  .j j ' 7.h.g.j.h.h.h.g.d.g.d.j.a.{ { O.a.a.O.{ { p.{ { { { { } ] } } [ ' ' ' ' _ ] ] ] ] _ _ ) _ ` ` ) ) ) =.j 6 ",
", 5 h x x ` ) ) ` ) ) ) ) ) ) ) _ _ _ _ _ _ _ _ ) ) ) ) ) ) ) ) ' ' ' ' [ [ ;.;.;.3.4.4.4.4.;.;.4.j.h.h.v.c.g.8.a p n k , : ^ W.T.G.G.G.T.R.pXpXR.Q.~.pXpX~.~.Q.rXrXrXrXrXrXrXrXT.T.R.F.F.F.F.F.D.D.F.F.H.H.H.H.R.R.R.R.R.R.rXuXJ.R.uXsXMX^.6.s s 5.I.Z.I.~.~.T.} @.O.d.G.Q.MXMXVXVX~.~.^.~.VXVX~.MXMXMX~.~.MXMX~.MXMXVXMXMXMXsXsXsXsXsXsXsXsXsXsXsXsXsXVXsXQ.T.Z.X.l a a a a 4 s ^ o.B.F.J.9XqX9X9XqXqXqX9XqXqX9XqXxXtXqX9X9XqXtXtXeXqXeX9Xz.x.x.x.z.z.l.l.l.l.d.d.s.s.h.l.z.l.x.l.z.h.D.T.B.@.@.( +.d.B.B.h.s.h.l.l.l.l.D.D.D.l.l.l.l.F.F.l.k.s.x.f.f.k.f.k.s.k.D.D.G.F.D.J.S.0X0X0X0X0X0XJ.x.F.rXaXaXaXNXpX^.( ( | / ` 5.V.U.R.0XrXiXaXkXkXaXBXkXkXkXdXfXfXaXtXqXtXiXjXkXkXjXlXjXjXjXjXlXCXDXBXBXkXkXaXiXiXuXaXiXiXiXiXrX0XH.F.f.d.g.+./ s l  ...6.A.D.D.l.l.k.k.l.l.k.k.f.f.f.f.f.f.f.f.f.f.$.$.a.$.a.$.a.$.s.s.f.f.l.l.l.l.s.f.h.l.l.l.k.s.s.l.D.f.C.T.Z.6.j c c l i , , a a s ^ 4.g.h.h.l.h.h.d.d.g.j.j.a.j.j.j.j.j.a.a.O.a.a.{ { :.{ [ } ] } ' [ ;.;.' ' ] ] ] _ _ _ _ _ ) ` ) ) ` *.) 5 ",
", 5 h x x c ) ) ) ) ) ) ) ) ) ) _ _ _ _ _ _ _ _ _ _ _ _ ) ) ) _ ' ' ' ' [ [ ;.;.;.3.4.4.4.4.:.;.4.a.h.h.j.d.4.5.l a n n , ; / %XpXR.T.G.T.R.R.~.R.R.Q.~.pXpX~.~.R.R.R.R.rXrXrXrXT.H.T.F.F.F.F.F.H.H.H.R.R.R.R.R.H.H.R.R.R.rXrXuX0X0XuXuX~.T.o.4 ~ 6.Z.6.+.Z.T.T.VX~.C.O.} o.O.+.^.~.%XMXMX1X%X%XMXVXVXMX^.~.^.%X^.~.%XVXVXMXMX~.sXsXsXsXsXsXsXsXQ.~.sXsXsXsXQ.T.W.N. .k , , a 5 ^ ( d.T.rX9XqXtX9XqXqX9X9X8X9X9X9XqXxXqX9X8X9XqXtXtXqXqXqX9Xz.x.x.x.l.z.z.z.v.U.h.f.f.f.k.l.l.z.l.l.l.h.D.T.f.~ @.( +.d.B.C.h.s.l.l.f.h.l.D.D.D.l.l.l.F.Y.Y.F.l.k.x.k.k.l.l.l.l.l.D.D.F.H.F.F.F.rX0X9XqXtXtXqX9XJ.0XiXrXrXuXT.B.+...| /  .3.V.T.rXuXaXdXkXkXaXiXkXkXdXaXaXuXuX0XjXgXiXgXjXkXjXiXBXlXjXjXjXkXCXCXCXBXkXdXfXiXiXuXaXaXfXiXiX0XH.J.S.%.$.A.+.s 4 a  ...6.A.C.S.x.k.f.h.l.l.k.k.h.f.h.h.h.h.h.h.k.h.%.%.%.%.$.$.$.%.s.f.f.k.l.l.l.k.s.h.l.D.D.l.s.s.s.D.F.G.T.~.W.6.j l l k 2 , : : 5 s ( 6.h.h.h.l.h.h.j.j.j.j.j.a.j.j.j.j.j.a.a.O.j.a.p.{ :.{ [ } ] ] } [ ;.;.;.;.] ] _ _ _ _ _ =.` =.) ) ` ` j 6 ",
"3 5 e x x c ) ) x x x ) ) ) ) ) _ _ _ _ _ _ _ _ _ _ _ _ ) ) ) ) ' ' ' ' [ ;.;.;.;.3.4.7.7.7.4.4.[ 7.j.a.:.{ [ /  .k n p : + / %XT.G.T.R.pXNXNXMXR.R.Q.~.pXpX~.~.R.R.R.R.rXrXrXrXT.T.T.F.F.F.F.F.R.R.rXrXrXrXrXR.H.H.R.R.R.rXrXuXfXfXuXQ.Q.T.X.4 > ..V.A.6.C.R.G.T.T.~.MXsXT.Z.+.~ o.P.VXAXAXVX%XMXVXVXVX^.^.~.~.^.~.MXMXMXMX%X~.sXsXsXsXsXsXsXsXQ.Q.~.sXsXsXQ.T.W.n.1.l , , s / ( o.C.pXaXtXqXxXqXqXqXqX9X8X8X9X8X9XqX9X8Xx.9XqXqXqX9XeXqX9Xz.x.s.x.l.z.U.U.Y.Y.D.C.h.h.l.D.F.F.z.l.l.h.G.T.$.6 @.( +.d.B.C.h.s.l.l.f.f.f.l.D.Y.k.k.l.F.F.H.D.l.l.l.l.l.l.l.l.D.k.D.F.H.0X0X0XH.0X0X9XqXiXiXiXtXJ.9X0XF.J.S.%.o.+.+.../ ` 3.K.T.uXaXdXkXBXkXaX0XdXdXaXiXuX0X0XH.aXiXiXgXjXkXjXiXCXBXjXjXjXkXBXCXCXBXkXaXaXiXiXuXkXaXfXiXuX0XJ.J.S.%.O.A.+.s , 4  ...6.A.h.k.k.s.f.f.h.l.l.k.h.h.l.l.l.l.l.l.l.l.%.%.%.%.%.%.%.%.f.h.h.l.D.D.l.l.s.h.D.D.D.l.s.s.s.D.R.G.T.~.T.+./ l a , : , , a s ~ o.V.U.h.f.f.s.d.j.j.j.j.a.a.{ { { a.a.O.{ { a.a.{ { { { } ] Q ] ' [ ;.;.;.;.] ] _ _ _ >.=.=.` =.` ) ) ` j 6 ",
"5 5 h x x c ) ) ) x ) ) ) ) j j ) ) ) ) ) ) ) ) =.=.=.=.` _ _ _ ' ' [ ;.3.3.4.4.3.3.4.4.4.4.7.7.o.O.4.a.j.a.4...| n k p , 4 5.%XT.T.T.R.R.~.~.pXR.R.R.R.R.R.R.R.T.T.T.R.R.rXpXpXR.R.R.R.R.R.R.R.R.R.R.R.R.R.R.rXuXuXpXuXuXR.H.H.iXwXH.uXMX~.g.~ ^ K.P.V.T.T.R.pX~.Q.T.T.Q.Q.~.!.^.Z.+.o.n.!.VXAXAXVX%X^.~.^.%XVX^.^.VXVXVXVXVX^.~.~.Q.Q.Q.~.sXVXsX~.sXsXsXsX~.^.K.X.d d l l / | 6.C.pXpXiX0XqXqXqXqX9X8Xz.8X9XqXqXqXqXqXqXxXqXtXtXtXtXtXqX9Xx.&.x.x.x.z.F.z.z.l.D.D.D.D.l.k.z.F.k.l.D.D.G.T.B.@.~ +.d.+.d.C.T.C.f.h.l.l.f.s.f.f.k.k.k.k.l.l.S.S.H.H.H.H.F.F.D.D.l.k.k.J.0XrXiXiX9XqXtXiXiXtXgXiXqXqXqX0XiXuXQ.T.A.X.5./ s 3.7.T.pXdXdXdXdXkXdXdXuXuX0XH.H.uXaXdXiXfXaXfXiXfXkXkXDXkXiXiXiXiXiXkXCXBXkXkXaXiX0XF.BXkXkXaXuX0X0XrXH.B.$.+.X.~ l /  .1.9.A.f.S.l.l.f.f.f.f.f.f.f.f.s.f.f.h.h.l.l.l.k.k.k.k.h.f.f.f.s.s.f.h.S.D.D.G.B.S.D.D.D.F.F.H.%.&.&.%.$.+.} ( s 1.l ,  .a : | / 5.C.C.C.h.f.s.j.j.j.j.a.a.a.a.j.j.j.j.j.j.j.j.a.a.{ { } ] } ] ] ] ] ' ' _ _ _ _ _ _ _ _ _ ` ` _ ^ ) ) j ` ` > ",
"5 5 h x x c ) ) ` x ) ) ) ) j j ) ) ) ) ) ) ) ) _ _ ` ` ` ` _ _ ' ' [ ;.;.3.4.4.4.4.4.4.4.4.4.4.4.4.a.j.g.d.4...l n n p , , +.^.T.T.T.R.R.~.~.~.R.R.~.~.Q.Q.Q.Q.R.R.R.R.R.rXrXpXT.H.H.F.H.R.R.R.H.H.F.D.D.S.S.S.D.F.R.rXuXuXuXuXaXwXH.Q.sX!.+.6 ^ K.W.C.T.R.R.pXQ.R.R.T.Q.Q.Q.^.~.^.T.Z.A.6.+.+.%X%XVXVXVX^.T.^.VXVXVXVXVXVXVXVX~.sXsXsXsXsXsXsXsXsXsXsXbXsX~.!.b.X.d d l l / | 6.C.pXpXtXqXqXqXqXqX9X8X8X9X9XqXqXqXqXqXqXxXxXqXtXqX9X9X9X8Xx.x.x.x.x.z.l.l.l.l.C.D.G.G.D.D.F.Y.k.l.D.D.G.T.B.@.~ o.d.d.g.G.U.h.f.l.l.l.f.s.s.f.k.k.k.k.l.l.l.l.F.F.F.H.H.F.F.F.S.l.l.J.0XuXiXiX0X0XiXiXtXtXtXxXqX0X0XtXiXiXuXQ.+.( +./ / 6.g.T.sXkXVXCXCXCXBXdXdXaXaXuXuXaXaXdXfXaXjXjXaXjXkXBXZXkXfXfXfXiXaXBXZXCXkXdXfXiX0XH.dXaXfXiXrX0XrXuXuXS.d.+.o.| /  ./ ..9.A.C.D.l.l.f.f.f.f.f.f.f.f.s.s.f.f.f.h.h.k.k.k.k.h.f.f.s.s.s.s.f.h.S.D.D.G.D.D.D.D.F.F.F.F.l.l.S.S.B.d.$.+...1.4 : a | l |  .6.V.C.h.f.f.f.j.j.j.j.a.a.a.a.j.j.j.j.j.j.j.j.a.a.O.{ } [ } ' ] ] ' ' _ _ _ _ _ _ _ _ _ _ _ _ _ ^ ) ` x ` ` > ",
"5 5 h x x x ) ) ` ) ) ) ) ) ) j ) ) ) ) ) ) ) ) _ _ _ ` ` =.=.' ' ' ' ;.;.3.4.4.7.7.7.7.7.7.4.4.7.4.a.d.h.d.7.+.d a p p , , ..^.T.T.T.R.R.R.~.~.R.Q.Q.~.Q.Q.Q.Q.rXrXR.R.R.R.R.rXF.F.G.G.F.H.R.R.H.H.H.H.H.H.H.R.S.D.H.R.rXuXpXaXdXiXuXuXsX^.o.4 ^ V.!.P.T.Q.R.Q.Q.R.T.R.Q.Q.~.~.~.~.~.^.^.P.A.+.+.+.A.^.VX1XVXAX^.%XVXVX%X^.^.~.MXVXVXVXVXVXVXsXsXsXsXsXbXsXQ.!.A.X.d d d / / o.C.T.pXaXtXqXqXqXqXqX9X9X9X9XqXqXtXqXqXqXtXxXtXtXtXqX9Xz.z.z.z.z.x.x.x.l.l.x.k.k.C.D.G.G.D.D.z.F.l.D.Y.D.G.T.B.@.~ o.g.A.C.T.G.f.l.l.D.D.h.f.s.f.k.k.k.k.k.k.l.l.l.D.F.H.H.R.R.R.J.J.J.F.0XiXiXiXtXiXiXiXtXqXtXtXtXtXtXiXfXaXuXQ.+.~ X./ ..V.C.T.sXkXZXZXZXCXkXdXuXuXaXdXdXdXdXaXaXkXkXkXkXkXBXCXCXkXkXfXaXiXkXCXCXCXkXfXiXiXuXrXiXuX0X0X0X0XuXaXuXG.g.d.6...|  .l ..9.C.G.D.F.l.f.f.f.f.f.f.f.f.s.s.s.s.f.f.f.f.k.h.h.h.f.f.s.s.s.s.f.h.k.D.D.G.D.D.D.D.F.F.F.F.l.D.F.D.G.C.A.A. .l a , , l  .s +.6.A.B.s.s.f.f.j.j.j.a.a.a.a.a.j.j.a.a.a.a.j.j.a.4.{ { } [ [ [ ] ] ' ' _ _ _ _ ] ] ] _ _ _ _ _ ` ) ) ` j ` ) > ",
"5 e j x x x x j ` ) ) ) ) ) ^ j ) ) ) ) ) ) ) ) ) ) _ _ ` =.=.;.' ' ' ;.;.3.4.4.7.7.7.7.7.7.7.4.g.d.d.h.h.h.g.6.l p p p , 4 +.!.T.T.T.T.R.R.~.~.R.Q.Q.Q.Q.Q.R.Q.uXrXrXrXR.R.R.R.F.F.F.F.F.T.R.R.F.F.H.rXuXpXpXsXR.R.rXrXrXrXuXuXkXfXuXsXVX~.+.4 ^ K.!.P.!.Q.R.R.R.R.R.R.Q.~.~.~.Q.^.Q.^.MXVXVXVX6.~ ~ +.A.W.%XAXAXAXVXW.A.Z.^.VXVXVXVXVXVXVXVXVXsXsXsXsXVXsXQ./.A.X.d d d / | o.T.R.pXtXtXqXqXqXqXqX9X9X9X9XqXqXtXqXqXqXxXtXtXtXtXqX9X8X9X9X9XJ.x.x.l.x.x.k.k.k.D.G.G.D.l.f.s.x.l.F.Y.D.G.T.B.~ ~ o.A.Z.T.T.D.f.l.D.G.D.l.f.f.f.k.k.k.k.k.k.l.l.k.l.F.F.R.eXeXrXF.J.J.F.0XiXiXiXiXgXgXgXwXqXtXwXgXiXiXgXjXdXpX~.+.~ ( ~ X.L.L.R.pXdXVXCXVXkXdXuXS.H.uXdXdXdXaXuXdXkXkXkXkXkXCXCXkXkXdXaXiXiXkXCXCXkXaXuXiXaXaXaXiX0XH.J.F.0XrXuXpXG.g.g.6.../ / s ..b.Z.T.F.F.x.k.h.h.f.f.s.s.%.s.s.s.s.s.s.s.s.f.f.h.h.h.k.k.k.s.f.h.k.D.D.F.F.G.G.F.F.F.F.F.F.l.l.F.D.G.D.G.Z.~ 4 5.b.a > s d 6.n.A.d.d.s.f.f.a.j.a.a.a.a.a.a.a.a.a.a.a.a.a.a.4.4.{ { [ [ [ [ ' ' ' ' _ _ _ _ ] ] ] ] _ _ ) ) ` ) ` ` ) ) ) > ",
"e h j x x x j j ` ` ) ) ) ) ) ) ) ) ) ) ) ) ) ) ) ) _ _ ' =.=.;.' ' ' [ ;.3.3.4.7.7.7.7.7.7.7.7.A.g.f.f.h.B.A.n.| n p p , d +.^.T.T.T.T.R.R.Q.~.R.R.R.R.R.R.R.R.rXrXrXR.R.R.T.R.R.T.T.T.T.R.R.rXS.S.D.F.H.R.R.R.R.R.R.R.H.H.R.rXdXiXuXdXVX~.6.6 ^ K.!.P.!.Q.R.R.R.R.R.R.~.Q.~.Q.Q.^.T.^.~.%XVXVXVXn.~ ~ X.X.X.+.1XVXAXAXVX1X%X~.VXVXVXVXVXVXVXVXsXsXsXsXbXsXQ.Z.A.X.d p d / o.4.Q.pXrXtXqXqXqXqXqX9X9X9X9X9XqXqXtXtXtXtXtXiXtXtXtXqXqXqXqXqX9X9XJ.J.z.z.l.l.l.l.h.D.D.D.l.l.l.l.F.Y.R.G.G.R.B.~ @.o.B.T.T.G.C.f.D.D.Y.Y.D.l.l.l.l.l.l.l.l.l.l.k.k.l.F.H.H.rXrXrXF.J.J.9X0XtXiXiXiXgXjXgXxXtXxXgXzXjXjXjXkXkXdXsXZ.@.X.~ ~ A.L.Q.pXdXkXkXkXdXdXuXJ.H.uXdXdXdXuX0XdXkXkXkXkXkXCXCXfXfXaXwX0XiXhXCXaXiX0X0XiXaXkXkXaXrXH.J.F.0X0X0XuXD.g.g.6...l l l ..V.P.T.F.l.k.D.D.l.l.f.s.$.$.s.s.s.s.s.s.s.s.%.s.f.h.D.D.G.G.f.h.h.D.D.G.Y.Y.F.F.F.F.F.J.J.J.z.F.F.F.G.G.G.Z...> 5.1X..> /  .n.A.g.d.$.s.f.s.a.j.a.a.a.a.a.a.a.a.a.a.a.a.a.a.4.4.O.{ [ [ [ [ [ ' ' ' ` ` _ _ ] _ _ ] ] _ _ _ =.) ` ` x ) ) ; ",
"h h j x j j j j ` ` ) ) ) ) ) ) ) ) ) ) ) ) ) ) ) ) _ _ ` =.=.=._ ' ' ' ;.3.3.3.4.7.7.7.7.7.7.7.V.g.f.h.h.B.A.n. .n p p a s 5.~.T.G.T.T.R.R.R.Q.T.T.T.T.T.T.T.T.R.R.R.R.R.R.R.R.R.R.R.R.R.R.R.R.H.H.H.F.D.S.k.f.S.D.D.D.D.F.R.rXuX0XuXsXVX^.6.6 ^ I.!.P.!.Q.T.Q.R.R.R.R.~.~.~.Q.~.Q.Q.~.~.~.~.^.AXZ.+.A.!.A.+.+.~ +.^.AXAXVXVX^.VXVXbXsXsXsXVXVXsXsXsXsXsX^.T.Z.n.| p p d | o.d.pXpXrXtXqXqXqXqX9X9X9X9X9XqXqXqXtXtXtXtXtXtXtXtXtXqXqXtXtXtXtX9XrX9XH.J.z.z.F.D.D.G.G.G.F.R.yXaXY.R.R.U.G.R.B.~ o.+.B.Z.T.C.h.f.D.G.T.T.Y.D.D.D.F.F.F.J.J.S.S.l.l.S.F.H.eXeXrX0XF.F.J.9X0XtXiXiXgXgXgXgXxXgXgXzXlXlXzXzXBXBXkXsXT.+.X.d ~ 6.C.pXpXdXdXdXdXdXdXuXuXdXdXbXdXdXuXH.dXkXhXdXdXdXkXkXiXaXiX0XH.aXkXCXaXiXrXrXaXkXkXBXkXiX0XH.0X0X0XJ.rXD.B.A.6. .l s / 5.K.P.U.D.k.%.D.D.D.D.l.f.s.$.f.f.f.f.s.s.s.s.%.s.h.k.D.G.F.T.h.h.h.D.D.G.Y.Y.H.H.H.H.H.9X9X9X9XeXeXR.R.H.H.T.V.; 4 b. .d ..X.b.A.d.d.d.f.s.s.a.a.a.a.a.a.a.a.a.a.a.a.a.a.a.a.4.4.O.{ [ [ [ [ [ [ ' ' ' ` _ _ _ _ _ _ _ _ _ _ =.) ` ` j ) ) > ",
"h j x x x x j j ` ` ) ) ) ) ) ) ) ) ) ) ) ) ) ) ) ) _ _ ` =.=.=._ _ ' [ [ ;.;.3.3.4.4.7.7.g.g.g.C.g.s.s.h.C.Z.b.X.n n p a s 5.^.G.G.T.T.T.R.R.R.G.G.G.G.U.U.U.U.H.T.R.R.rXrXrXrXrXR.R.T.H.F.H.H.R.R.R.H.H.D.S.S.k.S.S.S.D.F.R.uXuX0XuXsXVX^.6.6 / I.!.P.T.Q.T.Q.R.R.R.Q.~.~.Q.R.~.~.~.MXVXVXVXMX^.n.n.1XAX1X^.1XZ.n.X.( +.Z.1XAXQ.~.sXsXQ.Q.sXsX~.~.sXsXsX~./.Z.n.| p p s | o.g.pXpXrXqXqXqXqXqX9X9X9XqXqXqXqXqXtXqXqXtXtXtXtXtXxXqXqXqXtXtXtXtXaXtXrXeXH.H.Y.R.R.R.T.U.Y.R.yXNXY.R.rXT.T.R.B.~ +.6.B.Z.C.f.f.h.D.Y.R.R.R.Y.Y.T.H.F.F.F.J.J.J.J.J.J.F.H.0X0X0X0XF.J.J.9X0XtXiXtXtXxXgXgXgXgXlXmXSXlXlXlXBXCXVXVXT.+.+.~ 6 +.C.pXuXuXdXdXsXdXdXsXuXuXuXsXuXuXuXuXdXdXdXaXaXuXaXfXiXaXuXH.0XdXCXCXkXdXaXaXkXkXkXkXkXiX0X0XiXiX0XJ.rXG.C.A.6.| l s ..n.P.P.G.D.s.%.k.l.D.D.D.l.l.h.f.f.f.f.f.f.f.f.f.f.h.l.l.D.D.D.f.f.h.l.D.D.Y.Y.H.J.H.0X0X0X0X0XtXrXrXuXQ.H.H.T.b., , l d s ..| b.A.d.%.s.f.f.%.a.a.a.a.4.4.a.a.a.a.4.4.a.a.a.4.O.O.O.o.[ [ 3.3.[ [ ' ' ' ` _ _ _ _ =._ _ _ =.=.=.) ` ` j ) ) > ",
"j j j j x j j j ` ` ) ) ) ) ) ) ) ) ) ) ) ) ) ) ) _ _ ` ` =.=.=._ _ ' ' [ ;.;.;.;.4.7.7.j.g.g.g.C.h.s.s.h.B.A.b.X.b n a a s 5.!.G.U.U.T.R.R.R.R.G.G.G.G.G.G.G.G.G.H.T.R.pXuXpXpXrXR.R.G.G.D.G.D.k.S.D.F.H.H.H.H.D.D.D.D.D.H.rXuXdXaXuXNXVX~.6.6 ( I.!.Z.T.R.R.pXR.R.R.R.Q.Q.Q.R.sXsX~.~.sXMXVXVX%XZ.A.^.1XW.!.VXVXVX1X^.P.A.+.@.Z.T.~.~.Q.T.Q.~.~.~.sXsXsX~./.Z.A.X.p p d | +.g.pXrXrXqXqXqXqXqX9X9XqXqXqXqXqXqXtXqXqXqXtXtXtXtXgXtXqX9X9XtXaXjXaXaXrXeX0XH.eXeXpXpXR.Y.D.D.Y.rXR.R.rXT.T.R.B.~ g.d.A.D.C.s.f.l.D.Y.R.rXR.R.R.R.eXH.H.H.F.F.F.F.F.F.F.0X0X0XF.9X9X9XJ.9X0XtXtXtXtXtXxXgXgXzXmXSXSXnXlXlXCXCXCXVXG.+.+.~ d +.C.MXQ.uXuXuXuXuXpXuXS.S.G.H.Q.uXuXuXdXdXfXaXuX0XuXiXaXaXuXH.0XkXCXCXCXCXBXBXBXkXaXiXdXiXrXuXfXfXrXF.rXG.G.Z.n. .l l 5.b.I.T.G.k.%.#.s.f.l.D.F.Y.F.D.l.l.k.h.f.f.f.f.l.k.l.l.k.k.l.l.f.f.f.l.D.D.F.F.H.H.H.0X0XrXrXrXiXiXuXrXR.H.G.G.o...1.l , l 5...A.A.d.s.f.h.s.$.a.a.a.4.4.4.a.a.a.4.4.4.4.4.4.4.4.O.O.o.o.o.3.4.[ [ ' ' ' ` _ ) =.=.=.=.=.=.=.=.=.) ` ` j ) ) > ",
"t t t j j j j j ) ) ) x x x ) ) Q Q ^ ^ ^ ) ) ) ) ) ) ) _ ` =.=._ _ _ ' [ ;.;.4.:.4.7.a.g.h.h.h.B.B.h.h.h.h.V.V...d  . .a 4 5.E.h.h.l.D.U.Y.R.R.D.D.D.G.T.R.G.S.C.G.R.pXpXpXpXR.T.T.T.R.Q.pXpXpXF.D.D.D.D.T.R.R.R.R.F.F.H.T.R.H.uXsXNXNXVXMX6.4 4 I.!.Z.T.R.D.uXR.R.Q.Q.uXuXuXuXH.Q.sXsXpXQ.uXsXQ.Q.~.~.VXVXMX~.~.~.MXMXMX~.^.Z.+.@.@.A.sXAXVXQ.Q.MXMX~.~.MX~.Z.n.N.N.N.X.l +.G.R.rXqXxXxXxXqXqXqXtXtXtXtXqX0XqX0X0XqXqXtXtXtXiXaXuX0XJ.x.J.0XiX0XaXaXH.S.F.rXrXaXR.pXpX$.W } $.F.G.R.~.R.sXR.@.d.g.C.D.S.k.k.k.J.F.9XeXeXR.T.Y.Y.Y.Y.Y.F.z.l.z.eX9X9X9X9X9XtXtX9XqX9X9XtXtXgXgXtXxXgXgXgXzXmXSXSXlXlXnXSXSXvXsXZ.+... .~ +.^.MXNXdXR.J.D.D.D.F.H.J.H.H.rXuXuXuXuXuXiXiXuXuXrX0XiXkXdX0XuXCXCXCXkXdXaXaXaXaXdXkXdXiXrXrXaXaXaXuXJ.C.Z.Z.n.../ / 6.A.C.G.D.k.&.%.F.F.Y.Y.Y.R.R.R.D.D.l.k.k.k.k.k.k.f.k.l.l.l.F.F.s.f.k.k.l.D.Y.Y.F.F.J.F.0XrXuXaXrXrXR.R.T.H.R.T.6. .l l l l | o.7.a.s.s.x.x.j.a.j.j.j.a.a.a.a.a.{ { { { { 4.4.4.{ } } } [ [ [ ' ;.[ ' =.=.` ) ^ 3.*.) ) r > > 6 ` ) ` *.) =.*.3 ",
"t t t t r j j j ) ) ) ) x x ) ) Q Q ^ ^ ^ ) ) ) ) ) ) ) ) ) _ _ _ ' _ [ ;.;.4.4.4.7.a.j.g.h.h.h.C.C.h.h.B.A.V.V...d l | 4 4 <.L.h.h.h.l.l.D.U.G.D.D.D.G.R.T.D.B.f.D.T.R.pXpXpX~.T.T.T.R.Q.pXpXpXR.F.D.D.F.T.R.H.R.R.F.F.F.T.R.R.pXsXNXNXVXMX6.4 ~ W.!.B.T.G.&.S.uXuXuXQ.uXR.H.H.H.R.uXQ.R.R.uXsXG.T.~.sXMXMXMXsX~.~.pXsXMXsX~.T.~.Z.+.@.@.(.Z.T.%XMX~.^.^.~.^.W.n.X.| | n d +.Q.uXtXxXxXxXxXqXqXtXtXtXtXtXtXqXqX0X0XqXtXtXtXtXiXrXuX0X0X0X0X9XF.0XrXH.H.uXiX9X&.R.k.rXZXpXD.s.{ h.G.pXpXpXVXR.W d.f.C.S.S.k.k.k.J.J.9X9XeXH.Y.Y.Y.Y.Y.Y.U.F.z.F.eXeXrX9X9X9X9X9X9XqXqXtXxXjXjXgXgXgXgXgXjXzXlXSXDXSXnXmXnXSXZXVXZ...b | s +.!.MXNXaXuXR.R.uXuXuXH.H.H.R.uXpXpXuXuXuXuXuXrX0XrXuX0XaXaXH.0XCXCXCXBXkXdXaXaXaXaXaXiXuXrXrXuXaXaXuXS.B.Z.W.A.X./ s 6.A.G.G.G.S.k.&.F.F.Y.Y.Y.Y.Y.Y.l.l.k.k.k.k.k.k.k.l.l.l.l.l.D.F.k.k.k.l.z.F.Y.Y.J.F.F.F.0XrXuXpXuXrXrXR.R.R.R.R.o./ l b l a / 6.g.h.x.x.x.l.s.j.j.j.j.a.a.a.a.a.{ { { { O.4.4.4.{ { } } } [ [ ' 3.3.` ) ^ ) ` =.) ) ` <.*.j 5 5 t e ) *.` <.*.3 ",
"t t t t r t x x ) ) ) ) x x x ) r r ^ ^ ^ ) ) ) ` ) ) ) ) ) ) ) ' ' [ ;.;.:.7.7.a.a.j.j.g.h.h.h.C.C.h.C.C.C.V.A...a a a , 4 <.V.h.l.l.l.l.l.l.D.D.D.G.Y.R.T.D.B.f.B.D.H.R.uXpXpXT.T.T.R.R.uXpXQ.rXR.F.F.F.R.R.F.R.R.F.F.F.R.R.eXpXdXNXNXVXMXg.4 ( ^.~.B.R.T.k.J.R.R.H.H.H.J.S.S.H.R.H.H.H.R.uXdXB.G.Q.sXsXsXsXsXpXQ.~.uXpXpXQ.Q.^.^.^.Z.+.} o.+.+.Z.^.VXVXVX^.I.b. .a a d d +.^.uXiXxXgXxXgXwXtXtXtXtXtXtXtXtXtXqXqXtXtXtXtXiXiX0X0XrXfXjXiXF.&.uXQ.G.S.H.rXY.k.yXs.h.pXNXNXpXD.s.D.R.Q.~.NXG.u g.f.D.D.S.S.J.J.9XJ.F.F.H.F.F.Y.Y.Y.Y.Y.Y.Y.Y.eXeXrXrXeX9Xz.z.8X9XqXxXjXjXjXjXzXlXlXlXlXzXlXmXSXFXDXSXnXcXcXCXZXW./ a l / +.P.sXNXsXaXpXuXuXpXpXH.H.H.rXpXpXsXdXuXuXuX0X0X0XuXuXH.iXiX0XuXCXCXkXBXdXdXuXuXrXrXrXF.H.H.H.J.H.0XuXS.B.G.!.Z.X.d 4 6.A.U.T.Y.D.S.k.F.F.F.F.F.F.F.F.l.x.k.k.k.k.k.k.F.D.l.l.l.l.l.D.l.l.l.F.U.Y.rXrXH.F.F.H.0XrXuXpXpXuXuXrXR.R.R.Q.o./ l l a p | V.L.l.x.l.l.l.h.s.j.j.j.a.a.a.a.4.{ { O.4.4.4.4.4.{ { [ [ } [ [ ' 3.3.' ) ^ ) ` *.x j ) <.0.*.) x 5 6 j *.*.<.*.3 ",
"r r t t r j x x ) ) ) ) x x x x Q r ^ ^ ^ ) ) ) ) ) ) ) ) ) ) ) ' ' ;.;.;.4.7.7.j.j.j.g.h.h.h.h.C.C.C.C.C.C.V.A.| : : , , s 5.P.U.U.U.U.U.U.U.U.D.D.U.Y.T.G.D.S.D.D.G.G.R.R.uXuXR.R.R.R.rXuXpXuXpXrXR.R.R.R.R.F.R.R.F.F.H.R.eXrXaXsXsXsXMXMXg.6 ~ T.T.d.R.R.S.H.S.S.J.J.J.S.J.S.H.H.H.H.H.0XuXuX%.S.uXsXpXuXpXdXsXuXuXuXuXuXuXQ.B.Q.VXVX~.G.$.} ~ o.Z.%XVXVX%X!.I. .p a d d +.~.aXiXxXgXxXgXiXwXiXiXiXtXtXtXtXtXtXtXtXtXtXtXiXiXuX0X0XiXjXiX0Xk.F.R.Q.T.D.D.Y.Q.pX$.$.U.R.pXNXNXD.$.f.C.C.C.O.u d.B.D.D.D.J.F.0X9X9XJ.J.F.D.F.F.Y.Y.rXrXeXrXrXyXyXrXrX9X9X9X9XqXqXtXjXjXjXjXlXmXSXSXSXSXmXmXSXDXDXDXDXSXcXlXvXZX^./ , | ..+.P.MXNXNXdXpXrXH.H.F.H.H.R.uXpXdXdXdXiXuX0X0XH.0X0XuXuXaXfXaXdXCXCXdXdXdXuXrXH.F.F.F.&.k.S.S.%.k.S.H.G.Z.G.W.n./ , ; 6.A.U.T.T.F.D.S.F.F.F.F.F.l.D.D.l.l.l.l.l.l.l.l.F.F.F.l.l.l.l.D.F.F.Y.Y.rXpXyXpXeX0X0X0XrXrXuXpXaXaXpXuXQ.R.R.Q.6./ p , , , ..W.L.v.l.x.l.l.j.j.j.j.a.a.a.a.{ { { 4.4.4.4.4.4.4.{ o.[ [ [ [ ' ' _ ` =.*.*.` ) ) *.j r x *.*.*.<.r 6 r ) ) ` ) > ",
"r r t t t x ) ) x x x x x x x j Q ^ ^ ^ ^ ) ) ) ) ) ) ) ) ` ` =.' ' ;.;.;.4.4.7.j.j.g.g.h.h.h.h.C.C.C.C.C.C.K.b. ., : i 2 j 9.P.U.U.U.U.Y.Y.Y.Y.D.D.G.G.D.D.l.k.rXH.R.H.H.H.rXuXuXuXrXuXuXuXuXuXpXpXrXR.R.R.R.F.R.R.R.R.R.rXrXrXaXdXpXpXMXMXg.6 6 A.A.O.G.H.k.H.S.S.F.F.F.F.F.H.H.H.0XrXuXuXrX0X%.S.uXdXsXuXpXdXdXdXuXuXuXuXuXR.R.H.G.Q.sXMX^.A.o.o.o.o.6.I.%X1Xb.| a l l d +.Q.aXiXxXxXxXgXiXwXgXiXiXtXtXtXtXiXtXtXtXtXtXtXtXiXfXwX9X9XtXiXrXH.h.C.P.W.E.E.U.T.f.{ s.R.T.G.R.~.R.@.@.$.O.~ ~ W d.f.D.G.J.H.0X0X0X9XF.J.F.D.D.D.Y.R.rXrXrXrXyXrXyXrX9X9X9XqXxXjXtXtXtXtXxXjXBXSXDXDXDXDXDXSXDXFXSXDXDXDXnXlXvXVXVX| a ..n.n.T.MXNXNXNXsXrXF.D.S.H.H.R.uXsXNXNXdXiXuXrX0XH.0XwXuXaXaXaXaXdXkXdXuXdXuXrXJ.S.S.S.S.&.k.S.k.%.%.S.J.G.G.Z.Z.n.| d 4 6.A.U.T.R.H.F.F.F.F.F.l.l.l.l.l.D.F.F.F.F.F.D.F.Y.F.F.l.l.l.F.F.Y.Y.Y.rXrXyXaXpXrXrXrXrXrXuXpXaXsXaXpXpXQ.Q.Q.Q.V.l : , i a  .V.L.l.x.x.x.j.j.a.j.a.a.a.:.:.{ { 4.4.4.4.4.4.4.4.[ [ [ [ [ ' ' _ =.` ) ` ` ` ` x ` r 5 t ) ` ` *.) 3 6 r 5 e 5 ; ",
"e r r t t x ) ) x x x x x x x j Q ^ ^ ^ ^ ) ) ) ) ) ) ) _ ` =.=.` ' ' ;.;.3.4.4.j.j.g.g.h.h.h.C.h.B.h.C.C.V.V.b.1.a i h a j 5.K.L.U.v.v.U.v.U.U.U.D.D.l.f.f.k.l.uXuXrXH.H.H.H.H.uXuXrXuXuXuXuXuXaXpXrXrXrXR.R.F.F.R.R.rXpXpXrXR.aXdXpXpXMXMXA.~ ~ T.T.g.T.T.k.H.H.0XrXrX0XH.H.0XrXrXrXuXaXiXrXH.S.H.uXaXaXaXaXaXdXdXuXuXuXuXuX0XsXQ.H.R.sXVX~.Z.6.+.o.o.o.+.5.b.b.l a  . .d X.Q.pXtXtXxXxXxXtXwXgXiXtXtXtXtXtXiXtXtXtXtXtXtXtXtXhXwX9XJ.9X0XtXuXNXg.~ ^ 6.I.%XE.O.@.h.pXR.B.C.B.T.@.@.$.} W ~ ~ O.d.D.G.H.H.0X0XqX0XF.F.F.D.D.D.Y.R.rXrXrXeXyXrXrX0X9X9XqXqXjXBXxXtXtXqXtXjXSXDXDXDXFXFXDXDXDXFXSXSXDXDXSXcXbXbX1XX.l 1.n.A.!.~.pXsXNXNXpXrXR.R.H.R.rXpXsXNXdXsXiXiXuXrX0X0XuXiXuXuX0X0XuXaXuXH.uXuXH.F.S.S.S.S.S.S.S.S.%.k.S.S.G.Z.Z.Z.A.X.| / 6.g.D.T.R.H.H.F.H.F.F.D.l.l.l.l.F.F.F.F.Y.Y.F.F.F.F.F.l.l.F.Y.eXY.Y.Y.rXrXyXaXpXaXaXiXiXaXaXpXsXsXaXpXpXQ.R.R.Q.9.s , k b k l ..h.h.j.s.j.j.a.a.a.a.a.:.{ { { { 4.4.{ o.o.o.o.o.[ [ [ ' ' _ _ ` 0.` 5 > 5 x ` *.r 5 e ) *.) t r ) > ; 6 > > > ; ",
"e e r t x x ) ) r r t t t t j j Q ^ ^ ^ ^ ) ) ) ) ) ) ) ) _ ` ` _ _ ' ' [ 3.3.4.4.7.a.g.g.h.C.L.g.g.g.C.h.g.b.b.8.k k v h h <.c.g.c.c.v.v.v.v.l.U.D.l.f.$.%.f.D.rX0X0X0X0XH.H.H.uXuXrXrXuXuXuXrXpXpXrXrXrXR.R.F.F.F.rXpXpXpXyXR.aXdXpXQ.MXMXA.~ ~ ^.MXG.R.T.S.rXF.H.rXrXeX0XeXrXaXaXrXrXaXaXrX0X0X0XwXiXaXaXaXuXuXuX0XuXiXaXiXuXR.uXsXsXMXsXQ.P.( o.6.I.I.5. .| 1.a a  .| a X.~.pXtXtXqXxXxXtXiXgXiXtX0X0XqXtXiXtXtXtXtXtXtXtXtXwXqXqXqX9X9X0XR.VX7.> ; 6 <.I.%Xh.@.O.T.R.T.C.d.d.O.%.C.B.f.O.W O.$.C.H.R.0X0X0XqXqX0X0XY.F.D.D.Y.R.rXrXeXeXeXrX9X0XtX0X9XqXtXgXxXtXtXtXgXlXSXSXSXDXDXDXDXDXFXFXDXSXSXSXSXDXCXVX^.+.| ..5.A.T.G.H.uXNXBXdXpXpXpXH.R.R.pXpXsXpXpXiXaXaXaXuXuXuXiX0XH.H.0XuXiXuX0XuXuXH.J.S.S.S.S.F.S.S.S.S.S.S.B.G.G.Z.W.Z.+.| / 4.g.C.U.R.H.H.F.H.Y.F.F.l.l.l.l.D.F.F.F.Y.Y.F.F.D.D.D.D.D.F.eXrXF.F.H.R.eXrXpXpXNXkXaXaXaXdXNXNXpXaXpXuXR.R.R.T.b.j 2 k b i a ..g.h.j.s.j.j.j.a.a.a.a.4.:.:.:.:.:.:.:.[ [ [ [ [ ' ' ' _ _ ` ` ) <.x > + ; 2 x *.e 5 e ) ` x t r ) > > r 5 5 5 > ",
"e e r t x x ) ) t t t t t t j j Q Q ^ ^ ^ ) ) ) ` _ ) ) ) ) ) ) ) _ ' ' [ ;.3.3.4.4.7.g.g.h.L.L.g.g.g.g.g.g.b.n.1.a k b h h 0.K.c.h.c.c.v.v.v.U.U.U.h.s.#.#.f.D.F.J.H.H.H.H.H.H.uX0X0X0XrXrXrXrXuXrXrXR.rXR.R.F.D.F.rXpXNXpXyXR.dXdXpXQ.MXMXA.~ 6 P.^.C.G.D.f.eX&.k.F.H.H.0XrXiXBXaXrXrXiXaXiXuXaXuX0XwXiXaXuX0X0XH.H.0XiXfXaXuXJ.pXsXQ.G.T.MXAXX.+.6.I.I.b.b.b. .i i  .b a X.MXpXtXtXxXxXxXtXtXgXiXtX0X0X0XtXtXtXtXtXtXtXqXqXqX9XqXwXtXqX9XF.G.4.( s h e y ) 0.E.} @.G.sXMXT.O.@.%.R.Q.~.VXT.W } O.C.H.R.0X0X9XqX0XrXeXeXF.D.l.Y.R.rXR.Y.H.9X0X9X0XtXtXqXqXqXqXtXqXtXxXjXmXSXSXmXnXSXSXSXDXFXFXFXDXnXmXSXDXCXZXZ.+. . ...n.P.g.D.uXNXBXsXpXuXpXH.R.rXuXaXpXpXuXiXaXaXaXaXiXiXiX0XH.J.0XaXaXaXaXuXuXH.H.J.J.J.J.J.S.&.&.f.S.%.%.J.G.T./.K.X.s s o.6.C.G.T.H.H.F.eXY.H.F.l.l.l.l.l.l.F.F.F.F.F.F.l.l.l.D.F.H.rXaXD.F.F.H.R.rXrXrXBXBXkXkXkXkXBXBXpXaXpXrXR.R.R.T.I. .2 i p $ a b.c.h.j.s.j.j.j.a.a.a.7.:.:.:.:.:.[ [ [ [ [ [ [ [ _ _ ( / / / ) ) j 5 : ; ; : 9 e x r 5 r j j ) *.) 3 5 ` ) x x 5 ",
"e r r t t r j x ) ) x r t t r j r r r r ^ ^ ^ ^ ) ) ) ) ) ) ) ) ` ` =.=.3.3.3.3.4.4.4.7.d.d.g.g.g.g.g.g.g.K.9.1.c h v k : 2 0.K.P.c.7.7.h.P.U.U.v.h.h.h.h.h.D.D.S.J.H.J.S.S.F.R.H.F.S.S.F.F.H.R.uXrXR.R.R.pXNXBXNXpXrXR.R.pXsXNXdXNXNXpXQ.MXA.; 6 ^.^.g.G.f.%.NXH.F.D.l.D.F.eXrXrXrXyXpXpXrXrXrXiXuXuXuXuXuXuXuXuXuXuXaXdXdXaXuXpXVXMXf.O.C.^.%XP.!.W.I.I.W.I.1.b.2 + , k | 6.~.NXyXtXqXqXqXtXiXiXtX0XqX9X0XtXtXiXiXiXtXtXtXtXtXqXwXgXgXtX0XR.R.g.^ > : : + ; > u W ~ $.pXsXf.O.O.~.pXpXT.~.~.W } C.R.H.R.H.J.0X0X0XrX0XeXH.R.R.F.H.H.H.H.F.9X0XrXqXtXtXxXgXxXgXxXxXgXzXlXmXmXmXzXnXDXFXFXDXDXDXDXDXSXmXlXlXvXZX+.+.| l ..A.T.T.R.rXuXuXuXuXR.H.D.H.uXuXrXrXuXaXuXuXuXuXuXuXiXiXaX0X0XaXdXaXuXuXdXuXH.H.J.G.S.S.%.%.%.%.f.S.S.S.G./.T.A.n.n.| 4 o.A.U.R.pXS.f.rXF.F.Y.Y.Y.F.l.l.F.F.F.F.l.l.F.F.S.D.D.F.F.F.F.D.F.F.H.R.rXrXpXuXrXiXaXaXdXkXNXNXpXaXpXR.R.pXpX~.` 1.k p f b ,.b.g.j.j.j.s.a.a.4.a.a.a.7.:.{ [ [ [ [ [ [ [ ' ' ' ' ' ' ` ` ` ` ` e > + + + + + + O ; > e j j r e e x ) ) ) ` x e ",
"e e r t t r j x ) x x r t t t j r r r r ^ ^ ^ ^ ) ) ) ) ) ) ) ) ` ` =.=.;.3.3.3.4.4.4.7.d.d.g.g.g.g.g.g.g.V.9.<.k i k i + > 0.I.9.g.9.c.c.g.7.4.g.g.h.h.h.h.h.D.R.D.S.G.uXuXH.f.R.H.D.D.D.D.H.H.uXR.R.R.R.rXpXpXpXpXrXR.rXuXpXuXaXaXpXQ.Q.MXZ.> 6 !.W.d.T.G.f.uXF.F.F.D.D.F.R.rXrXrXrXpXpXrXrXrXuXrXuXR.R.uXuXuXuXuXuXuXuXuXuXR.pXNXVXMXQ.^.MXVX%XI.5.5.%XAX$X .1.2 : i k a 5.^.pXyXtXtXxXtXtXiXgXiXtXtXtXiXtXtXtXtXtXtXtXtXtXtXqXwXwXiXtX0XrXpXg.s > : : + ; 6 u W W @.C.T.f.B.$.~.~.Q.T.pXMX~ } C.T.D.H.F.J.0X0X0XrXrXeXR.R.R.F.H.H.H.F.F.9X0XtXtXtXtXgXgXgXgXgXgXgXjXzXzXzXzXlXnXSXDXDXDXDXDXSXDXDXnXnXSXCXVX~ ~ l l | +.A.G.R.rXrXuXuXuXR.R.H.rXpXpXuXrXuXuXrXuX0X0X0XuXuXuXaX0X0XaXdXaXuXuXdXuXH.G.D.D.S.S.S.S.S.S.S.S.S.B.G./.T.A.A.n...s o.A.U.T.rXS.k.rXH.Y.Y.Y.Y.F.D.l.l.F.F.D.l.l.l.F.F.F.F.F.F.H.F.F.F.F.H.R.eXrXrXrXrXiXaXaXdXdXdXdXpXpXpXrXR.uXR.T./ ,.k $ p i k 0.g.j.j.j.a.a.4.4.7.7.7.7.:.:.;.[ [ [ [ [ ' ' ' _ ` ` ` ` ` ` ` ` h : + + + + + + ; > 6 e r j r e e x ) ) ) ) x e ",
"e r r t t r r r x t t t t t r r r r r r r ^ ^ ^ ) ) ) ) ) ) ) ) ` ' ' ' ' =.o.3.3.3.4.4.6.7.7.d.g.g.g.g.K.K.0.<.k i f i O + ` 8.<.3.0.8.8.9.c.K.g.g.g.g.g.h.h.h.G.B.f.h.D.H.G.D.G.G.G.G.G.R.R.R.uXQ.R.R.R.R.R.Q.R.R.Q.uXuXR.H.D.pXQ.Q.T.^.VXP.4 6 P.P.+.T.~.D.H.F.Y.Y.F.T.R.R.R.rXpXpXpXpXpXpXR.R.R.R.R.Q.Q.Q.uXsXpXpXuXuXpXpXpXMXT.T.~.VX%X%X%XI.+.s / W.1XW.c c 2 2 i , , ` ^.Y.eXtXxXxXtXtX0XtXtXtXgXjXjXiXtXtXtXtXtXtXtXtXtXwXwXwXtX0XrXpXMXL.^ > , e 3 5 ) +.d.O.@.O.} } f.B.pXQ.R.T.~.pX@.} C.T.S.H.H.J.0X0X0XrXrXeXR.Y.T.F.F.H.H.F.F.9X0XtXtXtXiXgXgXjXgXlXzXzXzXzXzXjXgXlXnXSXSXnXnXnXnXcXDXDXSXSXDXCXuX~ |  . .X.5.A.C.R.R.R.R.rXrXrXrXrXuXpXpXuXuXuXuXrX0X0X0X0X0XuXuXaXuXuXfXdXaXuXuXuXQ.G.S.S.S.S.B.H.G.H.H.H.G.S.%.G./.T.Z.Z.b.../ o.A.T.T.R.S.k.R.eXR.Y.Y.F.F.D.l.k.l.D.l.l.k.l.F.F.F.F.H.H.0XH.H.H.H.H.H.eXeXrXrXrXiXaXjXdXaXaXpXpXpXpXrXR.Q.H.B.s c i + $ $ i <.9.j.j.p.p.p.:.:.:.:.:.:.7.4.:.;.[ [ [ ' ' _ _ _ ` ' ` ` ` ` ` ` c 3 + + ; ; + ; 3 5 5 r r r r e e x ) x x ) j e ",
"5 e r r t t r r t t r r r r t r r r r r r r ^ ^ ^ ) ) ) ) ) ) ) ' ' ' ' ' ' [ o.3.3.o.4.4.6.7.7.g.g.g.g.K.K.0.,.v i f p O + 5 j ` ` ) j ^ <.b.I.9.g.g.V.L.L.L.C.g.C.C.g.O.O.C.pXB.C.G.G.T.Q.~.pXQ.Q.pXpXpXpXuXQ.R.R.uXQ.R.T.D.B.uXR.Q.^.~.VXW.d 4 b.P.A.T.pXH.D.G.G.T.T.T.T.T.T.~.~.pXpXpXpX~.~.R.Q.Q.~.~.~.pXpXMXMXpX~.sXMXMXMXMXA.~ X.W.VX!.6./ / / ..N.b.1.` k 2 2 2 $ $ / %XU.eXtXxXxXtX9XJ.J.9XtXiXjXjXiXtXtXtXtXtXiXiXiXiXiXwX0X0X0XrXpXNXL./ 4 j ` c *.9.!.sXT.g.O.~ @.d.G.pXR.R.U.R.Q.W } C.R.S.F.H.J.0X0XqX9XJ.F.F.Y.T.F.F.H.H.F.F.9X0XtXtXiXgXjXjXjXjXSXSXmXmXmXlXlXzXlXnXnXnXnXnXnXnXcXDXDXmXSXDXvXG.+.X. ...5.n.C.C.R.R.H.H.R.R.rXrXrXuXuXpXpXpXpXuXrX0X0X0X0X0XuXuXaXuXuXfXdXaXuXaXuXR.G.S.S.S.S.B.H.H.H.H.Q.H.S.%.G.G.T.Z.Z.n.../ ( C.T.G.R.D.k.H.eXrXY.F.F.D.l.l.k.k.l.l.k.k.l.F.F.F.F.H.eXrXeXH.rXrXrXrXrXrXrXrXrXiXaXaXaXaXuXrXuXpXpXuXuXuXG.d.j c p O O O 3 <.7.a.p.p.p.:.:.:.[ :.:.:.7.4.4.4.[ ' ' ' _ _ _ _ ' ` ` ` ` ` ` x ` , + + < < < w j t r r r r e e e x ) j j ) j e ",
"5 5 e r t t t t t r e e e r r r r r r r r r r Q ^ ) ) ) ) _ ` ` ' ' ` ` ' ' ' [ [ [ o.3.3.4.4.7.4.8.7.g.K.K.8.,.c 1 p p + + > > x k e 3 > 5 ) <.0.6.8.9.g.g.g.g.4.A.C.g.} } O.g.g.C.L.C.P.Q.^.Q.T.R.R.~.pXpXQ.Q.~.~.Q.R.T.G.D.D.Q.R.~.~.~.%XZ.d > +.Z.Z.T.Q.G.D.G.G.G.G.G.G.G.G.Q.~.~.~.~.~.~.Q.!.~.^.~.%X%X%X%X^.^.T.T.!.^.%X%XZ.n.( d 5.%XI.s / ..b.b.N.1... .x 2 3 : + + _ %XU.eXxXxXxXqXJ.k.x.J.0XiXjXjXgXtXtXiXiXiXiXgXjXjXaXuX0X0X0XrXpXMX+.~ 6 / <.' 0.I.T.pX~.R.G.$.$.R.f.R.T.R.R.R.pXW @.G.R.S.F.0X0X0X0X9Xk.&.s.k.F.R.F.F.H.H.F.F.0X0XtXiXiXgXjXjXhXhXSXSXSXSXSXSXnXmXlXmXnXnXnXnXnXnXSXDXDXnXDXFXZXG.n.| a l ..b.A.C.R.H.F.F.H.H.R.R.H.H.R.rXpXpXaXpXrX0X0X0XrXuXuXuXiX0X0XaXaXuXuXuXuX/.G.S.S.S.S.B.G.S.G.H.Q.Q.G.B.G.G.Z.Z.K.n.../ ( C.T.G.T.D.k.F.eXY.F.l.k.x.l.F.k.k.l.l.l.l.l.F.F.F.H.0XrXrXrXrXuXuXuXrXrXrXrXrXrXiXiXaXaXiXuXrXR.rXuXuXpXpXG.d.j c i + + O : <.0.:.p.p.p.:.:.;.[ ;.;.:.:.:.4.3.[ ' ' ` _ _ _ ) ` ` ` ` ` ` x x j < + + < < 9 9 c x j t r e e e e j x r j x j e ",
"5 5 e r t t t r e e 5 5 y e r r r r r r r r r r ^ ^ ) ) ) _ ` ` ' ' ' ' ' ' ' ' [ [ o.o.o.4.4.4.4.8.g.g.K.K.8.,.h : : 1 $ : , > 2 f h h k k x j 9.9.b.K.K.K.L.L.L.K.L.P.P.V.[ ^ 7.V.L.V.V.E.E.L.C.G.G.T.R.T.R.T.~.Q.Q.T.G.D.D.G.G.G.~.^.P.W.b.s 4 / A.T.T.G.G.G.G.C.C.C.C.C.C.G.T.T.T.T.T.T.T.T.P.W.!.!.!.!.!.!.P.I.I.I.P.!.!.!.s n.K.X...I.n.s 5.5.5.b.b.1. .c ` h 3 : + + ) P.v.eXyXxXxXeXz.k.9X9XqXiXjXjXjXiXiXiXiXiXiXiXiXiXaXuX0XeXrXrXR.R.~ 6 s / ` ` 3.P.C.R.R.~.~.f.d.R.$.D.D.R.R.rXpX! ~ C.R.S.H.wX0X9X9Xx.&.%.%.f.D.T.F.F.H.F.F.J.0X0XtXtXiXgXjXhXzXzXmXmXmXmXSXSXnXlXzXzXnXnXnXnXnXnXDXDXDXDXFXFXvX/.+.d , a 5.V.P.T.R.H.D.D.D.D.F.D.S.S.D.H.rXuXuXuXrX0X0X0X0X0XuXuXwX0X0XuXuX0X0XuXuX/.G.S.S.G.G.S.G.B.B.G.Q.uXQ.G.G.Z.Z.Z.A.X./ ~ ( C.T.D.Y.D.k.F.F.F.k.s.s.k.l.F.k.k.l.l.l.l.F.H.F.F.H.0XrXrXrXrXiXiXiXuXuXuXuXrXrXrXrXiXuXrXrXrXR.rXrXrXpXpXG.4./ c 1 $ $ O : <.;.:.:.:.:.:.;.;.;.[ ;.;.;.;.;.;.' ' ` _ _ _ _ ) ` ` ) ) ) ) x x 3 ; + ; < < < 9 c x j t r r e e e j j r r j j e ",
"5 5 e r r t r r 5 5 5 5 5 y e r r r r r r r r r ^ ^ ) ) ) _ ` ` ' ' ' ' ' ' ` _ ' ' [ o.o.o.4.4.7.g.g.g.K.9.<.c v : $ $ + : e 2 2 i f h c D c c 8.8.8.9.9.g.K.K.K.K.L.W.!.W.7.( ( 3.7.0.9.W.E.L.G.Z.G.G.G.G.G.G.T.T.T.T.D.C.B.C.B.B.T.Z.6.n.n./ d d +.!.^.Z.G.G.G.C.B.A.B.B.C.Z.B.B.B.Z.C.Z.B.A.n.b.V.I.I.K.b.b.b.b.b.b.V.V.b.b.d 1.n.X...n.5.l n.<. ...5.<./ j ` x h 3 $ + 5 4.v.z.8XeXqXeX9XF.tXtXqXqXtXtXtXtXtXtXtXtXtXtXtXrXuXuXrXrXrXeXF.B.W ~ o.5.....6.P.R.R.T.R.pXh.$.D.s.G.G.R.Y.Y.pX@.W C.R.S.H.0XF.J.x.&.&.&.s.k.D.F.J.J.F.F.J.F.0X0XtXtXiXgXjXzXhXzXmXmXmXmXnXnXlXlXzXlXnXnXnXnXnXnXFXDXDXFXFXcXH.B.+./ a  .n.A.C.T.H.F.D.D.S.S.S.f.k.f.f.S.H.R.R.J.H.H.H.H.H.H.H.0XH.J.H.0X0XH.H.0XuX/.G.G.G.G.G.G.G.S.B.G.Q.sXQ.G./.G.Z.Z.b.X.s s ( C.T.D.G.F.k.D.D.k.s.%.%.s.k.l.k.l.l.D.l.D.F.Y.F.F.F.0XrXrXrXrXiXiXiXiXuXuXuXuXrXrXrXeXrXrXuXpXuXuXrXrXpXpXD.O.j k $ O $ O $ ` =.;.:.:.:.:.;.;.;.;.;.;.[ _ ' _ ' ' ` _ _ _ ) ) ) ) ) ) x j x x ; ; < w < ; w h x j j j r r r e e j j r r j j e ",
"5 5 e r t t t e y 5 5 5 y y e r r r r r r r r r r j ) ) ) ` ` ` ` ` ' ' ' ' _ ` ' ' ' [ o.3.3.3.K.b.K.K.b.8.,.k D i 1 $ O + 9 9 D f 1 1 2 f i 2 > > > > > 4 6 6 6 s / / ^ j ` <.6 / <...8.W.%XI.E.T.T.P.P.Z.Z.C.Z.Z.T.T.Z.B.A.A.d.d.A.n.( X.5. .| 4 / !.^.Z.Z.Z.P.C.B.g.g.A.C.I.6.6.6.6.9.6.6.6...1.5.5.5.5.<............. . ./ 1. .d l 1.b.5.l n.1... .` c  .1.,.c c h : + > ] c.l.z.z.eXeXeXeXaXrXeXF.F.F.H.F.rXrXrXrXeXeXeXeXpXQ.pXpXpXR.D.d.~ 6.I.I.6.6.V.E.~.H.B.T.pXD.$.D.F.rXY.R.D.D.T.@.6 A.R.C.G.rXF.k.&.&.%.k.l.D.D.D.S.J.F.F.F.H.0X0X0X0XiXgXhXjXhXhXSXDXSXSXSXSXlXzXzXlXnXnXnXnXnXDXFXDXDXFXFXwX@.@.+.| | 1.5.+.6.B.G.G.G.D.D.B.f.%.h.f.f.B.G.G.G.B.D.D.D.D.D.D.F.J.H.D.F.R.H.D.D.H.pXQ.G.D.D.G.G.G.Q.G.B.G.~.pX~.T.Q.G.P.W.V.X.s s ] L.R.l.D.F.l.F.k.s.%.#.#.%.k.D.k.l.D.D.D.D.Y.R.F.J.F.0XrXrXrXrXtXtXiXiXuXuXtXiXtXrXeX0XeXrXpXaXpXpXpXQ.pX~.C.o.s 2 + O + O + x *.;.>.:.>.;.;.3.;.;.;.' ' _ ^ ^ ` ` ` ` ) ) ) ) ) ) x x x t t t ; < 9 q 9 < 9 v t t j j j t r e e j j e e j j e ",
"< < w 9 e e e e 9 9 e e e e e e 5 5 r r r r r r j j j j x ) ` ` ` ` ` *.*.<.<.<.` ` ` *.3.3.<.` M.M.M.u.,.c h 2 2 f f 2 $ + + : $ $ 1 1 1 1 $ $ $ $ + + $ : : : : i a 2 i h h 2 i i a k c c c l ` ' ' o.3.3.0.8.' / ^ ^ ' ..' ^ 6 | X./ l  . .k p k l  .1.b.b.5.7.6.6.o.( ' 3.6.^ ^ s a 5 a c  .a l k i a l  . .a b  .b l  .l , i a k k k k k k k  .N.1.,.b c c k 8.2.h 2 : : , s 3.E.%XR.D.U.pXpXpXR.T.R.T.T.G.R.T.T.T.R.R.pX~.T.!.%X~.%X%Xg.] W 7.!.!.P.L.P.E.pXuXR.G./.Q.pXaXaXx.eXrX%.R.~.( u ' V.P.T.Q.T.D.D.k.s.s.f.h.l.l.S.S.S.S.J.H.uXuXaX0X0XaXhXdXdXkXCXDXFXCXcXCXDXDXvXcXCXFXFXFXDXvXFXFXKXAX/.@.~ X.| a | N. . .b.W.P.E.!.E.T.T.!.%Xg.C.V.g.A.P.P.C.B.T.T.C.g.g.g.d.B.C.C.B.g.g.C.T.E.R.U.C.C.C.D.C.R.T.U.U.U.T.Q.~.!.!.!.P.V.3.( ] u { U.E.Y.l.s.#.s.h.l.h.a.#.a.a.l.l.l.h.l.l.U.U.F.J.9X9XrXtXtXaXjXBXBXjXaXtXrX9XaXiXrXyXyXrXyXyXyXNXNXMXT.O.] / l k f 1 $ $ : : j ) 0.0.0.=.*.) *.*.` ` ) x j j x j j j j j j x D A z A D D 9 < @ q A q w A S 9 e j j j e e e e e e e e e e e e ",
"< < w 9 9 9 9 9 9 9 9 9 9 9 9 9 e 5 e j x x c c x x x x c c c c ` ` ` ` ` ` ` *.<.<.<.<.0.2.8.8.2.y.y.2.c h 2 2 f k c v 2 : : : $ $ 1 1 $ $ $ : . O O $ : , p i : p i , 2 i a p i p i i k k k k > 5 j j j j j x 5 5 6 , 5 h r 5 s / l a p l b b b k k l  .n.N...( ( o.[ ( ( ( ( c l j a a a c b k b b k a k k i , i i , , i i , a h k k k h a a b b  .v k b ,.,.l 2.,.h h k k b , l b.!.E.C.f.C.~.Q.T.C.C.C.B.h.C.C.B.B.C.U.U.U.T.%X%XE.P.g.] u Q [ g.P.E.E.%X~.R.H.H.G././.H.J.9X&.eXyXl.R.!.~ 4 ^ 5.3.7.C.T.R.G.D.h.C.D.U.T.T.S.G.H.R.uXuXdXdXVXdXdXZXZXZXVXZXZXFXFXFXZXFXFXFXZXCXZXFXFXFXFXFXFXFXAX1Xn.d d | | l  ...l l b.b.W.W.W.W.W.W.W.!.K.P.P.V.K.I.I.I.K.W.E.I.V.I.W.W.L.I.E.P.L.P.W.!.C.U.E.E.E.P.L.L.C.U.!.MXNXMXMX%XW.I.I.b.3.[ ( ] W O.h.Y.E.yXY.l.a.a.a.a.j.h.U.E.h.h.h.h.h.U.U.R.F.J.F.F.F.F.J.J.aXjXNXaXaXaXaXrXeXrXuXpXpXyXyXpXNXNXMX%Xg.( 6 s k f f i 2 2 h h 9 h D 2.2.-.*.*.c c c c x x x x x x x x x k j z z q q A H A w # @ q A q q A H q z j x j h e e e e e e 5 e e e e ",
"+ + < < 7 7 w 7 w w w 9 9 9 9 9 < 3 w 3 9 2 9 2 e e e e e h h e *.*.*.*.*.,.,.,.,.,.,.,.*.,.2.M.c D D v f 2 2 2 f v b b k 2 3 3 $ 1 f f 1 1 1 i 1 i i f i 2 i i i i a i i h k a k k a h k k v k c ,.1.1.2.1.<.,.,.,.<.<.<.2.2.1..... .l k k b b N. .k a l 1...s ~ ( 6.6.3.o.( ~ / / l l l l  .,.b.M.I.b.N.N.,.b  .1. .a a k  .b  . . . . . . .,.N.1.1. .1.N.b.n.,.1.c i h h i k i a / 5.6.} ! W } @.@.@.} @.} } } @.@.} } } } } ] } 7.4.O.( W u ] ] } d.L.T.E.T.pXuXQ.Q././.G.J.9Xx.tXjXY.pX^.o.> a / / / X.6.A.O.O.O.O.O.O.O.O.$.%.(.B.B.B.(.%.G.B.B.G.G.Z.Z.G.sXVXZXZXZXAXAXAXFXFXFXFXFXFXKXKXAXsX^.A.X.~ l X.X. .1...l 1.M.n.n.1. .l / / ` ` /  .` / / ....` 5.6.9.5...5.9.b.b.K.K.K.b.9.b.V.3.7.g.g.4.o.4.g.4.g.L.P.P.V.6.o./ l s s s s s ^ 6 ^ o.7.L.E.E.U.U.L.g.g.g.h.C.g.g.h.C.L.L.T.E.~.~.Q.R.R.R.R.T.H.ZXZXZXZXZXAXAXZXpXMXNXVXVXVXNXNXVXMX%XP.5.s 4 a f f f f f h v c z z c c v z 9 w e 2 e e e h h k h h h h h h e e w 7 0 q m q 7 + @ 7 q q q A A q q h z h h e 9 2 9 2 9 2 y 2 y y ",
"@ # + # # # < # 7 7 7 7 7 7 7 < < < ; ; + + + O ; < < < < < < < : : : : : : : : < < < < + + < 9 3 9 9 9 1 3 2 f f h k v v h i i 1 f v v v f f f b b b v h i i i k k k h h k c k  .b l k l v b b v b ,.,.,.b b b c c ,.,.b b ,.1.<.....1. .k i i N.1.k a a l s > o.A.P.P.C.A.3.^ / / ` l c c  . .1.N.n.n.N.1.1. .b.I.b.5. . .1.1.l l l l  . .1.1.h a a a c  .l a N.8.c h c k 2 , ,.s s ^ ~ W u u u u u u u W W W W W W W W W W W u W W ] @.} ] W O.} } O.d.d.g.C.$.$.@.@.@.@.@.@.&.@.&.&.} O.6...4 d / / d d d ~ ~ ~ ~ ~ @.~ ~ W ~ ~ ~ ~ @.~ ~ ~ ~ ~ ~ @.@.@.@.@.~ ~ ~ ~ ~ ~ ~ ~ ~ ~ ~ W 6 6 4 d +.@.~ ~ ~ ~ | X.n.n.b.N. .b.@XM.1.k : O O + : : : : : : > , , 4 s /  .l a s s s /  . .` / s s s / ~ 6 4 > > 6 / / ^ s 6 4 4 > > : : : > > , , , , 4 s / ' 3.7.g.V.9.7.7.g.6.[ ^ 7.6.g.9.V.V.L.L.C.Z.Z.Z.Z.Z.G.Z.~.~.~.~.~.MXMX%XVXAXAXAXAXAXAXAX%XP.b.5./ a a k f f f p 1 1 2 2 9 9 9 9 9 < ; + < < < < w 3 9 9 3 3 9 9 9 3 w < # # 7 7 w 7 < @ @ 7 7 7 7 q q 7 9 9 9 9 9 9 9 3 9 3 3 3 3 3 9 3 ",
"7 # # # = = 7 = 7 7 7 7 7 = 7 7 8 9 w 7 < < + + + + # < < 7 7 8 # # + + + + + + @ + < < @ O @ + < < < < < 1 f v h h i f k k k k $ f D K D v f f f i 2 i h l l l l h a a h h h l  .l a a a k l l i i i i 2 2 i h : , p p , , i k j s s / a , : , l b b a a s 4 4 g.T.Q.P.C.V.o.~ 6 6 s a a 5 a s l l /  . . ...1...5.N.1. .l d a s a s s l /  ...> : : > a s a >  .` a l N.N.b b N.1...6.C.h.$.#.{ } @.@.@.@.} @.$.O.O.O.$.$.$.O.%.d.a.$.$.$.a.a.W W W W W W W ! $.@.@.@.@.@.@.#.x.&.x.x.} @.( | | b | | | d d 4 ~ ~ @.@.+.X.@.~ d d d ~ ~ ~ X.@.~ ~ ~ @.+.@.+.+.(.+.X.@.~ ~ ~ ~ ~ @.| ~ ~ ~ ~ ~ ~ 6 6 ~ @.+.+.5.n.n.b.1.l ..b.,.b n 1 $ $ $ : $ $ $ : , , a a s 4 l  . .l l s a l l / / l l l l ../ a a s s / 1. ./ s a a s / / l |  . . .b k a a a k a , , s / s d 4 s / / ~ 6 ~ / / / / ~ ~ / ~ d d ~ ~ ( ( ~ ~ ~ ~ ~ ~ ~ ~ ~ s d d 4 6 4 6 6 ../ l l a a k b b n f 1 $ O O O O O O + < w 9 w < < < < < < < < < < < < < < < < # 7 7 7 7 7 7 # @ # 7 7 7 q q 7 9 w w w w 9 9 9 < 1 w 1 < 1 < 1 ",
"B B m q 0 0 q q B B B B m q q q g g B B B B B g A A B g q g A S G G G G F F F F A S S F S S S S 9 9 q 9 w w 9 h v h f f h k k v 1 f S D v v f f 2 3 3 2 a l c c a 5 2 a a 2 5 a j a 2 , 2 a a h k k k i i i k v i h k k h h k l s 6 4 4 , , , k : a d d s / ^ ^ g.T.Q.P.C.C.o.6 > 4 6 6 4 4 , 4 s s s / / | ..n.s ~  ... ./ s s / / / / / / `  .s 4 > > 6 / ` / a 5 , h N.N.b  .<.b.W.VXAXFXFXAXZXZXZXVXNXsXpXQ.NXNXNXVXVXVXVXNXAXZXNXNXpXsXNXNXNXNXNXNXNXsXVXAXkXdXuXuXsXbXbXCXjXBXSXSXpXf.X.X.l d d | X.X.| @.~ ~ @.+.+.+.+.+.+.@.@.~ ~ ~ @.@.+.+.+.(.(.+.(.A.5.X.X.X.X.X.+.n.+.5.(.(.(.n.n.A.+.@.@.+.A.(.+.+.+.....d : : , $ $ $ p p f p 1 $ $ + $ , , 5 a d , s  . ..... .s s s l /  . .....5.|  .n.b.b.n.b.5.5.1.1.<.......| ..1.n.n.N.1.b  . . .l , : , s s 4 > > 4 s ~ ~ d s s d 4 4 4 4 s d 4 4 d d 4 4 4 4 4 , 4 d 4 4 d d 4 > > > 4 4 4 , , a a i f b b n f 1 O O . . O O O # 9 z z z z B z g q q q q g q q 0 9 0 q q q q q q q q q q q q q q q A q q S z g q q z g z q g g g q q q q ",
"e.e.Y Y P P Y Y Y T Y Y Y Y P P G G Y Y Y Y Y K `.m.e.K F G Y T G G F F F F F F Y G F K e.r.r.e.q.q.q.D q 9 9 9 h v k h 2 2 i k f g v v v f f h v k x x l c c ` c j j ` c j a c c j a a j j c c a a a a a a h l l l l k k l l / ` / ^ / s a l  ., p s l ` ..o.( g.T.~.T.T.T.6.W ~ ( [ o.` ` ` ` / ~ ~ ~ / s ~ ( ..X...+.5.o.o.5.o.o.o.5.o.o.o...( / s 6 s / ^ s s 4 : , ,. .a a l b.%X1XVXFXFXFXFXFXFXFXFXFXAXZXAXAXFXFXFXFXFXFXFXFXAXAXFXAXFXFXAXAXAXZXZXFXFXFXlXBXZXZXZXZXZXCXjXjXjXBXNXB.@.( d d X.b.W./././.(.(.(.B.G.G.G.Z././.Z.(.(.(.+.+./.Z././.Z.(.(.Z.A.(.(.A.W.W.W.W.n.n.A.A.A.A.W.^./.(.B.Z./.Z.A.A.n.| | l : O : $ 1 p f n k f f i i , , a s s s / s / ..<.5.9.5.` j s s j / ` .. . .s / 5.b.5.` .......... ./ ^ s 6 s ~ | | | l n X.b b b n a d ..6.6.o.+.+.o.X.( ( ( X.o.X.( ( ( 5.X. .| | | s d | | / l / X...| s s s s s s ~ ^ j r a l k i 1 p i p 1 $ O O O $ 1 1 w g K K K S e.w.y.e.q.Y q.Y w.T K G G G Y q.q.q.i.G G G i.q.q.q.q.q.q.q.G G `.r.K S S F K K S S S S S S S S ",
"}.}.`.`.).).`.`.`.`.`.`.).).).r.`.`.`.`.`.m.r.r.;X.X`.w.Y Y T r.T T Y Y Y Y Y I e.F F F r.`.}.}.}.[.M.q.S 9 < < 9 v c h : + : 2 D S v g f h v c v c  . .` ` ' <.<.' <.8.8...' <.<...` ` <.<.3.3./ ` ....`  .' ..5.<.....<.1.5.<...o.5.5...l a k l l d l ..9.3.( $.T.sX~.~.~.A.~ C.P.E.!.E.W.W.W.!.Z.Z.Z.A.+.o.+.A.+.X.X.o.+.+.A.9.V.V.K.P.P.I.I.P.W.E.P.V.9.o.^ s 4 ; ,  . .k  .l 5.V.6.$.R.NXZXBXVXZXZXAXZXBXdXdXVXCXCXCXZXCXCXFXCXCXDXDXCXCXCXDXDXCXCXCXFXFXCXjXlXCXZXAXZXZXhXkXjXqXjXVXT.+.n.d X.W.AXKXFXAXAXFXFXFXFXAXAXZXZXbXbXZXZXZXZXZXZXZXZXZXZXbX/./.sXQ.Z.Z.W.W.A.+.+.VXVXVXVX1X1XAXFXZXVXbXVXAXAXAXAXW.5.n.n.l , l b M.m.N.2.D D 2.M.N.1.5.9.9.8.8.V.7.b.V.V.I.I.K.0.K.9.8.8.9.b.g.g.A.o.( 3.6.( ^ ' 3.3.o.o.3.6.g.V.A.A.6.+.../ a p l a a l  . ...n.A.P.^.MX%XT.g.+.g.A.C.P.I.I.C.Z.n.5........./ ~ .. ./ /  .+.5.......5.5.6.6.7.4.7.<.<.<.,.h : $ + O O O O $ # 8 8 8 g D m.[.[.`.}.[.[.].].[.[.[.}.].`.r.r.m.`.}.].].t.y.e.e.t.].[.[.[.[.].t.t.t.;X.X`.w.Y Y T w.T Y T Y T T T T ",
"e.`.r.F T ).).`.).}.`.e.`.'.`.'.'.'.`.`.`.`.r.T T Y U F L Y r.r.Y J C F I Z Z Z J * N T T r.r.Y t.t.t.t.m.y.z O < < 2 v v i i v v f # # $ $ 3 c h x ` ` ' ....<.' ' ' ' <.<.<.<.' <.<.<.' ' <.3.' ' [ o.3.3.3.3.4.0.3.3.3.6.7.g.g.g.A.9.b.n...l : ,  .K.I.W.V.~ ~ D.NXpXR.G.O.W T.T.L.L.L.P.P.P.Z.Z.T.Z.A.+.( @.@.@.@.} o.+.g.Z.L.L.T.T.T.T.T.E.L.P.T.E.E.C.d.4.5.<./ s l  . .b l b.6.( O.G.pXZXZXZXCXZXkXfXdXhXdXdXdXfXaXaXdXhXCXCXCXCXCXkXkXkXkXCXCXCXCXCXDXFXDXDXCXCXZXZXCXCXlXBXSXSXZXQ.+.~ +.^.VXVXFXFXZXdXZXCXCXCXDXCXCXCXZXZXCXCXCXZXCXZXvXZXCXZXCXvXvXdXQ.Q.G.G.G.Z.B.$.G.VXAXVXVXAXAXAXVXZXZXZXAXAXAXAXAXI.X...N.1.N.M.{.,.f f f 3 h <.0.9.g.g.a.a.g.L.g.g.g.g.h.h.h.c.g.g.g.g.g.g.g.g.a.a.a.d.g.j.a.a.g.g.g.g.g.h.L.U.E.D.C.g.o.n.n...a , | n.W.W.W.6.] G.NXpXU.D.} u s.D.U.G.G.D.C.h.C.K.K.V.9.3.' ( ( ( ( ( ' 3.6.6.9.9.7.7.7.j.7.7.g.g.c.u.8.*.j 2 1 1 1 $ $ # f v $ S `.m.r.r.m.`.}.`.}.}.`.`.[.e.e.].r.F r.).e.e.].[.t.q._.].].|.t.t.t.t.t.t.e.q.F L U Y Y T T T Y L T L V F U 0 ",
"'.}.r.F P T Y T B Y F m H F Y `.`.r.T Y Y Y Y Y r.T Y U F F F F F B N C J F I I T Z Z J I ).}.}.e.t.e.q.y.t.2.z 9 < 3 h v h f k f 1 $ + + + : h ` ` ` ` ` _ ' ' ' ' ' ' ;.;.3.3.' ;.3.3.' ' ' ;.[ [ :.4.7.4.4.4.:.4.7.j.g.g.c.L.g.d.4.6.I.I.5.a a a ..I.P.!.E.O.! O.$.} } $.$.} pXR.U.C.C.L.U.T.T.G.T.T.G.B.d.$.} } } O.O.d.C.G.U.T.T.T.E.R.E.T.C.h.L.T.E.E.C.a.( j s s l  ..... .b.6.+.T.dXsXkXkXvXCXvXhXfXiXfXkXhXhXhXkXhXCXCXSXCXCXCXcXlXlXlXlXcXSXCXSXSXSXDXDXDXDXCXCXZXCXCXlXmXSXDXZXQ.o.~ } G.sXVXFXFXhXiXhXhXlXcXcXCXCXSXCXCXSXCXSXCXDXDXCXCXDXDXDXCXcXvXVXdXsXuXuXuXH.D.%.H.dXVXdXVXVXZXZXZXZXZXZXZXVXAX^.n.( X.N.N.N.b.N.c 2 , > : 6 _ 3.7.g.h.h.h.h.j.h.h.h.h.h.h.h.h.h.h.h.j.j.j.j.j.j.h.h.h.h.h.j.j.j.j.j.j.h.v.U.Y.rXk.f.h.C.W.A.~ s d ..A.I.!.!.B.@.} } ! ! #.} ! D.Y.Y.D.k.l.l.D.L.L.P.L.V.d.4.o.~ ] ] ( [ O.7.d.g.g.j.j.j.a.a.a.p.:.:.7.c.7.=.t 1 1 $ + + # f S v K m.m.T r.`.[.m.t.}.|.`.`.[.t.oX&Xt.S G T e.t.H G H M G G t.|.t.t.y.q.q.q.q.e.r.T Y Y U F F C C B C F C F U C ",
"-X;Xe.q m g 0 B 0 G e.Y T F F w.`.m.r.r.r.m.[..X`.`.`.`.r.w.Y Y Y F F P r.e.e.).T e.Y F F ).}.XXm.].t.e.2.y.M.M.z 3 < 9 h h f f 1 # + O + + > h <.*.` ) ) ) ' [ ' [ [ [ ;.;.3.3.;.;.3.;.' ' ' [ :.:.:.a.a.a.a.a.:.p.a.j.h.h.h.h.g.g.g.V.I.K.1.s |  .b.P.L.E.~.D.$.@.@.@.@.%.D.R.NXpXT.D.h.D.U.R.T.R.R.R.R.H.G.G.B.B.h.B.B.D.G.R.R.R.R.R.R.R.Y.Y.D.l.l.Y.MXpXU.a.o./ s /  .l l  ...6.+.o.T.VXdXuXiXfXhXhXhXfXiXgXhXhXhXhXhXvXCXDXSXSXSXnXnXcXlXcXlXcXlXSXSXDXSXnXSXDXDXDXCXCXCXCXSXSXDXDXZXQ.X.6 ~ D.dXdXCXCXiXtXgXhXzXzXlXnXSXSXSXSXSXSXSXnXSXSXSXSXSXSXSXnXnXcXCXCXkXfXaXiXrX0X&.J.iXCXCXkXdXkXkXbXZXZXVXVXVXVX^.W.5...1.N.1. .` e 6 6 > > r ;.c.g.h.h.h.h.j.s.l.l.l.l.l.l.l.z.l.l.j.s.s.s.s.s.j.l.l.l.l.l.l.l.j.j.j.j.l.l.z.Y.z.x.F.R.G.T.n.d ( ( 6.P.C.T.~.Y.s.#.! ! } s.l.l.rXrXY.x.s.k.z.F.U.U.E.E.U.L.h.h.a.a.a.a.j.g.h.h.g.g.j.j.j.a.j.j.p.:.>.:.c.c.>.Q 2 < + O + w z D m.m.Y K K m.[.}..X}.&X&X[.}.-X;X-X&Xq.7 7 7 7 A 7 G G G q.G G e.t.t.e.e.t.t.}.|.}.'.`.).r.Y P I Y H F T e.T T r.",
"HX4X}.r.].}.}.;X;X4X4X,X3X&X|.&XoXoXoX|.}.|.OX;X}.}.}.}.}.}.}.[.`.e.T r.).).).r.P '.).I I r.).).[.|.|.].y.y.M.{.D z 1 1 f h 9 3 1 $ # < < 2 k ` *.*.` ` _ _ ' [ [ [ [ ;.;.;.;.3.;.3.;.;.[ ' [ [ :.:.a.a.a.a.a.a.a.a.a.a.a.a.j.j.g.U.E.L.6.o./ l  ...V.P.V.T.E.U.H.%.%.F.uXrXpXNXpXpXR.Y.U.Y.R.R.R.R.R.R.rXrXuXuXuXuXR.H.H.H.H.H.rXyXyXpXrXrXY.Y.Y.Y.Y.rXrXY.k.$.A./ / ....l d ....n.X.@.B.pXuXrX0XwXiXfXhXhXhXhXgXhXhXhXhXhXcXcXSXSXSXnXnXnXcXcXcXlXlXSXDXDXnXlXSXSXDXSXcXvXCXSXDXDXDXDXZXQ.X.6 W S.aXkXCXCXiXgXcXlXlXlXmXnXDXDXSXSXSXSXnXnXnXSXSXnXnXlXlXlXlXlXCXcXkXiXiXwXtXtX0X9XtXCXSXkXgXkXfXdXbXZXZXZXZXVXMX^.A.X.X.n.X.a 5 5 r r r Q ;.L.E.U.h.j.s.s.l.l.l.l.l.l.l.l.z.z.l.l.l.s.s.s.s.s.l.l.l.l.l.l.l.l.x.x.x.x.l.l.l.l.z.8XaXpXf.+.+.~ X.+.Z.!.C.G.R.Y.yXx.%.F.yXyXyXNXyXyXeXz.k.l.F.Y.Y.Y.E.E.E.E.U.U.E.E.U.U.v.h.h.h.g.g.j.a.j.p.j.j.j.j.p.p.j.:.>.Q e w + O < z D w.[.w.S B K m.[.[.-X&X-X5X4X<X4X-X5X6X{.t.}.|.}.&X;X4X4X-X-X&X[.|.|.}.{.[.}.|.&X;X}.}.}.}.[.'.'.`.`.r.Y r.'.r.Y `.",
"{.[.t.[.,X4X4X5XHX5X&X|.&X.X[.&X;X;X;X;X.X[.].m.].`.`.m.].[.|..X}.r.Y e.).r.e.Y F [.).F Y r.e.r.m.[.#X#X[.m.M.[.w.D 9 1 9 f 9 $ $ < 1 1 9 z *.,.j ) ` ' [ ' [ [ [ ;.;.;.:.;.4.4.:.:.4.;.[ [ [ [ { O.4.4.4.4.O.O.4.4.O.{ 4.a.g.h.h.D.h.d.6.o.| s s / 6.I.g.L.E.U.uXJ.H.dXZXuXeXrXeXR.R.rXrXrXyXrXrXrXrX0X0XrXrXrXrXrX0XH.F.F.H.H.yXyXyXyXyXrXY.Y.F.rXyXrXz.s.%.$.A.| / 5.5. ...b.n.W.Z.d.G.uXrXrXwXwXwXgXhXlXnXnXgXhXhXgXgXgXhXlXnXnXnXnXnXnXnXcXcXlXlXnXDXDXnXzXSXSXnXcXhXhXcXSXSXDXDXDXCX/.+.4 W f.uXdXZXCXhXlXDXSXSXnXnXnXSXDXSXSXSXSXnXnXnXnXSXnXcXlXlXlXzXcXSXSXcXhXhXgXhXhXCXiXwXlXCXhXhXhXfXdXZXZXZXZXZXAXQ.T.n.( X.b.N.d > 5 ^ ` ` ;.K.%Xj.h.h.h.j.s.f.D.l.l.l.l.l.l.l.D.l.l.l.f.s.s.s.s.l.l.l.l.l.l.l.l.s.j.j.l.l.v.v.z.eXz.Y.D.$.6.+.~ d ~ A.^.B.D.R.Y.yXY.rXNXBXyXeXyXF.eXeXF.F.F.Y.Y.U.U.R.E.E.E.R.Y.U.U.U.h.h.s.j.j.g.g.d.j.a.a.a.a.j.j.j.a.:.[ _ _ *.9 + + w D q.y.t.G g B Y t.m.m.#X{.&X6X<X*X|.t.].t.q.t.:X6X:X<XGXHX-X|.-X;X}.|.;X;X&X&X&X|.].t.}.}.}.}.}.}.}.}.}.'.e.e.}.r.P ).",
"y.y.y.{.-X{.q.q.{.M.t.M.&XM.D D [.[.|.oX&X.X[.m.].].m.m.m.].[.|.|.).e.t.].`.t.e.P [.q.B e.t.e.[.t.t.[.|.|.[.M.[.w.K z w 9 9 9 # + # 1 3 9 c *.*.5 r _ [ [ ' [ [ ;.;.;.;.:.4.4.4.:.4.7.4.;.[ :.:.4.O.4.4.4.4.o.o.4.4.O.4.7.g.L.U.D.a.} } V.I.5.d > 4 o.V.g.U.MXR.uXH.H.uXuXF.l.F.F.H.Y.rXyXyXyXeXrXrX0X0X0X0X0X0XF.F.F.F.0XrXrXtXrXyXyXyXyXrXeXY.z.Y.yXeXx.s.x.D.T.n...1.1. ...n.I.VXVX~.NXVXaXwXhXhXgXhXlXnXnXnXhXhXhXhXgXhXhXlXcXnXnXnXnXcXnXcXcXcXcXnXSXnXnXlXSXSXnXlXhXhXcXcXSXSXSXDXZXQ.+.d 6 B.pXbXZXZXCXCXDXDXSXcXcXcXlXlXcXSXSXSXSXcXSXSXSXSXcXcXcXcXcXcXcXcXcXvXhXhXhXhXDXhXwXgXhXhXhXhXvXbXZXZXZXZXZXVXbXT.+.d | N.X.a > r ) ' ;.4.K.!.W ] a.B.h.s.d.f.C.C.h.C.D.D.D.D.l.C.h.h.h.f.s.s.h.h.h.l.l.h.h.h.p.a.j.h.v.U.Y.Y.rX%.} O.Z.W.A.d : 4 +.Z.d.h.R.Y.rXR.rXpXpXD.l.Y.D.Y.R.T.F.Y.Y.F.U.U.U.T.R.T.U.U.h.h.h.h.h.h.h.h.g.g.d.d.a.a.a.a.p.j.j.p.>._ >.3.<.z ; ; y *.y.y.q.S z D q.e.y.t.=X{.M.t.H D t.#XM.y.D q.+X+Xy.-.[.[.t.].&X|.q.H ].].].}.&X&X Xt. X[. X}. X}. X}.|.oXt.e.oX[.e.].",
"GX6X:X<XHX=Xy.2.M.{.*X6XGX=Xt.y.y.w.m.|.=X,X&X{.[.[.[.].[.].[.[.&X].t.].|.}.].t.t.}.q.G &X}.e.}.;X[.y.m.M.t.y.y.G D z w w 9 9 < + 1 9 3 9 z x j 5 r ) _ ] ] } [ ;.;.:.:.:.:.:.:.:.7.7.7.:.:.:.4.4.5.6.6.6.3.3.3.o.3.6.9.9.b.9.g.a.#.{ 4.L.P.5.d 4 s 3.V.g.U.yXpXeX0X0X0XF.J.J.J.H.H.H.eXrXrXeXeXrX0X0X0X0X0X0X0X0X0X0X0X0XrXiXiXyXyXyXyXeXeXeXeXz.eXeXF.z.x.F.rX^.I.5.| l l | ..W.%X^.Z.dXZXkXkXnXnXzXnXnXnXnXzXhXhXzXhXhXzXzXnXlXlXlXlXlXlXlXlXmXnXnXnXmXlXlXmXDXSXSXSXcXvXvXhXSXnXlXCXZXQ.(.~ 6 A.^.bXZXZXZXZXCXCXCXcXcXvXhXhXcXcXcXcXcXcXCXCXcXcXcXvXvXvXvXvXfXhXhXhXfXgXfXhXvXvXhXwXwXfXhXfXhXhXhXdXdXdXdXVXAX^.( d l X.| p 5 j ` ' =.3.4.7.~ ( 4.g.g.g.d.d.B.B.C.C.C.C.C.C.C.C.C.B.B.B.B.B.h.v.v.L.L.v.v.h.a.j.h.h.h.L.L.D.s.} O.A.Z.W.b.d p a +.A.d.C.R.R.T.H.T.R.T.G.D.D.D.G.T.G.D.D.D.G.U.U.U.U.U.U.U.D.h.h.C.C.C.C.C.C.g.6.7.7.a.a.a.a.:.:.:.:.;.;.;.0.0.x ; ; e -.y.y.i.G G q.q.G q.t.6X6XHX:XD 9 @XLXPXKX<X<XHX6X@X].t.}.|.-X5X4X].e.t.e.e.].&X-X;X|. X X X X].].].].|.-X_.P oXoXt.].",
"PXGX<X6XGX6X=X<X*X*X#X*X=X@X{.=XM.t.t.[.;X;X|.t.t.t.M.].[.].M.m.&X].e.t.[.].y.q._.|.t.].5X;Xi.t.GX-Xt.q.q.G D S S S z w 7 9 q < # 9 f 9 2 h h 5 r j ) ^ Q Q ' [ ;.;.;.:.:.:.:.:.:.7.j.7.7.7.a.j.7.6.6.6.6.6.5.3.3.6.A.V.b.5.' ] ! a.U.T.V.6.../ /  .9.V.d.h.R.Y.J.0XuXrXF.H.0X0XrXeXH.F.F.H.eXeX0X0X0XrXrXrX0X0XtXrX0X0X0X0X0X0XeXeXeXyXeXeXeXeXyXyXeXz.z.F.eXrXP.V.o.s a / 1.+.Z.A.@.~ S.CXCXCXSXnXSXDXDXnXzXwXgXgXgXgXgXzXcXnXzXzXzXlXlXlXlXlXlXnXSXnXzXzXlXSXSXDXDXDXDXcXvXhXnXlXlXCXZXsXA.X.d A.~.sXZXZXZXCXvXCXCXCXcXvXhXhXcXvXcXcXcXcXCXDXvXvXvXvXvXvXvXvXwXfXhXhXhXfXhXhXwXcXvXwX0XfXhXhXwXwXwXwXuXdXdXVXAXG.~ 4 | N.N. .j ) ` ' ` ' ' ( V.9.4.o.+.6.g.B.B.B.C.C.C.C.C.C.C.C.C.C.C.B.C.C.C.U.U.U.U.U.U.L.C.D.L.C.h.h.j.a.W } R.~.Z.n.N.n | | n.Z.A.C.R.R.B.D.D.G.R.Q.G.f.G.R.T.D.f.B.B.C.G.U.U.U.U.C.C.C.C.B.C.B.h.h.h.g.g.7.7.7.a.a.7.a.j.7.:.[ ;.;.;.;.0.x ; ; e -.q.q.q.q.e.t.q.G K t.#XLXIXIXHXu.4XPXPXKX:X:XHXHX:X:X*X-X|. X;X;X&X-X&X].t._.&X-X;X|.].].].].].].].].].2X).A  X|.e.e.",
"6X=X#X#X=X:X-X*X{.M.t.t.M.{.|.+X.X.X.X|.].`.].|.;Xm.[.|.`.}.}.G ;X-Xe.e.].q.y.].].t.t.t. X&X*X-X5X4X].G m.[.e.|..Xq.A 9 # 9 z z < 9 < + < x *.` <.*.` ) j r Q ) [ [ [ [ ;.;.:.:.:.7.7.a.a.a.j.j.j.7.7.7.4.4.4.4.d.g.7.o.( ] [ 4.v.l.j.4.g.V.5. .a / 5.g.L.U.R.yXR.0XR.H.D.D.F.F.F.H.rXrXrXrXrXrXrXrXrXrX0X0XF.F.0XrXrXrXrXrXrXrXeXeXeXeXeXeXeXeXeXeXeXY.F.z.x.s.C.Z.o.l l a / W.AXJ.#.&.jXDXDXCXDXDXSXSXDXDXnXcXlXlXlXlXlXlXlXlXlXlXcXcXcXcXlXlXnXcXlXzXlXnXnXSXDXSXSXcXvXvXhXhXzXzXBXDXZXsXn.l d A.sXsXkXCXDXSXcXcXvXvXcXcXcXcXcXcXCXcXvXcXcXDXvXvXhXhXhXhXhXhXcXhXhXhXhXhXhXhXwXhXcXCXcXhXhXvX0XfXCXCXCXZXZXZXAXT.( 6 6 ..b.`  .4 s s 4  .I.9.%XE.L.C.g.o.} a.s.f.h.C.C.C.D.C.D.G.G.G.U.T.T.T.D.D.D.D.D.D.D.D.D.D.h.a.{ } { $.R.k.h.h.g.A.n.l l d ..A.L.U.R.pXR.R.R.H.D.S.S.D.D.D.D.G.G.G.G.G.G.U.G.G.D.C.C.C.h.C.G.G.G.C.f.d.g.j.j.j.a.a.a.:.:.:.:.;.[ [ [ ' 0.c ; + D y.e.t.y.e.e.e.w.w.w.q.&X*X=X;X*X:X:X*X-XHXHX*X{.=X4X:X[.|..X}.m.t.].|.&X|.[.].[.[.}.}. X]._.].}.}. X).).5X2XT Y ).e.).",
"GX6X*X#X*X-X:X=X:X=X;X=X=X*X#X+X].].}.|.oX|.}.}.}.e.t.|.}.`.`.t.4X4Xe.q.t.G t.[.t.e.q.e.t.{.{.{.&XoXe.H ].}.t.&X|.q.A 9 # w z 9 9 z z e h z x e j j j ) ^ j ^ ) ' ' [ [ ;.;.:.:.:.7.:.7.a.a.a.j.j.a.7.7.a.4.4.4.d.g.d.4.} } 4.j.v.l.j.a.g.V.5./ a l o.A.L.U.R.yXR.R.R.H.F.S.D.F.D.H.rXrXrXR.rXrXrXrXrXrXrX0X0X9X0X0XrXrXrXrX0XrXeXeXeXeXeXeXeXeXY.Y.Y.Y.F.z.x.k.f.A.` j ` j / Z.AXcXhXzXDXFXFXDXDXDXDXFXFXFXDXDXlXlXlXlXcXcXcXcXlXcXcXcXcXcXlXlXcXlXlXzXlXnXnXSXDXDXSXcXvXcXvXhXmXBXSXCXZX~.+.d d A.NXdXjXSXDXSXcXcXvXvXvXlXlXlXcXcXcXcXlXlXcXSXcXcXlXlXlXhXhXhXcXlXhXhXhXhXlXlXhXhXhXlXcXcXcXhXFXCXhXhXCXCXNXpXZXC.] 6 6 3.b.<.5./  .5.5.5.5.' 6.[ [ 7.g.O.O.d.s.f.h.l.l.l.l.l.D.D.D.G.Y.Y.Y.Y.D.D.D.D.D.D.D.D.D.D.l.f.$.$.$.f.Y.k.k.h.g.Z.A./ d s ..A.L.C.Y.Y.R.R.R.H.D.S.S.D.D.D.D.F.F.F.F.G.G.G.G.D.D.C.C.C.h.C.G.G.G.D.s.a.j.j.j.a.a.a.:.:.:.:.:.[ [ [ [ ' 0.v + + S q.e.e.w.w.e.e.w.w.w.q.#X+X+X{.{.*X6X6X].{.&X-X;X&X*X-X4X;X#X.X&X;X&X|.[.{.|.#X#X|.[.].].'.'.].}.}. X).).5X6X).).).T T ",
"GX6X*X#X;X<X6X6X#X#X#X*X*X#X{.M.|.}.[.|.&XoX[.`.}.].`.}.oXt.e.}.HX5Xt.q.t.G y.].+X}.[.{.+X&X*X&X|.&Xe.P }.}.t.|.|.q.z 9 # w z 9 e e z *.*.z 3 3 > 3 5 x ) ^ ^ ) ' ' [ [ ;.;.:.:.:.:.:.7.a.a.a.a.a.7.7.7.4.4.4.4.d.d.d.4.O.4.d.h.l.l.h.g.g.V.5./ 4 s ..9.L.U.E.R.R.R.H.H.F.S.D.F.D.H.R.R.R.H.H.rXrXtXtXrXrXrX0X0X9X0X0XrXrX0X0X9XeXeXY.Y.Y.Y.eXeXY.Y.Y.eXY.F.z.l.%.+./ j  .l s n.bXDXFXFXDXDXDXDXCXnXnXSXDXDXnXlXzXlXlXlXcXnXnXSXnXnXnXnXcXcXlXzXzXlXlXlXnXSXSXSXDXDXSXnXcXvXcXcXSXSXSXCXZX^.X., ~ A.NXBXjXSXDXnXcXcXvXvXvXlXzXzXlXcXcXcXhXhXcXcXcXcXcXcXcXcXlXlXcXlXlXlXcXcXcXcXcXgXwXhXSXDXSXhXDXvXfXvXCXkXsXNXNXd.~ 4 6 1.M.5.<.....b.!.b.~ 6 W 6 W o.a.{ { a.s.f.f.l.l.l.l.l.D.D.D.D.U.Y.Y.Y.D.D.D.D.D.D.D.D.D.D.l.h.s.f.k.D.Y.k.l.h.g.Z.A.~ d d X.I.L.h.l.z.R.R.R.F.D.S.S.D.D.D.F.F.F.F.D.D.D.D.D.D.C.C.C.C.h.C.D.G.D.h.s.a.j.j.a.p.a.a.:.:.:.:.;.[ [ [ [ ' =.x + O z q.q.y.w.e.e.e.w.w.w.q.*X*X#X{.t.{.-X:X[.q.t.:X4X&X;X5XHX-X}.|.<X6X-X{.t.[..X;X;X&X}.[.]. X X].].].).r.}.7X6X`.e.).).r.",
"6X:X*X=X<X5XHXHX{.{.{.{.+X+X{.[.4X-X&XoX|.[.`.t.].|.t.t.&X}.`.;X4X4Xe.t.|.[.&X:X*X&X+X+X&X&X&X&X X;Xe.q.|.[.].}.|.q.z 8 + < z w < < 9 *.,.e > 3 ; > 6 j j j r ^ _ ' ' [ [ ;.:.:.:.:.:.:.7.a.a.a.7.7.7.4.4.4.4.4.4.a.7.4.4.7.g.h.h.l.h.g.g.V.5.l , s ..9.C.U.U.Y.R.H.H.H.F.D.D.F.D.F.H.H.H.H.H.eXrXrXrXrXrX0X9X9X9X9X0X0X0X0X0X9XeXY.Y.Y.Y.Y.eXeXF.F.Y.Y.Y.Y.Y.F.D.A.^ a  .h 4 X.G.vXFXDXSXSXDXSXDXnXlXlXzXzXgXxXzXzXzXlXlXnXSXSXnXSXSXnXnXcXlXzXzXlXlXnXSXSXDXSXSXSXnXcXvXvXvXcXDXDXDXDXZXT.| , ~ Z.VXBXjXSXSXlXcXcXvXvXvXcXmXmXcXcXcXcXlXlXcXcXcXcXcXcXcXcXcXcXcXcXcXcXcXcXcXcXcXhXgXhXcXSXcXvXwXiXZXFXZXuXpXAXVXA.~ 6 s 1.b.1.l / / 5.%Xb.4 6 ^ 6 W } 4.} } O.s.s.f.h.l.l.l.l.D.D.D.D.G.U.Y.Y.G.D.D.D.D.D.k.k.k.h.k.h.h.l.D.F.H.k.l.D.g.Z.A.( a d ..A.V.g.l.z.R.R.R.H.D.S.D.D.D.D.D.G.F.G.D.D.D.D.C.C.B.h.h.f.h.h.C.D.C.f.d.a.j.a.p.p.p.p.:.:.:.:.[ [ [ [ [ ' =.z O O z K G e.e.e.e.e.w.y.y.y.#X*X-X&X{.{.&X#X4X}.[.4X5X-X2XGX4X#X].[.&X;X|.M.&X&X#X&X&X#X}.[.t.]. X_.).]. X X;X7X6X].e. XoXXX",
"<X<X4X6X6X6X<X-X#X|.}.|.#X&X;X;X;X;X-X-X&X}.].].t.|.t.q.|.;X&X3X-X4X].|.4X-X-X2X&X&X+X|.|.{.{.{.].&XG Y oX X|.|.{.K z 8 + < 9 < < + < v c 9 3 2 > ; > 5 r j j ) _ _ ' [ [ ;.;.;.:.:.:.7.7.a.a.a.a.4.4.4.4.4.4.4.4.4.4.4.4.a.g.h.h.l.v.h.V.V.5.| , s ..7.g.C.U.U.Y.H.R.H.F.D.F.H.F.F.H.F.F.F.F.H.0X0X0X0X0XF.F.J.F.9X9X0X0X9X9XH.H.Y.Y.Y.Y.Y.eXeXF.F.F.F.Y.Y.Y.Y.G.A.~ 4 c l s o./.cXDXDXDXFXFXDXFXDXmXzXzXzXlXzXzXzXzXlXlXcXnXnXSXSXSXSXnXnXcXcXzXzXcXnXSXDXDXDXnXnXcXvXvXvXvXcXDXDXDXJXZX^.X.d d A.VXBXjXBXmXzXcXcXcXcXcXSXSXSXcXcXSXSXcXcXcXcXcXcXcXcXcXcXcXcXcXcXcXcXcXSXSXcXcXcXlXlXlXlXcXcXfXfXvXFXZXbXVXAXAXZ.( ~ j  .1./ s / 6 / I.5.4 6 ~ 6 6 } 4.{ { d.a.s.f.h.l.l.l.k.z.l.D.D.D.D.Y.Y.G.D.D.D.D.k.k.h.f.f.f.h.h.k.D.G.F.k.D.D.g.Z.A.X., a | b.g.d.l.z.Y.T.R.H.D.S.D.D.D.D.D.D.D.D.D.S.l.h.C.h.h.f.f.f.f.h.h.h.f.s.d.a.a.p.:.:.:.:.:.:.:.;.[ ' [ [ [ ' =.z O O q K G Y T T T e.y.e.y.y.|.#X;X*X+X;X<X:X5X-X;X-X6X4X4X5X;X;X&X|.|.|.|.+X4X-X&X|.&XoX[.t.e.].[.t.t.|.&X;X;X4X4XoX].;X3X&X",
"4X6X6X6X-X|.M.t.}.].t.t.M.[.{.|.G t.oX-X-X&X|.|.|.&X}.].}.|.|.&X5XHX&X-XHX-X+X}.-X*X&X&X+X|.{.{.-X5XY e.&X].|.[.[.K z 8 + < 8 # 9 9 3 e h 9 3 2 ; ; > 5 j ^ ` ` _ _ ' ' [ ;.;.;.:.:.:.:.:.7.a.7.4.4.4.4.4.4.4.4.4.4.O.4.4.a.d.j.j.l.L.C.V.b.5. .a s  .3.7.g.l.D.F.H.R.H.F.F.F.H.F.F.F.F.D.D.F.H.9X0X0X9X9XF.J.J.J.F.F.F.F.F.F.J.H.Y.Y.F.F.Y.Y.Y.F.F.F.F.F.F.Y.Y.D.A.~ 5  .c / A.bXDXDXnXDXFXFXSXFXSXlXzXlXnXSXDXzXzXzXzXlXlXlXcXSXSXSXSXSXSXnXnXlXlXcXcXSXSXDXDXnXnXcXvXvXvXcXcXDXDXDXFXAX^.+.d d A.VXBXjXBXmXlXcXcXcXCXSXSXDXDXnXSXSXSXcXcXcXcXcXcXcXcXcXcXcXcXcXcXcXcXcXSXcXcXlXcXSXcXhXhXhXcXCXuXJ.H.bXAXFXAXAXZ.../ c  . .s / / / / o.' ^ ~ 6 u 6 } 4.a.h.U.a.s.f.f.l.l.l.k.l.l.l.D.D.G.F.Y.G.G.D.D.l.k.h.h.f.f.f.h.h.k.k.D.F.k.D.D.g.Z.A.X.d a | 5.7.d.l.F.F.F.T.H.D.D.D.D.D.D.D.D.D.S.k.h.h.h.h.f.f.f.s.s.f.f.f.f.s.d.d.a.a.a.:.:.:.:.:.;.;.[ ' ' ' [ [ ' <.x + O z K G Y Y Y Y T e.r.w.t.=X*X#X+X{.;X4X<X4X4X-X-X-X2X;X|.].}.|.}.t.t.[.|.[.t.t.{.;X-X&X[.|.&X.XM.].|.oX[.oX;X4X,X;X6X5X.X",
"}..X.X}.t.q.q.q.e.e.q.Y e.y.e.e.B F t.}.&X&XoXoX;X}.-X5X;Xt.].-X-X6X}.-XGX6X-X&X*X*X&X&X+X X]._.LXLXt.t.&Xt.}.t.[.G g w + # w + 9 z 9 3 3 e e 3 > > 6 j ) ` ` ) _ _ ' ' ' [ ;.;.;.;.:.:.7.7.7.7.4.4.4.4.4.O.O.4.d.7.4.4.a.d.a.a.j.h.h.g.V.b.n.1.a l  .o.4.d.h.D.F.H.H.H.H.F.H.H.F.F.F.S.S.S.D.H.0X0X0X0X9XF.J.J.J.J.F.F.F.F.J.J.F.Y.F.F.F.F.Y.Y.F.F.z.z.z.z.Y.Y.B.A./ j 1. . .Z.VXCXDXnXSXDXDXBXSXmXlXlXlXnXnXnXlXlXlXlXlXlXlXlXSXSXSXSXSXSXSXSXcXlXzXzXcXnXSXSXSXnXcXcXcXcXDXSXDXDXFXFXAX~.5.d d Z.ZXZXBXSXSXnXSXCXCXCXSXnXSXSXcXcXSXSXcXcXlXlXlXlXcXcXcXcXcXcXcXcXcXcXcXcXcXcXhXcXSXSXcXhXhXcXZXfXS.%.S.bXZXVXVX6./ / / ` ` a / ( 5.' ^ ' o.~ ] W Q 4.h.g.h.C.a.s.f.h.h.l.h.h.l.l.l.D.D.D.G.G.D.D.D.l.k.h.f.f.k.k.h.k.k.k.k.h.F.k.D.G.g.Z.A.X.| d / +.+.a.l.z.D.F.T.Y.D.D.D.D.D.D.D.D.D.S.h.f.h.h.f.f.f.s.d.d.f.f.s.s.d.$.$.a.a.p.:.:.:.:.:.[ [ [ } ' ' [ [ ' 2.v + O z K G Y Y Y Y e.y.r.r.t.:X*X#X{.{.*X;X|.-X-X&X|.[.`.t.e.G q.e.q.G G q.t.q.G G e.[.&X;X&X&X;X.X[.&X4X;Xy.-X*X<X,X;X6X7X.X",
"A S G S B A q.`.e.r.m.].[.[.`.t.Y F H Y t.[.|.|.}.G -XPX5X`.;XLX&X-X[.-XGX6X-X&X-X-X;X;X&X{. X].LXLXe.e.&Xt..X].[.G g 8 + # w + < e 9 < < h h 3 5 5 r ` ' ) j r _ _ ' ' ' [ [ [ ;.;.:.:.:.:.7.7.4.4.4.4.4.O.O.O.g.d.7.a.d.g.a.4.j.h.h.g.V.b.n.1.d l  ...o.4.h.D.G.F.H.H.H.F.H.H.F.F.F.S.k.S.D.H.0X0X0X0X0XF.F.J.J.J.J.F.F.J.J.J.F.F.F.F.F.F.Y.Y.Y.F.z.z.l.z.F.F.D.Z.o. .1. ./ A.bXCXDXnXDXDXFXCXDXSXSXSXSXSXlXzXlXlXlXlXlXlXlXlXSXSXSXSXDXSXSXSXcXlXzXzXlXcXnXnXSXSXnXnXcXDXDXDXDXDXFXFXAX^.+.d ~ P.ZXAXBXDXDXSXDXDXCXCXcXcXnXmXcXcXcXcXcXcXhXhXhXhXlXcXcXcXcXcXcXcXcXcXcXcXcXlXgXhXcXSXcXcXcXcXvXFXZX%.@.@.+.+.!.| s l l  . .a 6 / b.3.6 o.A.~ 4.[ O.C.U.d.{ { s.s.s.f.h.h.h.h.l.l.D.D.D.D.G.G.D.D.D.l.k.h.f.f.D.D.D.D.k.k.h.f.D.k.F.G.g.Z.A.+.X./ / X.o.$.h.l.D.F.T.T.G.D.D.D.k.D.D.D.D.h.h.s.s.f.f.s.s.d.d.d.f.f.s.d.d.$.$.a.a.:.:.:.:.:.;.[ [ ' } ' [ [ [ ' 0.v + + z q.G q.Y Y Y e.y.t.t.t.{.M.{.+X*X<X-X[.4XoX`.e.F B B G ]._.t.t.].[.[.[.}.t.G A G e.].[.t.m.m.[.6XLX7X{.HX-X=X#X[.4XGX*X",
"[.r.K F G r.[..X`.`.m.r.t.m.`.`.S t.oX|.`.e.e.`.`.`.`.`.`.]..X;X|.6X4X5X5XoX:XHX|.&X&X{.t.y._.|. Xq.G t.}.}.[.[.#Xq.g 9 # # w # < < < < w 9 e x j j j j j ^ ^ ^ _ _ _ _ ' ' [ [ 3.3.4.4.:.:.:.:.4.4.4.4.4.4.7.7.O.O.4.4.4.4.4.4.j.h.j.4.6.b.5.| | l / ( o.4.g.h.D.F.F.S.&.&.S.H.F.H.H.R.R.R.H.0XJ.J.J.F.F.9X9X9XF.F.F.F.F.F.F.J.F.F.F.eXrXyXrXY.F.F.F.F.F.F.F.F.G.d./ j  .l / A.ZXCXDXnXDXFXFXDXtXFXDXSXnXzXFXnXzXlXlXnXlXzXlXnXnXnXnXnXnXnXnXnXnXnXnXnXlXlXlXzXnXnXnXSXDXDXFXFXDXDXFXFXVXT.+.l 4 +.ZXZXDXFXDXDXDXDXDXDXDXSXnXnXSXcXcXcXcXcXlXhXlXlXcXcXSXSXcXlXlXlXlXlXcXcXcXcXcXcXSXcXcXcXcXhXhXZXFXbXS.@.~ | X.s 4 , l 1.<.` s / / ~ 6 ^ o.V.g.g.d.d.g.h.h.j.f.f.f.h.l.l.l.D.l.l.k.l.D.D.D.D.D.D.D.D.D.D.D.l.f.f.f.f.f.f.f.f.k.D.D.f.g.A.+.( X.| / / o.a.j.s.D.D.D.l.h.h.h.k.l.l.D.l.l.l.S.B.s.f.f.f.h.h.h.h.h.h.f.f.s.$.$.$.7.:.:.:.:.:.:.:.:.;.[ [ [ ' ' _ ` D + O S w.K K G Y e.w.Y K w.].#XM.q.q.[.&X#X}.[.,X;X`.Y F Y }.[.].].`._.`.`.`._.e.q.].|.`.t.e.t.t.m.m.m.m.M.M.,X&X.X,XHXHX=Xm.",
"LX7X;X`.m.`.oX;X[.[.`.`.`.`.[.}.r..X4X5X4X4X5XGX6X6X6X4X3X,X4X6X-XHX5XGX5X|.&X-Xt.{.&X&X+X_.y.i.e.G G `.&XoX|.oX#XK z 9 # < 9 w 9 9 3 3 9 9 h x j j j j j ^ ^ ^ _ _ _ _ ' ' [ [ 3.3.;.;.:.:.:.:.4.4.4.4.4.4.4.7.O.O.4.4.4.4.4.4.h.h.g.4.3.5...b  ...5.5.3.o.a.s.l.D.F.S.f.f.D.R.F.H.H.H.H.R.R.eXF.F.F.F.9X9X9X9XF.F.F.F.F.F.F.J.eXeXY.eXyXyXrXeXeXY.Y.Y.F.F.F.F.B.+.s a c l / n.ZXCXDXnXSXFXFXDXFXFXxXDXDXhXnXlXDXFXFXcXnXFXFXDXSXSXSXSXSXnXnXnXSXSXSXnXnXcXcXlXnXnXnXSXDXDXFXFXDXDXDXZXVX^.n.X.~ Z.FXZXjXSXSXFXDXDXDXDXDXDXDXDXSXcXcXcXcXcXcXhXcXcXcXSXSXSXcXhXlXlXlXlXlXcXcXcXcXcXSXSXSXcXcXvXvXCXFXbXS.+.@.X.X./ a a l 1.1.<.s / ( / ^ ] 4.V.g.g.g.j.h.h.h.j.s.s.f.f.f.h.l.l.l.l.h.k.l.D.D.D.D.D.D.D.D.D.l.l.f.f.f.f.f.f.f.f.k.D.D.s.d.d.+.| X.X.5.+.o.O.#.%.l.D.D.k.h.h.l.D.l.l.D.l.l.l.k.h.s.f.f.f.f.f.f.f.h.h.f.f.s.$.$.$.4.:.7.:.:.:.:.:.;.;.;.[ ' ' ' _ ) v + O S w.K K Y e.w.w.Y G q.m.,X#X{.{.#X;X&X.X3XGX7X;X[.r.w.[.[.].].`.`.`.`.`.|.[.}.3X7X5X6X5X7X5X5X6X4X,X,X,X7X4X,X4XHX7X-X[.",
"}.r.C * = 0 B V C C B B B V C F B Y `.].t.t.`.}.`.`.].`.e.e.w.e.G t.t.[._.i.[.{.].{.*X:X2XoXy.H q.H P  X&XoX|.oX&Xq.z 8 # < z 9 e e 9 9 9 h x x j x j j j ^ ^ ^ ` / ) _ ` ' ' ' [ ;.;.;.;.;.;.;.:.O.O.O.4.4.4.4.O.O.O.4.4.4.4.4.h.h.h.4.o..... .a l ..5.o.[ a.D.h.S.D.S.k.k.D.H.F.F.F.H.H.R.rXrX0X0X0X0X0X0X0X0X9X9X9X9XF.9X9X9XeXeXeXrXyXyXrXeXeXeXY.Y.F.F.F.F.f.o.6 a c l / +.ZXCXDXnXSXFXFXDXFXDXnXFXnXhXFXFXFXDXSXSXDXDXDXSXDXDXDXDXDXSXSXSXDXDXSXSXSXSXSXnXnXSXSXSXDXDXDXFXDXDXSXCXdX^.K.n.4 A.FXFXBXDXmXDXFXDXFXFXFXFXFXFXSXcXcXcXcXcXcXlXcXcXSXSXSXcXhXgXhXhXhXhXlXlXcXcXcXcXSXSXSXcXcXhXvXCXCXbXG.+.X.X.X.| l d c ..8.8.o.5.6.6.o.4.g.L.g.g.d.d.h.h.j.j.s.s.s.s.s.f.f.f.l.h.f.h.l.l.l.l.D.l.l.l.l.l.l.l.f.f.f.f.f.f.f.f.k.l.l.a.O.+.o.X.d l X...[ { a.f.k.l.l.l.k.k.l.D.l.l.l.l.l.l.l.h.s.f.f.f.f.f.s.s.C.h.h.f.s.d.$.$.a.7.7.:.:.:.:.;.;.;.[ [ ' _ _ ` x x + O S q.G q.Y Y Y e.K G q.].<X:X=X*X&X&X&XoX;X3XoXw.F N 0 N F F H Z H Z Z Z F B H T ).r.r.r..X|.}.[.`.m.r.y.`.w.e.w.`.m.Y g ",
". . . o X % X X . o o o o o o .   O # @ . . . . . o @ @ @ . . @ . @ . @ @ 7  X&X&X;X;X-X-X*X{.t.t.q.e. X|.}.].}.;Xq.g 8 + < z 9 z z h h e z x c j x j j j ^ ^ ^ ^ ^ ) / _ ' ' ' ' ' [ [ ;.;.;.;.{ { O.O.O.O.4.4.O.O.4.4.4.4.4.4.a.j.d.4.....1.N.a a l / ' o.g.U.h.S.D.S.k.k.S.D.F.F.D.D.H.R.rXuXrXrXrXrXrXrX0X0X0X0X0X0X0X9X9X9XyXrXeXyXyXyXeXY.eXY.F.F.F.z.l.l.f.o.s j ,. ./ n.ZXDXDXnXnXDXDXDXgXDXFXDXhXFXFXFXiX&.&.cXDXlXlXDXDXDXDXDXDXDXDXDXDXDXSXSXSXSXSXSXSXSXSXSXDXDXDXFXDXDXDXCXdXT.n.X.4 o.VXZXDXFXDXnXFXFXFXFXFXFXFXFXSXSXcXcXcXcXcXcXcXcXcXSXSXcXlXhXhXhXhXhXhXlXcXcXcXcXSXDXSXSXcXcXcXCXCXfXG.+.X.| X.X... . ...1.5.b.V.K.V.7.7.g.C.g.g.d.d.h.h.j.j.s.$.$.s.%.s.s.s.h.f.f.h.h.k.h.f.h.h.h.l.h.h.h.h.f.f.f.f.j.j.j.s.f.f.f.$.O.o.+.X.d l | | ( { s.l.l.l.l.l.k.h.h.h.l.l.l.l.l.l.l.h.C.C.C.h.f.f.s.s.B.C.B.f.f.d.$.$.7.7.7.4.:.:.;.;.;.;.[ ' _ _ _ ` j e O O z q.G e.F F F T Y G y.|.#X;X-X*X|.[.[.|.`.`.B o . o . X - - - X X X X X % X o % % X . . O O O . . . . . . . . . @ @ .   ",
"% % % & & & % X o o o o o o o o   o @ o . o @ X . o @ % @ X @ @ 7 7 O @ . q *X-X&X&X&X&X+X+X+X&X}.t.t. X}.].[.&X-Xy.z 8 + # 9 w z z h e e h x x j x j j j ^ ^ ^ ^ ^ ^ / _ ` ' ' ' ' ' ' [ [ ;.[ [ } } } { { O.O.O.O.O.O.4.4.4.4.a.a.a.4.....1.N.b.N. . .3.7.C.G.k.S.D.D.S.k.k.k.F.F.D.D.F.H.rXuXiXiXtXrXrXrXrXrX0X0X0X0X0X0X0XeXyXrXrXrXyXrXeXF.F.F.z.z.l.x.x.k.B.+.s l 1.,./ 6.VXCXDXnXmXSXSXCXFXCXcXcXDXKXcX&.&.#.&.J.iXcXFXFXDXFXFXDXDXDXDXDXSXSXnXnXnXnXnXSXSXSXSXSXDXDXDXDXSXSXSXCXNX^.+.d X.6.~.D.9XDXSXDXFXFXFXFXFXFXFXDXDXSXnXSXSXSXcXcXcXcXcXcXcXcXlXhXhXhXhXhXhXhXlXcXcXcXSXSXSXSXcXcXCXCXvXfXG.(.X.| l | .. . ...<.5.5.5.6.6.4.4.7.d.g.g.g.j.h.h.j.j.a.$.$.$.$.$.$.$.f.f.f.f.f.f.f.f.h.h.h.h.h.h.h.h.j.j.j.j.j.j.j.j.k.f.s.$.O.o.X.+.W.b.N.+.O.a.j.s.l.l.D.D.k.f.f.s.D.D.l.l.l.l.l.D.D.G.D.C.C.C.h.h.C.C.B.h.f.d.$.a.7.7.7.:.:.;.;.;.;.[ [ ' _ _ ) ) j e O O z K q.].Y K T t.r.Y t.#X[.#X*X#X[.m.].[.oX}.B . . % % & o o o o . o . o .       o o . .             . . .       . o . o ",
"X o             o X X X X X X o o X X X X % % % % % & & % % % # 7 7 # 7 @ A :XoX[.{.&X&XoX+X+X+X|._.t.].}.[.|.-X;Xq.g 8 + # 9 w 9 9 9 9 e e h x j x j j j ^ ^ ^ ^ ^ ^ ^ / _ _ _ ' ' ' ' [ [ [ [ } } } } } [ [ [ O.O.O.O.4.4.4.4.g.a.4.6.o. . . .W.N.| / o.g.L.U.h.k.S.D.F.S.k.&.F.D.D.F.F.H.R.rXrXtXtXrXrXrXrXrXrXrXrXrXrXrXrXrXyXrXeXeXeXeXF.z.F.F.z.z.l.x.x.k.f.o.s l 1.,./ +.pXvXSXnXlXlXBXBXFXhXvXDXKXcX&.&.wXcXhX&.&.vXFXFXDXDXDXDXDXDXDXDXSXnXnXcXcXnXnXSXSXDXSXSXDXDXDXDXlXmXSXCXZX~.+., ~ A.AXpXx.qXqXlXFXFXFXFXFXDXDXDXDXDXSXSXSXSXSXcXcXcXlXlXcXcXlXhXhXhXhXhXhXhXlXlXcXcXcXcXSXSXSXSXCXcXvXbXpXZ.+.X.d d l / ` ..3.3.' ..o.3.4.7.g.h.g.g.j.j.h.h.j.j.s.$.$.$.$.$.$.$.f.f.s.s.f.f.s.s.j.j.j.j.j.j.j.h.j.j.j.j.j.j.j.j.k.%.%.a.$.o.X.+.W.I.5...O.d.h.l.l.l.D.D.l.f.f.s.D.D.l.l.l.l.l.l.G.G.G.G.D.D.D.D.C.C.C.B.f.s.a.a.7.7.4.4.;.;.;.;.[ [ ' ' _ _ ) ) x e O O q G e.|.}.`.]..X[.e.r..X[.+X&X&X|.[.[.|.,XOXF o X & - % o o       o                     X X X X X X - X % & % % X X - % ",
"o o       o o o     o o o o                     .               . . O # O A :X{.{.}.+X&X*X*X|.{.XXt.q.t.t.t.].|.|.G q 8 # < 9 w 9 9 9 9 9 e h x j j j j j ^ ^ ^ ^ j ^ ^ / ` _ ) _ _ ' ' ' ' ' ' [ } } } } } [ } O.O.O.O.4.4.4.4.g.4.O.6.5... . .N. .d s ( o.d.C.$.%.k.S.F.F.S.f.D.F.F.F.H.H.H.H.rXrXrXrXtXrXtXtXrXrXrXrXrXrXrXrXeXeXY.Y.eXY.z.l.F.F.F.F.F.z.z.l.f.o.s l 1. .s X.G.fXcXnXlXlXBXBXkXvXDXDXFXwX! vXDXKXFXwX&.J.vXCXDXDXDXSXSXSXSXSXnXnXnXcXcXnXnXSXDXDXDXDXDXDXDXDXDXDXSXBXVX~...> > A.FXFXjXjXqXwXSXDXDXDXDXDXDXDXDXDXSXSXDXDXSXcXSXcXlXhXhXlXhXhXhXhXhXhXhXhXlXcXcXcXcXcXcXcXSXSXcXcXCXZXZXsXZ.n.| / d s c ..0.8.o.o.3.3.4.7.g.C.g.h.g.g.h.h.j.j.s.s.%.%.$.$.$.$.f.f.s.s.s.s.s.s.s.s.j.s.j.j.j.j.j.j.j.j.j.j.j.j.k.$.$.s.d.+.X.+.N...| ~ ] { a.s.s.f.l.D.D.l.k.h.l.l.l.l.l.l.l.D.D.D.D.G.D.D.G.G.C.C.C.h.f.s.a.a.7.7.4.4.;.;.;.[ [ [ ' _ _ ) ) ) ) z O O q D e.;XoX}.|.;X.Xw.y.|.{.#X&X&X#X.X|.|.oX.XS . . X                     % & - o o o X o X X X X X X X X % % % X X X - % ",
"o o X & & X o     o o o o o o           o X X o               . . . . @ . H 6X|.&X{.{.+X*X*X{.t.|.t.Y e.q.F G q.[.S 9 8 # 1 z 9 < 3 9 9 9 e j x j j j j j ^ ) ^ ^ ^ ^ ^ ) ) ) ) _ _ ' ' ' ' ' ' [ [ [ [ } [ [ } 4.O.4.O.4.4.4.4.4.} [ 6.9.5... .N.1. ./ ~ ~ ] { $.$.f.S.F.H.D.S.D.F.F.H.R.H.F.F.rXrXrXrXtXtXtXiXrXrXrXrXrXrXrXrXeXeXH.H.Y.F.z.x.Y.F.F.F.F.F.F.F.h.o.s / N. .l X.%.0XlXlXlXlXBXBXhXFXDX9XFXcX! wXvXhXCXFXfX#.J.FXSXSXSXSXSXSXSXSXSXnXnXcXcXcXSXSXDXDXDXDXDXDXDXDXFXFXSXBXNX^.( ; 4 +.AXAXDXFXSXnXcXvXcXDXDXDXFXFXDXDXSXSXDXDXSXcXDXSXcXhXhXhXhXhXhXhXhXhXhXhXlXcXcXcXcXlXcXcXSXDXlXlXcXZXAXZX^.Z.A.n.| s l ..8.9.4.4.o.o.[ [ O.4.g.g.g.g.h.h.h.j.s.a.a.$.$.$.$.$.s.s.s.a.s.a.a.a.a.a.a.j.j.j.j.j.j.j.j.j.j.j.j.j.f.$.$.f.B.O.........X./ W W ! } $.$.f.l.D.D.D.D.l.l.l.l.l.l.l.D.h.h.C.D.D.D.D.G.D.C.C.h.h.s.d.a.4.4.4.4.;.;.;.[ [ ' ' _ _ ) ) ) *.z O O 9 D y.-X|.].}.;X.Xw.e.}.#X+X#X#X#X.X|.[.oX.XG o X % o                     o o     o X X - - & & & & = = & & = & & & * * ",
"X X X X X X X X o o o o o o o o o   o   o       o     o o           X X . G 4X|.{.+X+X{.{.=X;X{.[.r.G A S F F S Y K D g O O 1 $ < 3 9 k z k j h r e r r t j r j ) ) ) ) _ _ _ _ ' ' ' ' ' ' ' ' [ [ [ [ [ [ [ [ [ ' [ [ ;.3.4.4.4.4.4.4.4.3.5.5. .l  ...o.A.G.$.! ! @.#.#.%.k.l.l.D.H.eXrXrXrXrXeX0XrXrXtXiXiXiXrXrXrXrXrX0X0X0XaXaXaXyXH.F.l.k.D.F.Y.D.f.s.l.D.B.6.( s  .X.N.A.~.uXiXgXBXCXBXkXfXcXDXCXCXkX0X&.&.hXFXDXFX0X&.FXSXSXcXcXSXSXSXcXcXcXcXcXcXSXSXDXSXSXSXDXDXDXDXSXDXDXSXhXdX^.5.a d A.FXAXCXFXSXFXFXDXDXDXFXFXFXDXSXSXSXSXSXCXSXSXSXcXcXcXlXlXlXlXcXcXhXhXhXhXhXhXhXlXlXhXhXcXcXlXcXSXDXDXDXDXAXFXVXA.( d 4 s ..o.[ o.g.L.g.7.{ [ 4.4.4.4.4.4.4.a.d.s.s.d.d.a.a.$.$.$.$.a.d.d.s.s.s.s.s.f.s.s.d.a.$.O.$.$.$.a.a.a.a.s.h.g.6.o.....l | n.b.+.h.Y.l.@.} } { $.s.f.f.s.f.l.D.G.F.D.D.h.h.h.h.D.U.U.U.U.h.h.h.h.h.s.j.d.7.7.4.4.3.[ [ ' ' _ _ ) ^ r r v z O O z G q..X}.oX].&X|.G e.].#X&X:X4X<X.X}..X-X|.g   & &     o o o           o o o o o o o o o o o o X X - X & & & & & & & & ",
"o o o o o o o o o o o o o o o o                         o           X % . G 4X|.{.+X{.{.{.=X=X#X`.w.F A F G G F Y K G f O O 1 + 3 2 9 h k k j j t t t t t j j j ) ) ) _ _ _ _ _ ' ' ' ' ' ' ' ' [ [ [ [ [ [ [ [ ' [ [ [ 3.3.4.4.7.7.7.4.4.3.5.5. ./  ...o.Z.T.%.D.D.l.k.s.s.%.%.l.D.F.Y.rXrXrXrXrXrXrXrXtXiXiXiXrXrXrXrXrX0X0X0X0XrXtXtXrXeXR.H.F.Y.Y.D.f.s.f.l.C.7./ s l  .X.n.MXsXaXBXBXCXBXkXaXCXDXSXSXCXiXx.#.9XCXCXDXqX&.FXDXSXcXnXSXSXSXcXcXcXcXcXcXcXSXSXSXSXSXCXCXCXCXnXDXDXSXhXfX^.5.d d A.FXAXZXDXSXFXDXDXCXCXDXDXDXDXSXSXSXSXSXSXcXcXSXSXcXcXlXhXhXlXiXiXgXgXhXhXlXlXgXhXhXhXhXcXcXhXcXcXSXSXSXSXDXAXVXA.X.X./ / ~ > W ~ [ g.L.L.c.L.7.7.4.4.4.4.4.4.d.d.d.d.d.d.d.d.$.$.$.$.d.d.d.d.s.s.s.s.s.d.d.d.O.$.$.$.$.$.$.d.a.d.s.d.6.o.5.1.|  .5.b.+.f.Y.l.D.D.l.f.s.$.#.#.s.f.l.D.Y.G.D.D.h.h.h.h.v.U.U.U.U.h.h.h.h.h.h.j.a.7.7.4.4.o.[ [ ' ' ` _ ) ^ j t v z O O z D 2.|.}.&X|.-X|.G q.e.t.M.{.&X&X.X;X3X&X}.N o & &       o o                           o o o o o X X o & - & & & & - - ",
"X X X X X X X X - - - - - - - - o o o o o o o o o o o o o           o % . Y 4X|.].+X#X{.{.=X,X=Xt.Y F A F Y Y Y Y G G g O O 1 $ 1 3 9 h k k j j j j j j j j ) ) ) ) _ _ _ _ ` ` ' ' ' ' ' ' ' ' [ [ [ [ [ [ [ [ [ [ [ [ o.3.4.4.7.7.7.4.4.o.5.5.../  .+.o.Z.R.k.rXeXH.F.l.l.k.k.l.F.Y.rXrXpXrXrXrXrXrXrXtXtXiXiXrXrXrXrXrX0XeX0XJ.9XrXtXrXrXeXR.R.R.T.D.h.s.s.h.h.7.( s l | X.6.MXsXaXjXBXBXkXfXfXcXCXSXSXDXlXtX@.J.CXDXFXgX&.SXDXSXSXSXSXSXSXcXcXcXcXcXcXcXcXcXmXmXcXcXcXcXcXcXDXDXnXhXuX^.(.d 4 (.FXAXCXFXSXDXFXDXDXDXDXDXDXCXSXSXSXSXSXcXcXcXDXSXcXcXhXhXhXhX0XwXgXhXlXcXcXcXgXhXlXhXhXcXhXgXhXcXnXnXCXCXCXAXsXX.~ X.5.5. .4 ] [ 4.g.h.g.h.L.a.a.7.7.7.7.a.a.d.d.d.d.d.d.d.d.$.$.$.d.d.d.s.s.d.d.s.s.d.d.d.$.$.$.$.$.$.%.d.d.$.d.d.a.6.+.5.5. .| 5.n.+.h.R.F.Y.Y.D.l.h.f.s.s.s.f.l.D.D.D.l.h.h.h.h.h.v.L.U.U.U.h.h.h.h.h.g.a.7.7.7.4.4.o.[ [ ' ' ` ` ` ) ) x c z O O z D q.|.{.&X&X-X[.A G G y.y.y.t.m.].|.-X}.`.0 o & %         o o X X o X o o o o o o o o X X X X - & & & & & & & & & & & ",
"* * * * * * * * * * * * * * * * * * * * * * * * * & & & & o     o   o % . Y 6X|.{.*X:X*X#X<X,X=Xy.Y F F F Y T e.Y G G g O $ 1 $ 3 2 9 h h h h j j j j j j ) ) ) ) ^ ) ) _ ` ' ' ' ' ' ' ' ' ' ' [ [ [ [ [ [ [ [ [ [ [ 3.3.3.4.4.4.4.4.4.o.3.5.5.../  .+.6.Z.R.D.F.F.F.F.F.F.F.Y.l.F.Y.rXrXrXrXrXrXrXrXrXrXtXtXtXrXrXrXrXrXeXeX0X0XrXrXrX0XH.F.F.R.R.Y.D.l.h.h.D.C.g.( s l l X.+.~.uXtXaXjXjXiXiXiXkXlXcXCXSXCXkX&.x.lXDXFXjX&.gXDXSXcXcXSXSXcXcXcXcXlXlXlXlXlXlXlXlXlXhXvXvXvXcXDXDXnXhXuX^.n.d 4 (.FXAXZXFXSXDXFXFXDXFXDXFXDXDXSXSXSXSXcXcXcXcXDXDXSXcXhXhXhXhXgXgXhXcXcXcXcXcXlXCXSXcXcXcXhXgXhXlXcXcXcXCXCXAXsX@.4 d ..n.b.o.7.a.j.g.g.7.7.a.g.g.a.a.a.a.g.d.d.d.d.d.d.d.d.d.d.d.d.d.d.d.d.d.d.d.d.d.d.d.d.$.$.$.$.$.d.d.d.d.$.d.d.a.4.+.5.n...| ..n.6.h.R.Y.l.l.l.l.l.l.l.l.s.f.l.D.D.D.l.h.h.h.h.h.h.v.L.U.U.h.h.h.h.h.j.a.4.4.4.4.4.o.[ [ ;.' ' ` ` ) ) ) c z O O z D q.|.[.|.&X;Xe.A t.e.G D D z q g F Y `.m.0 o % %         o & * * * * * * * * * * * * * * * * * * * * * * * * * * * * ",
"V V V V V V V V N N N N V V V V V V V V N N N N V N N N & o     o   o X @ e.6X&X{.-X<X=X#X=X*X.Xy.q.K F F K Y Y Y F K g O $ 8 < 2 2 2 h h h h h j j j x x ) ) ) ) ^ ) _ _ ` ` ' ' ' ' ' ' ` ' ' [ [ [ [ [ [ [ [ [ [ 3.o.3.3.3.3.4.4.4.4.4.4.5.8...l  .5.6.Z.R.H.R.Y.F.F.l.k.k.k.D.F.Y.rXrXrXrXeXrX0XrXrXrXrXrXrXrXrXrX0X0X0X0XrXiXtXrXeXH.H.H.R.Y.F.D.D.D.D.D.U.L.V...s l n X.6.T.R.rXtXtXiXiXiX0XiXjXkXlXBXCXBXx.&.qX0XiXtXx.iXSXcXcXcXcXcXcXcXhXhXhXhXlXhXhXjXlXlXjXhXhXhXvXlXSXDXSXkXdX~.n.d 4 (.FXFXCXFXSXDXFXFXFXFXDXDXDXDXSXSXSXcXcXcXcXcXDXDXSXcXhXhXhXhXlXcXcXcXcXlXhXgXhXcXcXlXcXcXcXhXhXlXcXnXcXCXCXAXAX+.d d ~ / 5.3.4.4.7.g.g.g.g.C.g.g.g.d.d.g.g.g.d.d.d.s.s.s.f.f.d.d.d.d.s.d.d.d.s.d.d.d.$.a.d.d.$.$.$.$.d.d.d.d.%.d.d.a.+.o.5.n.1.l ..b.g.C.rXrXY.Y.D.l.l.f.f.s.f.f.l.D.D.D.h.s.h.h.h.h.h.h.h.h.v.h.h.h.h.h.j.a.4.4.4.4.3.o.[ [ 3.' ` ` ) ) ) ` D z O O z D q.{.].[.}.|.P e.6X4X].{.[.t.y.q.t.m.`.m.0   % %     o   o * N N * N V V V V V V V V V N N N V V V N N N N N N N N N ",
"V V V V V V N N N N V V V V V V N N N N N N N N V V V N & o     X   o X O e.5X&X{.-X<X*X@X#X.X[.y.w.Y K F G Y Y Y F K g O $ 8 1 9 9 2 f h h h h j j j j x ) ) ) ^ ^ ^ _ _ ` ' ' ' ' ' ' ` ` ' ' [ [ [ [ [ [ [ [ 3.3.3.3.3.3.3.3.3.4.4.4.4.4.5.8...s / 5.6.Z.~.R.rXeXY.F.F.l.l.l.F.F.Y.rXrXrXrXR.rX0XrXrXrXrXrXrXrXrXrX0X0X0X0X0XrXrXrXeXeXeXpXaXY.D.D.D.D.U.U.U.C.V.o.s l l X.n.T.R.rXtXtXiXiXiX0XtXiXjXjXgXkXkXiX&.x.&.x.0X0XCXlXhXhXhXlXcXlXhXhXhXhXhXlXhXhXhXlXlXjXhXhXhXvXlXnXSXSXkXdX~.n.d d A.FXFXCXFXSXDXDXDXDXDXDXCXCXCXSXSXSXcXcXcXcXlXDXDXSXcXhXhXhXhXcXcXcXcXhXhXwXwXwXhXhXhXhXcXSXcXlXcXnXnXCXCXCXAXVX+.( X./ / ..o.4.4.7.g.g.d.g.C.g.g.g.d.d.d.g.g.d.d.d.s.s.f.f.f.f.f.f.f.s.s.f.s.s.s.d.d.d.a.d.d.a.a.$.d.d.s.d.s.d.d.d.d.4.o.5.5.1.l  .b.g.C.R.R.rXR.T.Y.D.l.l.h.f.l.D.D.D.l.h.s.h.h.h.h.h.h.h.h.h.h.h.h.h.h.j.a.4.4.4.4.3.o.[ [ ;.' ` ) ) ) ) *.D v + O z D q.{.M.M.[.|.q.|.LXGX#X=X:X=X;X-X-X,X].m.0   % %     o     = N N * N N V N N N N N N V N N N N V N N N N N N N N N N ",
"V V V V V V V N V V V V V V V V N N N N N N N N N E N N & o     X   o X @ e.5X&X+X-X=X{.{.#X#X.Xw.w.Y K G K Y e.Y G K z O # f 1 f h h e e h e h j j j j x ) ) ) ^ ^ ^ _ _ ` =.=.' ' ' ' ' ' ' ' ;.[ [ [ [ [ [ [ 3.3.4.4.3.3.3.3.4.4.7.7.4.3.5.5. .a / 5.6.C.R.R.F.F.F.F.Y.Y.rXrXF.U.Y.rXrXrXrXY.rXrXrXrX0XrX0X0XrXrXrX0X0X0X0X0Xz.J.9XeXeXrXrXrXR.F.D.l.D.U.U.D.g.A...s d d | n.T.R.rXtXtXrX0XrX0XtXfXjXjXiXiXkXlX9XiXqXJ.tXiXCXgXgXiXgXhXhXhXhXgXgXhXlXlXlXjXjXlXlXlXhXvXhXhXlXlXnXSXkXVXsXn.d d A.FXAXCXDXSXDXSXDXDXCXCXCXCXCXSXSXSXcXcXcXhXhXDXDXSXcXhXhXhXhXhXlXlXlXhXhXhXhXhXhXhXgXhXcXSXcXcXcXSXSXSXSXDXAXsXX.~ .... .5.6.g.d.d.g.d.4.4.d.d.d.d.d.d.d.d.d.d.a.d.s.f.f.f.C.f.f.f.f.f.f.f.f.f.s.s.s.d.d.d.d.d.d.d.d.s.s.s.s.$.d.s.d.6.o.5.1. .a / b.A.C.Y.Y.R.Y.Y.Y.G.D.G.G.l.l.D.D.D.D.f.s.h.h.h.h.h.h.h.h.h.h.g.d.g.g.j.a.{ O.3.3.o.o.[ [ ;.' ` ) ) ) ) *.D z + O z D q.{.[.].}.&Xq.}.LX4Xt.{.|.{.{.|.#X.X}.`.0   % %     X     = V N * V V V V V N N N N V V N V V V V N V V V V V V V V ",
"C C C C C C C C V V V C C C C C V V V V V V V V * * N N * o o o X   o X @ t.5X&X*X:X*X{.M.#X=X,Xq.Y Y K K Y T r.Y F K z O # f 1 f e e e e h e h j j j j x ) ) ) ^ ^ ^ _ _ ` =.=.' ' ' ' ' ' ' ' ;.[ [ [ [ [ [ [ 4.4.4.4.4.3.3.3.7.7.g.7.4.o.....` 4 l 5.g.Z.R.R.R.Y.Y.Y.Y.F.F.F.F.U.Y.rXrXrXY.Y.rXrXrXrXrX0X0X0XrXrXrX0X0X0X0X0X&.x.J.eXeXH.F.D.rXY.D.l.D.D.D.h.d.6.X.s d d | 6.Z.T.rXrX9X9XJ.F.iXiXjXkXjXtXtXjXjXtXDXCXiXiX0XtXiXwXtXiXgXhXhXhXiXgXhXlXlXlXjXjXBXBXBXlXvXvXhXlXzXSXSXCXVXVXn.d ~ Z.FXAXCXDXSXDXSXDXDXDXCXCXDXDXSXSXnXcXcXlXhXhXDXSXcXcXhXhXhXhXhXhXhXlXcXcXCXSXDXDXcXhXhXlXcXlXcXnXSXDXDXDXFXFXVXX.d ( .. .5.6.+.O.4.d.g.d.d.g.d.d.d.d.d.d.d.d.a.a.d.s.f.f.C.C.f.f.f.f.f.s.s.s.f.f.s.d.d.d.d.s.d.d.d.d.s.s.s.s.a.d.f.g.7.o..... .a / b.A.C.Y.F.pXR.T.Y.D.l.h.f.l.D.D.G.D.l.f.s.h.h.h.h.h.h.h.h.h.h.g.d.h.j.j.a.O.o.3.3.o.o.[ [ ' ' _ ) ) ) ) *.D z + O z D q.{.}.[.|.&XG t.4Xq.{.*X*X+X{..X&X.XoX'.0   % %     &   o * V N N C C C C C V V V V C C C C C C C V C C C C C C C C ",
"C C C C C C C C C C C C C C C C C C C C C C V V V N * * = o   o %   o . . r.7X6X6XHX=X{.#X#X#X#Xy.K w.w.F G r.e.K S S g O $ 8 8 f h h h h k j j j j j t t t r r ^ ^ ^ ) ) _ _ ` =.=.' ' ' =.;.3.3.4.4.4.4.4.4.4.3.3.4.4.4.4.4.4.7.7.g.7.o.o./ 4 j s / 5.V.C.G.T.Y.Y.F.F.F.F.H.F.F.Y.R.rXrXY.F.F.9X9X9X0XrXrXrXrX0X0X9XF.F.9X0X0XF.0XrXaXrXF.l.H.F.D.D.l.l.D.U.U.d.V.5./ | | | +.^.pXtXtX9X9X0X0XrXtXtXiXiXtXtXtXBXkXjXkXBXBXiX0XwXiXiXiXgXgXgXgXjXjXkXgXgXfXiXiXxXjXjXjXhXhXhXcXlXlXDXCXNXMXW.| ~ sXAXZXDXFXDXDXnXSXDXDXDXSXSXCXFXDXnXcXSXDXDXDXhXhXhXhXlXlXcXcXhXlXlXgXqXqXhXcXcXcXlXcXcXcXcXcXcXcXnXnXSXSXCXZXVXA.X.( | 5.b.o.g.d.d.d.d.d.d.d.g.g.d.4.O.4.d.d.$.d.d.f.f.h.h.h.C.f.f.d.d.s.f.C.h.f.f.f.f.f.f.f.f.f.f.f.f.f.f.f.f.d.d.d.6.o./ l a a | 6.C.C.D.Y.F.G.D.D.D.l.D.D.h.l.l.D.D.l.f.s.h.h.h.h.h.h.h.h.h.d.j.j.a.a.a.4.4.4.3.3.4.o.[ ' ' ' _ _ ` ` ` *.c D # O z G q.{.|.|.&X}.t.[.;X+X{.+X|.[.|.-X;X[.,XoXB   X %     X   o * N N N V V V C C C C C C C C C C C C C C C C C C C C C C ",
"C C C C C C C C C C C C C C C C C C C C C C C V V N * * & o   o -   o o . e.5X4X*X:X#X{.#X*X#X#Xw.K e.w.F K r.r.Y S S g $ $ f f h h h h k k x j x j j j r j j j ) ^ ) ) _ _ ` ` =.=.' ' ' =.;.3.3.3.3.3.3.3.3.3.3.3.4.4.4.4.4.4.4.4.7.7.4.7.5./ a a / 5.Z.T.T.rXY.Y.F.F.F.F.F.F.Y.Y.eXeXY.Y.F.F.eX0X9X0X0XrXrXrX9XF.F.F.F.0X0X0XtXrXrXrXeX0XpXBXD.D.D.l.l.D.U.U.g.V.o./ | | | n.T.uXtXrX9X9XH.0X0XqXtXtXiXiXtXtXjXiXiXjXBXBXjXtXiXiXiXiXiXiXiXiXjXjXjXkXgXgXfXgXxXjXjXkXkXhXhXlXjXjXBXCXNX%XI./ ( sXFXCXCXDXDXDXDXDXDXDXCXcXcXcXSXnXcXcXcXcXcXcXcXcXcXcXcXcXcXcXSXSXcXlXhXgXwXwXgXgXwXwXgXgXgXwXlXlXlXcXCXCXCXZXVX+.~ ~ / ..b.V.g.g.g.g.g.g.g.g.h.g.d.a.O.4.d.d.$.d.d.f.f.f.f.s.C.f.f.d.d.f.f.h.h.f.f.f.f.f.f.f.f.f.f.f.f.f.f.f.$.$.$.a.7.5... .a a | n.C.C.D.Y.F.G.D.D.l.l.l.l.h.l.l.D.l.l.f.s.h.h.h.h.h.h.h.h.j.j.j.j.a.a.a.a.a.4.4.o.o.o.[ ' ' ' _ _ ` ` ` *.c S + O q -.y.#X{.[.}.].e.[.-X-X#X*X&X{.|.;X;X}.3XOXV o & &     X   o * V N N C V C C C C C C C C C C C C C C C C C C C C C C C ",
"C C C C C C C C C C C C C C C C C C C C C C C C V N E E = o o o -   o o . e.6X,X&X:X*X{.=X=X#X*Xq.G Y e.F Y t.r.e.K K v # # g f h h h h k z x x x x x x ) x ) ) ) ) ) _ _ ` ` ` =.' ' ' ' =.;.3.3.3.3.3.3.3.3.3.3.3.4.4.4.4.4.4.o.o.4.4.4.7.6. .4 4 l 5.V.T.R.uXY.Y.F.F.F.l.l.D.Y.Y.Y.Y.F.F.F.F.rX0X9X9X0X0X0X0XF.F.F.F.9X0XrXrXaXrXeXeXF.J.H.rXD.D.D.l.l.D.U.U.g.g.o...N.| | n.T.R.rXrX9XJ.F.0X0X0XqXtXiXiXiXtXtXtXqXtXjXkXjXiXtXiXiXiXtXtXtXtXkXkXjXjXkXjXjXgXjXjXjXjXfXfXiXgXjXgXBXBXNX%XZ.s X.VXFXCXCXDXDXDXDXDXDXcXvXvXcXcXcXcXcXcXlXlXcXcXDXSXcXcXcXcXcXhXhXhXhXlXcXcXhXgXwXwX0XqXqXqXqXqXhXhXlXcXCXCXCXZXAX+.d ( ..5.b.I.A.B.B.B.B.B.B.B.Z.B.g.d.d.d.d.d.d.d.s.f.s.d.d.d.h.f.f.d.d.f.f.C.h.f.s.s.f.f.f.d.f.f.f.f.f.f.f.f.$.$.a.a.6.6.o...a a / 6.C.D.D.Y.Y.Y.D.D.l.l.h.f.h.k.l.l.l.h.f.s.h.h.h.h.g.g.h.h.j.j.j.j.j.j.j.j.a.4.o.o.o.o.[ ' ' _ _ ) ` ` ` ` v z + O 9 K y.#X&X|.}.t.P t.;X;X=X<X:X#X|.&X&X|.3XOXV o & &     X   o * V N N C C C C C C C C C C C C C C C C C C C C C C C C C ",
"U R R J U U U U U U U U U U U U R R U U U C C C V N E E * X o o X   o o . w.4X-X:X6X=X+X=X=X#X*Xq.S Y T G T t.e.t.K K z # 1 g f h h h k z z x x x x ) ) ) ) ) ) _ _ _ _ ' ' ' ' ' ' ' ' ' ;.;.3.4.4.4.4.4.4.4.4.3.3.4.3.4.4.4.4.4.4.4.O.[ 3.5./ a a / 5.V.Z.G.H.R.Y.Y.F.F.F.l.l.Y.F.F.F.F.F.Y.R.rX0X9XF.F.9X0X9X9X9XF.9X0XrXrXiX0XF.9XrX0Xl.k.k.D.D.D.l.l.D.D.U.g.9.5.n.n.| d +.T.R.rX9XJ.J.J.0X0X9X9X0XiXjXiXtXtX0X0X0XiXgXgXiXtXiXiXiXtXtXtXtXjXjXjXkXjXjXkXjXxXjXjXaXaXiXiXwXzXgXBXBXNXMXZ.d X.VXFXCXCXDXDXDXDXSXSXvXvXvXcXcXcXcXcXcXhXhXcXDXFXDXcXcXcXcXlXhXqXqXgXhXcXcXcXhXhXhXgXgXgXgXgXwXhXlXcXnXSXDXFXFXAXo.~ n.A.n.9.V.C.C.C.C.C.C.C.C.Z.C.B.g.g.g.g.g.f.C.h.h.f.f.d.d.f.f.f.d.d.f.h.C.h.h.f.s.f.f.s.d.s.f.f.f.f.f.f.f.f.d.d.d.7.5.../ , a / 6.C.D.D.Y.R.Y.G.D.l.l.h.f.l.k.l.l.h.h.f.s.h.h.h.g.j.j.j.g.j.j.j.j.j.j.g.h.a.4.o.[ [ [ [ ' ' _ ) ) ) ` ` ` v z + O 9 D q.{.|.[.[.t.q.t.;X-X*X:X:X;X&X;X;X.X;X|.N   % %     X   o * V N N C C C C U U U U C C C C C C C C C C C C C C C C C ",
"U U U U U U U U U U U U U U U U U U U U U C C C C N N N * o o o X   o o . e.4X-X:X4X*X{.#X=X#X*XK S K Y G Y r.Y m.K S g # 1 g f h h h k k x x x x x ) ) ) ` ` ` ` ` ` ` ' ' ' ;.' ' ' ' ' =.3.3.4.4.4.4.4.4.4.4.3.3.4.4.4.4.4.4.g.7.7.4.[ o...j 4 4 l 5.V.C.G.H.R.rXY.F.F.D.D.D.F.l.l.D.F.Y.rXrXrX0XF.J.F.9X9X9X0X0X0X0XrXtXiXaXk.&.z.9XrXeXR.rXD.D.D.l.D.D.D.D.L.L.5.1.N.l d +.T.T.rX9XJ.x.J.0X0X9X9XrXiXjXiXtXtXtX0X0XrXtXtXtXiXiXiXiXtXtXtXtXjXjXjXkXkXkXjXjXjXjXjXfXaXwX0X0XtXqXjXkXpX%XI.~ ( sXAXdXjXmXmXmXnXnXcXlXhXvXcXCXcXcXlXhXgXhXcXDXDXSXcXlXcXcXhXhXhXcXcXlXgXwXwXgXcXcXlXhXlXlXhXhXhXlXcXnXDXDXFXFXAX+.~ n.A.5.5.6.Z.C.C.Z.B.C.C.C.G.C.C.B.B.B.B.B.G.G.G.D.C.h.f.f.f.f.d.d.f.f.C.C.D.h.h.h.f.f.f.d.s.f.f.f.f.f.f.f.h.f.s.d.7.5.../ , a / 6.C.D.D.Y.R.Y.F.D.D.l.l.h.h.l.h.f.f.f.f.s.l.h.h.j.a.a.j.j.a.j.j.j.d.h.h.h.a.4.o.[ [ [ ' ' _ _ ` ` ` ` ) ) v D < + z D D t.q.G e.t.t.|.5XHX+X=X:X:X,X,X;X.X;X}.0   % %     X   o * V N N C C C C U U U U U U U U U U U U U U U U U U U U U ",
"U U U U U U U U U U U U U U U U U U U U U C C C C N N N * X o o -   o o . e.6X4X:X6X=X+X=X=X=X=XG S K Y F K w.Y `.K S 9 $ # f f h h h h k k x x x x ) ) ) ) ` ` =.' ' ' =.=.;.;.' ' ` ' ' =.3.3.3.3.3.3.3.3.3.3.3.3.4.4.4.4.4.4.7.7.g.7.4.7.5./ > , s +.V.G.R.rXY.Y.F.F.l.l.l.l.l.l.l.z.F.Y.rXrXrX0XJ.J.J.F.9X0XrXrXrXrXtXiXiXaXF.x.%.&.l.l.F.rXD.l.l.D.D.D.D.D.%X!.+.s d l | n.T.R.rX9Xz.z.J.H.0X9X9XrXiXaXiXtXtXtXrXrX0X9X9X0XtXtXtXtXtXtXtXtXiXgXjXjXkXjXjXjXjXjXjXfXuXuX0XqXz.x.qXrXR.^.W.| ~ Q.VXfXgXzXzXzXzXzXlXhXvXcXcXSXcXlXgXwXwXhXcXSXDXcXcXlXlXcXlXhXDXDXDXcXgXqXwXhXlXhXhXhXhXhXhXgXhXhXlXnXSXDXFXAXAX+.d (  ...5.9.Z.B.B.B.B.B.B.B.C.C.B.B.B.B.C.C.G.U.G.G.G.C.C.f.f.s.d.d.f.f.C.G.G.G.D.C.C.h.f.f.s.s.s.f.f.f.f.f.s.d.d.d.g.6.o..., , l 6.C.G.D.Y.F.G.D.D.l.h.f.f.l.h.f.f.f.f.f.h.l.h.g.a.a.a.j.j.j.j.j.j.h.h.h.h.a.4.[ ' [ [ ' ' _ _ ` ` ) ` ) ) c D < + z S D y.y.G e.].t.|.5XGX*X:X4X6X5X6X,X;X,XoXB   % & o o X o o * V V V C C C C U U U U U U U U U U U U U U U U U U U U U ",
"U U U U U U U U U U U U U U U U U U U U U C C C C V N N * X o o &   o   . e.5X6X4XHX6X=X<X<X=X=XF S Y Y F F Y F `.K S 8 $ 1 f f h h h k k k x x x x x x ) ) ` ` =.=.=.=.=.=.;.;.` ` ` ` ' ;.3.0.4.4.4.3.3.3.4.4.3.3.4.4.4.4.4.4.7.7.g.g.7.6.5./ > > s +.V.T.T.rXD.l.l.k.k.k.k.k.l.D.F.F.F.Y.Y.H.eXF.J.z.J.F.0XrXrXrXrXrXtXtXiXiXiXJ.%.%.%.%.%.k.l.l.l.D.D.D.D.D.E.!.+., a l X.n.T.R.rX9Xz.z.J.9X0X0XrXtXiXiXtXtX0XrXtXtXrX9X9X9X0X0X0X0X0X0X0X0XtXiXiXjXjXjXjXjXjXjXjXfXiXwX0X0X9Xz.qXeXG.W.I.| ~ Q.ZXdXjXlXzXzXgXhXhXhXlXlXcXcXcXhXgXgXhXcXcXcXSXcXcXcXcXcXcXcXcXCXcXcXhXhXhXlXhXhXgXgXhXhXhXgXhXlXlXnXSXDXFXAXVX+.d d ~ ..b.6.A.B.B.B.B.B.B.B.g.d.d.d.d.A.B.C.G.G.G.G.G.C.C.h.f.d.d.d.s.f.C.D.T.U.G.G.D.C.C.f.f.f.f.f.f.f.f.f.h.f.f.g.g.6.o. ., , l 5.C.U.D.Y.l.k.h.f.f.f.s.s.l.h.f.s.s.s.f.h.h.h.j.a.a.a.j.j.d.d.d.d.h.h.h.h.a.4.[ ( ( ( ' ' _ _ ) ) ) ) ) ) D D < O q D q.{.|.t.t.].y.].-X5X4X6X5XHX5X4X4X3X5X,XC . X % o o - o o * V V V C C C C J U U U U U U U U U U U U U U U U U U U U ",
"U U U U U U U U U U U U U U U U C C U U C C C C C V N N * X o o &   o   . e.7X5X4XHX6X,X4X:X{.[.S S Y Y A S Y F ].Y S q # 1 g f h h h h h k j x j j j x ) ) ) ` =.;.=.=.;.;.;.;.` ` ` ` ' ;.3.0.4.4.4.4.4.4.4.4.3.3.4.4.4.4.4.4.6.7.g.7.4.3...s , , s +.V.C.Z.T.f.s.s.s.s.s.f.f.F.F.Y.F.F.F.F.F.0XF.J.l.J.H.eXrXtXtXrXrXrXrXtXtXY.z.l.H.Y.F.k.k.l.l.l.l.l.l.U.U.d.T.6.d d X.+.+.T.R.yX9Xz.z.F.0XeXrXrXtXtXtXrXrXH.eXrXtXtXrXrXrX9X9X9X9X9X9X9X0XtXtXiXjXjXjXjXjXjXjXjXaXiXuX0X0XiXtXtXrXD.Z.b.~ ~ uXCXvXlXSXlXlXgXjXhXlXlXlXlXlXcXhXgXhXcXSXcXlXSXSXnXcXSXSXDXDXcXcXhXhXlXhXgXgXjXhXhXhXhXlXhXhXlXcXnXnXDXDXFXFX^.+.~ ~ / 5.b.5.A.B.B.B.A.A.A.B.$.$.O.$.$.d.B.B.C.C.G.C.C.C.B.f.d.d.d.d.g.f.C.G.R.T.T.G.G.D.C.B.f.d.f.f.f.f.f.f.G.G.C.g.d.o.| / , , l 6.L.L.U.R.s.s.a.a.a.a.a.a.h.h.s.s.j.s.f.h.h.h.j.a.4.a.j.h.h.g.g.g.h.h.h.g.7.3.[ ' ( ' ' _ _ ` ) ) ) ) ) ) *.D + O 9 K t.*X&XM.t.t.e.].4XHX6X6X5X6X-X;X;X3XGX3XF   X X     - o o * V V V C C C C C U U U U U U U U U U U U U U U U U U U U ",
"U U U U U U U U U U U U U U U U U U U U U C C C V V N * & & o o & o   o % B r.e.]._.t.y.t.M.q.q K S H G G A H e._.e.S 8 < < 9 f e 5 5 e h j j h j j j j ) ) ) ` ;.;.=.=.=.;.;.;.=.=.=.=.=.<.=.3.3.3.3.3.3.3.3.4.3.o.4.4.4.4.7.7.9.6.g.6.o.6.b./ ../ s ..W.I.6.V.L.L.V.g.d.g.C.G.D.D.Y.Y.rXrXrXrXf.h.h.f.f.l.Y.rXY.rXtXrXtXyXyXyXF.U.D.D.U.v.v.l.l.l.l.l.U.U.U.U.U.g.6.s , l | A.C.Y.Y.9XF.J.H.Y.pXpXpXaXaXaXyXrXeXeXY.F.Y.Y.eXeXeXeXqXeXeXeX9X9XyXyXyXyXjXaXjXaXyXtXtXiXaXaXrXH.eXrXpXpXT.+.o.A.@.9XhXlXcXcXlXlXlXhXjXhXkXkXkXjXjXjXBXDXDXlXzXlXlXcXmXcXSXSXSXDXCXCXSXSXSXcXjXiXjXlXCXcXlXhXkXhXhXhXzXnXDXDXCXZXsX(.~ | +.5...o.+.+.$.d.d.g.d.d.f.f.f.f.B.C.C.B.G.G.B.A.A.A.B.B.+.$.d.g.g.B.C.C.T.C.C.B.G.G.C.B.C.B.f.d.f.B.C.C.h.$.f.B.6.6.6.~ ../ / 6.!.L.a.U.L.V.V.g.7.4.d.U.d.d.h.h.l.D.l.h.j.a.{ { 4.a.j.j.a.a.a.a.j.h.j.4.3.0.=.=.*.=.=.=.) ) ) ) ) ) ) *.z S 7 + q D y.+X[.|.#X].y.{.HXLXHXGXHX=X#X,X4XoX5X3XU o o o   o o   X E E V C V C C C C U U U U U U U U U U U U U U U U U U U U ",
"U U U U U U U U U U U U U U U U U U U U U C C C V V N * = & o o & o   o % F `.t.|.[.t.y.t.{.|.M.t.G F G G A H q._.e.H 9 < < 9 f e 5 e h j j j j j j j ) ) ) ` ` =.;.=.=.=.<.3.;.=.=.=.=.=.3.3.3.5.5.5.5.3.3.3.3.o.o.+.4.4.7.7.7.7.6.A.9.o.6.5.^ / s s ..I.n...5.9.V.K.K.V.g.d.a.D.D.Y.Y.eXeXrXrXD.f.$.$.h.D.R.R.F.Y.eXyXyXaXyXyXU.U.U.U.v.v.l.l.h.h.h.l.v.U.U.U.U.g.6.s , | X.A.C.Y.Y.eX9XF.H.Y.rXpXpXpXpXpXpXrXrXeXY.Y.Y.eXeXeXeXeXeXyXyXyXxXyXyXyXxXyXyXyXaXyXjXjXiXrX9X9XyXaXNXR.T.Q.T.A.6.+.$.qXhXhXjXhXlXCXjXjXkXkXkXkXfXgXqXtXjXDXDXSXmXSXSXSXSXDXSXSXSXSXSXSXDXDXDXSXlXjXjXlXlXlXjXjXjXlXhXhXzXnXDXSXcXZXbX(.~ | n.n.5.5.+.+.+.d.d.d.$.O.d.d.f.f.h.C.D.D.G.Z.Z.Z.Z.Z.Z.A.g.g.g.g.A.A.B.B.C.B.f.B.C.D.C.B.d.d.%.%.d.B.C.D.G.f.C.C.+.+.o.d / ~ s 3.P.g.[ g.6.6.9.K.V.6.4.d.g.g.h.h.h.h.l.h.h.a.{ { { a.j.g.4.a.a.a.g.h.g.7.0.<.<.=.=.*.*.*.) ) ) ) ) ) ) ) z z 7 + q D y.+X{.#X:X#XM.&XLXPXGXKXKXGXGXGX7X,X5X3XL o o o   o o   X E N V C V C C C C U U U U U U U U U U U U U U U U U U U U ",
"U U U U U U U U U U U U U U U U U U U U U C C C V V N * = & X o & o o o % P }.].4X4X-X;X-X6X5X5X[.e.G G F A H q._.e.S 9 < < 9 f h e h h j x x j j j j ) ) ) ` ` =.=.=.=.=.=.=.=.=.=.;.;.3.3.3.3.5.5.5.3.3.3.3.3.o.o.+.4.7.7.d.g.7.6.V.9.3.6.5.s s s s ..b.5.^ ` ..6.K.W.P.V.d.a.D.D.G.Y.Y.Y.eXY.T.h.$.$.l.Y.Y.F.F.F.F.Y.aXNXyXeXY.Y.U.v.l.l.l.h.j.h.h.l.l.l.U.U.U.g.6.s a X.X.A.C.U.Y.eXF.F.F.Y.R.R.rXyXpXrXrXeXeXeXeXeXeXeXeXeX9X9XyXtXaXaXjXjXyXyXyXtXyXtXtXtXtXjXjXrXz.l.H.aXNX~.T.T.T.A.+.o.$.0XkXiXiXfXkXkXhXkXjXkXgXfXiXtX8XqXjXSXDXSXmXmXmXSXSXDXSXSXnXcXCXSXDXDXDXSXCXlXwXiXgXiXgXhXcXSXzXhXcXnXnXnXcXZXVXA.~ ~ +.n.n.n.+.d.d.A.g.d.d.$.%.d.s.f.C.C.D.D.G.G.Z.G.G.G.G.Z.B.B.B.B.h.h.B.A.C.C.C.C.C.C.B.f.%.%.d.d.f.C.G.G.G.h.B.C.6.+.o.s ~ ~ s o.V.4.] ( ( ` 3.K.P.V.7.4.g.g.g.h.h.h.h.h.h.a.{ } { O.j.g.:.4.a.a.g.h.g.a.;.=.=.=.=.=.*.*.) ) ) ) ) ) ) ) z S 7 + q D y.+X{.&X4X=XM.+XLXIXGXKXKXLXKXGX5X3X6X,XF o o o   X o   X N N N C V C C C C U U U U U U U U U U U U U U U U U U U U ",
"U U U U U U U U U U U U U U U U U U U U U C C C V V N * * & X o & o o o % T OXoX&X-X-X;X&X&X&X.X&Xt.G G H B H q.`.e.F 9 7 < 9 f h h h k x x x x j x ) ) ` ` ` ` =.=.=.=.=.=.=.=.;.;.;.3.3.3.3.3.5.5.5.5.5.3.3.3.o.o.4.4.6.7.7.g.g.7.g.6.3.9.6.^ / / / ..n.| s ^ ^ ' 7.V.V.g.V.C.C.D.D.Y.Y.Y.Y.Y.F.l.f.k.F.R.Y.F.l.x.x.F.aXBXyXF.Y.Y.U.z.l.h.j.s.l.l.l.l.l.l.l.l.v.d.6.d d ....n.C.D.Y.9XF.F.H.R.Y.Y.Y.R.R.eXeXeXeXeXeXeXeXeXeXyX9X0XtXtXaXaXaXaXaXaXyXtXyXtXtXtX9XtXjXyXeXJ.z.F.T.~.MX^.g.X.| o.} 0XkXaXiXdXdXkXaXkXkXjXgXiXtXqX8XqXjXSXmXlXlXlXzXlXmXSXnXlXzXgXzXlXcXcXSXcXlXhXgXgXhXhXjXlXSXDXcXcXcXnXSXSXcXbXVX(.d ~ X.5.5.6.d.A.Z.Z.G.C.C.B.f.f.f.h.C.D.D.D.D.B.C.Z.G.G.G.Z.B.B.B.B.B.B.B.B.T.G.G.D.C.B.f.f.f.f.f.f.B.C.G.G.D.$.h.B.d.n.6.~ / | / o.V.4.W 6 ^ ^ ` 9.K.V.g.g.g.g.g.g.s.h.h.h.h.j.O.{ O.a.j.j.{ 4.a.a.j.h.g.a.;.<.=.*.=.=.=.) ) ) ) ) ) ) ) ) x S 7 < q D y.+XM.{.=X;Xt.y.6XPXLXGXHXGX7X-X;X-X3XOXC   o o   X o   X N N V C V C C C C U U U U U U U U U U U U U U U U U U U U ",
"U U U U U U U U U U U U U U U U U U U U U C C C C V N * * & X o - X o   % r.3X;X|.;X;X|.{.[.[.M.-X].G G F A H q.`.y.F q 7 1 9 h h h k k c c x x ) ) ) ` ` ` ` ) =.<.<.<.=.<.<.=.=.<.<.<.<.<.<.3.3.3.3.3.3.3.3.3.4.4.4.4.4.a.d.7.g.4.7.5.o.9.b./  ... . .5./ 6 ~ ~ / ' ' ( o.g.T.C.D.D.D.F.F.F.F.l.D.Y.R.rXY.Y.F.l.x.x.F.yXNXyXz.Y.F.z.l.l.s.s.f.U.F.z.l.x.l.l.h.h.d.g.s 4 ....6.C.D.F.F.F.F.F.R.Y.Y.Y.Y.Y.eXeXeXeXeXeXeXeXeXeXqXrXrXtXiXiXtXrX0XaXiXaXiXiXtXtXtX9X9XqXtXyXyXeXF.D.T.Q.P.6.X./ ~ @.R.ZXNXsXNXdXaXdXkXkXjXhXiXtXqX9XtXjXjXzXzXlXmXzXzXlXmXlXzXjXxXjXhXzXcXnXcXlXhXSXDXDXDXSXSXnXcXcXcXcXnXDXSXCXZXVX(.d d X.5.6.6.d.B.C.T.T.R.T.T.D.C.D.C.D.l.l.S.B.A.B.C.G.Z.C.B.B.B.h.B.B.C.L.C.G.G.G.G.D.D.D.D.D.D.D.D.D.D.D.D.D.s.h.B.d.n.6./ / 5.o.5.V.7.Q 6 ' ^ ^ ( [ o.4.7.d.d.d.j.j.d.s.h.g.d.d.g.g.g.a.4.{ 4.4.4.a.g.d.4.;.=.=.=.=._ _ ) _ ) ) ) ) ) ) ) x D w < q D y.{.M.M.#X-XM.y.;XLXGX6X<X6X<X|.}.oX3XoXV   o o   X o   X N E N C V C C C C U U U U U U U U U U U U U U U U U U U U ",
"U U U U U U U U U U U U U U U U U U U U U C C C C V N * * & X o - - X   % `.3X2X-X2X-X&X{.#X;X;X4X[.G G G H G q.`.e.G q 7 w 9 h k x k x c c ` c ` ` ` ` ` ` ` ` ' =.' =.*.*.*.*.=.=.<.<.<.<.<.<.3.3.3.3.3.3.4.4.4.4.4.7.7.d.d.7.g.6.7.5.o.b.b./  .../ / 5...s ^ / / ^ 6 6 ^ O.C.C.h.D.D.D.F.z.z.k.F.rXpXrXY.F.F.F.z.z.F.yXyXeXz.F.z.l.k.k.k.k.k.Y.Y.F.F.l.l.l.l.a.g.V.s > | | +.B.D.F.z.z.F.Y.T.U.Y.F.F.F.Y.eXeXeXeXeXeXeXeXeXeX0X0XrXtXrX0X0X9XiXiXiXiXtXtXtXtXjXtXqXeXyXyXaXaXR.C.6.6.A.b./ > ~ T.VXMXpXNXMXpXdXdXkXhXgXiXwXtX9XxXjXjXjXBXSXSXlXlXBXlXlXzXzXgXlXlXcXnXSXnXlXlXnXSXDXDXSXcXlXlXvXvXvXnXSXCXVXVXAXA.d ~ +.b.b.n.d.A.C.G.T.R.Q.Q.T.T.G.G.G.D.D.D.B.A.B.Z.G.C.B.B.B.B.h.B.B.C.L.C.f.C.G.G.G.G.U.T.G.G.G.G.G.D.D.C.F.h.D.C.6.6.+.s / 5.5.5.V.g.] 6 o./ s 6 6 6 ] o.7.d.a.a.d.j.j.d.a.d.g.h.h.g.4.{ O.4.4.4.4.a.4.{ ;.=.=.=._ _ _ ) =.=.=._ _ ) _ ) v D w < q D y.{.{.M.*X6X+Xy.-XLX=X#X#X:X,X&X[.[.-X|.B   o o   X o   X N E N C V C C C C U U U U U U U U U U U U U U U U U U U U ",
"U U U U U U U U U U U U U U U U U U U U U C C C C V V E * & X o X & -   X `.6X3X&X&X+X}.{.#X&X|.6X[.G G P G P e.].y.F q w w 9 h x x x c c ` ` ` ` ` ` ` ` ` ` ` ' =.*.*.*.*.*.*.*.=.*.<.<.<.<.<.3.3.3.3.3.3.4.4.4.4.4.7.d.d.d.g.g.7.g.b.6.b.5.6 s / s / 5.5./ ^ / ` ( ^ 6 ~ o.C.h.h.D.D.D.l.l.l.F.F.F.F.Y.Y.F.F.Y.Y.eXeXeXeXF.l.l.k.k.k.x.k.l.l.Y.F.F.F.F.z.z.z.a.h.P.s : s s ( A.D.U.F.z.D.F.T.F.F.z.z.F.F.eXrXeXeXeXeXeXeXeX9XJ.9XqX0X0X0X9X9X0X0XqXqX0XtXtXtXjXjXxXyXeXyXyXNXQ.B.o.o.b.I.| ; > V.%XP.L.E.E.T.pXaXaXiXiXiXtXtXtXyXjXjXlXCXBXiXlXlXlXlXzXjXjXhXcXcXcXSXSXSXcXlXhXlXlXlXlXhXhXlXhXfXhXcXCXCXkXdXAXA.d ~ n.A.b.b.Z.B.C.C.G.T.Q.~.R.R.T.T.U.G.G.G.C.Z.G.G.G.C.B.g.C.C.C.C.C.C.C.C.h.C.G.D.C.h.D.U.C.D.G.G.G.D.C.C.T.B.C.C.6.n.+.s 4  ...( 9.K.[ W ( / / ^ 6 6 ] 4.4.4.d.d.d.j.a.a.d.d.d.g.g.g.4.} 4.4.O.O.4.4.O.} ;.;.;.=._ _ _ _ ;.=.>.>._ _ ] ) x D w < q D q.{.{.M.*X6X{.q.=XPX<X*X+X*X4X4X;X}.;X}.0   o     & o   X N E N C V C C C C U U U U U U U U U U U U U U U U U U U U ",
"U U U U U U U U U U U U U U U U U U U U U C C C C V V E * & X o X & -   X `.5X3X|.;X-X-X-X-X&X[.6X[.G G P P P e.].y.G q w w f h x x x c ` ` ` ` ` ` ` ` ` ` ` ` *.=.=.*.*.*.*.*.*.*.*.*.<.<.<.<.5.3.3.3.3.3.4.4.4.4.4.7.d.d.g.g.g.6.V.K.9.b...> > 4 4 s n.b. .~ ^ ` o...( ' 7.L.h.C.C.D.l.l.l.l.rXF.f.k.z.Y.F.x.Y.rXyXeXY.Y.z.x.x.s.s.s.x.k.z.F.z.z.z.F.F.F.Y.Y.{ h.E.s ; a s / V.C.D.U.F.D.G.T.D.D.l.l.z.F.Y.rXY.Y.eXeXeXeX9XF.x.x.J.0X0XtX0X0X9X9X9XqX9X0X0XrX9XxXjXjXyXF.Y.R.U.C.7.o.5.n.| , + <.I.5.o.g.C.B.pXpXuXuX0X0XtXtXaXaXtXtXBXBXtX&.jXjXjXgXgXgXgXgXcXcXcXSXSXcXcXlXcXcXcXcXhXlXcXCXwXwXiXhXkXkXdXsXVXn.d s n.b.b.6.T.T.G.G.T.T.~.pXT.T.T.T.T.T.T.T.G.G.G.T.T.G.B.g.L.C.L.C.h.g.g.g.D.G.U.D.s.a.a.d.s.f.C.D.G.D.C.C.D.d.B.Z.n.n.n./ ; s / ~ 6.K.o.^ s ^ ` ..( ^ o.V.4.4.d.g.d.j.a.O.g.d.7.4.7.4.O.{ 4.4.O.{ 4.4.[ ( ;.;.=.>._ _ _ _ ;.=.>._ _ _ _ ) x D w < q D q.{.M.t.&X<Xy.q +XPXLXHX=X;X5XGXHX3X;X}.0   o     & o   X E E N C V C C C C U U U U U U U U U U U U U U U U U U U U ",
"U U U U U U U U U U U U U U U U U U U U U J C C V V N N * * & & X X o   X T 3X3XoXoX+X+X#X&X&X&X6Xt.G e.`.|. XP ].q.F 9 @ < z f c c c c c c c x ` ` ` ` =.*.=.=.3.3.0.0.8.8.3.3.<.*.*.*.<.<.<.<./ ( o.o.o.o.3.6.6.7.7.g.g.g.d.7.g.V.V.9.9.6./ 4 / s s / ..5./ s  ./ / 6 6 6.!.C.a.U.R.l.f.D.Y.F.k.k.k.l.F.eXrXeXY.F.F.F.F.F.D.l.F.l.k.f.k.f.F.pXl.D.Y.R.Y.U.U.Y.h.g.P..., , s I.!.T.D.U.Y.R.T.G.T.F.D.l.D.D.F.Y.rXrXyXyXeXeXeXyXJ.z.z.9XtXiXtXrX9X9X0XrXtXtXrX9XeXeXeXY.Y.R.R.R.h.L.A.../ | a : > > x <.<.j r ( +.C.Q.pXrXH.0XuXaXaXpXrXR.eXrXiX#.k.uXkXkXaXfXhXCXCXcXcXcXcXvXvXCXCXCXCXCXcXhXiX0XR.uXuXdXVXVXVX1Xn.d a | 5.n.6.A.Z.Z.Z.C.C.T.R.G.R.R.R.G.G.T.Q.~.~.~.~.~.Q.E.T.T.C.g.d.V.L.L.C.d.g.f.h.h.g.s.d.h.C.C.C.C.h.h.f.f.B.B.d.Z.W.5.4 4 d s / ` [ [ ( ^ s / / s o.V.6.g.g.g.g.a.4.a.d.{ } } o.4.d.g.g.7.4.[ } [ } } [ 0.;.=._ >.>.=.=.] _ =.=._ _ _ =.D H w < z D y.{.{.{.#X=X+X{.#X+XLXGX5X4X,X7XGX6X`.'.V     X o   o o X * N N V C C C C C U U U U U U U U U U U U U U U U U U U U ",
"U U U U U U U U U U U U U U U U U U U U U J C C V V N N * * & - - X o o X T 3X6X;X&X|.{.|.&X;X-X6X`.G q.t.].].q.[.e.G 9 + < z 9 c x x x x x x j x x ) ) ` =.=.*.3.3.8.0.5.5.3.0.*.' ` ` ` ' <.<./ ( ..o.o.o.3.4.3.4.6.7.7.7.7.6.o.4.4.3.5.6.../  .s s s /  ./ s ../ ^ / o.W.E.[ ~ d.T.R.T.D.l.l.Y.Y.Y.rXyXaXaXaXY.Y.F.D.k.s.#.} h.h.U.T.Y.l.h.l.D.Y.R.R.Y.U.Y.E.h.c.I./ , k / b.K.g.h.D.T.T.C.d.U.D.C.h.D.G.U.T.Y.Y.Y.H.F.F.F.F.eXH.J.9X9XeX9XF.9X9X9XeXrXeXH.F.Y.Y.Y.R.T.U.D.B.g.g.o.s s l l , 2 3 h ` ` ` <.b.^ +.P.Q.pXuXsXNXpXMXNXMXpXsXNXVXf.%.B.G.H.H.R.0XvXbXvXhXfXfXfXfXvXvXvXbXvXvXfXuXuXuXuXsXNXVXVXVX^.n./ d ..N.b.6.P.T.T.T.T.T.T.R.B.D.G.D.C.h.D.T.~.~.~.^.^.~.!.!.T.C.g.g.V.L.L.V.d.d.g.h.B.B.B.B.C.C.C.C.C.B.B.h.d.B.d.+.A.Z.5.s ....| / ` ' ] 6 6./ 4 4 6 5.I.6.6 ] 4.C.C.C.h.d.g.g.d.g.g.L.L.C.4.4.4.4.O.o.[ ' ;.=.=.=.=.=.=.) _ =.=.=.=.=.=.=.D D w < q D y.+X{.{.&X*X[.{.<XHX:X+X{.{.].;X6X;Xr.`.C o   o o o o o X * N N V C C C C C U U U U U U U U U U U U U U U U U U U U ",
"U U U U U U U U U U U U U U U U U U U U U C C C V V N * * = & X & X o o % Y -X6X;X&X&X&X&X&X;X-X5X].Y q.q.t._.e.}.y.G q # < v f k k k x x x x j j j ^ ) ) ` ` ` <.<.<.3.<.<.<.<.<.' ` ` ` ` ` ` / | ........o.3.o.o.3.4.4.6.4.4.4.4.4.o.3.9.b.5./ s s / ..5...^ 5. .....o.V.7.W u ] h.Q.rXG.F.rXk.k.k.k.D.F.F.D.l.D.Y.T.G.D.s.a.$.s.U.MXMXU.h.h.U.U.R.R.U.U.U.U.U.E.K.j , b  .| 3.[ } a.L.T.P.A.C.C.C.C.C.G.T.T.T.T.T.U.U.D.D.D.pXyXaXaXyXrXrXrXpXpXaXaXaXpXpXR.R.R.Q.~.~.T.C.g.g.6.` / /  .a : f h h c ` ` <.8./ 5.V.P.!.^.~.~.~.%XMXMXMXVXVXAXMXT.A.B.G.Q.~.pXVXbXdXbXfXfXuXuXfXfXfXfXfXfXfXfX^.Q.Q.pXsXsX~.^.P.n.| | ..1.n.b.W.P.Z.P.T.T.T.G.B.C.C.C.C.C.G.T.^.W.^.^.!.!.!.P.P.V.g.9.g.V.g.g.6.6.d.g.A.V.C.C.V.C.C.C.C.V.V.g.d.B.d.+.+.n.5./ | / / ..9.9.[ Q 5./ / ` / ..o.6 u W O.V.L.C.h.d.4.4.o.o.O.4.4.o.o.4.7.d.4.O.[ ' _ =.=.0.0.0.=.) ` =.=.=._ ) ) ) D D w < q G y.+XM.{.*X#Xy.M.6XKX:X#X+X[.y.m.|.`.Y m.F o   o o X o o & * N N V C C C C C U U U U U U U U U U U U U U U U U U U U ",
"U U U U U U U U U U U U U U U U U U U U U C C C V V N * * & & X & o o o X F oX;X&X&X*X-X-X&X&X&XGX}.Y q.q.r._.t.}.e.G z # < v h z x k x x c c x j j ) ) ` ` ` ` <.<.<.<.<.<.<.<.<.*.` ` ` ` ` ` / |  ... . ...o...o.o.3.3.6.4.4.7.6.4.o.3.5.5.../ ~ / ..V.K.5.s / / 5. .6 ^ o.o.( } $.G.D.f.D.pXY.F.D.D.F.D.l.l.h.D.T.R.T.T.T.R.} { h.E.E.U.L.L.U.U.U.U.L.L.L.L.U.L.8./ a k b  .5.[ ] } a.C.Z.V.6.A.V.A.V.C.L.L.E.E.E.E.E.T.E.E.E.pXNXNXpXpXMXNXMXMXMXMXNXMXpXQ.T.T.T.!.!.T.L.A.o.o.o.5.n.1.a + 3 2 k c c c c l c `  .` / ^ ^ / ( ' o.o.o.+.6.6.P.6.@.~ X.+.A.A.sXsXsXsX^.^.^.^.^.^./.Q./././.Q.Z.Z.Z.T.T.Z.Z.n.+.X. . . ...N.b.Z.A.A.A.Z.Z.Z.B.Z.C.C.C.C.G.T.T.Z.Z.Z.P.P.P.I.V.K.A.9.6.7.7.7.7.o.+.4.6.7.7.6.g.g.g.A.A.A.g.g.g.d.g.d.+.+.n.5.| a a s 1.I.W.9.^ 4 s 5.5.~ s / ^ ( o.4.7.a.4.a.d.V.g.7.7.7.7.4.4.[ o.4.4.O.o.} o.r j ) *.0.0.=.*.` ` ` ` ) ) ) c D H w < q G y.+Xt.[.#X|.q.t.:XHX<X*X#XM.K K q.A F m.F X   o o & o o & * N N V C C C C C U U U U U U U U U U U U U U U U U U U U ",
"U U U U U U U U U U U U U U U U U U U U U C C C V V N * * & & X = X o o o B `.}.-X;X*X-X;X#X&X-XLX.Xe.e.e.t. X].}.Y H z # < z z x x x x x c x x j x ) ` ` ` ` *.*.,.`  . .` ` ` ,. .` ` ` ` ` ` / /  . ./  .......o.5.3.5.5.6.6.4.o.o.3.6.5./ s ../ s  .K.W.b./ s s `  .~ ' V.I.C.g.s.D.D.$.s.F.yXrXY.F.F.D.k.f.R.R.R.G.D.C.D.T.[ [ 4.g.c.g.L.E.!.E.E.E.E.E.E.P.L.7.=.<.b , k 1.5.3.[ } o.o...( ..o.6.6.5.5.6.6.A.A.V.V.V.C.L.L.g.C.P.P.C.V.C.L.C.A.A.g.g.g.g.7.6.+.o.+.6.6.6.6.`  ...5.b.N.l : : 1 f k c v k a l h 2 : ; ; ; : 4 5 s s s s s ~ ..~ s d d ~ X.+.A.A.A.A.A.A.A.A.Z.Z.A.(.+.+.+.+.6.6.+.+.+.+.o.( / |  . . . .N.b.Z.A.A.A.Z.Z.Z.Z.Z.Z.Z.Z.C.G.G.T.Z.A.A.V.I.I.V.A.K.V.V.9.9.9.7.6.3.3.3.3.5.3.5.5.9.9.b.V.V.b.b.b.g.d.d.6.n.n...s | d a / b.I.V.' s 4 j j 4 s 6.I.6.6.4.4.O.O.a.d.L.V.g.7.7.7.4.4.[ o.o.o.o.o.4.6.) x x x ` *.*.*.*.*.*.` ` ` ) c z z 7 < q G y.+Xy.M.#X+Xt.M.#X#X#X{.{.{.t.].].e.F m.L %   o o & X o & * V N V C C C C J U U U U U U U U U U U U U U U U U U U U ",
"U U U U U U U U U U U U U U U U U U U U U C C C V V N * * & X o = X o o o B r.r.5X-X&X&X+X+X-X5XLX&Xe.t._.`.|.}.}.G A z # # z z x x x k j x x j j j ) ` ` ` ` ` ` ` ` ` ` ` ` ` ` ` ` ` c ` c c l / / / / /  .......o.3.5.3.3.3.4.o.o.9.K.6.` s  .s 4 s 5.W.I.b.5.l / 5.b.b.b.( g.d.B.R.~.R.R.rXpXrXY.F.G.D.h.f.pXQ.T.T.G.G.T.Q.!.I.K.c.c.K.E.%X%X%X@XE.%X%X%X%Xc.;.^ 1.,.$ p 1.l / [ 4.6.o./ s /  .<... ./ / / s s ^ ^ ^ ^ ] ( ' ' ....( ^ ^ ) ^ s 6 6 6 6 6 6 d d 4 d s ~ / ~ / / ^ ` 1.1. .c k f 2 f h h h k h 2 : + + : 3 2 a a h h a a d l d l | | l s | X.~ / ~ ~ ~ ~ ~ | +.X.( ~ d d 4 4 X.( ( ( ( ( ~ s l l  . . . .N.b.Z.Z.Z.Z.Z.Z.Z.Z.T.Z.Z.Z.T.T.T.T.A.A.A.A.V.V.A.6.b.b.V.b.9.9.9.9.5.5.5.5.5.5.5.5.b.b.b.b.b.b.b.A.d.d.d.A.A.n.X.d  .d , a 5.I.W.K.5.s s  ...5.6...( o.7.g.A.V.C.L.g.g.4.4.4.4.4.o.7.4.4.4.4.4.7.9.8.2.,.*.*.*.*.*.*.*.` c ` c ` c w q < < q -.y.|.y.t.+X#X{.+X#X[.#X+X*X;X&X-X4XoXY `.U X   o o X X X & * V V V C C C C C U U U U U U U U U U U U U U U U U U U U ",
"U U U U U U U U U U U U U U U U U U U U U C C C C V N * * & X o & - X X % I `.e.6X;X&X-X*X&X4XGXLX&Xt.].]._.}.oX|.K A z + + w 9 x k h h h e 5 5 5 r j j ) ) ) ) j x c j j j x x j x j j j j j c s d l / / /  ... .......o.o.o.o.7.o.4.V.I.5.( / / s 4 / b.W.I.b.b./ / 9.b.6.( 4 W } $.C.T.pXpXpXrXR.Y.Y.T.T.G.G.G.C.B.B.B.B.Z.C.K.8.0.;.;.;.7.I.0.3.=.;.0.9.9.9.' ^ 5 ,.,.p k  ./ / ' 4.b.b.../ / ..1.1. .l j s a s s s 6 6 6 r / l l j l j s 5 s 5 , > > 4 5 a a , 4 d ~ / / s ` / /  ... .`  .v i 1 f k f f v 1 $ + O $ 1 2 i : : : : : : , p p a l l k p , , l | n l l l l d | | | l d a a a / / ~ ~ ~ / / j l b b b b b  .n.n.A.Z.A.n.+.6.n.Z.A.A.A.Z.Z.Z.A.6.5.+.5.6.6.5.o...5.5.5.5.3.5.5.5.5.....5.5.5.5.5.5.5.b.b.b.b.6.d.$.+.n.n.X./ d | d a / 8.I.I.K.8.l / b.b.5./ > 6 ^ o.7.g.A.C.C.V.V.9.9.g.g.g.9.4.o.o.o.[ [ ( ( ,.c x h h h x k h 9 2 2 5 e e 9 < 7 + < z -.y.{.t.M.+X|.M.{.+Xt.#X#X:X:X&X;X-X}.`.}.U X   o o o X X & * V V V C C C C C U U U U U U U U U U U U U U U U U U U U ",
"U U U U U U U U U U U U U U U U U U U U U J C C C V N * * & X o & - - X = T }.e.&XoX;X5X5X:X4XHXKX&X].}.].t.}.&X&Xq.A q + O < 1 h h e 5 5 5 , > , 5 5 r j j j j j j j j j j j j a a 5 5 a s s s a d l l l / /  . . . ...........o.' o.5.5./ 4 4  . ...n.W.I.5./ l 4 s ../ ~ / ~ 6 @.o.} @.d.f.$.@.! ! @.@.} @.@.$.O.} @.~ W 6 u > ; ; ; ; ; > 6 > ; ; ; > > 6 > u u ; j ,. .N.1.W.b.5.o.5.5.X.| <.N.b.n.1.l l l 1.1.1.<... .` `  .l c  .,.1. .` 1. .l l l  ...1.l l | X.N.N...|  . ...5.1.` l l $ O $ v ,.v k l h a 3 3 2 f i 2 a a a 4 4 a d l  . ...X.1.| d , n.n.n.+.+.X.X.X.+.+.+.+.X.( ( X.( ~ ~ ~ ~ ( ( ( / l k a i a l ..+.n.n.+.( ~ ~ X.o.X.( ( o.+.o.( +.X.( X.+.X.| ~ ~ / ( ( / / / ( | | |  .....5.5.....+.+.5.5.5.+.+.+.+.+.+.| d a  . .1.n.I.I.5.s / 4 s ` ^ s ~ 6 W ~ ] ( ( ( o.+.] ~ ^ ~ ~ ~ ^ ~ ] ^ ] ~ Q 6 > ; + O O O + + + ; ; + + + + ; ; + O < + + z -.e.{.].[.#X[.q.t.{.t.|.#X:X:X|.|.#X].[..XL o   o o o X X & * V V V C C C C C U U U U U U U U U U U U U U U U U U U U ",
"U U U U U U U U U U U U U U U U U U U U U J C C C V N N * X o X o X = X X }.3XG ;XGX4X;X6X<X4XPXIX&Xt.|._.t. XXX XG m A 9 < < 2 : : : > > > > > , > > > > > > > , , , , 4 5 4 4 4 4 6 d s d d s , , , , , , , > 4 4 a s 4 4 4 s 4 s  .| l b  . .a  .N.../ ` 5.5.| | d d d d 4 > 4 d 4 4 6 ~ ~ 6 u u u u u W W ~ @.@.@.~ W W u u > ; ; > 4 4 6 ^ 4 4 4 4 6 6 6 4 u W ~ ~  .5.1.d I.../ / d | X./  . .l l s s s s /  . . . . . ...l a , a |  .a : p a a a a a a p p l X.X. . .| l X.l d  .1. .a : . $ f ,.,.l / ( 6.A.V.C.K.K.K.V.P.Z.C.A.A.A.Z.Z.o.o.X.+.A.Z.~.~.uXpXsXsXsXsXsXsXNXVXf.O.dXsXB.Q.dXdXdXaXaXpXD.O.+.| l | N.n.../ +.~ d d d 4 6 ~ ( ~ ~ 6 ~ ~ 6 4 d d ~ ~ ~ ~ ~ ~ d d ~ ~ @.| ~ ~ 4 4 4 4 d d d d d 4 d ~ d 4 4 d 6 ~ @.( ~ l | 1.p b 1. .|  . .| 5.| ~ 6 W W 6 u 6 W W 6 6 ~ ~ 6 u u u u u 4 6 6 6 6 6 6 6 u u ; + + + ; ; > > > ; ; ; ; > > > 3 w w O O z e.t.}.].`.e.Y Y ].,XGX*Xy.;X*X#X*XM.|.[.=Xr.- o o   X X X & * N V V V C C C C U U U U U U U U U U U U U U U U U U U U ",
"U U U U U U U U U U U U U U U U U U U U U J C C C V N N * X o & - X & X % '.;XB t.4X4X-X5X<XHXIXIX#Xt.&X}.].oX&XXXP A A w + ; < : : 3 5 h l c c ` ` ` ` / / / c  . . .....1.....5.n.n.b.n.n.n.n...1.1.1.5.5.5.1... ..... ./ /  .......| n l b n p k b l a / o.5.W.W.W.W.W.Z.A.n.6.n.6.+.+.A.A.d.Z.G.C.C.C.C.G.G.C.C.C.C.C.f.d.O.g.A.T.%X%XP.C.V.C.V.I.P.!.!.^.~.T.G.A.@.s / / a 1.b  .X.| X.X.~ s s a a 4 4 4 4 s s l l l s l l  .l a a l l a , , , , a a a a a , d | | |  .X.| X.n l  .N. .a : $ $ f b c / o.Z.G.G.R.R.Q.!.!.Q.sXpXuXQ.R.G.B.$.D.B.S.G.pXsXpXuXZXCXCXZXZXDXFXFXFXFX0XJ.FXFXkXCXZXZXkXjXlXkXuXS.X.| | X.X./  .+.( ~ ~ X.A.Z.P.^.^.^.T.T.T.Z.A.+.A.A.Z./././.Z.Z.^.^.^.^.^.^.sXbX^.^.^.!.P.A.A.6.n.+.6.A.6.X.X.+.+.+.+.X./ d l b p b  .l d | ..5.W.P.A.A.A.g.d.$.@.} } ~ ~ X.o.( o.3.3.3.4.4.7.6.[ [ [ o.3.[ ] ^ ) ) ` *.*.*.*.*.` ` ` *.` ` *.*.` D < + S q.q.t.r.r.r.Y F Y [.;X|.q.&X*X#X&X[.#X[.&XY X o o o & X X & * N V V V C C C C U U U U U U U U U U U U U U U U U U U U ",
"U U U U U U U U U U U U U U U U U U U U U C C C C N N N * X X & = o % X & '.OXF t.|.[.[.&Xt.t.5XGXK A |.oX XoX|.oXe.A q < + + : 3 2 h c ,.1.1.1.8.8.n.n.8.8.8.8.n.b.b.b.I.I.I.I.I.I.W.!.W.W.W.W.W.W.W.W.$X$XW.W.I.A.K.I.b.5.5.6.I.A.5. .l b b a p n k a a / 5.K.^.1XVXVXVXVXVXVXMXVXsXT.T.sXVXVXAXZXZXZXVXVXVXVXsXsXNXNXVXVXNXNXMXNXAXFXAXVXpXpXZXVXZXVXZXVXVXNXVXVX^.o.~ / .. . .l ..X.X.+.n.+.~ ~ s s s s s s / /  .| / /  ...5.X.| | | | / d d s s / | |  .X.l  .X.X.X.+.+.X.5.| l X.N.1.k , $ p k l j ^ 4.T.Q.Q.pXMXNXNXNXNXVXsXpXQ.uXR.D.B.Q.Q.uXdXZXZXNXpXCXCXCXCXBXCXCXCXkXBXS.&.CXZXaXCXCXCXkXkXlXBXNXuX+.~ d |  .s / o.X.@.+./.VXAXAXAXAXAXAXAXAXVXVXsXVXVXAXVXAXVXVXVXAXAXAXVXZXAXAXAXAXAXAXAXAXVXVXVX~.^.~.^.^.Z.A.Z./.Z.A.+.| d l l k b b l d  .n.I.^.^.%XMXMXsXsXMXMXNXMX^.T.^.1X%X!.!.!.!.E.!.!.E.K.V.K.L.P.L.L.K.K.I.K.K.b.9.9.9.9.9.9.9.9.8.8.8.2.2.w + z G F Y F Y T T G G w.m.[.q.|.;X#X#X|.=X&X,Xr.- X X o - X X & * N V V V C C C C U U U U U U U U U U U U U U U U U U U U ",
"U U U U U U U U U U U U U U U U U U U U U C C C C N N N * X X & &   X & & '.3X`.G A q q.*X#X].#X].w # ].&X XXX).oXe.A q < + ; : c c  .,.2.1.1.1.8.8.8.8.8.9.9.b.b.b.b.b.I.W.I.I.V.V.P.P.Z.P.Z.P.W.W.W.W.%X%XW.W.W.I.W.W.P.V.A.V.P.I.b.5. . .1.b p a a a s  .5.V.d.G.sXMXMXNXNXNXNXZXVXpXpXsXBXZXsXNXNXNXNXVXVXVXpXpXsXsXNXVXVXVXNXNXBXZXNXpXpXBXZXZXBXNXaXaXyXrXH.~.~.6.| ..5.1.1. .1.X.X.n.!.W.A.n.n.6.6.n.A.A.6.n.A.A.A.A.A.V.b.n.n.n.n.n.n.n.n.n.A.Z.P.W.W.W.W.W.W.Z.Z.Z.Z.Z.Z.n.X.X.1...k , $ f b  ./ ( O.f.pXpXpXpXNXNXNXNXNXsXuXR.R.uXsXVXpXuXR.pXVXZXZXdXBXBXBXkXfXiXrX0XkXBXiXuXZXZXkXCXdXdXfXtXgXkXNXpX^.| , d ..../ ~ A.A.Z.bXAXAXAXVXbXVXVXZXZXZXAXZXVXZXAXAXAXAXAXVXVXVXVXbXbXbXVXVXVXVXVXVXAXAXAXVXVXVXMXsX~.T.G.Z.T.T.W.n.+.| |  .a k k l l  .n.b.n.A.W.~.~.pXpXpXsXNXMXQ.T.T.^.^.!.E.E.T.E.T.E.P.P.L.L.C.P.P.L.L.K.K.K.K.u.9.8.0.9.8.9.8.0.0.0.0.2.*.< O q G F Y B F T e.e.e.t.`._.e.{.-X#X+X#X=X*X-XT X X & X & X X & * N V V V C C C C U U U U U U U U U U U U U U U U U U U U ",
"U U U U U U U U U U U U U U U U U U U U U C C C C N N N * - X & & o % X X ).6XOX|.].].-XGXHX:X=X4XM.A |.-X}.&X].XXe.A w + ; 9 3 ,.,.<.1.1.<.<.<.<.<.<.<.5.3.5.5.b.b.b.b.K.I.I.I.b.V.Z.I.Z.Z.Z.I.I.I.I.I.W.W.I.I.!.P.P.E.E.L.C.P.g.V.I.b.....1. .i p i a d /  .o.@.$.D.R.pXpXaXaXaXaXaXaXyXrXaXjXH.rXuXuXaXdXdXdXuXuXuXuXaXdXdXkXCXBXBXBXBXjXBXFXBXkXjXjXBXBXBXBXR.sX~.A.X..... .N.1.n.n.+.Z.VX^.^.!.!.!.!.~.~.^.Z.P.T.^.^.^.^.^.Z.W.^.^.^.^.W.W.^.^.%XVX1X1X%X1XVXVX^.^.~.~.^.^.1XW.b.+. .| k p 3 k ,.<.o.+.f.G.aXaXaXaXaXpXpXpXNXBXBXpXrXuXBXAXZXBXaXpXpXNXNXkXkXkXBXBXBXkXiXiXrXBXCXCXCXkXjXCXiXiXtXqXqXiXaXpXAXn.d l 1.....X.Z./.^.VXAXAXVX^.sXsXsXsXsXbXVXZXVXVXVXVXVXVXVXVXVXVXZXZXVXVXVXVXVXVXVXVXVXVXMX~.sXsXsX~.~.Q.T.G.A.Z.W.Z.5.| b  ., p a l l l / | ~ o.d.G.T.R.R.T.G.T.R.G.B.A.A.Z.C.B.C.C.C.C.L.C.L.C.C.A.h.A.g.g.7.9.9.9.8.8.0.0.8.8.0.0.3.3.=.=.2.*.< O z G G e.B F T e.t.t.`.[.].t. X:X&X|.=X=X[.|.B   o & - = X X & * N V V V C C C C U U U U U U U U U U U U U U U U U U U U ",
"U U U U U U U U U U U U U U U U U U U U U C C C V N N N * & - & & o & o   T 3X}.;X5XGXLXHX6X-X&XPXKXt.|.;X].&X X|.q.M 7 + < z z c  .,.<.<.<.<.<.<.<...<.5.3.5.5.b.b.b.K.I.I.I.K.V.V.I.P.P.P.P.Z.P.P.W.W.!.!.T.P.!.P.P.E.E.T.U.T.4.A.P.V..... .b l a a l | |  ...@.%.F.uXaXBXBXBXyXyXtXtXyXyXyXyXiXaXfXdXkXhXkXkXdXdXaXdXdXkXkXkXlXlXSXDXDXSXSXDXSXBXBXBXBXBXBXBXdXVX~.6.( ..5.5...5.I.I.A.^.VXG.~.~.Q.~.~.~.pX~.B.G.R.Q.Q.Q.Q.Q.~.sXsXVXVXsXQ.Q.sXsXMXVXsXsXsXsXMXQ.G.Q.sXsXMXMXVXVX^.n.| k a i a c ..5.g.T.NXZXBXjXjXaXaXaXaXaXyXNXZXZXaXeXH.eXFXJXZXkXaXaXaXaXF.0XtXaXkXBXkXkXJ.tXBXBXiX0X9X0XuXaXiXqXqXiXaXsXVXW.N. .....9.I.A./.bXVXVXZXZXVXZXZXbXdXuXdXVXVXVXVXZXZXZXZXVXVXVXZXZXZXZXZXVXVXZXVXVXVXVXVXMXsXsXMXMXsXsXsX~.T.B.Z.^.W.n.X.l b a a l  . ./ / / ~ o.B.G.R.R.R.R.R.R.Q.Q.T.G.Z.Z.Z.Z.C.C.U.T.T.T.T.G.C.B.B.B.h.g.g.g.c.c.c.g.g.7.c.g.g.7.7.4.4.3.8.2.w + A K G e.F G Y e.w.e.t.`.].t.].:X;X{.=X*X*X;XF     o o X X X & * N V V V C C C C U U U U U U U U U U U U U U U U U U U U ",
"U U U U U U U U U U U U U U U U U U U U U C C C V N N N * & & & & - & o o '.6Xr.0 }.GXGX6XHXGX6XPXLXy.].;X_.;X].|.q.A 7 + 9 D c ,.,.,.<.1.2.1.1.<.<.5.5.5.5.0.8.b.b.b.K.K.K.K.V.A.V.Z.P.Z.Z.Z.P.P.P.P.W.^.T.T.T.!.T.U.T.Q.T.U.U.h.U.E.P.9.b.N. . .l k b  . . .+.} k.rXiXtXaXjXBXyXrX9XtXtXtXjXjXiXfXdXhXkXkXkXkXkXhXkXkXhXkXcXlXjXgXlXSXSXlXzXlXSXSXlXlXlXzXzXjXVXVX~.+.X.5.b.n. .5.I.I.6.Z.Q.B.uXuXuXuXuXuXuXuXD.R.uXpXaXpXpXpXdXdXdXVXVXVXsXuXsXdXdXdXsXsXsXpXsXR.D.R.sXNXVXVXVXAXAXW. .a i i a / 5.g.T.ZXAXDXBXjXjXjXjXaXNXNXyXyXjXBXBXaXJ.s.tXkXBXBXjXaXjXBX9XF.9X0XiXaXjXjXkXkXCXDXkXaXjXiXaXdXjXgXxXjXjXsX~.W.n.l s +.P.^./.sXZXVXbXbXZXZXZXZXZXbXdXdXdXbXVXVXZXZXZXVXVXbXbXbXbXbXVXbXbXVXVXVXVXVXVXVXVXNXsXNXNXsXsXsXpXG.T.Q.~.!.Z.n.1. . .b b  ... .| +.@.O.C.R.T.Y.R.pXY.D.k.D.C.C.B.C.G.G.U.G.T.T.R.R.T.G.C.C.C.C.C.h.h.K.K.V.c.g.g.g.g.g.g.g.g.7.7.7.u.y.w + A K G Y F Y T e.e.e.e.r.].t.y.-X-X|.<X#X4X4XT .   o   o X X & * N V V V C C C C U U U U U U U U U U U U U U U U U U U U ",
"U U U U U U U U U U U U U U U U U U U U U C C C V N N N * & & & = - & o & OX7XY q }.HXGX5XKXGX=XKXHXD ].3X|.2X XXXy.A 7 + 9 D D <.<.1.2.2.2.1.1.3.<.5.5.5.8.9.9.b.9.b.V.V.V.A.9.V.C.P.P.P.P.P.P.C.Z.L.P.P.U.C.C.~.T.U.T.R.U.h.h.Q.E.E.T.P.W.W.n. .a p k b / / X.! %.H.eXF.F.eXaXjXrXJ.9XtXaXjXkXqX0XiXhXhXhXhXhXhXiXiXiXhXjXhXlXSXlXlXlXlXzXzXcXlXlXlXlXSXSXDXDXZXZXsXA.o.5.5. ...b.I.6.( $.Q.G.aXaXaXaXaXaXiXiXrXaXBXZXZXZXZXCXCXdXdXdXZXZXZXCXdXbXVXCXVXkXkXkXDXkXiXkXZXCXAXAXNXAXAX%X..a p 2 , ^ 6.P.NXAXCXjXjXjXjXjXjXjXBXBXjXaXtXBXDXJXBXyX! &.tXBXBXBXBXDXDXCXkXaXfXaXkXkXCXkXkXCXkXkXBXiXaXhXlXjXjXjXjXpX^.A.| , s b.!.Z.sXZXFXZXuXuXvXZXbXbXbXvXvXvXbXdXdXsXdXdXdXsXuXpXVXVXVXbXbXVXZXZXVXVXVXNXdXsXuXQ.sXNXdXuXuXpXQ.D.sXsX^.^.!.W.b.N. .k a k l s | 6.~ O.D.T.D.k.F.rXyXF.f.h.G.G.T.T.G.G.G.G.G.G.G.G.G.C.B.B.C.C.C.f.g.g.g.g.g.a.7.4.a.7.7.7.4.4.4.3.8.2.< O z G G Y F Y e.r.t.t.t.t.t.t.i.*X-X|.<X.X;X=XL     - - * X X & * N V V V C C C J U U U U U U U U U U U U U U U U U U U U ",
"U U U U U U U U U U U U U U U U U U U U U J C C V V V N * & & & =   & %   OXLXr.B oX;X5X4X&XHX<X5X#Xz G t.q.).r.).G A 9 + e 2.D 2.2.1.1.<.<.<.<.0.5.3.0.8.9.9.9.9.9.7.9.g.g.g.g.L.L.C.L.C.C.T.T.T.T.C.B.g.B.C.T.T.T.T.T.R.R.R.R.R.h.j.C.P.W.b.l 1. .l l  ... ./ O.%.S.S.B.S.J.J.J.0XuXiXuXrXrXtX0XqXwXwXgXgXgXgXhXhXhXhXhXhXhXhXcXvXlXhXhXhXhXcXwXwXhXvXSXvXcXcXZXVX~.A.o.o.6.b.5.9.b.g.6.$.B.G.kXaX0X0X0XiXfXaXaXaXaXkXkXkXBXBXkXfXfXfXhXhXkXdXdXkXkXkXvXvXCXCXCXBXjXBXDXFXFXZXAXVXAX1X..s a O 4 6 V.VXAXZXCXjXjXzXzXzXjXjXjXjXyXtXaXBXBXDXJXFXBXeXx.9XCXFXBX9XBXBXBXiX9X9XjXCXjXkXBXCXBXBXjXfXrXiXjXlXjXjXaXaXVXZ./ d | b.!.~.ZXZXZXZXbXfXfXfXZXZXCXZXCXCXvXkXdXdXdXdXdXdXbXbXZXVXdXdXbXVXbXdXVXVXdXuXuXuXpXsXVXdXsXpXuXuXuXuXsXG.Z.W.!.I.1.b 1. . .|  . ./ ~ @.d.G.D.f.f.l.l.F.Y.R.R.T.U.D.C.D.D.D.D.G.G.G.G.G.G.D.D.h.h.f.f.h.h.g.g.d.a.a.4.4.4.{ O.4.4.4.4.8.2.w O A G G q.T Y r.e.t.].}.`.i.i.t.#X4X6X5XHX&X,XK   X & o & - & = * N V V V C C C C U U U U U U U U U U U U U U U U U U U U ",
"U U U U U U U U U U U U U U U U U U U U U J C C V V V N * & & & E o = &   }.GXY G ;X-X5X<X#X6X-X5X=XG q.Y m i.e._.G A q + e 2.*.2.<.1.1.<.<.<.<.0.5.3.0.6.9.9.9.9.8.7.9.g.g.g.g.C.L.C.C.C.C.C.C.T.G.C.B.f.B.G.T.T.T.T.T.T.T.Y.Y.R.h.h.C.L.W.b.l 1.1. ./ ` 5.I.!.A.G.Q.H.G.S.G.G.uXuXdXdXpXuXaXaX0XqXwXgXgXgXhXgXhXhXhXhXhXgXgXhXhXvXhXhXfXhXvXvXfXwXfXvXcXvXvXvXVXZXMXA.o.o.9.b.I.V.g.d.g.G.pXVXiXfXkXkXkXfX0X0X0X0XtXiXaXkXkXkXfXfXiXiXhXhXfXiXhXhXhXhXvXcXCXCXlXjXjXBXDXDXDXCXVXMXAX1X..s k : 6 ] P.AXZXBXBXgXzXzXzXzXzXjXjXjXyXaXjXBXBXBXBXCXDXjX9X9XyXBXBXBXjXkXBXBXBXkXjXiXjXkXkXBXBXkXjXfXiXfXjXzXxXxXyXpXVXA.s d ..I.%XVXVXZXZXZXbXfXfXfXCXCXZXvXvXvXvXvXdXdXdXdXdXdXbXbXVXbXdXdXdXbXdXdXNXdXsXuXuXpXsXsXVXdXdXpXuXuXuXsXsXQ.T.^.!.I.1.|  . .1. . .b.W.^.g.T.R.D.f.k.F.eXeXeXrXR.T.U.G.D.D.D.D.D.G.G.G.G.G.G.D.C.h.h.f.f.g.g.g.g.g.d.a.a.a.4.O.O.4.4.4.3.8.2.w O A G G q.A F e.`.].|.}.m.{.t.t.{.;X4X5XHX4X7Xw.. X & - = - & = * N V V V C C C C U U U U U U U U U U U U U U U U U U U U ",
"U U U U U U U U U U U U U U U U U U U U U C C C V V V N * & & & N o & &   T ;XH Y &X-X5X-X+X-X&XGX<X[.[.P 0 P )._.P A q + q 2.D 0.<.<.<.<.<.<.<.0.3.3.0.6.8.7.9.8.8.8.9.b.V.g.g.V.V.B.C.B.B.Z.Z.C.C.B.B.B.C.G.R.T.T.T.Y.T.Y.T.Y.R.U.U.U.K.P.b.l 4 s l / ..b.%XVXB./.sXpX/.G./.R.sXdXdXdXuXuXuXdXwXwXwXwXiXiXgXgXhXhXhXhXgXgXfXfXfXfXfXfXfXvXvXcXvXfXfXvXvXfXhXvXVXAXVXd.@.o.V.9.9.3.[ } $.h.F.rX0X0XfXkXaXiX0X0X0X0XiXiXfXfXiXiXwXwXwXwXhXhXhXhXhXhXhXcXcXcXCXCXjXhXCXSXDXDXDXCXVXNXAXVX..j ` a 6 ( E.AXZXjXlXzXlXxXxXxXzXjXxXqXjXjXjXjXjXjXjXBXCXBXjXyXtXjXBXDXjXiXjXBXDXSXjX0XjXkXjXjXjXjXjXjXkXgXgXxXxXqXyXrXVXA.d 4  .I.%XVXZXZXZXZXvXfXfXfXCXZXvXhXhXhXvXCXdXdXdXdXdXdXdXbXVXdXdXdXdXdXdXdXdXdXaXuXuXfXdXdXdXdXdXuXuXuXuXpXsXQ.!.^.^.W.n. ., b ../ / n.!.VXB.R.~.T.D.Y.yXyXyXyXrXR.Y.G.G.D.D.D.D.D.G.G.D.G.D.D.C.h.B.h.h.f.g.g.g.g.g.g.g.g.d.4.4.O.4.4.4.3.8.2.< O z G G e.F F Y e.e.t.r.K q.G H D t.|.#X#XHXGXm.. X & - * X & = * N V V V C C C C U U U U U U U U U U U U U U U U U U U U ",
"U U U U U U U U U U U U U U U U U U U U U C C C V V V N * & & & N   X &   N `.B F ].-X6X<X&X*X#XGX,X}.&Xq.0 e.]. XP H q + q 2.*.0.<.<.<.<.<.<.<.3.3.5.0.6.8.8.8.8.8.8.9.b.V.V.A.V.V.A.A.B.B.B.B.B.B.B.B.B.C.G.R.T.T.T.Y.Y.Y.Y.U.R.U.E.T.g.K.b.s : > s ` 5.K.g.4.+.Z.pXpX/./.pXsXdXdXdXuXuXuXuXaXwXwXiXiXfXiXfXfXhXfXhXfXfXfXfXfXiXfXfXfXvXvXcXCXvXvXfXvXhXfXfXvXdXAXVXo.W o.K.V.3.o.} O.$.$.#.@.J.J.J.J.J.F.rXfXiXfXjXkXjXfXiXwX0XqX0XwXhXhXhXhXhXhXcXcXcXcXCXCXhXCXDXFXDXDXDXDXAXAXKXAX5.c ,.` 4 ] ~.AXZXjXBXSXlXxXxXgXzXzXgXtXjXjXjXaXjXaXjXaXjXBXCXBXBXjXBXBXBXiX0XtXjXBXkXiXkXjXjXjXjXjXjXjXkXgXgXqXqXqXyXpXAXA.s d ..P.%XMXZXvXZXvXvXfXfXdXbXbXhXhXhXhXhXvXdXdXdXdXdXdXdXVXkXdXdXdXdXdXdXdXdXfXuXuXfXdXdXdXdXdXdXuXuXuXuXuXsXsX~.^.!.W.n. .$ a / /  .9.6.( } f.R.pXpXaXaXyXaXaXrXY.D.D.D.C.D.D.D.D.D.G.G.G.h.C.C.h.h.h.h.h.d.g.g.g.g.g.g.g.g.7.4.O.4.4.O.3.8.2.< O z G G e.r.F F F G e.t.r.[.|.#X#X=X,X=X.X6X7Xr.  o - o * - & & * N V V V C C C C U U U U U U U U U U U U U U U U U U U U ",
"U U U U U U U U U U U U U U U U U U U U U C C C V V V E * & & & *   X %   N ).F B e.;X6X6X4X*X;X4X[.t..XP q ).]. Xq.H 9 @ e 2.*.0.<.<.<.<.<.<.<.3.3.5.3.4.8.6.6.8.0.6.9.b.V.V.V.V.V.A.A.A.A.g.A.A.A.B.B.Z.C.T.T.T.T.T.T.T.T.T.U.T.T.E.P.g.V.6.d / s 4 ( K.P.[ u $.S.uXuXuXuXdXbXkXkXdXfXuXuXuXaXiXiXaXiXfXfXaXfXdXfXaXfXaXfXfXfXgXiXfXhXvXCXCXDXcXhXhXhXhXiXfXhXdXAXMX} W 4.W.P.P.L.L.U.U.D.k.%.F.J.S.k.k.J.iXkXaXfXfXdXdXaXfXiXiXwXwXfXhXhXhXhXhXvXvXcXcXCXCXCXhXCXFXFXFXDXDXFXDXZXFXVX .s 1. .4 ( ~.AXCXfXlXnXzXgXxXgXlXlXjXgXaXaXaXaXjXjXBXNXaXNXBXCXCXBXjXaXkXgXtXqXtXgXkXBXkXkXjXjXjXjXkXkXjXiXtXqXxXxXjXaXAXP.( / n.!.MXMXZXZXZXbXdXdXdXbXfXdXhXhXkXhXkXdXdXdXdXdXdXdXkXVXdXdXdXdXdXdXdXdXuXuXuXaXfXdXdXdXdXdXfXuXuXuXfXsXsXsX~.~.!.W.n./ , a s l 5.I.5.6 } f.R.pXpXNXNXaXNXaXyXR.G.D.D.G.C.C.C.G.G.G.G.G.B.B.B.B.B.B.B.B.d.7.g.g.g.g.g.g.g.7.4.3.4.4.4.3.8.2.< O z K G e.e.F F T t.}.&X;X6XHXGXGXHX5X<X&X=X6XT   o - o E X & & * N V V C C C C J U U U U U U U U U U U U U U U U U U U U ",
"U U U U U U U U U U U U U U U U U U U U U C C C V V V E * & & & * X X X o C }.r.F G ;X6XHXHX-X<X&X-.q.&XY q ].).|.q.H 9 @ 9 2.,.<.<.<.<.<.<.<.<.3.3.3.3.4.6.4.4.5.0.6.9.b.V.V.V.V.V.A.A.A.A.A.A.A.A.B.Z.Z.C.G.T.T.T.T.T.T.T.T.T.T.T.!.P.9.I.6.4 5.s 4 ^ P.NXE.$.H.uXdXdXfXdXfXfXkXBXkXkXfXiXiXfXaXaXaXfXfXdXdXdXfXfXdXaXfXfXfXfXgXgXhXlXcXSXSXSXcXhXhXhXhXgXhXlXVXZXsXO.} A.!.W.!.E.U.U.Y.H.eX9X0X0XrXuXuXuXiXaX0X0X0XuXiXaXaXfXhXfXfXfXhXfXfXwXhXvXvXvXcXcXCXCXvXCXDXFXDXCXCXZXkXpXNXE.s 6 <. .6 } ~.AXBXiXhXzXgXgXgXgXlXlXlXjXaXaXaXaXjXkXNXNXNXdXjXNXBXBXNXaXiXjXjXkXjXjXkXBXkXjXjXgXjXjXkXkXiXiXtXxXxXzXBXNX~.A./ s ..W.MXMXVXZXZXbXfXfXfXdXuXaXfXhXhXkXfXaXdXdXdXdXdXdXkXVXbXdXdXdXdXdXdXdXuXuXaXfXdXdXdXdXdXdXfXuXuXuXfXdXdXsX~.^.!.W.5.l l a a s b.%X!.6.T.~.pXQ.pXNXNXBXBXNXaXR.T.U.T.T.C.C.C.G.G.G.G.G.C.B.B.f.B.f.f.g.d.9.g.g.g.g.g.g.7.4.4.3.4.4.4.3.8.2.< O A K G e.Y F Y `.|.oXoX|.}.&X*X*X&X=X=X=X#X,XT   o - - E X & & * N V V C C C C C U U U U U U U U U U U U U U U U U U U U ",
"U U U U U U U U U U U U U U U U U U U U U C C C V V V E * & & & * & % o X U oX`.e.G |.-X4X5X&X:X&X-.t.,Xe.q ]._.XXq.H 9 @ e y.,.<.<.<.<.<.<.<.<.<.<.3.3.0.4.4.0.5.5.5.9.b.V.V.V.L.C.C.A.A.A.A.A.A.A.A.A.Z.Z.Z.G.G.T.G.G.T.T.T.T.T.E.!.L.V.I.b.4 / 6 > Q h.NXAXNXaXkXkXkXkXkXfXtXjXkXlXlXjXgXgXiXfXdXfXfXdXdXdXdXfXfXaXaXaXaXaXfXzXzXlXlXSXDXSXSXlXzXzXlXlXzXzXBXVXVXpXB.g.L.P.K.g.V.L.D.D.F.9X0XiXaXdXdXkXdXfXuXwX0X0XH.0X0XuXiXiXwXwXfXfXfXfXfXhXvXvXvXvXvXcXvXvXZXDXDXDXDXCXCXBXR.Q.A.6 6 <.` 6 @.Q.AXCXiXhXgXgXgXgXzXzXzXjXjXuXuXaXaXaXpXdXdXNXpXaXpXNXNXaXaXtXgXkXlXjXjXjXjXjXjXgXgXgXjXjXjXiXiXgXgXzXzXjXaXT.A./ , s V.MXMXZXZXZXbXuXuXfXdXaXaXaXfXfXfXfXfXaXdXdXdXdXdXbXVXVXdXdXdXdXdXdXdXuXaXfXfXdXdXdXdXdXdXfXuXuXuXfXdXsXdXpX^.!.W.n.s a s a j 5.W.%X%XMXNXNXpXpXpXNXaXNXpXyXR.U.G.G.G.D.D.C.G.G.G.G.G.C.C.C.f.f.s.d.g.7.9.9.9.g.9.g.9.7.3.3.3.4.4.4.3.0.2.< O A K G y.r.P e.}.|.].m.e.t.t.].{.+X&X,X4X#X4Xr.. o - - E X & & * N V V C C C C C U U U U U U U U U U U U U U U U U U U U ",
"U U U U U U U U U U U U U U U U U U U U U C C C V V V E * & & & & & -   o Y oX[.].G }.}.;X4X{.*X*Xq.[.5Xe.7 _.t.|.q.G 9 @ e y.,.<.3.<.<.<.<.<.<.=.<.3.3.0.4.0.0.0.5.5.9.b.V.V.V.L.C.C.C.A.A.A.A.A.A.A.Z.A.C.C.G.G.T.G.H.R.R.T.R.T.T.E.L.V.W.b.> s s 6 ^ [ L.MXNXkXkXfXiXaXhXiXqXiXgXjXjXgXtXtXtXfXdXdXdXdXdXdXdXfXaXaXaXaXaXaXfXlXlXlXSXSXDXSXnXlXzXzXlXlXlXlXCXkXsXQ.T.Z.C.g.4.4.h.E.pXpXrX0X0XiXuXuXfXkXkXkXkXkXfXwX0XJ.F.H.0XJ.J.0XwXfXvXvXvXhXhXvXvXvXcXCXvXDXDXFXDXFXFXFXAXFXMX!.A.6 s 5.` 4 ~ T.AXVXkXlXhXgXgXzXjXjXgXiXiXrXrXuXuXaXiXaXaXrXiXaXBXBXdXaXrXiXgXiXtXiXiXgXjXiXiXgXgXjXjXjXjXtXiXgXjXlXjXjXpXsX^.+.4 d Z.VXAXZXZXVXdXfXuXuXfXfXaXiXuXiXaXdXhXaXfXaXdXdXdXkXVXVXdXdXdXkXdXdXdXaXaXdXdXdXdXdXfXdXdXfXuXuXuXdXdXdXdXpXT.^.!.n.a > a / / ..6.!.VXpXNXNXNXNXNXaXeXyXrXR.F.D.C.B.h.D.D.C.G.G.G.G.G.C.C.C.f.f.d.d.d.g.9.9.9.9.9.9.9.4.3.o.3.3.4.4.0.2.2.< O z q.G e.].Y Y ].}.}.}.}.}.[.[.|.#X|.|.#X&X4Xr.. o X o * X & & * N V V C C C C C U U U U U U U U U U U U U U U U U U U U ",
"U U U U U U U U U U U U U U U U U U U U U C C C C C V * * * * & % - -   o F }.`.`.e.oX}.].&X}.}.[.[.H 2X-Xq t.].].S H 9 O G 2.2.0.<.=.*.' ` ` ` =.<.3.3.3.3.3.0.6.6.6.6.9.g.V.V.K.V.V.V.V.C.V.A.Z.Z.C.C.C.G.C.G.C.G.G.G.U.U.T.T.G.Z.T.G.V.W.b.a , i a 5 ' P.NXNXkXhXhXhXdXfXfXiXtXtXiXwXiXiXiXfXaXaXaXaXdXdXdXdXfXaXfXaXdXkXkXkXlXlXcXSXSXcXcXlXgXgXhXlXcXcXcXCXZXZXdXG.$.h.R.h.U.T.pXNXaX0X0XjX0XtXiXiXiXiXiXiXaXkXkXjXfXiXfXjXkXhXfXiXwX0X0XJ.CXvXCXDXFXDXDXFXZXZXFXFXFXFXFXFXAXFXVX..> 5  .<.d X.W.VXVXsXVXFXkXiXjXlXkXiXiXaXkXjXaXiXiXiXaXfXiXiXaXaXaXaXaXfXiXiXfXfXgXjXjXjXtXtXtXtX0X0X0XqXiXkXBXlXjXBXZXZXAX^.~ > d Z.VXAXZXCXVXdXaXuXuXiXuXuXuXuXuXiXaXfXdXdXfXfXaXfXdXdXdXdXfXdXkXdXhXdXdXdXdXdXdXdXkXdXaXuXaXuXiXuXiXuXaXuXsXsXT.T.V.| a a a s X.A.R.pXpXaXdXdXkXdXaXaXpXR.l.l.G.T.G.C.G.D.D.G.T.R.Q.E.C.C.C.C.h.f.f.g.g.g.g.g.g.g.g.9.+.4.6.7.7.7.6.9.M.2.< O z -.G y.y.H t.].t.}.].[.`.`.|.-X;X`.t.}.).;XY   o - o = % & & * N V V C C C C J U U U U U U U U U U U U U U U U U U U U ",
"U U U U U U U U U U U U U U U U U U U U U C C C C C N * * * * & % - - . o F }.`.).P |.|.}.;X|.[.;X-Xe.+X[.q M.[.M.D S 9 O G 2.2.0.3.=.=.' ` ` ' ;.;.3.3.3.3.0.3.4.6.6.7.6.g.A.A.V.V.g.V.V.V.V.A.Z.Z.C.C.G.G.G.G.D.G.G.G.U.U.T.G.G.G.T.C.g.P.b.a , f k a ..E.NXNXkXhXhXhXfXfXiXiXwXwXiXiXgXiXiXwXfXfXaXfXdXkXkXkXkXkXkXkXkXkXjXjXcXcXcXcXcXlXhXhXhXhXlXcXcXCXSXCXZXbXdXG.$.B.R.D.l.D.rXaXiX0XuXkXtXiXfXgXiXiXiXfXgXjXkXjXfXiXiXjXkXkXjXjXjXkXkXkX9XJ.F.tXiXiXfXhXuXfXdXvXbXbXNXVXAXAXVX .> , a a d / +.P.^.~.MXZXNXaXaXkXaXrX0XrXjXgXiXiXiXiXiXiXiXiXiXjXjXjXjXiXiXiXfXfXgXgXjXjXiXiXiXtXtX0XqX0X0XfXjXiXaXjXNXNXAX!.( 4 ( ^.AXAXCXCXkXdXaXiXuXuXuXuXuXuXuXiXaXaXfXfXaXaXiXaXaXfXfXaXaXfXdXdXdXfXfXfXdXdXdXkXkXkXaXaXaXaXiXiXiXiXfXwXaXuXG.P.A./ a l | | +.G.pXsXaXaXjXkXkXaXaXaXrXR.G.F.T.T.D.h.T.G.D.G.R.R.Q.E.G.G.D.C.C.C.h.B.g.g.g.g.g.g.7.7.+.4.6.7.7.7.7.9.u.2.< O z -.G y.t.D ].[.t. X_.].|.].r.e.t.}.7XPX'.3Xr.. X % - * % & & * N V V C C C C J U U U U U U U U U U U U U U U U U U U U ",
"U U U U U U U U U U U U U U U U U U U U U C C C C C V * * * * & % % % o o I }.).t.F [.oX&X-X|.[.4X5X}.}.t.A {.[.M.D D 9 O G 2.2.0.3.=.=.' ' ' ' 3.;.3.3.3.3.0.3.4.4.6.6.7.9.g.g.g.g.g.g.V.V.V.g.B.Z.C.C.G.G.G.G.C.G.G.G.U.U.Y.G.T.G.T.C.g.P.b.5 i k k l 5.!.BXBXkXhXhXhXhXfXfXiXwXiXhXhXhXfXwXwXfXfXfXdXkXbXCXbXCXCXCXkXkXjXjXgXjXlXlXlXhXhXhXhXhXlXcXSXSXDXDXCXZXbXdXG.$.D.pXD.l.D.Y.uXuX0XuXdXiXgXjXjXgXiXgXjXfXjXjXjXfXiXfXjXjXjXjXjXkXCXCXDXjXiXiXiXiX0X0XwX0X0X0X0XuXR.G.Z.T.%XI.s > a l 2 l X.K.1XAXVXsXQ.H.F.F.0X0XF.J.F.tXiXjXjXgXiXtXiXiXiXjXjXjXjXjXjXiXiXiXiXiXgXgXjXiXiXiXtXtX0X0X0X0XaXjXiXyXjXNXNXMXT.o.4 X.1XAXAXZXCXkXaXiXuXuXuXiXuXuXuXuXiXaXaXaXaXiXiXiXiXaXaXaXiXiXaXfXfXfXaXfXfXfXdXdXdXkXkXiXiXiXiXaXiXiXiXfXuXuXQ.D.P.A.s a b  .X.A.Q.NXdXaXaXaXdXaXaXaXaXF.R.R.R.T.Y.D.C.T.U.G.U.R.R.R.R.U.G.G.G.D.C.C.C.d.g.g.g.g.g.7.7.4.4.6.7.7.7.7.9.8.2.< + z -.-.y.y.D [.}.].|.].].[.`.m.e.e.].3XGX[.6X).. o % - * % & & * N V V C C C C J U U U U U U U U U U U U U U U U U U U U ",
"U U U U U U U U U U U U U U U U U U U U U C C C V C V * * N * & & % % o X I [.).`.G [.oXoX-X|.[.-X-X[.|.M.G M.].[.D D 9 O G 2.2.<.3.=.=.' ' =.=.3.;.3.3.3.3.0.3.3.3.4.4.6.7.6.9.g.g.g.g.V.V.V.A.A.A.C.C.C.G.G.G.C.G.G.G.U.U.Y.G.T.G.R.T.B.P.5.: i k k l 5.%XZXNXdXhXhXhXhXfXfXfXfXfXfXfXiXiXiXiXfXaXaXdXkXbXbXbXCXCXCXkXkXkXjXgXiXgXgXhXhXhXhXlXcXcXSXDXDXDXDXDXZXbXdXG.$.S.pXD.Y.D.Y.rXuX0XrXaXiXjXjXjXjXgXjXkXiXgXgXgXiXiXfXjXiXiXiXiXaXkXCXDXFXDXCXCXBXkXkXkXFXCXZXZXAXAXZXVXg.Z.6.6 , l  .l , d +.W.^.P.O.@.$.%.f.l.F.H.eXrXrXiXkXkXjXiXiXiXiXiXjXjXjXjXjXjXiXiXiXiXiXiXgXgXiXiXiXiXiXiXiXiXiXkXjXiXjXBXBXNX~.T.X.4 X.1XAXVXVXkXdXaXuXwXwXuXiXiXuXuXuXiXiXaXaXiXuXuXuXuXiXiXaXaXiXaXfXdXfXaXfXfXfXfXdXdXdXkXaXaXaXaXaXaXaXaXiXwXaXuXG.T.A.4 a b  .X.A.~.NXaXaXaXaXaXaXdXaXaXR.R.pXR.T.G.G.U.T.U.G.G.T.R.R.T.G.G.G.G.D.C.C.C.d.g.g.g.g.d.7.7.4.6.7.7.6.7.7.5.8.2.< O z 2.y.{.q.H {.|.{.+X{.}.t.].|.}.`.`.`.`.[.6X).. . - X = % & & * N V V C C C C J U U U U U U U U U U U U U U U U U U U U ",
"U U U U U U U U U U U U U U U U U U U U U C C C V V N * * N * & = % & X X I }.).[.Y }.|.}.&X}.|.|.t.G M.t.D y.|.[.D D 9 O G q.2.<.=.=.=.' =.=.=.=.=.3.3.3.3.0.0.o.o.o.4.6.6.7.7.g.g.g.A.V.V.K.V.g.A.B.C.C.Z.G.G.D.G.G.G.U.U.Y.G.Z.Z.Q.^.T.W.5.+ i k k l 5.%XBXNXdXdXkXkXkXkXfXfXhXkXfXiXiXiXfXfXaXaXfXdXdXbXbXkXkXBXkXkXkXkXlXjXiXgXgXgXhXhXhXlXcXCXSXDXDXDXDXDXZXbXdXG.$.h.R.D.Y.D.F.rXaXuXiXaXiXfXkXkXjXjXjXkXiXiXgXgXiXiXfXjXfXiXiXtXiXaXkXBXkXkXkXkXCXDXFXFXFXFXFXFXKXKXFXAX%X%XI.s 5  .,.a a a s / X.+.$.$.$.f.l.F.rXaXBXBXtXjXBXBXlXjXjXjXjXjXjXjXjXjXjXjXiXiXiXiXiXiXiXiX0XtXtXiXiXgXjXjXjXkXjXjXBXBXBXMXMXT.( 4 ( %XAXVXkXhXfXiXuXuXuXuXaXiXiXuXuXuXiXiXiXiXuXuXuXuXiXiXfXaXaXfXdXdXdXdXaXaXfXfXfXdXdXdXaXaXaXaXaXaXaXaXwX0XaXuXQ.~.n.> 4 l  ...A.~.NXaXaXfXaXaXaXaXaXaXrXrXR.R.G.G.R.Q.R.T.G.G.U.U.U.G.G.D.D.C.C.C.h.h.d.g.g.g.g.d.7.7.7.7.6.6.6.6.7.8.u.2.< O q y.M.&Xy.G |.+X{.|.]. X}.|.[.m.`.|.oXXX[.6X'..   - X = - & & * N V V V C C C J U U U U U U U U U U U U U U U U U U U U ",
"U U U U U U U U U U U U U U U U U U U U U C C C V V V * * N * = = = = X X I }.`.}.Y }.oX}.|.[.&X&Xq.H t.t.q.].4X[.D D 9 O G -.2.<.=.=.*.' =.=.;.=.=.3.3.3.3.0.0.o.o.4.4.6.7.6.7.g.g.9.A.V.K.L.V.g.A.B.B.C.C.G.G.D.D.G.G.U.U.Y.G.C.Z.Q.Q.T.E.5.+ 2 f h l 5.%XNXNXaXfXdXkXkXkXfXfXhXkXfXiXiXaXfXhXfXfXfXdXdXkXkXdXkXkXkXkXkXkXlXlXlXhXhXhXhXhXhXhXcXCXSXSXDXSXSXCXbXdXsXS.$.h.pXD.F.k.l.eXaXaXaXkX0XtXiXgXfXfXjXkXtXiXgXgXiXiXfXjXjXaXfXiXfXjXkXkXkXkXkXjXkXDXFXFXDXCXFXFXFXFXAXAXAXAX!. .j 1.1.l b  .5.n.V.!.~.pXs.D.F.F.eXaXBXNXiXjXkXBXBXkXjXjXjXjXjXjXjXjXjXjXgXiXiXiXiXiXiXiX0XtXtXiXgXjXjXkXaXkXjXtXjXBXNXpXZXZ.~ 4 X.%XAXAXdXkXfXiXuXuXiXiXaXaXiXuXuXuXuXiXiXiXuXuXuXuXiXiXfXaXaXfXdXdXdXdXaXaXaXfXfXfXdXdXaXaXaXaXaXaXaXaX0X0XaXuXQ.%XA.: 4 b  .X.A.MXVXaXiXfXfXaXaXaXaXpXpXpXR.T.Y.T.R.pXR.T.U.G.U.U.G.C.D.D.D.C.C.C.h.h.g.g.g.g.g.g.7.7.7.7.9.6.9.6.7.6.u.2.< O 9 2.M.*Xt.y.&X&X].{.t.].|.}.`.t.`.oX;XoX[.7X}.. . % % * - & & * N V V V C C C C U U U U U U U U U U U U U U U U U U U U ",
"U U U U U U U U U U U U U U U U U U U U U C C C V V V * * N N = * = = X X I }.`.`.G }.&X|.|.[.&X}.t.t.t.t.].}.<X[.D D 9 O G -.2.=.=.=.' =.=.=.3.=.=.3.3.3.3.0.3.3.4.4.6.7.6.6.g.7.7.6.9.V.V.V.V.g.d.B.B.C.C.G.G.D.G.G.G.U.U.Y.G.G.Z.R.T.T.E.5.: 2 i a l 8.MXNXaXaXdXkXkXkXkXdXdXfXdXdXdXdXdXdXdXkXkXdXkXbXbXkXkXBXBXBXkXlXlXBXlXCXcXlXhXhXhXhXhXcXcXcXSXSXCXcXcXfXuXuXS.$.D.pXY.rXD.l.H.uXuXrXiX9XqXtXiXiXiXgXjXtXiXiXiXiXiXfXjXjXjXjXkXkXkXkXBXCXCXBXjXkXZXFXDXCXDXFXFXFXZXAXAXVXAX!. ./ 8.b. .a l  .5.I.!.T.d.s.D.F.l.F.rXpXuXiXgXjXkXkXkXjXjXjXjXjXkXkXkXjXkXgXgXiXiXiXiXiXiXiXiXiXfXgXjXkXkXaXaXiXtXaXBXNXR.AXA.6 4 6.VXAXAXdXkXfXaXiXiXaXaXaXaXiXuXuXuXuXuXaXiXiXiXuXuXiXaXaXiXiXaXfXaXfXaXaXaXfXfXfXdXdXdXfXaXaXfXfXfXfXfXuXuXaXQ.Q.MXI., , l | / 6.sXVXpXiXaXfXaXaXaXaXpXpXR.R.R.R.pXQ.R.pXQ.R.T.T.T.U.G.U.G.G.D.D.C.C.C.g.g.g.g.g.g.g.7.7.g.g.g.9.6.6.5.u.2.< O q -.y.{.M.y.&X&X_. X].}.].].].].}.|.}.`.`.7X}.o . % % * - & & * N N V V C C C C U U U U U U U U U U U U U U U U U U U U ",
"U U U U U U U U U U U U U U U U U U U U U C C C V V V * * N N * E = = X X I }.`.t.H  X;X&X&X[.&Xq.y.[.t.y.[.M.[.[.D D 9 O G -.2.=.=.=.' =.=.=.3.=.=.3.3.3.3.0.3.4.4.6.6.7.9.9.g.6.6.6.6.g.V.V.A.d.d.B.B.C.C.G.G.D.G.G.G.U.U.Y.G.T.G.T.G.C.E.b., p i a l 9.MXNXaXaXaXkXkXkXkXdXdXuXfXkXCXZXVXdXfXZXCXVXVXCXCXCXkXCXCXCXCXBXBXBXlXcXlXhXhXhXlXcXcXcXcXcXcXcXcXcXvX0XR.Q.B.$.D.NXR.NXR.F.H.rXH.J.J.J.9X0XtXtXiXfXjXtXiXiXiXiXiXfXjXiXfXjXkXkXBXCXBXfXkXjXiXaXZXFXFXCXDXFXFXAXZXZXVXVXVXW. .j <.<.a 1. .d / 6.T.U.$.h.D.F.l.F.pXpXaXiXiXiXjXjXjXjXiXjXjXkXkXkXkXkXkXgXgXiXiXiXiXiXtXjXjXjXjXgXgXgXfXjXkXiXtXjXBXNXQ.VX+.> 4 A.1XVXAXkXhXdXaXiXaXaXfXfXaXiXuXuXuXuXuXaXaXiXiXiXiXaXaXiXuXuXuXiXaXaXaXiXaXaXfXfXdXdXdXfXaXaXaXfXfXfXfXfXiXuXH.T.VXP.4 , d l s o.~.NXuXuXaXfXaXaXaXpXpXpXR.T.R.pXpXQ.U.MXpXQ.R.R.R.T.U.T.T.U.U.G.G.G.C.g.g.g.g.g.g.6.g.g.g.g.g.g.7.7.5.2.2.7 O z D -.t.y.i.+X+X].|.|.;X[.[.].`.].}.XX}.).5X}..   % - = % & & * N N V V C C C J U U U U U U U U U U U U U U U U U U U U ",
"U U U U U U U U U U U U U U U U U U U U U C C C C V N N N E * * m % & o   I }.m F H e.&X;X[.t.].q.t.[.[.y.q.M.&X#Xq.S w + q.w.2.*.' ' ' ` ` ` ' =.=.3.3.0.0.3.3.6.6.6.6.7.6.4.4.6.7.7.6.9.9.7.6.A.A.C.C.G.T.T.T.G.G.G.G.G.G.D.D.Q.G.Q.~.Q.!.b., h b k l 5.!.NXaXaXaXaXaXaXaXdXkXfXuXFXFXS.@.%.@.0XJ.VXZXuXdXFXZXCXCXCXCXBXlXlXjXgXhXhXhXlXcXcXCXSXSXSXcXcXcXcXvXH.bXuX%.} D.pXR.Y.Y.F.F.H.uXiXiXtXtXiXiXtX0XqXqXiXgXgXgXgXgXjXkXiXiXiXfXkXkXkXkXfXjXkXjXkXkXDXFXCXDXZXZXZXAXZXVXFXVXW...> , c l b  .1.b.I.P.C.h.s.f.l.F.eXrXrXeXrXtXiXiXjXkXjXkXtXtXtXiXiXiXiXgX0XtXtXtXtXtXtX0XiXiXiXgXjXlXlXkXkXkXiXtXtXtXrXR.~.+.4 4 ( VXAXVXfXfXfXaXaXaXaXaXaXfXkXkXfXiXiXiXiXiXiXiXaXuXuXuX0XwXaXaXuXwXaXfXfXdXdXkXkXhXkXdXdXdXfXaXiXiXuXwXfX0XuXsXsX%XV.4 a b  ...6.^.pXpXuXuXuXuXaXpXpXuXG.pXZXVXR.$.~ W } U.pXG.C.R.pXR.T.U.U.G.G.C.C.B.g.g.g.g.A.g.g.g.g.g.g.g.9.7.7.5.2.2.9 + z -.y.+Xt.q.].].t.-X5XoX[.oX[.m.|.|.}.XXr.;Xe.. . % % % - & * * N N V V C C C C U U U U U U U U U U U U U U U U U U U U ",
"U U U U U U U U U U U U U U U U U U U U U C C C C V N E * * * * E % = - X ).2XY F e.}.&X&XoX}.].t.].[.].t.y.[.&X.XK D 9 O q.q.2.*.' ' ' ` ` ` ' =.=.3.3.0.0.3.3.4.4.6.6.7.6.4.4.6.6.6.7.7.7.7.7.A.A.B.C.C.G.T.T.G.G.G.G.G.G.D.D.Z.Z.R.~.Q.!.b.5 h b k k 5.!.BXNXaXiXiXiXaXaXdXdXZXZXuX%.O.%.S.uX&.%.dXFXZXCXFXZXCXCXCXCXBXlXlXjXgXgXhXhXhXlXcXcXCXCXcXcXcXcXcXvX0XbXdX%.$.H.pXpXY.Y.Y.H.rXaXfXiXqX0XtXtXtX0X0X0XtXiXiXiXiXiXiXiXiXiXiXiXjXkXkXkXaXaXjXjXkXCXDXFXZXDXFXZXFXFXAXVXAX%X!.b.c c  .l l | ..n.V.C.C.D.l.D.F.R.rXyXyXrXtXtXiXjXjXkXkXkXgXgXgXiXiXiXiXiXtXtXtXtXtXtXtXtXiXiXiXiXjXkXkXkXkXfXtXtXtXtXyXR.VXZ.d 4 ~ 1XAXMXdXdXaXaXaXaXaXaXuXaXdXfXfXiXiXiXuXiXiXiXiXuXuXuX0X0XuX0XH.H.0X0XaXfXdXdXkXdXdXdXfXfXaXaXiXiXuXwX0XH.uXdXsX%XZ.d l  .....6.T.MXdXuXuXuXuXuXuXuXQ.NXNXR.d.} } d.f.@.{ D.pXMXpXR.R.T.T.U.G.D.C.C.B.g.g.g.g.g.g.g.g.g.g.g.9.6.7.7.5.2.2.9 + e -.y.+X{.t.t.+X&X&X&X}.t.;X&X[.oX;X}.). X3X'.% X = = = - & * * N N V V C C C C U U U U U U U U U U U U U U U U U U U U ",
"U U U U U U U U U U U U U U U U U U U U U C C C V V N * * * * = * & = % % XX7X'.P |.-XoX|.-X;X].oX}.[.t.y.y.M.|.{.K G 9 O G -.,.*.` ' ' ' ' ' ' =.=.3.3.0.3.3.3.4.4.4.6.6.6.4.4.6.4.4.4.4.6.7.6.g.A.B.C.C.C.G.G.G.G.G.G.D.G.D.D.C.A.R.~.E.E.9., k b k a ` L.MXNXyXrXtXtXuXiXaXaXuXFXG.~ S.sX/.sX%.$.H.CXZXCXCXdXkXkXCXBXBXkXlXjXgXgXhXhXhXhXcXcXcXcXcXcXcXcXlXvXuXbXsXB.%.T.pXpXD.F.H.H.eXuXiX0XJ.9XqX0X0X0X0X0XtXtXtXtXtXtXtXtXiXiXtXiXfXjXkXkXkXaXiXaXkXCXDXFXDXDXFXFXFXFXZXsX^.Z.I.b... . .a d l ..5.9.A.U.U.R.R.rXrXaXaXaXaXiXiXjXjXkXkXkXkXjXjXjXjXiXiXiXtXiXtX0X0X0X0XtXiXiXtXtXiXgXjXjXjXfXiXtX0XtXtXyXQ.ZXZ.~ 4 4 ^.AXVXdXdXdXaXaXiXuXuX0XuXaXfXaXiXuXiXuXuXiXiXuXuXuXwXwXwX0XH.J.J.J.H.aXaXfXfXdXdXdXdXiXiXiXuXuXuXuXwX0X0XdXVXsX~.V.s l  . ./ ( B.pXpXR.H.H.0XrXQ.R.R.pXpXT.d.$.B.T.T.$.~ } pXZXR.G.~.U.U.G.G.D.C.C.B.g.g.g.g.g.g.g.7.6.9.9.9.6.7.7.5.0.2.9 + e *.y.|.{.t.y.&X4X+Xt.[.e.;X;X|.&X;X`.F oX6X}.% - = = = % & * * N N V V C C C C U U U U U U U U U U U U U U U U U U U U ",
"U U U U U U U U U U U U U U U U U U U U U C C C V N E * * * & & * % = - % XX7X`.e.oX-XoX|.;X&X].-X&X].t.y.y.t.M.M.G G q O D G 2.*.` ' ' ' ' ' ' ' =.<.3.3.3.3.<.3.3.4.4.6.6.4.4.6.4.o.o.3.6.7.6.g.A.B.Z.C.C.C.C.G.G.G.G.D.D.D.D.G.Z.T.T.C.V.5.> k k k a ^ a.U.U.eXrXtXtXiXuXuXpXG.ZXQ.O.G.ZXVXQ.dXJ.k.H.uXdXdXdXdXhXkXkXkXkXlXjXgXhXhXhXhXlXcXcXcXcXcXcXcXcXcXvX0XdXuXB.%.H.pXT.l.D.F.F.F.H.J.J.9X0X0XtX0X0X0X0XtXiXiXiXtXtXtXiXiXiXiXiXiXfXjXkXkXfXiXfXBXDXDXDXFXDXDXFXFXZXpXZ.Z.6.6.5.` ` c , a / ..5.A.Z.T.R.aXaXaXaXaXaXaXaXjXjXjXkXkXkXkXkXkXkXjXjXgXiXtXtXiXtX0X0X0X0XtXtXtXtX0XtXiXfXiXiXtX0X9X9XrXyXyXR.MXZ.d 4 4 ^.AXVXdXdXdXaXiXuXuXwX0X0XiXiXiXuXuXiXuXuXuXuXuXwX0X0XiXuX0XH.J.J.0X0XiXaXaXfXfXfXfXaXuXuXuXuXuXuXuXuXwXwXdXsXT.Z.6.4 a l | s ~ O.G.H.H.H.0XH.H.H.R.Q.D.R.T.G.T.R.T.C.~.O.@.C.Q.G.D.Q.U.G.G.D.C.C.h.h.g.g.g.g.g.g.7.7.7.7.6.7.6.7.7.5.0.2.9 O 9 D y.{.M.t.e.{.2X|.q.[.t..XoXoX;X}.Y B }.-X).X . % - % & & * * N N V V C C C C U U U U U U U U U U U U U U U U U U U U ",
"U U U U U U U U U U U U U U U U U U U U U C C C V V N * * & & & m = * o X }.6Xe.[.}.|.|.|.}.[.[.-X}.t.e.y.y.t.m.M.D G q O D -.2.*.' ' ' ' ' ' ' ' ' =.3.3.3.3.<.o.o.4.4.6.6.4.4.4.o.o.o.3.4.7.6.g.A.B.B.C.C.C.C.G.G.G.G.D.D.D.D.G.Z.G.C.d.g.5., h k k l ..g.l.z.yXtXtXtXiXaXpXaXdXsXsX%.@.Q.FXVXFXkXS.k.0XdXkXZXdXdXkXkXkXkXjXjXhXhXhXhXlXcXcXcXcXcXcXcXcXcXcXcXwXdXuXB.h.T.pXY.D.Y.Y.F.F.J.S.k.qX0XtXtXtXtX0X0XiXfXgXgXgXiXfXgXiXiXiXiXiXiXaXjXkXiXiXaXBXDXDXDXZXZXZXZXZXdXD.O.Z.g.6...j l  .k d / +.n.Z.T.R.pXNXaXaXjXjXjXjXjXjXjXkXkXkXjXjXjXkXjXjXjXiXiXtXtXiXtXqX0X0XqXtXtXtX0X0XtXiXiXiXrX0XH.J.9X9XrXrXR.~.B.~ d ~ ^.AXVXdXfXfXaXiXuXwX0XH.0XiXiXiXuXuXuXwXwXuXuXwX0X0X0XuX0XH.H.H.0XuXaXaXaXaXfXdXfXfXaXuXuXuXuXuXuXuXuXwXH.uXH.B.A.o.4 , l | | ( $.D.D.R.uXQ.H.H.H.Q.uX~.Q.G.d.d.C.T.Q.MXC.} } f.T.T.G.G.G.D.C.C.h.h.h.g.g.g.g.g.g.7.7.7.7.7.7.7.7.7.5.0.2.w O 9 D q.{.t.{.t.t.&X|.t.].}.[.[.;X-Xt.H Y r.}.I . . - X % & & * N N V V V C C C C U U U U U U U U U U U U U U U U U U U U ",
"U U U U U U U U U U U U U U U U U U U U U C C C V V N * * & & & C m m o X }.6XY |.`.].|.|.].].}.{.t.e.e.t.t.].[.{.-.D 9 O G -.2.*.` ' ' ' ' ' ' ` ' =.3.3.3.3.=.o.o.3.4.4.6.4.4.o.o.o.4.6.6.9.g.A.B.B.C.C.C.C.C.G.G.G.D.G.D.D.D.G.A.G.C.B.P.b.l a k b  .9.P.R.yXyXrXrXrXrXuXaXsXVXH.sXT.~ +.VXVXFXCXS.%.uXbXdXhXdXdXkXkXjXjXjXgXhXhXhXhXhXhXlXcXlXlXcXcXcXcXcXCXuXdXuXG.D.R.pXT.pXyXyXeXH.H.J.J.0XtXiXiXtXtX0X0XiXfXgXgXgXjXkXjXiXiXfXaXfXfXfXjXfXiXiXkXBXZXDXDXZXbXZXZXZXsXB.O.Z.A.6...s l ,. ./ | +.A.Z.R.pXpXNXaXjXaXjXjXjXjXjXkXkXkXjXjXiXiXgXiXiXiXiXiXiXiXtXtX0X0X0X0XtXtXtXtX0X0XtXiXtX0X0X9XJ.9X9XrXrXR.MXP.X.~ ~ ^.AXMXdXfXaXaXuXuXwXwX0XwXiXaXiXuXuXuX0X0XwXwXuX0X0X0X0XJ.J.J.0XwXiXiXaXaXfXdXdXdXfXfXiXiXiXiXuXuXuXuXiX0XuXuXQ.~.I.| a  .1.+.6.Z.T.F.H.uXuXH.G.G.R.pXQ.T.C.d.O.O.B.T.T.G.d.} d.pX~.f.G.D.D.C.C.f.f.g.g.g.d.g.g.g.7.7.4.7.7.7.7.7.7.5.2.2.w O 9 D q.{.{.&X{.].{. X_.[.&X}.`.;X2Xt.F `.e.'.F . . % % = & = * N N V V V C C C C U U U U U U U U U U U U U U U U U U U U ",
"U U U U U U U U U U U U U U U U U U U U U C C C C V V N * & & & Z m m X - oX7Xr.}.}.}.[.].].[.}.t.t.t.t.t.t.M.[.=Xy.G 9 O D D D *.' ' ' ' ' ` ` ` ` =.=.3.3.3.=.o.o.o.4.4.4.6.4.o.3.4.6.6.9.g.g.Z.Z.C.C.C.C.G.C.D.D.D.D.G.G.D.D.G.A.T.^.T.!.I.c k f k  .9.U.R.yXrXrX9XH.0XrXpXsXpXR.sXsX$.~ A.ZXdXCXJ.%.fXZXuXuXdXdXkXkXjXgXgXiXgXgXhXhXhXhXhXhXhXhXlXlXcXcXcXCXuXuXuXG.G.R.pXY.pXpXaXrXeX0XrX0X9XqX0XtXtXtXtXtXtXtXiXiXiXfXjXjXiXfXkXkXkXaXfXfXiXfXkXkXBXCXDXFXbXdXvXCXZXR.%.+.+.6.b.5.j l 1.<.| X.+.A.Z.Q.pXpXBXjXaXtXjXjXjXkXkXkXjXjXjXiXiXtXtXtXtXtXtXiXiXiXiXiXiXiXiXiXiXiXiXtX0XtXtXiXtX0XrX0X9X9XrXtXyXR.MXT.X.~ ~ !.VX~.uXaXiXiXiXuXuXuX0XuXaXaXiXuXwXuX0X0X0X0XwX0X0X0X0XJ.J.H.wXiXiXuXaXfXdXdXkXdXdXdXfXfXaXaXiXuXuXuXiX0XaXdXMXVX!.| a | X.+.A.T.R.F.H.H.R.H.S.S.H.uXG.G.T.T.A.O.+.C.C.G.f.O.f.~.~.h.D.D.C.C.h.f.f.g.d.d.d.d.g.g.7.7.4.4.6.7.7.7.7.5.2.2.w O 9 D q.{.+X].{.&X_.y.].|.oX.X[..X;X].e.`.r.[.F . o % % * & * * N N N V V C C C C U U U U U U U U U U U U U U U U U U U U ",
"U U U U U U U U U U U U U U U U U U U U U C C C C C V N * & & = m E * o - OX7Xt.[.&X&X].t.[.|.}.]._.].].].t.t.`.6Xm.K 9 O D D z *.' ' ' ` ` ` ' ` ` *.=.3.3.;.=.o.o.o.4.4.4.7.6.o.3.6.7.g.g.g.g.C.C.C.C.G.G.G.G.D.D.D.D.G.G.D.D.C.B.T.R.E.!.b., k i i l 5.g.U.Y.rXeXH.F.F.R.pXsXNXVXQ.Q.G.W @.KXVXZX0X%.dXZXaXuXdXdXkXkXjXfXiXtXwXiXiXiXiXiXgXfXjXkXjXhXlXvXlXcXuXuXR.D.D.T.T.D.pXpXpXrXeXrXiXaXJ.J.9X0XtXtXtXiX9XqX0XtXtXiXiXaXiXfXkXBXkXkXfXfXtXfXkXBXBXCXDXFXvXvXvXZXkXJ.O.@.@.o.V.b./ l 1.....X.+.6.Z.Q.pXaXaXjXtXtXiXjXkXkXjXjXjXjXjXiXtXtX0X0X0XtXtXiXgXjXiXiXiXfXfXiXiXiXiXtX0XrXiXiXtX0XiXuXrXrXyXtXaXpXMXC.~ d 6 P.VX~.uXiXiXiXuXuXuXuXuXiXfXfXiXuXuXuX0X0X0X0X0X0X0X0XwX0XH.0XaXfXaXuXdXdXdXkXkXkXkXdXdXdXdXaXaXiXuXuXH.J.H.pXsX%XV.4 a l | X.+.C.G.S.G.H.R.G.B.B.G.~.sXQ.R.T.d.} d.~.E.T.h.$.d.U.E.T.D.D.C.C.h.f.f.g.d.d.d.d.g.g.7.7.4.4.4.6.7.7.7.6.0.2.< O 9 D q.[.|.G t.-X_.G ].;X]..X|.].|.|.t.r.).}.F o X % % = & * * N N N V V C C C J U U U U U U U U U U U U U U U U U U U U ",
"U U U U U U U U U U U U U U U U U U U U U C C C V V N E * = * * N E N   @ ;X6Xt.M.*X#Xm.].}.].`.}.).).`.`.e.Y P e.F G 7 O D *.` *.' ` ` ` ` ' ' ` ` =.;.3.3.3.3.;.3.4.4.4.4.7.7.7.4.4.3.4.4.g.g.h.h.h.h.C.C.h.h.D.D.D.D.D.D.S.S.h.B.G.G.C.P.9.> > a c  .<.9.L.C.U.F.F.D.l.D.Y.R.pXpXpXpXD.$.%.H.VXdXuXuXuXaXaXaXjXaXaXiXiXgXiXgXtXwXwXiXiXiXiXiXgXhXkXhXkXkXkXkXuXsXpXS.S.R.pXR.R.R.eXH.0XeXiXaXrX0XrXrXtXtXrX0XrXiXtX0X0XiXiXrXuXuXiXaXkXkXvXvXhXfXiXaXkXCXCXvXvXCXCXCXCXiXk.} $.T.~.Z.| ..1.a | X.+.n.Z.H.uXiXtXxXgXjXjXjXjXjXaXaXaXaXaXaXaXaXaXiXiXrXrXiXiXaXaXaXaXaXaXaXuXrXaXiXrXrXrXrXrXeXuXH.F.9XyXjXaXR.MX^.~ d ~ %X%XR.fXiXiXwXuXuXaXaXuXuXrX0XrXuXiXaXH.H.uXuXrXH.rXrXdXrXF.F.H.uXuXuXuXiXaXaXaXaXaXaXaXaXaXiXiXtXrXrX0XH.rXR.R.%XI.s > l ..+.+.d.h.h.G.U.T.D.h.h.D.U.E.E.E.E.T.g.a.h.C.g.4.a.g.C.L.C.h.h.g.d.d.d.4.O.d.a.a.a.a.4.4.O.4.4.4.4.4.4.4.3.0.2.3 + 9 D K ].].q.e.+X{.=XHX+X{.#X:X|.{.{.Y `.`.`.C X X % X % & * * * * N V C C C C C U U U U U U U U U U U U U U U U U U U U ",
"U U U U U U U U U U U U U U U U U U U U U C C C V V N E * = * * N * N o % ;X6XM.{.{.m.q.t.`.].}. X).).).).e.Y Y e.F P 7 + v *.` *.` ` ` ` ' ' =.` =.=.;.3.3.3.3.;.4.4.4.4.4.7.g.7.4.4.3.4.8.g.g.h.h.h.h.C.C.h.h.D.D.k.D.D.D.S.k.D.D.T.T.U.%XP.s > a l  .<.9.L.C.D.D.D.D.l.D.Y.R.pXR.R.uXJ.%.$.%.S.S.S.J.0XuXiXuXiXiXiXiXiXiXiXiXtXuXiXiXiXiXiXiXfXaXjXkXkXkXkXdXrXpXuXB.f.H.rXF.rXrXrXeXH.0XrXaXtXrXrXrXtXtXrX0XF.rXiXrXrXaXiX0XiXuXiXaXdXkXhXhXfXiXuXuXdXkXCXkXkXhXCXCXCXkXrXF.pXNXMXA./ X.n.| | X.+.A.Z.H.uXiXiXgXgXgXjXjXjXiXaXiXiXiXiXaXaXiXaXaXiXiXiXiXaXaXaXaXpXpXpXrXrXrXpXrXrXrXrXrXrXR.Q.H.F.9XtXjXaXR.MX!.s 4 d %XNXsXaXiXiXwXuXuXaXaXfXaXuXrXrXrXrXrXR.rXuXuXuXrXrXuXaXrXF.F.H.rXuXrXrXrXrXiXaXaXaXaXaXaXaXaXiXrXrXrXrX0XpXpXpXVX!./ : a ..+.6.g.h.h.U.U.U.U.h.h.L.U.U.U.U.E.U.j.a.a.j.4.O.a.h.C.C.C.h.h.d.d.d.a.4.4.j.j.a.a.a.4.4.4.O.O.o.o.o.o.o.3.<.2.2 + 9 S Y ].`.G e.*X*X*XHX=X{.+X-X{.}.[.q.`.m.`.B X X % X & & * * * * N V C C C C C U U U U U U U U U U U U U U U U U U U U ",
"U U U U U U U U U U U U U U U U U U U U U C C C V V V N * = * * Z = N X % oX4X{.HX=XM.y.t.r.m.].].).).).).T T T e.F P 7 + v *.` *.` ` ` ` ' ' =.*.=.=.;.3.3.3.3.3.4.7.7.4.4.7.g.4.4.4.4.4.7.g.g.h.h.h.h.C.C.h.h.C.h.k.l.D.D.l.k.D.D.R.T.P.!.P.s > a l ` <.9.L.C.h.l.D.l.l.D.Y.R.uXF.D.R.rXD.%.%.%.%.S.J.0XuXuXuXrXrXiXiXiXtXtXrXiXiXiXiXiXiXiXiXfXfXaXdXaXaXfXaXuXpXuXS.f.F.R.H.uXuXrXeXH.H.eXrXiXtXrXrXrXrX0XF.J.rXiXiXiXaXiX0XiXiXiXaXaXaXaXaXwX0X0XuXaXkXkXhXhXhXkXkXkXkXkXaXNXpXT.( 4 | n.X.| X.+.A.Z.H.uXiXgXgXjXjXjXjXgXiXiXiXtXtXiXtXiXiXaXaXiXiXaXaXjXkXaXpXaXrXrXeXeXR.rXeXR.eXrXyXrXrXR.H.F.0XtXyXyXR.MX!.d > 4 %XVXNXaXiXiXwXuXiXaXfXkXdXaXuXrX0X0X0XrXuXpXpXuXuXuXpXrXH.F.F.H.R.R.H.iXrXrXrXrXrXaXaXaXaXaXaXrXrXeXeX0X0XuXuX~.MXW./ : a  .+.6.h.h.h.U.U.U.h.h.h.L.U.h.h.U.U.U.h.j.j.{ O.4.d.h.C.h.g.h.g.d.d.d.d.a.4.j.j.a.4.4.4.4.O.O.O.o.o.o.o.o.3.1.2.9 + 9 F Y ].].G e.-X-X{.$X=X{.+X=X{.{.].G `.m.`.B X X & & & & * * * * N V C C C C C U U U U U U U U U U U U U U U U U U U U ",
"U U U U U U U U U U U U U U U U U U U U U C C C V V V N * * * * C & m - % }.-X[.KX=X|..X}.t.`.}.`.).).).).T T ).e.F Y 7 + v *.` ` ` ` ` ' ' =.=.=.=.;.3.3.3.3.3.4.7.7.7.7.4.7.g.4.4.4.4.4.7.g.g.g.h.h.h.C.C.h.h.h.h.h.k.D.D.k.k.D.C.U.C.g.L.6.4 > 5 l l <.9.L.h.h.h.h.l.l.D.Y.T.R.D.D.R.uXrXH.J.J.J.J.J.H.H.0XH.0XrXiXiXiXiXtXrXiXiXiXiXuXuXuXuXfXfXaXdXaXaXfXaXuXsXpXH.S.H.uXuXrXrXeXH.H.H.eXrXiXiXrXrXrXrX0XF.9XrXiXtXtXaXiX0XiXiXuXuXuXuX0X0X0X0X0XrXaXdXkXkXhXhXkXkXjXfXaXaXpXG.d.~ , | n.X.| X.n.A.T.Q.iXaXjXjXjXjXjXgXiXtXtXtXtXtXrXrXtXtXiXiXiXaXaXaXjXaXaXaXrXrXeXeXrXrXR.H.H.R.rXyXrXrXH.J.H.0XtXtXrXR.VX^.d > 4 !.MXpXaXiXiXiXiXaXfXdXkXkXaXuXrX0X0X0XuXaXaXaXuXuXuXpXrXH.H.H.H.R.R.H.aXaXrXrXrXrXaXaXaXaXaXuXrXeXeX0XF.J.H.G.C.T.9.4 : a | ..6.h.D.l.D.L.h.h.h.h.h.U.h.U.U.U.U.h.v.U.a.a.a.d.g.g.d.d.g.d.d.d.d.d.a.a.j.a.4.4.4.4.O.O.4.4.4.4.3.o.3.3.<.2.e + q G Y }.}.F G :X4XM.M.*X{.+X=X{.{.M.G `.`.`.C X X % & & & * * * * N V C C C C J U U U U U U U U U U U U U U U U U U U U ",
"U U U U U U U U U U U U U U U U U U U U U J C C V V N E * = * * J = m - @ `.&XM.<XM.{.-X.X`.}.}.].).).).e.Y T ).r.F Y 7 O v *.` ` ` ` ` *.*.*.<.=.=.;.3.3.3.3.3.4.4.7.7.4.4.7.7.4.4.4.4.4.7.g.g.g.g.g.h.C.C.h.h.h.h.f.h.k.k.k.f.h.h.D.f.a.V.6.4 , a h c <.b.K.g.s.s.f.h.l.D.D.D.T.F.H.T.H.R.uXpXuXR.J.S.S.S.J.F.0XrXiXaXaXaXtXrXiXiXiXuXuXuXrXrXfXaXaXdXkXdXaXdXaXsXsXR.D.H.uXaXH.H.H.F.J.H.rXaXiXiXtXtXrXrX0XF.tXaXiXrX0XtXtX0XiXuXrXrX0X0X0XH.H.0X0XuXuXaXdXkXkXhXkXkXkXfXiXiXpXG.B.X.~ X.n.X. .+.n.Z.Q.uXaXjXgXgXjXjXjXgXiXtXtXtXtXtXtXtXtXtXtXtXiXiXaXaXaXaXyXrXrXeXeXrXrXrXH.F.F.R.rXuXrXrXG.G.H.0XrXrXrXuXMX^.d 4 4 !.MXQ.aXiXiXiXaXfXdXdXkXdXaXuXrXrXrXrXpXaXaXpXuXuXuXpXR.R.R.R.R.rXrXrXaXaXaXrXrXiXaXaXaXiXuXrXeXeXeX9XJ.S.F.S.d.C.6.4 > a | ..6.B.D.l.h.h.h.h.h.h.h.h.U.U.U.h.h.U.U.E.U.C.h.d.d.d.d.d.d.d.a.d.d.d.d.a.a.a.4.4.4.4.4.[ 4.4.4.3.3.3.3.5.2.8.e + z F Y }.[.F H -XHX{.u.:X+X+X-X#X.XM.F `.[.'.F X X X X & & * * * N N V C C C C J U U U U U U U U U U U U U U U U U U U U ",
"U U U U U U U U U U U U U U U U U U U U U J C C V V N E * = * * J = m - O `.&XM.#X2.[.-X[.r.`.r. X].].).T I Y ).r.F Y 7 + v *.` ` ` ` ' *.*.<.<.3.3.3.3.3.3.3.3.4.4.7.4.4.4.4.7.4.4.3.4.4.7.g.V.g.g.g.h.C.C.h.h.h.f.f.h.h.k.k.f.s.s.C.f.g.P.K.^ a h k c ..V.L.g.j.j.j.f.l.D.D.l.Y.R.R.D.k.S.H.uXpXuXH.F.S.F.0XrXeXrXtXiXaXiXiXiXiXuXuXrX0X0X0X0XiXiXfXaXdXdXdXdXuXpXpXR.S.S.R.pXF.F.F.F.F.H.rXaXiXtXrXrXrXrX0XF.iXaXiX0X0XrXtXrX0X0X0X0X0X0X0XH.J.0X0XuXuXaXdXkXfXhXkXlXlXkXkXkXpXR.T.n.| X.N.l ..+.A.Z.Q.uXaXjXxXgXgXgXgXiXiXtXiXiXiXtXtXtXiXiXrXtXiXiXiXiXrXrXeXeXeXR.R.R.eXeXH.F.F.H.rXrXrXrXD.G.H.eX9X9XrXrXQ.P.d 4 d %XMXpXuXiXiXiXfXdXdXkXdXdXaXuXrXrXrXuXuXpXpXuXrXR.rXuXR.R.R.R.R.rXuXaXaXaXaXaXtXaXaXaXrXrXrXrXeXeXeX9Xl.S.H.D.C.E.P./ a l | ..4.B.D.l.h.h.j.j.h.h.h.h.U.U.U.h.j.h.U.U.T.T.C.g.a.a.d.d.d.a.a.a.d.d.d.a.a.7.4.4.4.4.O.[ o.o.o.o.o.o.o.3.2.8.h $ q F Y }.[.G A &XHXM.u.=X#X#X<X-X;X].S m.}.}.F % X X X & & * * * N N V C C C C C U U U U U U U U U U U U U U U U U U U U ",
"U U U U U U U U U U U U U U U U U U U U U C C C V V N E * = * * J * N - @ }.-X[.<XM.&X<X].`.|.w.XX X}.).T F I ).e.F P 7 O v *.` ) ` ` ' *.=.<.=.3.3.3.3.3.3.3.3.3.4.4.4.3.3.3.4.4.4.3.4.4.7.g.V.h.h.g.h.C.C.h.h.h.h.f.f.h.h.f.f.s.s.C.h.g.E.P./ c c l l ..V.L.h.h.j.j.h.l.z.l.f.Y.R.T.D.S.F.H.H.uXuXrXR.H.R.rXuXeXeXrXrXtXtXtXtXrXrXrXrXrX0X0X0X0XrXrXiXaXaXaXdXuXpXpXR.S.k.H.aXH.H.H.F.F.F.eXrXtXrXrXrXtXrXrX9X0XtXiXrXrXiXiXrX0XH.H.H.0XrXrX0XJ.H.rXrX0XrXiXaXfXfXkXkXkXjXkXkXpXR.Z.6./ | ..l X.+.A.Z.R.uXaXjXtXtXxXgXgXiXiXiXaXiXiXiXiXiXaXiXrXtXiXiXtXrX0X0XY.Y.H.H.F.D.l.l.R.H.H.R.rXrXrXR.D.G.eXeX9X9XeXuX~.P.d 4 4 %XMXpXuXiXiXfXdXdXkXhXdXaXaXuXrXrXrXrXrXuXuXrXH.H.H.R.H.H.H.H.H.rXpXdXaXaXaXaXaXaXiXiX0X0XeXeXeXeXeX0XJ.J.eXF.D.Q.W...l  . .| +.h.D.l.h.g.a.a.j.h.h.h.h.U.U.h.j.h.h.d.h.C.C.B.d.d.d.g.a.O.O.a.d.d.d.a.7.7.7.4.7.4.3.3.o.3.3.3.o.o.o.<.<.8.h $ 9 S Y }.].q.A {.4Xu.2.=X*X;X6X6X<X[.H m.}.}.F X X % X & & * * * N N V C C C C C U U U U U U U U U U U U U U U U U U U U ",
"U U U U U U U U U U U U U U U U U U U U U C C C V V N E * = * * J * N % # oX4X|.HX#X,X6X.X;X7X&XoXXX X).P Z I ).e.F Y 7 O v *.` ) ` ` ' *.*.<.<.3.3.3.3.3.3.3.3.3.4.4.4.3.3.3.3.4.3.3.4.4.7.g.L.h.h.h.h.C.C.h.h.h.f.f.f.h.h.k.f.s.f.C.s.a.L.K.^ ` ` l c ..K.L.h.h.j.j.h.l.l.h.s.D.D.D.D.R.pXrXF.D.F.H.H.F.D.F.F.0X0X9X9XrXrXtXtXrXrXrXrXrX0X0XH.F.H.0XrXuXiXaXaXpXpXpXQ.D.S.R.sXR.R.H.F.F.F.H.eXrXrXrXrXtXtXrX0XJ.0XtXtXiXjXaXrXF.F.F.H.0XrXrXrXS.F.0X0XH.H.rXiXkXhXfXiXiXiXiXaXsXR.Z.6./  .N.X.| +.A.Z.T.rXiXiXqXtXtXtXgXiXiXiXaXaXaXaXaXaXaXaXtXiXiXiXtXrX0XF.H.H.F.F.l.k.%.%.R.H.H.R.rXrXrXR.S.G.eXeX9X9XeXuXMX^.d 4 4 !.MX~.aXiXiXfXdXkXhXhXkXdXiXrX0XH.H.0XrXrXrXH.F.F.F.H.F.F.F.F.F.R.aXNXrXaXaXaXiXrXrXrXH.H.0XeXeXeXeXeXJ.J.eXD.f.T.P./  .....| o.h.D.l.h.j.a.a.j.h.h.h.g.U.U.L.h.h.h.4.$.d.B.C.h.d.d.g.O.O.O.a.d.d.d.a.7.7.4.4.4.4.3.3.3.3.3.3.3.5.5.5.<.8.h + 9 S Y }.t.e.H {.4XM.u.<X=X=XHX5X4X{.H t.[.'.F X X % & & & * * * N N V C C C C C U U U U U U U U U U U U U U U U U U U U ",
"U U U U U U U U U U U U U U U U U U U U U C C C V V N * * E N N C N m - O m.6X{.,X#X<X*X6XLX-XOX).).e.P I F I Y T F q.7 + v *.` j ) ` ' ` ` ` ` <.3.3.3.3.3.3.3.7.7.4.3.[ [ 3.4.4.3.3.4.4.4.4.4.g.g.g.g.h.h.s.h.s.s.f.f.f.f.k.k.h.h.h.a.4.P.P.^ j c l l ..9.V.g.a.a.a.j.j.h.h.h.U.G.D.G.D.D.D.D.G.D.D.F.F.R.R.H.H.H.H.eXeXyXyXtXiXuXrXrXrXeXeXrXrXrXeXH.H.eXrXrXrXsXsXR.k.&.F.pXaXpXuXuXiXrXH.F.0X0X0X0XrXrXiXiXrXrXrXrX0XF.k.&.F.eXH.F.F.H.S.%.H.H.H.eXrXrXH.J.iXiXiXfXgXgXaXaXpXQ.T.+./ X.N.l / 6.+.$.R.kXaXiXqXqXtXgXgXtXtXtXiXiXiXiXtXtXtXtXrXrXrXrXrXrX0X0XH.H.F.F.F.F.F.F.F.H.Y.Y.H.H.R.R.D.G.F.H.9X9XY.T.VX6.~ ~ ( C.MXNXuXfXhXkXCXCXkX0XdXaXuX0XrXuXuXuXuXuXR.H.H.H.R.rXH.H.H.F.F.H.H.H.eXaXaXaXrXrXrXrXeXrXuXrXH.F.H.0X0XJ.H.D.f.A.V.5.l  .5...4.B.D.s.j.j.j.a.j.j.h.h.h.h.h.h.h.j.j.j.d.d.d.d.d.d.d.d.4.4.4.a.a.d.d.a.4.4.4.4.4.3.;.;.[ 3.o.` ) ) ` <.<.8.z + < G e.].].G q M.HX{.HXHX:X*X;X<X6X;Xt.A t.Y N 0 o   * X * & * V N N C C C C C C U U U U U U U U U U U U U U U U U U U U ",
"U U U U U U U U U U U U U U U U U U U U U C C C C V N * * * * E T U Z = = |.GX<X=X-XHX=X[.}.e.`.e.e.e.P I I I Y T F Y 7 + v *.` j ` ` ' ' ` ` ` =.3.3.3.3.3.3.3.7.4.4.3.[ [ 3.4.3.3.3.3.4.4.4.4.g.g.g.g.d.h.s.s.h.h.h.h.h.k.l.S.s.f.C.d.d.E.P./ s l l c ..9.V.g.a.a.s.j.j.h.h.l.U.U.U.D.D.D.D.D.G.D.D.D.F.F.H.H.H.F.F.F.F.eXeXyXaXuXrXrXrXeXeXrXrXeXH.H.H.H.eXR.F.Q.pXuXF.D.rXpXuXrXrXrXrXrX0XH.rX0X0X0X0XrXrXrX0X0XrX0X0XF.J.z.F.H.H.F.F.0XF.&.rXH.H.H.rXrXrXrXiXwXiXiXiXiXaXaXpXQ.T.+./ X.N.| ~ d.d.%.R.aXtXtXqXtXxXgXxXtXtXrXrXrXrXrXtXrXrXrXrXrXrXrXrXrX0X0XF.F.F.F.F.F.F.F.F.H.R.eXR.eXrXuXG.G.H.9X9X9XeXR.Q.o.s d ( P.NXMXdXvXvXhXkXkXuXJ.dXaXuX0XrXuXuXrXuXrXH.D.S.D.F.H.H.H.H.H.H.H.H.R.rXrXrXrXeXeXrXtXrXrXiXrX0XH.H.0X0XF.H.T.G.P.K.5., l  .| o.h.D.f.j.j.j.j.j.j.h.h.h.h.h.h.j.j.j.j.j.a.a.a.a.a.a.a.4.O.4.4.a.a.a.a.4.4.4.4.3.3.3.3.3.3.o._ ^ j ^ ` ` 2.c $ 9 F e.`.e.A q t.6X+XHXHX$X*X-X6X5X4X].F F Y 0 % o o * & * & * V E N C C C C C C U U U U U U U U U U U U U U U U U U U U ",
"U U U U U U U U U U U U U U U U U U U U U C C C C V N * * * * * C E = o . ].HX4X2.M.=X].G F F m.e.e.e.T Y I I Y T F Y 7 + v *.` x ` ' *.' ` ' ' =.=.;.3.3.3.3.;.4.4.4.3.[ [ [ 3.3.3.3.3.4.4.4.4.7.a.a.a.d.d.s.s.h.h.h.h.h.k.S.S.h.h.D.h.g.P.V.s 5 s l l ..9.K.g.a.s.j.j.h.h.l.l.U.U.D.D.D.D.D.D.D.D.D.D.D.F.F.F.Y.F.z.z.z.eXeXyXpXrXrXR.R.R.R.R.rXR.R.H.F.F.H.F.f.S.H.H.H.R.uXpXR.H.H.H.H.eXeX9XrXrX0X0X9X0X0X0X0X0X0X9XF.F.J.J.F.H.H.F.H.eXH.D.rXR.F.F.R.rXaXiXwXwXwXwXiXiXiXiXpXQ.T.+./ X.n.| ( C.T.D.uXaXiXgXtXxXgXgXtXtXtXrXrXrXrXrXrX0X0X0XrX0X0XrXrXrX0X0XF.F.F.F.F.F.F.F.H.R.eXeXR.H.R.R.H.H.H.0XrXrXrXR.T.+.~ d ( P.VXpXkXCXCXkXdXaX0XJ.fXaXuX0XrXuXrXrXuXR.F.S.S.S.D.F.H.H.H.H.H.H.R.R.rXeXH.H.0XrXrXrXrXrXrXrX0XH.H.0X0XH.rXuXR.T.V...: a / | o.g.h.f.j.d.j.j.j.g.h.h.h.h.h.g.d.j.j.a.a.4.7.4.4.4.4.4.4.O.4.4.4.a.7.7.4.4.4.4.3.3.3.3.3.3.;._ j r r j h ,.c < 9 S K t.Y F A q.+Xy.HX<X#X*X;X=X4X4X}.F B }.B   X % * * * & * V E N C C C C C J U U U U U U U U U U U U U U U U U U U U ",
"U U U U U U U U U U U U U U U U U U U U U C C C C V N * * * * * J E E % = |.GX5X<X,X<X&X[.m.e.m.].].).).T P I I T F Y 7 + v *.` ) ` *.*.' ` ' ' =.=.;.;.;.;.;.;.3.4.3.3.[ [ [ [ 3.3.3.3.4.4.4.4.4.4.4.7.a.d.d.d.s.s.s.f.f.h.k.f.D.D.U.h.a.g.3.> , a l l <.9.K.g.j.j.j.j.h.l.l.l.U.U.D.D.D.D.l.l.D.k.k.l.D.D.D.D.Y.F.F.z.z.eXeXyXrXrXR.R.R.R.R.R.R.R.R.R.F.F.F.F.f.%.%.S.H.rXrXrXR.H.H.H.F.H.0XeXrX0X0X9XF.F.9X0XrX0X0XF.J.J.J.J.F.H.H.H.F.F.F.F.eXH.F.D.F.R.eXrX0XwX0X0XtXtXrXrXpX~.^.6./ X.n.| ( T.pXR.pXaXiXjXxXxXgXgXtXtXtXrXrXrXrX0X0X0X0X9X9XF.9X0X0X0X9XF.F.F.F.F.H.H.H.R.R.eXeXH.F.l.l.S.H.H.0X0XrXrXrXR.Q.6./ d ~ P.VXR.aXhXkXkXdXaXuXuXaXiXuX0XrXrXrX0XpXuXH.F.D.D.F.F.H.H.H.H.H.H.R.R.eXF.l.F.eXrXrXeXeXeXeXeXH.H.H.H.iX0XuXuXR.C.5.s , d  ...6.f.h.s.s.d.j.j.j.g.h.h.h.h.h.j.j.j.a.a.4.4.4.4.4.4.4.4.:.{ :.:.4.4.7.4.4.4.4.3.3.3.3.3.3.3.' ` ^ j s j h ,.c 1 9 B K `.e.t.].t.t.D <X:X<X6X:X#X;X,X|.K Y 7Xr.  & & & * * & * V * N C V C C C U U U U U U U U U U U U U U U U U U U U U ",
"U U U U U U U U U U U U U U U U U U U U U C C C V V N * * * N N U N m = = [.7X,XKXHX4X,X&X`.r.e.].`.).r.T Y I C T F Y 7 + v *.` ` ` *.<.*.` ` ' =.=.;.;.;.;.;.;.3.3.3.3.[ [ [ [ 3.3.o.3.4.4.4.4.{ O.4.4.a.d.d.s.h.s.f.h.k.D.k.k.G.D.U.C.d.g.[ > > a l ` <.9.V.g.j.j.j.j.h.h.v.v.U.U.z.z.l.l.l.l.l.k.k.k.l.l.l.l.F.z.l.l.z.F.eXeXeXR.R.R.R.R.R.R.R.R.R.R.R.R.H.F.D.f.%.%.D.R.uXR.rXrXeXH.F.F.H.eX0X9XF.J.F.9X0XrXrXrX0XF.J.J.z.k.eXR.H.H.F.l.l.F.eXR.F.F.H.H.F.J.0X0X0X0X0X0X0X0XpX~.^.6.~ X.N.| ~ T.pXR.aXiXtXgXgXgXgXgXtXtXtXiXrXrXrX0X0X0X9XF.J.J.J.F.F.9XF.F.H.H.H.H.H.eXeXeXF.H.H.F.F.l.D.D.H.G.H.9X9X9XeXR.Q.+.~ 4 s I.MX~.aXfXhXkXkXfXfXdXaXiXuXuXrXrX0XH.uXrXR.F.D.D.D.F.H.H.H.H.H.H.H.H.F.z.l.F.rXrXrXH.rXrXeXeXeXeXeX0XiX0XrXrXT.C.3.s , a  .5.g.h.h.f.s.d.d.j.g.h.h.h.h.h.h.j.j.a.a.4.:.:.:.:.:.:.:.:.7.:.:.:.7.7.:.:.4.4.3.3.3.3.;.;.=.' ' ` ` ) ^ j h c h : w B Y }.].&X5X-X].-.GXGXHXGXHX<X4X6X|.S e.LX}.X * & X * * X = N * E C V C C C J U U U U U U U U U U U U U U U U U U U U ",
"U U U U U U U U U U U U U U U U U U U U U C C C V V N * * N N V U E * % O q.;X[.#X=X.X*X XF r.r.t.e.T P Y Y I I T F q.7 + v *.` ` ' <.<.=.' ` ' =.=.=.;.;.;.;.[ ;.3.3.3.3.[ [ [ 4.4.3.3.3.3.3.[ { { 4.4.a.d.s.s.D.D.k.D.D.G.D.D.D.f.h.C.d.g.3.6 : 5 l  .5.9.g.g.j.j.j.j.h.h.l.h.v.z.l.l.l.l.l.l.l.h.k.k.l.l.l.k.x.x.x.l.z.z.z.F.Y.F.F.F.F.Y.R.R.F.F.R.R.R.R.Y.F.R.D.%.%.S.R.rXR.R.rXrXH.F.J.F.H.F.F.J.J.J.F.0X0X0X0X0XF.J.J.k.l.eXR.H.H.D.k.k.F.pXrXeXR.R.R.F.F.0X0X0X0X0X0X0X0XrXQ.^.6.s | N.| ( T.pXpXaXkXjXjXxXgXgXgXtXtXiXiXtXtXrXrX0X0X0X9XJ.J.J.F.9X9XF.J.H.H.H.H.H.H.H.R.l.F.F.F.F.F.H.H.D.S.F.J.9X9XH.H.T.( 4 d ~ V.MXMXkXhXkXvXkXaXuXaXaXiXuXuXuXrXH.F.H.H.H.F.D.S.S.k.H.H.H.H.F.F.F.D.l.l.F.H.rXrXeXH.aXtXrXrXaXaXiXrXrXH.H.H.U.C.6.s : , l 5.g.f.s.f.j.d.j.j.j.h.h.h.h.h.h.j.j.a.a.4.:.:.:.:.:.:.:.:.7.:.:.:.7.:.:.:.4.3.3.3.;.;.;.=.' ` ` ` ' ` ` ) j c 3 + w A e..Xt.}.5X5X+Xt.PXPX:XHXGXHXHX5X[.7 e.KX'.% * & X * * X = N * E C V C C C J U U U U U U U U U U U U U U U U U U U U ",
"U U U U U U U U U U U U U U U U U U U U U C C C C V N * * * * N ).C Z 0 = ].5X<X#X,X#X4X;XT ].}.t.e.P I I Y I I T F Y 7 + v *.` ` *.<.<.=.' ` ' =.=.=.=.;.;.;.[ ;.3.4.4.3.[ [ [ 4.4.3.3.3.[ [ [ [ { 4.4.j.d.s.h.D.h.k.k.D.G.D.D.h.$.a.a.4.4.o.6 : 5 l  .5.9.g.j.a.j.j.j.j.h.h.h.v.l.l.l.l.l.l.h.l.h.f.k.l.l.l.k.x.l.z.F.Y.Y.F.F.Y.F.F.F.F.Y.R.R.D.F.Y.R.R.R.R.R.D.B.%.f.S.H.H.F.S.F.eXH.F.J.F.H.0XF.J.J.J.J.F.F.J.J.F.9XF.F.J.z.eXY.Y.Y.D.k.l.rXpXrXY.F.F.Y.Y.H.rX0X0X0X0X0X0X0XR.Q.^.+.s | 1.| ~ C.Q.R.aXBXjXjXxXgXxXtXtXiXiXaXaXiXiXtXrXrX0X0XF.F.F.0XrXrX0X0XF.F.F.F.F.F.F.F.l.D.F.F.l.k.l.S.B.S.S.z.z.J.F.D.T.~ d ( 5.I.MXNXCXhXhXvXkXuX0XiXaXiXuXuXuXrXH.J.D.F.H.H.H.F.S.k.H.H.H.H.F.D.S.k.l.F.F.9X9X0XeXrXaXrXrXrXaXaXiXrXrXJ.k.f.f.g.3.s : , s 5.g.d.a.j.j.j.j.j.j.j.h.h.h.h.h.j.j.a.a.4.:.:.:.:.:.:.:.:.7.7.7.7.7.7.7.:.;.3.;.;.=.=.=.=.=.' ` ` *.*.` j e h + O 9 S y.|.t.e.-X6X{.y.PXPX$X6XHXHXGX7X|.B t.7Xr.% * % X & * X & N * * V V C C C C U U U U U U U U U U U U U U U U U U U U ",
"U U U U U U U U U U U U U U U U U U U U U C C C C V N * * * * * U * = % = ].HX5X&X*XM.<X-Xt.].t.].t.Y P P Y I I T F q.7 + v *.` ` ..<.<.=.' ` ' =.' =.' ;.[ ;.[ ;.3.4.4.3.[ [ [ 7.4.4.;.;.[ [ [ { { 4.4.d.h.h.h.h.s.s.s.h.D.D.h.h.O.O.{ ( _ ^ : : a c  .5.9.g.a.a.a.a.j.j.h.h.h.v.v.l.l.l.l.h.h.l.k.k.k.l.l.l.k.F.Y.eXyXyXyXeXeXF.F.F.F.F.Y.Y.Y.l.D.F.Y.R.R.R.T.d.$.$.d.B.D.S.f.f.S.H.H.F.S.F.H.rX0XF.J.x.k.J.J.x.x.J.9X0X9XF.F.R.F.F.H.F.k.F.pXrXR.l.k.l.F.eXeXtXrXtX0X0X0X0X0XR.R.T.+.s | 1./ 6 O.d.d.F.tXtXqXxXxXxXxXtXiXgXjXaXfXiXiXrXrXrX0X0X9XeXrXrXtXrXrXF.D.D.D.D.D.k.k.D.D.D.k.%.$.#.$.f.f.k.k.l.l.S.S.~.X.~ n.Z.P.%XNXVXfXfXkXkXiX0XaXiXiXuXuXuXrXF.J.D.H.R.uXrXH.D.S.R.R.R.H.F.S.k.f.F.F.H.F.J.J.rXaXeXH.H.H.rXrXrXH.rXS.%.$.O.o./ > , i / 5.A.a.$.$.j.j.j.a.j.j.h.h.h.h.h.j.a.a.:.{ :.:.:.:.:.:.:.:.a.7.:.7.a.7.:.:.;.;.;.;.=.=.' ' =.' ` ' *.*.` x 2 3 O O z G w.}.oXt.;X6X{.-.GXHX<X6XHXHXGXGX6X].].4XY & 0 & X X * X & N * * V V C C C C U U U U U U U U U U U U U U U U U U U U ",
"U U U U U U U U U U U U U U U U U U U U U J C C C V N N N * * & = * 0 %   e.t.|.;X-X|.#X4X{.G t.m.m.w.y.Y F H I H H H q + z 2.x <.....` ` ` _ ( _ ( ' ' [ [ ;.;.' ' ;.;.;.;.;.;.;.[ [ } } } } } O.{ 4.4.a.j.j.j.h.h.C.U.U.U.U.U.d.O.+.o.r 5 9 < < 9 x  .3.6.g.d.$.a.a.j.s.s.j.s.j.s.l.D.U.U.l.l.D.l.l.l.z.F.Y.eXyXeXY.H.Y.eXyXeXF.J.F.F.F.F.F.F.Y.U.z.l.s.l.R.MXn.X.( 6.C.C.h.h.D.H.rXrXeXF.F.H.rXrXrX9Xz.x.J.9XJ.k.&.&.k.F.0XrXrXJ.F.D.S.k.S.eX0XH.J.k.J.0XrXrX9XeXrX0X9X9XqX0XrXsXQ.+.~ /  ...| A.^.~.R.eXrXtXqX9XqXqXqXtXqX0X0XiXiXiXrX0XH.H.eXrXyXyXyXrXF.D.l.h.h.l.h.l.h.h.h.h.s.s.f.h.s.%.d.B.D.F.F.D.D.C.Q.o./ ( s A.AX~.dXlXlXlXgXtXqXqXtXqX9X9XqX0X0X0XpXG.f.f.d.s.G.R.T.H.G.D.D.k.l.k.F.J.F.J.F.J.F.J.uXuXrXuXrXrX0XH.S.s.O.} ../ 5 : : : <.5.7.L.a.h.$.$.a.a.a.a.a.a.a.a.j.j.a.a.:.:.a.4.a.7.p.7.a.a.a.a.a.7.a.4.:.7.;.;.3.3.;.=.=.` ` <.' ^ j ` ' ` 9 8 O O q G y.}.[.`.}.6X:XD q {.{.&X5X5X|.t. X&X-X6X).= = % - m & * * * N N V V C C C C U U U U U U U U U U U U U U U U U U U U ",
"U U U U U U U U U U U U U U U U U U U U U J C C C V N N N N * = m B B 0 % [. X;X;X-X}.}.-X{.q.M.w.K S F S S F P P G G q + z 2.c <... .` ` ` _ ( ( _ ' [ [ [ [ ;.;.;.3.;.;.;.;.;.;.[ } } } { { } { 4.4.4.a.j.j.j.h.h.h.L.L.L.L.C.d.o.o...h e z 7 8 z x ` <.6.d.d.$.a.s.j.j.s.s.s.s.s.h.l.z.l.l.l.k.k.k.l.F.F.F.H.H.F.F.F.H.eXyXyXJ.J.J.J.F.F.Y.Y.Y.Y.Y.U.v.v.U.E.I.5.5.A.A.g.a.h.Y.Y.R.Y.F.F.H.R.F.9X9XJ.x.x.J.0XF.J.k.k.J.F.0X0XR.H.H.H.J.k.S.0XH.F.J.k.x.9X0X0X9XeXyXtX9X9XqX0XaXNXsXn.| ..N.N.X.n.W.Q.pXsXaXtX9X8X8X9XqXqXqX9XJ.9X0XwX0X0XF.F.eXeXyXyXyXY.Y.F.k.h.h.h.k.h.k.h.h.s.s.s.f.s.s.a.d.B.D.F.G.D.D.C.^.6./ d 6 V.AXpXdXjXzXhXgXtXqXqXtXqXqXqXqX0XqX0XT.G.D.G.C.s.s.D.T.Y.F.D.D.D.D.D.F.J.H.J.H.J.J.J.0XH.H.H.0XrX0XH.D.f.a.o. .c i : 2 3 <.<.4.g.:.h.a.$.a.a.a.a.a.a.a.j.j.j.a.a.:.:.a.a.p.:.:.:.:.:.a.a.p.:.:.:.:.:.;.;.3.;.;.=.' ` ` <.=.` ) ` ) e q 0 @ @ q F e.[.;X|.|.-X&XH G 4X+X].{.{.q.A H F _.;X).0 0 0 - = & * * * N N V V C C C C U U U U U U U U U U U U U U U U U U U U ",
"U U U U U U U U U U U U U U U U U U U U U C C C V V N N N N N * F F Z B 0 OXoX;X;X-X}.[.-X{.y.{.{.m.S g B F e.).r.q.G q < z y.D  . .` ` ` ` _ _ ` ` ' ' [ [ [ ;.3.0.3.;.;.' [ [ [ [ [ [ O.4.4.O.4.4.4.4.4.a.j.d.h.h.h.h.h.h.h.h.d.o.o...x h z w 8 f h x ` o.+.d.$.a.j.j.s.s.j.f.a.j.f.h.l.l.h.h.k.k.k.x.l.l.l.l.z.z.z.z.z.F.Y.eXJ.F.J.J.F.Y.Y.Y.U.Y.Y.R.R.U.h.a.b.5.5.A.7.O.$.l.Y.F.F.l.k.f.k.F.x.J.9XJ.l.x.H.rX0XH.F.F.F.9XH.H.H.J.H.H.H.S.J.0XF.F.J.k.J.F.qX9XeXeXyXtXeX9XqX0XaXVX~.6.| ..N.N.n.b.Z.T.sXNXaX9X9X8X8X9XqXqXqX9XJ.J.qX0XtX0X9X9X9X9XeXY.Y.Y.z.z.x.f.x.k.k.k.k.k.l.k.s.k.k.k.k.s.%.f.F.H.F.F.F.U.E.C.( u 6 P.VXNXaXgXgXfXiXtXtXiXtXtX0XqX0X0X9XH.R.U.G.G.l.s.f.D.Y.Y.F.F.F.F.Y.H.H.F.F.H.F.H.F.H.0XH.F.H.0XrXrXrXG.D.g.6. .l a 2 2 2 *.` ' 7.{ h.a.a.d.d.d.d.a.a.a.a.a.a.a.a.7.4.7.4.4.:.:.:.:.:.:.:.:.:.:.:.:.:.;.3.3.;.;.' ` ` ` *.=.*.' ` r > z g @ O 0 F q.[.&X|.oX-X*Xt.-XPXGX:X*X*X{.]._.q.G oX).= * 0 % & & * * * N N V V C C C C U U U U U U U U U U U U U U U U U U U U ",
"U U U U U U U U U U U U U U U U U U U U U C C C V V N N N N N N Z B m m 0 &XXX&XoX-X}.[.-X#Xt.|.<X.XK g S r.}.XX].t.G w < D y.*.` ` ` ` ` ` ` _ ' ' ' ' ;.[ [ ' ;.=.;.=.` ' ' ;.;.[ [ [ 4.7.7.d.4.4.4.4.a.a.d.g.h.h.g.g.g.g.h.C.g.o.o...x z z w 1 w 2 5 j ..+.d.a.a.j.j.s.j.s.j.a.a.j.h.h.h.h.f.k.k.k.k.x.k.s.%.F.F.F.l.k.k.k.l.F.F.F.F.F.F.Y.Y.U.U.Y.E.E.U.h.O... .o.6.g.a.h.R.F.F.F.l.k.k.k.D.l.F.9XJ.z.z.H.rXeX9XF.F.F.F.J.k.F.D.J.R.H.D.J.F.J.F.J.k.J.J.9XJ.F.eXyXrXrX0X0X0XH.pXT.+.s /  . .b.n.n.A.Z.R.R.J.tXqXqXqXtXtX0X0X0X0XqXqXtXtXtXtXeX9XF.z.z.x.x.x.s.s.s.x.x.x.x.x.z.z.x.x.z.z.x.k.s.k.F.F.F.9XeXR.Q.E.O.u W ~.NXZXaXiXiXrXrXtXiXiXiXrX0X0X0X0X9XF.aXR.D.k.s.s.F.aXF.F.F.eXeXeXeXeX9XH.0X0X0X0X0X0XrX0XF.F.H.0X0XH.G.G.C.6...l h f 3 : x e ^ 7.:.h.a.d.d.d.d.d.d.a.a.a.a.a.a.7.7.4.4.4.:.:.:.{ [ [ :.:.:.:.:.:.{ ;.3.3.;.;.=.` ` ` ` ` ' <.<.` 6 ; 9 q @ @ 0 S q.[.].[.|.-X-XoXGXIXPXHX4X6X6X6X2X|.Y ;X).% % 0 = * & * * * N N V V C C C C U U U U U U U U U U U U U U U U U U U U ",
"U U U U U U U U U U U U U U U U U U U U U C C C V V N N E N V V m m 0 0 0 XX X X].&X}.}.4X;X[.|.&X[.q.F e.]. X].XXt.P 7 < D y.*.` ` ` ` ` ` ` ` ' ' ' ' =.' ' ` ) *.=.` ` _ ' ;.[ [ [ 3.4.7.7.g.4.4.7.7.7.7.g.g.L.K.g.g.g.V.L.L.A.o.+...x k v < < 1 2 h / o.6.A.a.a.a.s.s.d.a.a.$.a.a.d.s.s.f.f.l.l.l.l.l.f.s.$.U.D.U.D.l.f.l.l.l.l.l.l.D.D.U.U.U.D.h.U.U.U.h.4...( ..A.L.L.R.NXU.Y.rXeXF.F.l.D.F.z.z.l.l.l.F.F.H.H.F.D.F.k.f.$.S.h.D.H.H.S.S.F.J.J.J.J.J.F.J.J.F.eXyXyXrX0X0X0XF.Q.G.( d s  . .X.X.X.X.O.$.D.eXaXtXtXtXiXiXtX0X0XqX9X9XqX0XtXtXyXrX9Xz.x.x.x.x.x.x.x.x.x.z.z.z.z.x.x.x.z.z.x.x.k.l.z.F.8XeXeXyXMX~.h.u Q NXNXZXaXiX0X0XrXuXiXrXiXrXeXeXeXH.F.F.Y.D.l.x.x.x.Y.NXz.F.Y.eXeXeXeXyXeXeXeX0XeXeXeXeXeXH.F.H.0XeXeXR.G.L.V.6.' l k h $ : h 5 ) c.j.h.a.a.d.d.d.d.7.a.7.7.7.7.7.7.7.7.4.:.:.:.:.[ [ [ :.:.:.:.:.[ [ ;.3.3.;.=.=.` ` ` ` ) ` *.*.x 5 : 7 0 @ @ q F e.|.].[.|.-X*X[.2XPXGX:X=X4X6X6X2X|.Y ;X`.* * m * m & * * * N V V V C C C J U U U U U U U U U U U U U U U U U U U U ",
"U U U U U U U U U U U U U U U U U U U U U C C C V V V E * E N Z m m 0 m 7 }.). X].;X|.|.6X:X{.|.w.w.y.y.`.|.].e.oXt.G 7 < D y.D ` ` ` ` ` ` ` ` ` ` ` ` ` ` ` ` x ) =.*.` ` =.=.=.[ [ 3.4.7.7.7.4.4.7.7.7.7.g.g.L.K.V.V.g.V.V.V.A.o... .x v z 1 < 9 k c  .5.6.6.O.a.a.d.d.d.a.O.a.a.d.d.d.g.h.h.h.l.h.h.h.f.j.s.h.l.l.l.D.D.U.Y.D.D.l.l.h.D.D.D.C.h.h.h.C.g.g.7.( ~ ^ 3.g.h.C.U.h.z.F.F.z.x.k.k.F.l.k.k.k.k.k.%.F.F.F.D.D.h.$.#.f.s.f.D.F.S.S.F.F.F.F.J.F.F.F.J.F.eXrXrXrXrX0XrX0XpXT.o.~ | 1.1.d d ~ ( @.} h.pXaXyXtXtXiXtX0X0X0X0X9X9X9X9XJ.J.yXyXeXz.x.x.x.x.x.x.z.z.z.z.F.9Xz.x.x.x.x.x.x.x.l.z.F.9Xz.eXeXyXE.h.L.u W VXVXZXpXuXH.H.rXuXrXR.rXR.R.F.F.F.D.l.$.s.D.R.U.k.z.eXz.z.Y.eXeXeXyXeXeXR.eXH.eXR.eXR.H.H.R.rXpXpXpXuXG.C.9.5.` c k h $ < c x *.I.g.g.4.6.6.6.6.6.7.4.4.4.4.4.7.4.4.4.;.3.3.3.3.3.3.3.3.3.3.3.3.[ [ ;.3.<.=.*.` ` ` ` ` x x ` ` h 3 < < 0 # @ q F e.|.].}.&X-X;X[.&XLXHX:X:X4X2X2X4X&XH }.).Z F B = 0 & = * * N V V V C C C J U U U U U U U U U U U U U U U U U U U U ",
"U U U U U U U U U U U U U U U U U U U U U C C C V V V E * * N V m m m m = [._. X}.-X&X|.4X:X{..Xm.m.m.t._. X].e.XXt.H 7 # D y.D *.` ` c c c x x ` ` ` ` ` ` ) ) ) *.0.0.<.=.` ` =.' ' o.3.4.4.4.4.4.4.4.7.7.g.g.P.P.L.K.g.7.7.6.6./ / ` x c c 3 < 9 c  .....( ~ +.+.O.O.O.+.+.O.6.d.d.d.g.g.A.B.h.h.j.h.h.l.D.D.h.h.h.U.U.U.Y.R.G.G.D.C.C.C.C.C.h.C.C.g.7.7.4.6.( s ^ o.7.7.a.d.j.h.l.k.x.s.s.k.F.D.l.k.k.k.k.f.F.F.H.H.F.S.$.{ s.$.d.B.D.D.D.F.F.H.H.H.H.H.F.S.F.Y.rXrXyXrXrXuXuXsXT.o.~  .1.N.d d ~ X.( ( d.R.pXpXrXrXuXrX0XH.H.H.0XrXrXF.k.%.pXrXR.Y.F.l.l.l.z.z.F.F.Y.Y.eXeXF.F.z.l.F.z.z.l.D.G.Y.Y.U.Y.Y.R.L.] g.6 6 VXVXNXpXQ.R.R.Q.Q.R.G.R.T.G.G.G.G.C.f.a.h.E.pXY.h.l.U.v.U.U.Y.Y.Y.Y.R.R.R.R.R.R.R.R.R.T.T.R.Q.pXR.U.D.C.g.3.' ` c k f < 3 ,.` <.I.;.] 4.+.4.4.4.4.4.4.3.3.4.4.7.3.3.3.[ ;.;.3.3.3.3.3.3.3.3.3.3.;.;.3.<.<.=.*.=.` ` *.<.` x c x 2 : < < 0 = @ 0 A e.|.].}.|.&X&X{.:XLXHX=X=X:X;X*X2X-XG `.T Z F 0 - * & * * * N N V V C C C J U U U U U U U U U U U U U U U U U U U U ",
"U U U U U U U U U U U U U U U U U U U U U C C C V V V * * * E V m m B m % `.t.].&X6X;X}.:X-X{.#X-X=X{.q.G t.].).|.e.A 7 # D y.c ,.` c c c c x x c ` ` ` ) ` ) ) *.2.u.8.0.*.` ` *.*.*.;.3.0.0.4.0.4.6.6.8.9.9.g.P.I.I.K.9.4.o.' o.~ j / l c c 2 : 2 c ` ` / 6 4 o.+.+.+.+.o.o.o.6.6.6.6.g.A.A.C.d.j.j.d.h.U.E.E.U.U.U.U.U.T.U.U.T.U.U.C.B.B.V.V.g.V.L.V.6.o.o.3.` ^ / 6.K.g.g.C.U.D.D.l.k.x.F.Y.F.F.F.F.F.G.G.G.T.T.R.R.R.D.%.O.d.$.$.h.D.D.D.H.F.H.H.H.H.eXF.S.F.Y.rXrXrXrXrXuXH.uXG.X.s / 1.1.| | ..+.+.o.O.B.NXpXpXpXpXuXrXH.J.H.pXsXsXR.%.} R.R.R.R.T.Y.U.U.G.G.G.T.T.R.R.R.R.T.T.T.T.R.T.G.G.G.T.U.U.U.T.E.4.> 0.5 4 VXAX%X~.Q.T.T.Q.Q.T.C.T.T.U.L.U.C.B.g.E.!.%X^.P.g.C.E.L.L.U.U.T.T.R.T.T.T.T.T.T.T.T.T.T.T.T.T.C.d.O.( C.6.` ` ` c k 9 < 9 2.` <.9.Q u o.o.o.+.3.3.3.5.3.5.3.0.0.3.3.3.' ' ;.3.3.0.0.0.3.3.3.3.3.3.3.3.<.=.*.*.` *.*.*.2.*.c c k : + $ 7 q = @ 0 A Y }.[.}.[.].].].-XPX4X+X+X+X X|.-X4Xt.].F 0 m @   * & * * * N N V C C C C C U U U U U U U U U U U U U U U U U U U U ",
"U U U U U U U U U U U U U U U U U U U U U C C C V V N V * C & T B m B m 0 P r.G ].&X|.[.{.[.{.<X,X.Xy.q.t.[.|.[.|.e.A 7 7 8 z f v k h h h h e 5 h j x j x j j j j e x *.` x ) *.*.` *.0.b.K.9.0.K.V.8.3.3.6.9.V.9.9.9.5.3.` ( / .... .` c c k k O k c x ..5. ./ s ..5...( ..o.o.o.o.5.6.b.V.V.I.P.T.E.P.L.L.P.P.T.P.L.L.L.P.E.E.!.T.L.C.V.V.V.V.K.K.K.V.6.5.5.5.<.....5.V.P.P.L.C.U.h.s.D.yXyXY.h.h.G.T.R.R.R.U.G.G.T.R.~.R.B.$.G.C.C.C.C.D.G.D.sXG.D.rXrXS.F.aXpXNXpXuXDXCXaXCXaXsXT.6.....1...d l | +.n.n.+.O.Q.G.G.H.H.D.D.H.H.G.G.T.Q.pXQ.D.f.G.~.Q.T.C.C.G.Z.Z.T.~.^.T.~.VX^.^.~.MX~.Z.T.%X6.o.6.P.C.o.(  .4 d a p b I.$XI.P.Z.Z.A.g.A.g.A.+.6.7.6.6.4.o.( 6.5.5.n.5.5.6.b.V.V.I.W.!.%X%X!.^.%X^.W.P.W.W.P.I.A.A.A.A.o.( o.I.b.5.` c c c c : 3 z ` *.<.3.0.~ / ' ..( / ` ` <.' ' <.0.8.0.3.0.0.3.0.0.8.0.0.3.0.0.<.' <.<.<.*.<.2.2.2.*.*.c v c c c h 2 : + + = @ @ g F y.|.m.t.[.[.y.t.-XHX*X#X#X*X*X&X;X;Xe.Y m = * % - m & * * * * N N V C C C J U U U U U U U U U U U U U U U U U U U U ",
"U U U U U U U U U U U U U U U U U U U U U J C C V V N V * C & Y F m m m 0 P e.H q.t.t.t.{.|.&X6XGX,X[.t.t.[.|.|.|.e.A 8 # w g 9 1 1 1 1 9 9 9 9 e e e e h e e e e 9 e z z 5 e j ` ) j j j ^ ` ' ' ` / ^ ^ / ) ^ ^ / ` ' ' ' ' ..` / ` ` c c c c k l 5 5 c / / 1. .+.5./ s /  .| .... .| / / / ` ' [ [ [ [ o.4.6.4.3.3.o.[ [ ' ( ( ( ( ( ..o.o.' ( ` ..o.<.........` ` <.9.V.K.V.7.g.a.$.a.D.Y.D.G.G.G.R.pXpX~.T.R.T.T.Q.~.Q.G.f.d.d.d.f.C.G.G.G.R.G.R.pXpXrXH.rXNXAXAXZXZXaXdXFXdXNX~.A.X./ l a s s | X.5.5.o.X.+.+.o.O.$.O.O.$.} } o.} } +.+.+.o.} o.+.+.d.d.A.+.+.+.+.X.~ ~ X.+.+.6.n.+.X.X.+.+.| / +...~ / .... .b b N.N.N.1. .( ( ....o.o.o.o.o.o.' o.5.5...l l b  . .| |  .5.5.1... . .5.5.o.5.5.........~ ..( ..+.5.....5.b.6... .` c c z h k x c ` ` ' ' ^ / / / s s j / ` ^ j j x ) j j ^ j j ^ ` ` ` ` j / / s 5 r s 5 5 e e e e 9 2 3 2 9 h 9 9 3 $ + # 0 # @ g F e.}.t.e.].].i.e.-XHX*X*X&X*X&X&X&X&X|.`.B % = % % m = * * N N N V C C C C C U U U U U U U U U U U U U U U U U U U U ",
"U U U U U U U U U U U U U U U U U U U U U J C C V C N V * C & U I B m 0 0 P e.G e.t.q.q.].{.+X-XHX=X[.M.[.[.}.|. Xq.A 8 # # 7 # $ $ # < < 1 9 1 < w 9 9 9 9 9 9 9 w 3 e 9 3 3 5 5 e 5 > > ; > 5 6 4 6 5 5 6 6 > r j j j j j j j j j j h h h k k ,.h : , l 5 5 1..... .s a a l /  ./ d a 4 4 4 a 4 6 6 6 r ^ ) / ^ ^ ^ ^ r 6 6 4 > > > 4 6 4 6 6 4 4 s s / / l d ` c c /  .1.5.5.5.6.o.} } { $.$.s.d.d.B.T.T.C.g.f.g.d.g.B.A.d.O.{ O.O.O.$.d.s.f.T.R.pXpXpXpXrXG.pXQ.MXsXJ.F.aXdXG.G.Z.6.X./ l a l s / ....+.| ~ ~ ~ ~ @.@.@.@.O.~ ~ ~ ~ ~ ~ ( +.A.X.~ ~ @.+.X.| X.( | ~ ~ d ~ X.n.+.+.+.X.( ( X.X.l s / | | 5.I.1.k n K K b k b , 4 s s / / / / / / / ^ / ..<.<.i i k b b k a a l l l a , : , s a d d a s s a , l s l / l s s | s s s s l c k h c h e h x c c j / / / s a 5 j j j j 5 5 5 5 3 3 , > > , 5 a a 5 > 5 5 5 > > > : ; ; ; < : : + + < < 1 1 1 1 < # 8 0 = @ q F q.}.t.t.|.&Xy.e.&X5X*X*X*X*X&X&X&XoX6XoXF % = = * Z * * N N N N V C C C C C U U U U U U U U U U U U U U U U U U U U ",
"U U U U U U U U U U U U U U U U U U U U U C C C V C N V * C & U P B 0 0 0 P _.q.;X-X|.].+X&X-XHX=XM.q.t.|.|. X X[.T A 8 # $ # O $ $ + $ # # # # + + < < < < < < w < w 9 9 3 3 2 : 5 h h 5 > > > 6 5 5 5 j j r 5 j j j j j a r 5 a a a a a a a a c k 2 h  .l i k l l l a a d /  .l a a , , a a l 5 4 6 6 r j j j j j j j s s r r > > > 4 4 4 4 4 s s s a l l a a  .` l l l l c / ..o...( ~ ~ } } @.@.~ } O.O.} @.@.~ ~ ~ ~ ~ ~ ~ W W W W W W W W W @.! W W } } ! } u W @.W @.$.W W W W d d s l / l / |  .....| ~ ~ ~ ~ ( X.@.@.o.( ( X.X.X.X.+.n.A.+.~ ~ X.+.X.| ~ ~ ~ ~ ~ ~ +.n.n.+.X.X.+.+.X.X.| d a s | ..n.I.N.b k n n i n k , 4 a s j j j s 5 5 5 5 a c ` c k a k b k a n a , a k l k a a a l | l l /  . ./ | l l d d s d l d a 4 a h k h h D h 2 2 x `  .`  ./ l a a a l c c x 5 2 2 5 e h 2 , , , 5 5 5 2 , h h 5 , , , : : < < < < < < < < 1 w 8 f f 1 1 8 0 = @ q F e.}.q.t.;X-Xt.q. X;X*X=X=X&XoX&XoX|.7X-XP % = 0 0 B * N N V N V V C C C C C U U U U U U U U U U U U U U U U U U U U ",
"U U U U U U U U U U U U U U U U U U U U U C C C V C N N & V X U I m 0 = = Y  X_.5XGX5X:X4X6XGXPX6Xu.D y.|.|.].[.[.e.H 8 O O O O $ # # O O O O O O O @ @ + + + + # + # 1 1 < < 2 3 2 e h h e 5 , j a 5 x ` ` ` c 5 5 5 h j x j j a a a h h h h l h  .c l 1.1.b l k k l l c l c  .i , , , 2 a l ` l j h h j j a 5 ` c h 5 5 a x c l s a 5 a j l ` 1. .l l l b b l 1.,.b k i p i a  ./ / / ] ] } O.} ~ ~ @.} o.} ~ ~ W 6 6 6 W W W ~ ~ ~ ~ W ~ ~ ~ W ! W W W } { ~ } W W @.W } $.W ~ ~ ~ ~ ~ l / ../ /  . . . .| | / / ( +.+.X.( ( @.~ ~ X.o.X.X.X.X.( ~ ( @.+.+.+.X.X.( ~ d d ~ ( X.( ~ ~ ~ X.X./ s s s / / / |  .N.N.N.b k k i : a a h a a , > : + ; : : > , 2 3 i p p i n a k k a a a l  . .l l | | l l / 1.1.1.l a a a l  . ./ ..| d a a h h h 2.D k c  .1.1.,. .l h a a h l l h h h 2 2 h x c h a 2 2 a a 2 , , a h 2 , 3 , : < < < < < < < 1 9 8 8 f f f 1 7 7 8 @ O q F e.}.S G ].}.i.G ].&X&X=X*X+X+X&X&X|.6X-XY % * B m N m N V V V V C C C C C J U U U U U U U U U U U U U U U U U U U U ",
"U U U U U U U U U U U U U U U U U U U U U C C C V C N N & V X U I m m = % P |.XX5XGXGX6X:X<XHXLXPX*XD y.}.[.].}.[.e.H 7 O O O O # # # O O O . . O O O @ @ @ @ + + O + < < : : 3 2 : + ; > 5 5 5 , , > , h j h 5 , , , , 5 5 , , , , 2 a a h k l a  .l , l ,. .k k h k b k a i i 2 , 3 3 , i h k c k h h h h 2 , c x 2 : : : , 5 a 4 > > , a l  . . .b l b b b b ,.,. .n $ + $ p k a s ( o.4.d.C.g.d.6.d.B.C.A.6.6.+.o.o.o.o.o.o.C.C.C.L.T.E.E.~.Q.NXNXNXNXZXMXG.T.Q.VXsXR.uXVXdXdXpXT.Z.6. ./  ./ |  . .X. .X. .X.X.n.A.Z.n.+.+.+.~ ~ o.6.+.( ( +.+.+.(.+.(.(.A.+.n.+.X.X.X.+.+.n.n.+.+.6.A.A.6.5.n.b.b.b.5.` / l 1.N.b k k i + a a 5 , > : ; + O + : : : : : + : $ $ , , i a k c a > : 5 j c j a a 4 , a l  .l a a , , a l a , l d a p a a h h ,.c c l c  ./ l l a a a h h h h 3 3 3 3 3 2 k c h a 2 2 a a 2 2 : , 3 : $ : : + : : $ $ $ $ : $ 9 8 8 8 1 1 $ # 7 8 @ O q G e.|.G H G q.H q.&X6X+X*X*X+X|.*X;X|.2X-Xe.= 0 B N m m N V V V V V C C C C J U U U U U U U U U U U U U U U U U U U U ",
"U U U U U U U U U U U U U U U U U U U U U C C C V C N N & V X J I Z m = @ H |.&X;X6X6X-X;X#X#X4XPX=Xi.t.+X]._.}. Xe.H 7 . . O $ # # # $ # # # # # # < < < < < < < # < 9 9 1 1 9 k 3 : : e x x h 5 5 h x c x 5 , c l x j x h 5 2 h h a a a a a a a l a , h k h k v k k b v i 3 3 1 1 , 1 2 i h h c k h h c c h 2 c h 2 , : 3 3 2 a 5 , , , a l l l k b b b n l k  .2.K f $ . $ p k i a ..b.K.L.P.!.E.T.!.^.^.^.!.P.P.P.Z.C.V.V.Z.%X%X~.%XMXMXVXVXVXAXAXAXAXZXMXT.T.VXAXZXVXZXZXFXZXVXMX^.Z. .s a l |  ...1.X.1.1.n.n.K.^.^.W.P.P.^.I.Z.!.!.A.A.P.^.!.T.T.Z.Z.Z.Z.Z.T.^.Z.T.^.~.~.~.%XMX~.~.VXMX~.!.!.%X%X%X!.I.K.j l b k i 3 > 3 h h h i a f h h a h k h k v k h a 5 5 h l c l c ../ r 5 s ` <.<.` ` / c ` <. .c  . ./ l /  ./ 4 d d d a k k h a c c c c l l a a l k k k k k i 3 : 3 2 2 3 2 9 h f i 2 i h h h h : 2 2 : $ : : $ 9 9 1 < < < < < f f 8 8 8 # # # 0 0 @ O 0 F e.}.y.H H G i.t.-X6X{.*X&X{.|.-X-XoX2X2X).0 * B B N m N V V N N V C C C C J U U U U U U U U U U U U U U U U U U U U ",
"U U U U U U U U U U U U U U U U U U U U U C C C V C N N & V o C J F H = o B }.;Xt.oX&X;X,X;X&X=XKX{.-.{.-X X). X Xe.H 7 . . # # # # # 7 9 z z z z z z z z z q e z h z c x h e x <.*.*.<.b.b.0.*.3.8.b.K.b.8.<.` 5.3.5.8.b.b.b.b.8.8.1. .` l a a l l a b ,.h 2 c ,.c c  . .h 2 a , , 2 5 a h l c j a a j `  .` j j s a a a j j c <... ./ / / / l l b  . . .l a a ,.N.N.b $ O : n b a s o.I.P.C.C.pXpX~.~.sXMXsX~.Q.^.T.T.T.Z.C.C.NXMXMXMXNXNXNXNXMXpXpXpXsXsXpXuXT.VXsXR.VXZXuXuXuXQ.pXMXW.o.l l l l  .....1.N.N.n.n.W.^.%X~.^.~.~.T.T.Q.T.d.B.~.Q.^.Q.Q.Q.^.sXsXQ.pXsXQ.Q.sXsXpXpXNXVXsXsXMXsXQ.^.^.~.%XMXMX%X%XW.1.k k : O + l c c c  .,.2.N.M.8.8.2.<.<.8.8.8.8.5.5.9.9.5.` / 6.9.V.K.K.K.W.!.I.W.W.W.W.W.I.6.9.V.K.V.I.%XW.I.Z.A.n.n.1.| a , h v  .,. . .b | l l `  . .c 5 > , a h h 5 2 e h 5 5 5 a l c c c a l j 2 , 2 a 5 c x z h h h h h f f f 9 8 8 1 8 g g # O 0 F q.[.q.A H q.e.t.|.{.].#X&X{.|.-X-X&X2X4X`.0 = m B Z * N N V N N V V C C C C U U U U U U U U U U U U U U U U U U U U ",
"U U U U U U U U U U U U U U U U U U U U U C C C C V N V & C & V T Y Y 0 . P -X&X}.}.|.-X4X6XHXLXLX-Xe.e.}.&X}.].}.q.H q O . # 7 $ : 1 f z c c x *.*.*.*.=.=.*.*.) j r j ) ` ` ) 9.8.4.3.4.9.K.P.P.E.E.E.E.L.7.[ P.P.P.E.E.E.P.L.C.%XI.( / l a a , k  .b k h c 1.....5.5.9.9.9.9.3.3.6.V.6.o.4.K.g.g.g.d.g.g.g.g.A.A.A.A.C.P.P.P.P.P.Z.Z.W.W.W.I.I.W.K.n.n.n.+./ `  .{.i $ p k  .s ~ } O.C.T.R.R.T.R.pXpXpXpXpXpXT.R.pXpXpXpXQ.R.yXaXpXuXBXFXBXF.kXdXaXiXrXrXrXuXBXdXpXsXdXdXaXiXiXjXtXrXpXT...> l  .N.1. . .N.b.W.X.Z.MXC.T.NXH.pXuXrXR.R.H.H.H.pXuXuXuXuXuXuXuXdXdXdXdXdXdXdXdXdXVXdXuXuXdXdXQ.B.G.uXdXdXNXVXVX1XN.k p $ + 3 k l a j <.b.b.b.K.W.!.E.E.E.E.T.T.g.d.O.$.g.B.B.B.R.T.T.G.T.T.~.pXpXMXVXVXAXZXR.O.C.pXNXpX~.NXNX~.G.T.T.B.o.^ s l l a b N.N. .l ..5.` 3.K.b.9.b.0.9.=.3.9.9.3.4.8.6.6.4.4.3.0.3.3.6.6.4.3.3.0.6.6.8.0.8.8.8.8.2.2.,.,.,.,.,.c z v z 9 O O B P e.`.P I F P P q.t.|.#X#X#X#X&X&X&X|.-X-XP = F H = F = & U * V N V C C C C J U U U U U U U U U U U U U U U U U U U U ",
"U U U U U U U U U U U U U U U U U U U U U C C C C V N V & C & N U Z C = . Y 3X;XoX&X3XHXGXHXGXKXPXGX].t.[.|.}.[.|.q.H q O O # < < : 2 h x c x x *.*.*.=.=.=.=.` =.' _ ) _ ' [ 3.g.c.h.h.C.C.h.h.U.L.L.U.U.h.a.{ U.U.U.U.U.U.U.h.h.U.h.6.3.s , a i k b b k h  .8.5.6.9.V.V.K.L.L.g.g.g.h.d.{ 4.h.f.f.f.f.f.f.B.C.D.D.C.D.G.T.T.T.T.Z.Z.Z.P.P.Z.A.A.Z.Z.Z.Z.W.Z.n./ x M.p 1 p b | / } $.D.R.R.R.R.R.rXrXpXpXpXpXpXrXH.F.aXZXCXNXH.aXiXrX9XJ.J.rXaXaXaXiXtXrXrXiXiXaXiX0XR.uXuXwX0XqXqXtXyXaXpXA.s l  .1.1.....n.A.A.~ O.G.s.R.ZXaXrXuXrX0XrXuXuXuXaXaXdXdXdXdXdXdXkXkXkXkXdXdXkXCXkXkXdXdXkXCXdXH.uXdXZXZXCXZXZXAX!.N.n p $ $ f c ` j ^ 5.K.I.P.E.!.Q.~.~.pXpXQ.rXD.R.R.G.s.%.D.R.pXpXpXpXpXpXNXNXrXpXpXpXdXNXrXk.F.pXNXpXuXdXaXF.H.H.Y.G.g...s 4 d k b N.1.l l ..9.o.8.P.K.K.P.g.P.4.7.L.g.:.4.4.d.d.d.7.7.7.7.7.g.d.7.7.7.7.d.g.6.5.5.5.5.5.<.<.` <.<.<.,.,.*.D z 9 O O B P e.'.Y I F P Y q.t.[.-X-X=X*X;X-X-X-X;X-Xr.q m 0 = Z = & U = V N V C C C C J U U U U U U U U U U U U U U U U U U U U ",
"U U U U U U U U U U U U U U U U U U U U U C C C C V N V & C X * C m m & X e.4X2X-X4XGXLXLXLXGXGXIXGX}.e.t.{.{.|.+Xe.H q @ O # < w 2 e k x ` ` c *.*.*.=.;.0.;.=.=.;.3.0.3.3.4.4.c.L.h.L.C.L.L.L.h.g.j.j.g.j.j.a.L.L.v.L.U.U.h.h.h.h.d.C.K./ > k a k b v k l ,.b...3.7.V.K.L.L.L.L.V.C.C.g.4.g.L.C.C.C.C.D.G.G.G.T.G.G.G.T.T.R.Q.Z.Z.Z.P.T.P.Z.A.A.W.W.W.^.1X^.W.^ h N.: : , k | o.g.R.aXaXuXR.R.rXrXyXyXrXrXrXrXBXpXD.l.eXpXNXNXtX0XtXkXiXx.&.0XiXiXiXtXrXiXaXaXiXrXH.J.H.H.0X0XqXqXtXtXpXMXI...|  .1.N.N.N.n.A.I.( d.R.D.rXBXyXiXuXuXuXuXuXiXiXaXdXkXkXkXBXkXkXhXkXkXkXdXdXkXCXdXkXkXCXCXCXdXH.bXZXZXZXZXZXZXAX!.N.k i 1 1 v  .` / ` 9.I.!.!.^.Q.~.pXpXpXpXpXpXR.pXsXpXR.T.R.pXpXsXsXsXsXNXNXNXuXuXrXF.H.rXrXR.H.pXaXuXuXsXuXS.H.F.G.U.L.6.^ > l l  .1. .l l 5.9.[ 6.K.V.K.P.V.P.g.g.U.L.a.7.7.V.g.g.g.g.g.g.g.V.g.g.g.g.g.g.g.9.5.5.0.5.3.<.' `  .<.<.0.2.2.2.v f O O g P e.'.P I F P e.q.e.y.;X;X*X#X#X;X-X4Xt.].t.F 0 = 0 B * & U * V N V C C C C J U U U U U U U U U U U U U U U U U U U U ",
"U U U U U U U U U U U U U U U U U U U U U C C C C V V V & C X * C * * = % r.6X3X3X4X7XGXGXGXGXGXPX5Xt.G e.].|.;X&Xq.A q @ @ 7 < e h k c ` *.` ` *.*.*.=.0.0.0.3._ =.0.c.K.c.4.[ 7.7.4.4.7.g.L.U.j.a.4.4.a.j.h.h.h.h.h.h.h.h.h.g.h.h.h.C.P...a k k k b c l c <.b.^ ( o.7.g.V.V.V.L.L.C.g.g.h.U.E.G.G.G.G.T.T.T.R.R.R.R.T.R.R.~.~.T.T.T.^.T.T.C.A.T.^.^.^.^.1X1X%X` 5 2.: : , l / A.R.NXNXaXrXrXQ.uXrXrXrXrXrXrXrXNXNXpXF.%.%.F.aXjXrXrXBXZXkX9Xk.rXtXrXrXtXiXaXNXkXaXuXR.R.0XuXiXjXjXjXtXaXpXZ.|  ...1.n.n.n.n.n.A.6.T.NXpXNXNXeXaXaXaXuX0X0X0X0XaXfXdXkXkXkXdXaXaXdXdXdXaXfXdXkXdXkXCXCXCXCXkXuXbXZXZXCXBXNXNXVX%XN.k i p i c <./ ..5.V.W.!.~.Q.T.R.R.pXpXpXuXrXpXH.G.uXZXZXNXR.R.R.Q.Q.uXQ.R.R.aXpXrXF.S.D.H.rXrXrXH.F.R.uXrXS.F.F.G.G.T.V.` > l l  .1. .l  .b.6.( o.g.7.g.L.g.P.7.g.E.U.h.g.c.L.L.L.L.L.C.V.V.L.C.V.V.V.V.C.L.b.9.9.0.0.5.<.<.*.<.<.0.2.2.2.8.S z O O g Y e.`.P I I e.r.q.G G G q.y.2.q.y.t.].F G e.P 0 0 B m * = U * V N V C C C C J U U U U U U U U U U U U U U U U U U U U ",
"U U U U U U U U U U U U U U U U U U U U U C C C C V V V & C & N J m m * = ).6X3X;X-X-X-X4X5XGXGXGX;Xq.G q.t.[.&X|.i.M 7 @ @ 7 7 z x c c *.*.` ` *.*.=.*.;.0.0.0.=.` ' 3.c.K.7.o.;.;.4.4.7.d.a.g.j.a.4.4.a.g.h.U.h.h.g.g.h.h.g.j.j.T.L.g.V.b./ a l k  . .c ` <.8.^ ( o.7.g.V.V.C.L.L.L.g.g.L.E.E.U.G.G.T.T.T.R.R.Q.R.R.R.R.Q.~.pXT.Q.~.~.~.T.T.Z.~.VXVX~.^.%X^.!.' j 2.: : , d | !.pXNXjXtXeXrXuXuXpXrXrXeXrXrXrXF.NXJXCXpXk.%.%.BXkXiX0XaXCXBXaXrXrXrXrXtXaXjXBXkXkXdXuXuXuXaXkXjXjXjXyXpX~.A./ /  ...n.n.n.5.o.( +.D.Q.pXpXNXaXiXuXuX0X0X0X0X0XiXaXaXfXaXuX0X0XaXaXdXfXaXaXdXkXhXkXCXCXCXkXkXVXVXZXZXCXBXBXVXVX1XN.l i 2 i c <.o.g.Z.!.~.~.R.G.T.H.rXrXrXrXtXrXaXH.f.D.pXBXNXpXG.F.R.R.R.H.F.D.pXuXrXH.F.F.H.uXrXH.S.f.S.R.R.F.F.H.D.G.P.I.5.s /  .1.1. ./ ..b.6.' 3.V.g.V.P.L.P.g.h.E.E.h.h.L.L.P.L.L.L.L.L.L.L.L.L.V.V.L.L.L.K.V.9.9.9.9.8.<.0.2.8.8.2.2.2.8.D g O O B Y e.).P I P e.r.e.G S q.t.{.{.{.}.|.}.].e.G B 0 B F B * * T * V N V C C C C J U U U U U U U U U U U U U U U U U U U U ",
"U U U U U U U U U U U U U U U U U U U U U J C C C V N V & C * C U m N m = r.6X6X-X-X-X;X-X6X7XHX5X&Xe.G q.e.t.[.].G M 7 @ @ w q D c ` *.,.*.*.` =.*.=.=.=.;.0.3.7.;.) ) [ 7.7.7.[ 4.g.L.L.g.{ ] j.a.a.j.g.h.L.U.v.h.g.g.h.h.h.g.j.E.L.4.V.K...a a k  . . .` ,.<.( o.7.V.L.P.P.P.E.E.L.g.g.L.U.D.T.G.T.T.T.T.G.G.~.Q.R.R.R.Q.~.~.~.pXpXsXpXQ.R.Q.MXVXVX%X~.^.^.^.o.j 8., , , l +.MXNXjXtXrX0XuXaXuXuXrXeXeXeXrXrXpXNXBXCXCXNXR.k.x.aXCXiX0XaXkXaXrXrXrXrXtXiXaXkXkXdXdXuXuXR.aXfXjXgXtXrXpX~.A.~ d s  .5.n.n.o.X.} +.$.$.$.f.F.eXH.H.H.H.0X0XuXuXaXaXaXiXuX0XH.J.fXdXdXdXdXdXkXCXkXkXCXCXkXdXkXCXZXZXZXZXZXZXAXAX1Xn.l i 3 , c <.P.Q.sXMXsXsXuXH.uXrXrX0XrXtXtXiXaXpXR.S.s.k.rXNXrXrXuXpXuXR.R.T.R.H.H.rXuXrXuXpXrXH.S.f.k.F.R.rXF.R.Y.C.C.I.9./ /  ...1.......5.9.o.7.P.P.P.E.P.E.g.h.E.U.g.g.g.L.L.L.L.L.L.K.L.L.L.C.V.K.V.L.L.K.V.V.b.b.9.9.8.9.8.8.8.8.2.2.2.D z O O B T e.).Y P P r.r.Y F D ;X<X6XHX5X7X5X5XGX-XY = = 0 Z F * * T * V N V V C C C C U U U U U U U U U U U U U U U U U U U U ",
"U U U U U U U U U U U U U U U U U U U U U C C C C N N V & U N U J m Z N % Y 3X5X-X4X6X6X6X5X4X-XHX;Xt.e.q.G q.t.t.H q w @ @ q D ,.,.,.,.<.<.*.*.=.*.=._ =.=.;.;.0.0.3.=._ ' 3.7.g.g.L.L.C.g.4.{ j.j.g.h.h.h.h.h.U.h.h.g.h.h.h.h.h.U.g.g.P.b./ a a l  .<...` ) ^ ( o.7.V.L.P.P.P.P.U.L.g.g.L.U.h.U.G.G.G.G.G.C.C.~.~.R.R.R.R.Q.~.Q.pXpXpXpX~.pXpXpXNXVXsX~.~.sX%Xo.^ b.a , ,  .Z.NXaXyXtXtXtXiXaXuXrXeXR.R.eXrXrXBXaXaXaXNXBXNXaX&.0XCXCXjXrXrXrXiXiXiXtXrXiXaXaXiXaXfXuXR.R.wXiXtXqX9X9XpX~.6.d , a ..n.Z.V.6.+.A.G.f.} } $.&.F.F.J.H.H.0XuXuXaXaXfXaXaXiXuXuX0XaXfXdXdXfXdXkXCXkXkXCXCXCXdXCXAXZXZXCXCXCXCXAXAX1Xn.k , : > ` 0.~.VXVXdXpXsXuXrXuXiX0X0X0XqXtXtXuXNXNXpXD.f.k.F.pXpXpXpXpXpXrXrXR.D.F.rXpXuXuXaXuXrXH.F.F.F.H.rXH.eXY.h.C.C.5.s / /  .<.5.5...( 4.( 4.P.L.L.E.L.E.g.h.U.v.j.j.h.C.C.C.C.h.h.g.g.C.C.h.h.g.h.C.L.V.V.9.b.K.b.9.0.9.9.u.8.2.0.2.y.-.z O O B e.e.).T Y T r.r.Y G G &X*X;X;X-X<X4X4XGX5XY % 0 m 0 I m * T * V N V V C C C C U U U U U U U U U U U U U U U U U U U U ",
"U U U U U U U U U U U U U U U U U U U U U J C C C N * N & U V T C m Z N % I 3X7X;X4X7X7X5X6X;X[.HX;X_.e.i.G G e.q.A q w O @ q D 2.<.<.<.<.<.=.*.=.*.=.) =.=.=.=.` 8.I.K.;.] ] [ P.L.g.7.4.d.h.L.a.j.h.h.h.h.h.h.U.v.h.h.h.v.v.h.h.d.4.L.!.5.a a , a  .<.<.` j r ] ( 4.g.g.V.g.g.g.L.h.j.h.U.U.h.G.G.G.G.C.C.B.f.~.R.R.R.R.R.R.R.R.pXpXpXpXQ.pXMX~.MXNXpX~.sXNXVX[ ^ b.a , , +.^.NXaXtXtXgXjXaXuXrXrXeXR.R.eXrXyXF.rXaXNXpXrXrXaXBXrX0XaXBXiXtXkXaXaXiXtXrXrXiXaXrXaXfXuXR.H.0XiXqXqX8XJ.pXQ.+.4 > d +.I.!.W.Z.Z.g.R.D.%.D.H.H.rX0X0X0X0X0XuXuXuXkXdXdXdXaXdXdXdXuXiXaXaXaXaXdXkXkXkXCXCXCXkXCXCXZXZXZXZXBXZXZXVX%Xn.k , + > ` 7.MXZXVXuX0XuXfXiXuX0XqX9X9XqXqX0X0XpXBXZXZXrX%.! pXpXpXpXpXpXrXrXpXF.D.rXpXrXR.rXuXuXpXuXR.F.F.R.F.rXR.h.B.V.5.6 s l / ..5.5.' ~ ( W [ g.g.g.C.d.U.a.a.v.h.j.h.U.h.g.g.g.g.g.g.g.C.C.g.g.g.g.h.V.g.9.9.9.9.9.8.0.9.9.8.8.0.0.8.y.2.z O O A e.e.).T Y e.r.r.Y G q.-X=X&X#X&X-X6X6X;X3XY 7 F H 0 I N * T * V N V V C C C J U U U U U U U U U U U U U U U U U U U U ",
"U U U U U U U U U U U U U U U U U U U U U C C C C V N N * * C T Z Z F B * F oX2XoX;X4X-X&X.X;X4X5X;Xe.G G y.;X].|.e.H q O @ A q.*.*.*.` *.*.*.*.=.=.=.=.;.;.;.0.0.0.0.7.9.7.4.3.4.7.4.4.7.4.a.a.h.h.h.h.h.h.h.h.L.h.h.h.g.h.h.h.h.h.d.V.W.5.4 , : a <.1.<._ _ _ 4.o.} ( } } { { 4.a.h.U.U.E.E.U.U.G.G.G.D.C.C.C.pX~.R.T.T.R.pXpXpXpXNXpXpXpXMXNXpXpXMXNXVXNXNXVX9.^ 8.1., 4 ( ~.pXaXjXjXlXjXaXrXrXyXpXyXrXrXpXaXyXpXpXpXpXaXaXaXBXjXaXaXiXiXiXiXrXtXiXiXaXiXiXiX0XuXaXdXdXdXfXfX9XqXtXtXNXMXA.4 d n.I.Z.A.d.+.C.G.G.T.R.rXuXuXuXfXfXfXdXaXuXH.S.%.S.H.uXaXdXkXkXiXfXdXkXfXaXiXiXuXfXkXkXfXfXkXCXVXZXZXCXaXH.G.T.n./ p i 2 , *.E.ZXdXuXuXiXiXwXwXiXtX0X9X9XqXqX0XaXpXpXpXpXpXpXpX%.l.rXpXNXpXR.F.pXrXH.H.R.rXuXuXuXrXR.H.F.F.F.F.yXR.l.C.T.E.3.4 ; 4  .9.9.4.o.[ 7.4.} } } } O.j.{ { $.s.U.U.U.h.L.C.g.g.g.g.g.d.P.L.C.g.g.C.L.L.g.9.g.9.7.8.8.9.b.b.u.u.8.8.9.M.2.v O O B Y r.'.'.e.e.).).P G e.4X*X=X=X#X;X6X4X3X-XY 7 A F m F * * `.E V * N C C C C C U U U U U U U U U U U U U U U U U U U U ",
"U U U U U U U U U U U U U U U U U U U U U C C C C V N N * * V T N B F B = F oX2XoX&X-X-X;X;X-X<X-X|.G G G t.-X+X|.e.H q O @ A q.*.*.*.` *.*.*.=.=.=.=.=.;.;.;.;.0.3.3.7.9.9.7.4.4.7.4.7.7.4.a.a.g.g.g.g.h.h.g.h.h.h.h.h.h.h.h.h.a.a.a.V.W.5.4 > 5 c <.0.3.' =.3.g.7.4.4.7.g.g.g.j.h.v.U.U.U.U.U.G.G.G.G.T.T.T.T.G.G.G.G.T.R.~.pXpXNXNXNXNXMXNXNXNXNXMXMXNXMXMXMX' 5 8.1., 4  .%XNXNXjXjXiXiX0XH.uXpXpXaXyXrXpXaXyXrXpXpXpXpXaXaXjXaXaXiXiXiXiXiXrXtXiXiXiXiXiXtX0XrXuXuXuXuX0X0XqXgXjXaXNXMXA.~ 4 6.A.A.Z.d.d.G.H.H.R.rXrXuXrXrXaXaXaXaXaXaX0XH.J.J.H.0XH.H.H.H.0XwXiXfXdXkXCXCXkXCXCXCXCXCXCXFXZXZXAXFXFXZXsXQ.n.l , a h 5 =.%XNXaXiXaXfXiXwX0XiXtXqX0X9X9XqXrXiXpXpXpXpXpXpXpXD.F.rXpXpXpXR.F.uXrXH.H.rXuXuXrXrXR.H.H.H.H.H.H.Y.D.s.s.T.E.5.> 4 ^ 5.b.V.7.4.4.g.d.4.O.O.a.h.D.j.a.a.h.U.U.l.h.h.C.h.h.C.C.h.g.g.g.g.h.C.L.L.L.g.K.K.K.V.9.K.K.K.b.u.8.0.0.0.0.D g O O A Y e.).).Y Y ).).Y e.t.-X&X=X-X&X;X,X-X-X-XP = B F B P N E `.N V N V C C C C C U U U U U U U U U U U U U U U U U U U U ",
"U U U U U U U U U U U U U U U U U U U U U C C C C V N N * * C Y N N C N = I oX3X|.|.|.&X;X-X-X-X;X;Xe.G G e.&X}.|.e.H q @ @ A q.*.*.*.` *.*.=.=.=.;.;.=.;.;.>.;.;.;.3.7.9.9.7.7.4.7.7.7.7.7.a.a.g.g.g.g.g.g.g.g.g.g.g.h.h.h.h.h.{ d.7.V.!.6.6 > j  .5.0.3.3.3.7.g.d.d.g.C.P.U.U.L.U.U.U.U.v.l.h.h.B.C.D.G.T.T.T.G.G.T.R.T.T.T.T.R.pXpXpXpXpXpXMXVXNXpXQ.T.T.G.C.r , 1.,., , / ^.MXaXtXtXtXuXuXuXuXpXaXpXpXrXrXrXrXrXrXrXpXpXpXpXaXaXiXiXtXtXtXiXrXtXiXiXiXiXtXrXiXiXuXuXuXR.0X0XtXjXBXaXpXR.6.~ 6 +.A.A.Z.d.f.T.R.rXuXuXuXuX0X0XaXiXuXaXfXdXaXaXfXfXaXuX0X0X0XH.0X0X0X0XuXdXkXCXCXCXDXCXCXCXDXFXZXZXZXZXFXFXVX~.6.a , h x e 3.%XuXwXwXfXhXfXiX0XtXtXtXtXrXrXrXrXyXpXpXpXpXpXpXpXrXyXpXaXrXrXR.H.R.R.H.R.uXuXrXrXF.H.H.H.H.H.H.H.H.l.s.s.T.E.3.> 6 ` 9.V.g.4.4.d.h.h.g.d.f.h.D.U.h.h.f.l.D.z.f.a.g.g.g.g.g.h.h.h.g.h.C.L.L.h.g.a.7.9.g.7.7.8.8.9.K.K.u.9.0.0.=.*.v 9 O O A Y Y e.).Y Y ).).e.e.t.&X{.&X=X&X;X-X&X-X-XP % B F Z T N * T * V N V V C C C C U U U U U U U U U U U U U U U U U U U U ",
"U U U U U U U U U U U U U U U U U U U U U C C C C V N N * * C Y N B F B * I &X3X}.|.|.|.&X;X;X&X|.;Xe.G q.e.}.[.|.q.H q O @ A i.*.*.*.*.*.*.=.=.;.=.;.;.;.;.>.;.;.3.3.7.7.7.7.7.7.7.7.7.7.7.a.a.g.g.g.g.j.j.j.j.j.g.h.h.h.h.h.g.d.C.A.C.!.b.s > c ..3.3.' [ 4.7.a.a.d.g.L.P.U.U.U.U.U.U.U.v.l.h.a.d.d.f.f.C.C.D.G.G.T.R.R.R.Q.R.Q.pXpXpXpXpXNXNXVXVXMX~.R.T.g.o.6 , N.1., , / P.MXaXyXtXtXuXuXuXuXpXaXpXrXeXR.H.rXrXrXrXyXpXpXuXaXiXiXtXrXrXtXtXrXtXtXiXiXtXrXrXiXiXuXuXuX0X0X0XxXzXjXtXpXQ.+.4 6 +.A.A.C.B.f.R.rXrXuXuXuXuXuXuXdXaXuXiXaXdXdXdXkXkXdXaXaXdXdXfXfXiXuX0X0X0X0XH.aXdXdXdXaXfXdXbXAXVXbXbXZXAXAXAX+., : l c 5 3.MXdXwXwXfXfXfXrX0XtXiXtXtXtXtXyXyXrXrXrXrXrXrXrXrXpXaXrXrXeXeXeXrXH.H.H.rXuXuXrXH.F.H.H.R.R.R.H.F.F.H.D.D.T.P.3.4 6 ` 9.g.7.4.7.g.B.h.h.h.h.C.D.D.U.D.l.l.D.z.f.a.j.a.a.a.a.d.a.a.g.h.h.L.L.C.h.g.g.g.g.g.7.7.9.9.K.K.b.u.8.0.<.*.9 w O O B Y P T ).e.e.).r.e.q.y.&X{.+X#X#X-X6X,X3X-XY % q A Z r.N * U & N N N N C C C C U U U U U U U U U U U U U U U U U U U U ",
"U U U U U U U U U U U U U U U U U U U U U J C C C V N N * * V Y Z Z I Z 0 P &X3X}.oX&X|.}.|.|..Xt.|.G G t.].|.|.{.q.H q O @ A -.*.*.*.*.=.=.=.=.;.;.;.;.>.;.>.;.0.3.0.0.4.4.4.4.7.7.4.4.7.7.a.a.j.j.j.j.j.j.j.j.h.h.h.h.h.h.j.a.C.T.C.V.I.9.s ,  .<.0.3.[ [ 7.g.j.d.a.g.h.L.h.h.U.U.U.U.U.U.U.U.f.f.h.B.B.C.C.C.f.f.C.G.T.~.pXMXMXNXNXNXNXNXVXZXVXAXVXVXVXVX~.A.> , b.2.3 , / P.MXNXNXNXaXrXG.G.uXrXrXrXrXrXR.H.rXrXrXrXrXuXyXrXtXtXrXrXrXrXtXtXrXtXiXiXiXrXrXrXrXrX0XH.R.R.uXiXjXjXjXjXBXVXA.4 ~ d.Z.C.G.B.h.H.R.0XrXuXuXaXfXfXkXdXaXuXaXfXdXfXaXuXrXuXaXfXfXaXkXdXdXdXdXiX0XJ.J.H.H.0X0X0X0XQ./././.S.G.H.Q.%XX., : k l 5 =.%XVXfXiXiXiXiX0X0XrXiXtXaXyXrXyXrXrXyXyXyXrXrXrXrXaXaXrXeXeXeXrXaXF.H.R.rXuXuXR.H.H.H.H.R.H.H.F.D.F.rXpXR.U.A.[ 4 6 ' g.V.7.O.a.U.G.C.C.C.C.C.h.h.Y.D.l.l.F.F.l.f.h.g.g.g.g.g.a.a.4.4.a.d.g.L.L.U.L.P.P.P.K.K.I.I.9.K.b.b.u.9.8.0.9 1 . . q P P e.).e.e.r.r.e.e.y.4X#X+X+X}.;X5X6X6X4Xe.= 0 B B e.N * U & N N N N C C C C U U U U U U U U U U U U U U U U U U U U ",
"U U U U U U U U U U U U U U U U U U U U U J C C C V N N * * V U C C I Z * F oX-X}.oX&X}.].].[.[.&X4Xq.H ]._.].[.}.q.H q O @ A -.*.*.*.*.=.=.=.=.;.;.;.;.;.;.>.;.0.0.0.0.3.3.3.4.7.7.4.4.7.7.a.a.j.j.j.a.a.j.j.j.g.h.h.h.h.g.g.j.L.E.V.6.K.5.s > <.5.9.0.3.;.g.L.g.g.g.h.h.L.h.h.U.U.U.U.U.U.Y.U.T.T.G.G.G.G.T.G.G.G.C.C.C.D.G.G.T.R.R.R.R.R.~.sX~.MXVXVXVXAXVXI.; : N.,.1 i  .I.T.R.yXaXpXuXQ.Q.uXrXrXrXrXpXyXrXeXrXrXrXrXrXrXrXrXrXrXrXrXrXrXtXtXtXiXiXtXrXrX0XF.J.J.S.G.H.wXiXjXjXjXjXZXVXA.4 ~ d.G.G.T.D.f.H.0X0X0XuXiXaXdXdXkXdXaXiXaXaXaXaXaXuX0XrXaXaXuX0XuXuXaXkXCXCXdXiXaXaXdXkXkXkXkXbX/.^.bXsXG.%.} ( / , , k h , ` %XVXfXiXuXiXrX0XeXiXyXrXyXyXyXyXyXrXeXeXeXeXeXeXeXaXrXeXY.eXeXrXaXH.H.R.rXuXrXH.F.H.H.H.H.F.F.D.D.F.rXpXR.U.g.( u 6 o.P.P.g.4.h.U.T.U.G.G.G.G.D.D.Y.D.l.D.Y.Y.U.z.U.U.L.L.L.C.h.g.g.g.a.a.a.a.a.d.g.g.g.g.7.7.7.9.8.8.9.9.9.9.8.u.9 < . . q P P e.Y Y T e.r.t.t.m.6X#X{.{.[.#X-X;X4X4Xe.7 m B m T C * U & V V C C C C C C U U U U U U U U U U U U U U U U U U U U ",
"U U U U U U U U U U U U U U U U U U U U U C C C C V N N * * V U F F I N = B [.oXoX&X&X|.{.|.}.].GXLXt.A ].t.t.t.}.q.H q O @ q -.*.*.*.*.*.=.=.=.;.=.;.;.;.;.;.;.;.3.3.3.3.3.4.4.4.4.4.4.4.4.a.a.a.a.a.a.a.a.a.a.j.j.j.j.g.h.h.h.h.T.C.g.I.b.s > 1.5.9.0.3.;.g.c.L.h.h.h.v.U.U.U.U.U.U.U.U.Y.Y.Y.T.G.T.G.T.T.T.T.~.Q.R.T.G.B.d.%.B.B.C.C.B.B.C.Z.T.^.T.Z.T.^.P.+.: : 2.b : i ` b.L.U.rXrXR.R.T.Q.R.H.F.F.eXrXpXrXeXrXrXrXrXrXrXrXrXrXeX0X0XrXrXrXtXtXiXiXtXrX0X9X0XJ.S.S.S.H.wXiXqXtXtXtXNXMXA.4 6 +.C.G.R.D.f.F.rXrXrXrXuXiXaXfXdXaXuXuXaXaXaXiXdXaXuXiXdXdXiX0X0X0X0XaXkXCXkXdXCXCXCXCXFXFXFXAXKXKXKXKXFXbXG.B./ a i l h > ` E.sXaXuXaXaXuXrX0XpXyXrXrXrXyXyXyXrXeXeXeXeXeXeXeXrXrXeXeXeXeXeXrXrXR.R.rXrXR.H.D.F.F.D.D.D.F.F.F.eXrXpXR.E.P.[ > 6 3.!.!.g.4.j.U.R.U.D.D.U.T.T.Y.Y.D.l.D.Y.R.Y.U.U.L.L.L.L.L.L.h.U.L.L.h.g.4.{ } [ [ 3.;.[ [ [ 3.3.3.3.3.=.=.=.<.< # . O A Y P Y P T T e.r.t.`.m.&X[.{.+X|.&X;X}.-X4Xr.0 B B B T C N T * V V C C C C C C U U U U U U U U U U U U U U U U U U U U ",
"U U U U U U U U U U U U U U U U U U U U U C C C C V N N * * V U F C F m @ m `.}.3X3X;X&X-X<X-X|.LXLXt.q ].].].|.{.q.H 9 O @ z G *.*.*.*.*.*.*.*.=.=.=.;.;.;.;.3.' ' ;.3.3.3.4.7.4.4.4.4.7.7.7.a.a.a.a.a.a.a.a.a.a.4.a.a.g.h.L.U.g.E.P.L.W.K./ > ..3.0.0.[ [ 7.g.L.h.g.g.C.U.U.U.U.U.U.U.U.U.Y.R.h.h.B.C.C.C.C.D.G.T.R.~.pXQ.R.G.G.T.T.T.G.G.T.T.T.^.Z.+.6.A.+.s : : ,.v $ 2 h 5.MXMXpXR.C.d.6.$.D.l.f.k.F.eXrXrXeXeXrXrXrXrXrXrXeX0XeX0XeX0XrXrXtXrXyXiXrXrXeX9X0X0XF.S.G.H.uXiXtXjXjXaXNXMXZ.( > o.B.G.R.F.k.F.uXuXuXuXuXuXiXaXaXuXrXuXaXaXaXiXuX0X0XuXaXdXuXH.aXuX0XuXfXkXdXiXdXdXhXCXCXCXCXZXZXVXVXZXAXAXVX^.| d d l a > ` !.pXQ.uXpXNXpXrXR.pXpXR.R.Y.Y.yXpXR.R.eXR.eXR.eXR.rXrXrXeXeXR.H.H.rXrXR.R.R.H.F.D.D.S.D.S.D.F.R.R.aXpXT.E.MX%X6.> 6 4.%X%Xg.{ { h.U.D.h.C.G.T.R.R.R.Y.D.D.Y.R.Y.U.h.g.g.g.h.h.h.h.d.g.L.U.U.P.C.g.4.7.7.4.4.3.3.0.;.=.` ) ) ) ) c < # O @ G q.G P e.e.e.e.e.e.t.y.].t.{.-X<X4X3X|.;X-Xr.0 A H B r.C * Y & N N V C C C C J U U U U U U U U U U U U U U U U U U U U ",
"U U U U U U U U U U U U U U U U U U U U U C C C V V N * * N C U Z Z P B % B t.e.&X}.t.t.t.].{.|.oXq.m G t.].].}.{.K S q O @ g D z x *.,.<.*.) j ` ` ` =.;.;.;.3.[ [ [ [ [ [ [ 3.4.4.4.4.4.4.4.4.7.7.a.a.a.4.a.4.4.4.4.4.a.g.g.h.d.C.C.T.%XK.j > ` 3.0.0.4.4.a.O.d.f.C.C.h.C.G.U.G.D.D.D.U.U.U.G.D.D.D.D.D.D.C.h.C.D.G.R.R.R.R.T.Q.~.pXMXNXNXVXVXVXVXVX%X!.V.' s ; k 2.,.h 3 a ` ....' ~ ~ ( +.O.h.F.rXuXR.H.rXpXpXuXuXuXuXrXrXrXaXaXaXuXrXrXeXeXrXrXrXrXrXeXeXeXrXrXuXuXuXuXuXuXyXxXyXyXpXMXI.s ; o.!.E.U.eXF.&.F.H.H.H.H.0XrXrX0XeXrXtXiXiXuXrXtXrXrXrXaXaXaXiXdXdXdXkXdXdXfXaXdXrXiXCXFXDXZXAXFXVXdXVXZXVXVX^... . .` j j 0.I.P.Q.%X!.Q.~.~.E.pXR.U.Y.R.yXyXrXR.H.H.H.H.H.H.H.H.H.H.H.H.H.eXeXR.eXrXrXrXY.F.D.l.l.k.f.k.l.F.Y.D.G.R.E.!.!.6.> 6 0.!.E.L.h.s.$.h.C.G.U.T.T.T.Y.D.D.G.U.U.G.G.D.L.C.g.g.g.h.g.g.g.g.g.g.C.L.C.h.g.g.g.L.L.L.P.K.K.9.9.9.u.<.j 3 < 7 . . q q.q.q.q.q.q.q.G K e.t.-X,X:X*X-X4X;X].-X-Xe.q B F P T = 0 N g 0 N V V C C C J U U U U U U U U U U U U U U U U U U U U ",
"U U U U U U U U U U U U U U U U U U U U U C C C V V N * * N C U Z Z P m % B `.t.e.G H H H D D G _.G A e.}.|.|.&X|.K z 9 O O 9 v 2.D c h h h x x ` ` _ _ ' [ [ [ [ [ [ [ [ 3.3.3.4.4.4.4.4.4.4.4.7.7.7.7.4.4.4.4.4.4.4.7.d.g.g.g.d.C.C.P.%XK.r > ` 3.9.6.4.4.4.O.d.s.f.C.h.C.D.G.G.D.C.D.G.G.G.G.D.D.D.G.G.D.D.C.D.D.G.R.R.R.R.T.T.Q.pXNXNXNXVXVXAXAXAXAXVX%XI.<.5 c 8.,.h 2 l ,. .5.9.9.9.g.g.O.h.F.rXuXrXR.rXpXpXuXuXuXuXrXrXR.aXaXpXpXrXrXeXeXeXeXeXR.R.eXR.9X0X0XuXuXuXuXuXuXyXyXaXyXpXMXV.s ; ' E.E.Y.eXeXz.H.H.H.R.H.0XrXrXeXeXrXrXtXuXrXrXaXrXrXrXaXaXaXrXaXdXdXdXdXdXfXaXdXuXaXCXFXCXCXAXFXCXZXZXVX~.^.P.( / c j 5 5 ` 9.VXVX%XP.g.A.C.C.h.h.h.D.Y.R.rXrXR.R.R.R.R.H.H.H.R.R.R.R.R.R.R.R.rXrXyXyXrXrXY.F.F.l.l.l.l.F.Y.R.Y.G.T.T.E.!.9.6 > [ P.E.C.s.s.$.h.h.D.G.G.G.G.U.D.D.G.G.G.G.D.D.L.L.h.h.C.C.g.g.g.g.g.g.C.L.C.h.g.g.g.L.L.L.P.K.K.9.9.8.u.8.<.c w 7 @ @ H e.G G i.q.e.e.q.q.e.t.-X:X=X#X&X-X;X}.;X&Xe.q A Y Y e.0 B V N g N V V C C C J U U U U U U U U U U U U U U U U U U U U ",
"U U U U U U U U U U U U U U U U U U U U U C C C V V N * * N C U Z Z P m @ Z  X[.t.t.t.y.y.q.i.G e.F G _.oXoX|.&X#XK z 7 O O w 9 v 9 3 < > 5 j ` ) ) ) _ ' ' [ [ [ [ 3.3.3.3.4.4.4.4.4.4.4.4.4.4.7.4.4.4.7.4.a.a.7.7.a.d.d.g.g.g.h.C.g.L.%XK.r ; ` 3.9.6.4.4.O.} d.f.f.f.f.f.C.G.C.C.C.C.G.G.G.D.D.D.G.G.G.G.D.D.G.G.U.R.R.R.R.R.U.Q.MXNXNXVXVXAXZXVXVXVXVX%XP.0.j ,.1. .h a l ,. .8.b.K.K.L.g.O.s.D.rXpXuXrXrXpXpXuXuXuXuXrXrXR.aXaXaXpXrXrXrXeXR.R.R.R.eXeXeXeX0XtXuXuXuXuXuXuXeXyXyXyXpXMXV.6 + ` E.E.Y.eXeXJ.H.H.H.R.rX0X9X9XeXeXrXrXrXrXrXrXaXrXrXrXiXaXrXrXaXfXdXdXdXdXfXaXdXuXdXCXFXCXCXCXCXCXZXZXVX~.~.^. ./ j s 5 5 x <.9.9.4.( ~ } O.O.d.h.G.T.T.R.pXpXrXrXrXrXrXR.R.R.rXrXrXrXrXrXR.R.rXrXrXrXrXR.Y.Y.F.F.F.F.Y.Y.Y.R.Y.U.U.L.P.E.9.6 ; ' P.E.L.C.h.s.s.f.C.D.G.C.G.G.h.C.C.C.C.C.C.h.L.L.h.C.C.C.h.g.C.h.h.C.C.C.h.g.d.g.g.K.L.L.P.I.I.b.8.8.8.8.8.2.< 7 @ # G q.G G G G q.e.e.q.e.M.*X-X;X+X|.#X&X|.|.oXe.B F e.e.r.B C Z B g N V V C C C J U U U U U U U U U U U U U U U U U U U U ",
"U U U U U U U U U U U U U U U U U U U U U C C C C V N * * N C T F H P m % H |.|.;X;X;X;X*X&X|.[.t.P q.].|.}.].}.;Xq.z 7 O O < w < 3 3 9 h h j j ) ) ) _ ' ' [ [ 3.3.3.3.4.4.4.4.4.4.4.4.4.4.4.4.7.4.4.4.7.4.4.4.d.d.d.g.g.g.g.g.h.B.d.V.%Xb.5 ; j <.9.7.7.a.4.{ d.d.f.f.f.f.f.C.C.h.h.C.C.G.G.C.D.D.D.G.G.G.G.D.T.T.T.R.R.Q.R.R.R.pXNXVXVXVXVXAXVXMX!.P.P.P.K.3.j  .,.c h a l ` <.5.5.o.o.7.g.d.$.k.R.uXrXR.rXrXpXpXuXuXuXrXrXR.aXaXpXpXrXrXeXeXeXeXrXrXrXrXrXrXtXtXuXuXuXuXpXuXyXyXyXyXpX~.6.> ; ` T.E.Y.eXeXF.F.J.H.R.H.0X9X9X0XeXeXeXrXrXrXrXrXrXeXrXiXaXaXrXiXaXfXdXdXdXaXaXaXuXdXZXFXCXCXCXkXBXAXAXVXVXVX1X5.../ l j h c <.6 ( o.4.4.g.h.g.f.T.pXpXrXR.pXpXrXrXrXrXrXrXrXrXuXuXrXrXrXrXrXrXY.Y.Y.Y.Y.Y.F.F.F.F.Y.R.rXY.Y.Y.F.G.U.L.T.!.9.6 ; _ P.!.T.G.D.h.s.s.h.C.C.B.C.C.h.h.h.f.f.h.h.h.L.L.h.C.L.L.C.g.L.L.C.C.h.h.g.g.7.g.g.V.L.L.K.K.I.b.9.8.0.0.<.,.< = @ @ A G G q.H H G e.q.q.t.{.+X*X=X#X}.|.|.|.|.&Xr.H P e.P Y B C B N g N V V C C C J U U U U U U U U U U U U U U U U U U U U ",
"U U U U U U U U U U U U U U U U U U U U U C C C C V N * * V U T F F I m % F oXoX&X&X&X&X*X&X#X|.].e.e.].}.].[.|.-Xq.g 8 + + < < v c D D c k 5 3 ` ` _ _ ' [ [ [ 3.3.3.4.4.4.4.7.4.4.4.4.4.4.4.4.4.4.4.4.7.d.d.d.d.d.g.g.g.g.g.g.h.h.7.g.!.9.6 + j <.8.7.7.d.a.O.$.d.s.s.d.d.f.f.h.f.f.C.C.C.C.C.B.D.D.D.G.G.G.G.T.T.T.R.R.R.R.R.R.pXNXNXMXMXMXVXMX~.!.E.!.!.I.9.5 l  .c l l c / 5.5.5.( ( o.6.d.$.k.H.rXR.H.H.R.pXpXpXuXrXrXrXR.pXpXrXrXrXeXeXR.eXeXrXrXrXrXrXrXtXiXaXdXsXsXpXpXyXyXyXyXQ.Q.o.; > ..E.Q.U.z.z.J.F.F.H.H.H.F.9X9XeX0X0X0XeXeXrXrXeXeXeXrXaXaXaXaXuXiXaXaXdXdXaXaX0XuXdXCXCXCXCXDXCXFXFXZXQ.Z.P.A.n.../ l c c ` <.5.V.E.E.E.T.U.h.d.U.pXpXR.F.rXpXuXuXuXrXrXrXuXuXuXuXuXrXrXrXR.R.Y.F.F.F.F.F.F.F.F.F.Y.rXrXY.Y.F.l.D.U.U.E.!.7.> ; _ P.!.T.G.D.h.a.s.f.h.h.f.f.f.h.f.f.s.s.s.f.h.C.C.g.h.L.L.C.h.L.L.L.C.h.g.g.g.a.d.g.g.L.K.K.K.K.9.9.8.8.0.*.*.< # O @ q G q.[.t.q.e.t.y.q.t.#X{.#X*X&X|.{.}.}.oX&Xe.B H F B B B B B 0 g N V V C C C J U U U U U U U U U U U U U U U U U U U U ",
"U U U U U U U U U U U U U U U U U U U U U C C C C V N * * V U T P F I m = P &XoX}.}.[.}.|.+X|.}.].e.q._.[.[.|.;X&Xq.z q # + < < v z k h e e 5 5 ` ` _ _ ' [ [ [ 3.3.3.4.4.4.4.4.4.4.4.4.4.4.4.4.4.4.4.4.a.d.d.d.d.g.g.g.g.g.g.g.d.h.7.g.P.0.> O j <.8.6.7.d.a.O.$.d.d.d.d.d.d.f.f.f.f.f.B.C.h.h.h.h.B.D.D.D.D.D.R.T.T.T.T.R.T.T.U.R.pXMXpX~.~.~.Q.~.MXMXMX%XW.K.5 l ,. .c l l / ..5.6.6.7.g.g.d.s.k.J.H.H.F.H.H.pXpXuXuXrXrXrXR.rXrXrXeXeXR.H.H.H.H.H.H.Y.R.R.H.tXiXaXdXsXpXpXpXyXyXyXeXQ.!.5.; 4 o.E.Q.Y.z.z.J.S.D.D.D.J.F.9X9XeXeX0XH.eXeXrXrXeXeXeXrXaXaXaXaXrXuXaXaXdXaXaXaX0XiXkXCXZXZXZXCXZXAXAXsXB.6.n.+.n. .l l c c ` <.9.V.L.g.d.d.d.$.$.h.R.rXR.F.rXpXrXrXrXrXuXrXrXrXuXuXrXrXR.R.H.H.R.Y.Y.F.F.Y.Y.R.F.Y.Y.rXY.Y.Y.F.k.D.U.U.P.E.3.; ; ] P.E.C.f.h.s.a.s.f.h.f.f.f.f.B.f.s.d.d.s.f.h.h.g.g.g.C.L.C.g.h.C.C.h.g.g.g.g.7.a.g.g.K.K.K.K.8.8.9.b.9.8.<.*.w 7 O @ q G t.;X&X{.[.}.t.q.t.|.{.+X&X*X&X|.}.}.oX|.Y 7 0 0 0 0 B B N 0 g N V V C C C J U U U U U U U U U U U U U U U U U U U U ",
"U U U U U U U U U U U U U U U U U U U U U C C C V V N * * V U T T I P B 0 e.&XoX}.}.|.&X&X&X#X|.[.q.P e.t.t.`.|.|.G z q # + < < 3 3 < < 3 2 j x ^ ^ ) _ ' ' [ [ 3.3.3.3.3.4.4.4.4.4.4.4.4.4.4.4.4.4.4.4.4.a.d.d.d.g.g.g.g.g.g.d.j.g.a.g.P.5.> O ` 3.8.4.4.4.4.O.$.$.d.d.$.$.d.d.f.s.s.f.f.C.f.f.s.f.h.h.C.C.C.C.T.T.G.G.G.G.G.G.D.R.~.pXpXpX~.~.Q.MXMX%X!.P.K.9.a c  .c k l c / ` 5.9.g.A.U.U.D.D.F.H.H.H.H.H.R.pXuXuXuXrXrXrXrXrXeXR.R.H.F.F.F.H.H.H.H.H.H.H.J.0XtXiXuXuXuXuXrXeXeXeXY.Q.%X6.> s 5.E.pXY.z.z.9XS.S.S.S.S.J.9XtXrXeX0XH.H.eXrXuXiXrXrXrXaXaXaXiXrXuXiXaXaXaXaXaX0XaXCXCXCXCXZXCXdXdXsXG.+.6.A.5.N.| a a c c ` ` 3.g.g.O.O.a.g.d.a.h.T.R.H.H.eXuXrXrXrXrXrXR.R.rXuXrXrXR.R.H.H.F.Y.Y.F.F.F.Y.Y.eXR.R.rXrXrXY.Y.Y.l.G.U.h.V.P.;.; ; _ P.T.h.d.s.s.s.s.h.C.h.f.s.f.C.h.f.d.d.s.h.C.g.g.g.g.g.C.h.g.g.g.g.g.g.g.g.g.7.d.g.g.L.K.K.K.8.8.9.8.8.<.` x 9 7 @ @ M G t.-X&X|.|.;X}.e.e.}.#X+X#X&X&X|.|.|.&X|.P % = 0 0 0 H B V N g N V N C C C J U U U U U U U U U U U U U U U U U U U U ",
"U U U U U U U U U U U U U U U U U U U U U C C C V V N * * V U r.T I P B 0 e.&X|.[.}.|.&X*X&X{.[.}.e.G q.e.G G e.].S q q # + < $ h h h h h h e e j ^ ) ) _ ' ' ' [ [ 3.3.3.3.4.4.4.4.4.4.4.4.4.4.4.4.4.4.7.d.d.d.d.g.g.g.g.g.g.d.a.g.a.g.I.<.> O <.0.9.4.o.O.O.} $.a.d.d.$.$.d.d.f.s.d.s.f.f.f.f.%.s.s.h.h.h.h.h.T.G.D.D.D.G.D.D.G.R.pXMXMXNXMXMXVXVX%XC.3.[ 0.9.j c c h 2 4 s / / ..o.+.d.U.E.R.H.H.rXR.R.H.R.rXpXuXuXuXrXrXrXrXeXR.R.H.F.F.F.F.rXeXeXR.Y.Y.H.H.9XqX0XuXuXQ.R.eXz.z.z.Y.Q.MXV.4 d +.T.pXY.z.F.eXl.k.f.%.k.J.9XtXrXeX0XH.H.eXrXiXaXaXiXiXaXaXrXrXrXrXuXaXaXaXaXaXuXkXCXCXCXCXBXkXkXdXuXB.+.6.b.+.5.l a a c ` ` ` 6.A.C.g.d.f.h.s.h.D.F.H.F.S.F.F.rXrXrXrXR.R.R.R.rXrXrXR.H.H.F.F.F.F.D.l.l.F.F.Y.rXrXrXrXrXrXrXR.F.U.U.g.g.K.=.; > o.!.E.h.d.s.s.s.f.C.B.h.f.s.s.C.h.f.d.d.s.h.C.d.d.d.g.g.g.g.g.g.g.g.g.d.d.g.g.7.d.g.g.g.K.K.K.9.9.8.<.*.x e 5 w 7 @ @ q H e.&X[.].{.-X|.e.e.{.;X#X|.#X&X.X|..X;X&XP = = m m Z F F C B N V V N C C C J U U U U U U U U U U U U U U U U U U U U ",
"U U U U U U U U U U U U U U U U U U U U U J C C C C V * E C C C I F P F 0 r.-X|.}.}.[.}.&X-X&X[. Xt.P H F G G H e.G D z O O # # 9 9 h h x x x j ^ ^ ) _ ' [ [ [ 3.3.3.3.3.3.3.3.3.3.3.3.3.3.3.o.4.O.O.O.O.4.4.4.7.d.g.h.g.g.g.d.{ O.4.L.!...> > 8.9.9.3.o.+.4.O.} O.O.O.$.$.d.f.f.s.s.f.f.C.G.T.B.B.C.D.D.D.G.G.C.C.D.G.G.G.D.D.pXpXpXpXpXpX~.sXQ.T.g.+.3.4.0...a k ,.,.a a  ...b.A.L.P.U.U.U.F.F.H.R.rXuXuXuXuXrXrXrXrXrXrXrXuXeXrXeXeXR.H.F.F.D.F.F.H.R.R.eXeX0XqX0XH.G.S.S.S.eXeXz.F.Q.T.( > ..n.T.R.Y.eXeXyXR.F.D.G.H.0X9Xz.rXrXeXeXeXeXrXrXrXrXrXuXiXaXaXaXkXdXaXuXrX0XuXuXaXdXkXCXCXkXdXaXCXkXQ.B.A.A.+.| n.| a a l c ` <.3.g.B.B.C.G.C.d.G.F.H.H.eX0X0XH.rXrXuXuXuXrXrXR.F.F.F.F.F.D.D.D.F.F.l.l.l.F.F.F.Y.R.rXyXyXrXrXY.D.D.s.g.P.P.3.> 6 3.P.E.h.$.$.h.d.d.$.$.$.a.h.G.s.s.s.s.f.f.f.f.C.L.C.C.g.g.h.h.g.g.g.g.g.g.g.g.4.d.g.V.V.V.g.g.9.9.3.` j x x e q w @ @ q G y.&X}.-X|.;X}.G t.].M.|.-X<X;X|.|.&X&X].m @ q F B B T V V B 0 N C V C C C J R U U U U U U U U U U U U U U U U U U U ",
"U U U U U U U U U U U U U U U U U U U U U J C C C C V * E C C Z I Z P H 0 r.;X X[.}. X}.+X;X*X|.].e.G H G G G G q.G D z O O < < f f h k x x x x ^ ) ` _ ' [ [ [ 3.3.3.3.3.3.3.3.3.3.3.3.3.3.3.o.4.O.O.O.O.O.4.4.4.a.g.g.g.a.7.4.{ O.4.V.W.3.6 5 0.9.9.6.3.4.4.O.O.O.O.$.$.$.d.f.f.s.s.s.f.C.G.U.B.B.B.C.D.D.D.G.C.D.D.G.G.D.D.D.Q.Q.pXpX~.~.~.~.sX^.A.4.3.6.0.<.a a  . .a a ..+.5.6.C.U.T.T.R.R.F.H.R.rXuXuXuXuXrXrXrXR.R.R.rXrXR.eXeXeXR.R.H.F.F.F.H.H.R.R.H.H.qXqX0XH.G.S.S.S.F.eXz.z.E.T.o.d +.b.T.T.Y.9XeXyXR.F.D.G.H.0X9XJ.rXeXeX0X0X0XeXeXeXeXrXrXrXuXiXiXaXfXaXaXiXiXaXaXaXdXkXCXCXkXdXdXCXdXS.@.W ~ X.X.b. .a a h k c ' ( O.d.g.C.Q.pXR.H.H.H.0X0X0X0X0XrXuXuXpXuXuXrXrXH.H.H.F.F.D.D.D.F.F.D.l.l.l.F.F.F.F.Y.rXrXY.F.D.s.$.a.d.T.E.8.6 r 0.!.!.C.a.s.D.d.d.a.$.$.d.f.C.f.f.f.f.f.f.h.h.C.C.C.g.g.g.g.g.g.g.g.g.g.g.g.d.4.g.g.V.g.g.g.9.K.b.3.) j x j h q 7 @ @ q G t.&X].;X&X-X}.G e.y.y.y.M.{.|.|.oX&X|.].B % m F Z Z T V V B 0 N C N C C C J R U U U U U U U U U U U U U U U U U U U ",
"U U U U U U U U U U U U U U U U U U U U U C C C C C N * N C C C I Z F Z 0 r.;X X[.|.oX|.&X-X:X-Xt.q.G H G Y q.q.q.D D z O O < < h h k z c c c x ) ) _ _ ' [ [ [ 3.3.3.3.3.3.3.3.3.3.3.3.3.3.3.o.:.O.O.O.O.O.O.O.4.4.d.d.7.4.O.O.{ O.{ g.I.5.r j 0.9.9.6.4.4.a.$.O.$.$.$.$.$.d.d.f.f.d.s.f.C.G.G.h.h.B.C.D.D.D.D.D.D.G.G.G.D.D.D.R.R.~.~.Q.R.R.Q.~.T.g.[ [ o.3...a a  . .a a ..+.o.6.g.G.T.R.pXpXR.H.R.rXuXuXuXuXrXrXR.R.H.H.H.H.H.R.R.eXeXR.R.R.R.R.R.R.R.H.F.J.9X0XH.J.G.S.S.S.x.z.z.z.Q.E.6.~ +.n.T.T.F.F.eXyXR.D.D.D.H.eX9XJ.rXeXH.H.H.H.H.H.0X0XeXeXeXrXrXrXiXaXaXfXdXfXaXaXuXaXdXBXkXkXkXdXCXVXR.} W ~ n.W.I.1.l a h h ` <.6.g.f.g.C.R.~.R.R.R.rXrXrX0X0XrXuXuXuXpXuXuXrXrXH.H.H.F.F.D.D.S.l.l.l.l.D.l.l.l.l.D.F.F.F.l.k.f.k.h.s.d.L.P.3.> _ 7.%X!.L.s.h.G.s.d.d.d.d.s.s.s.C.C.h.h.f.f.C.C.C.C.C.h.g.g.g.g.h.h.g.g.g.d.7.7.7.g.g.g.g.9.7.9.9.9.<.j 5 h j h 9 7 @ @ q G t.&X[.;X&X-Xt.q G A A z z S G q.e.t.]._.B = B F H F T B B V 0 N C V C C C J R U U U U U U U U U U U U U U U U U U U ",
"U U U U U U U U U U U U U U U U U U U U U C C C V V N * N C C C P Z I H 0 ).-X|.|.;X-X-X;X-X:X-Xt.q.G G G Y q.q.q.S S z O + w w v v z c c c ` c ) ` _ ` ' [ [ [ 3.3.3.3.[ ;.[ o.3.3.3.3.3.3.3.o.:.O.O.O.O.O.O.O.4.4.a.4.4.{ [ { { O.[ 7.P.0.j ^ 3.9.9.6.4.d.d.$.$.$.$.$.$.$.$.d.f.f.d.d.s.f.C.G.h.h.h.C.C.D.D.D.D.D.G.G.G.D.D.D.R.R.~.~.Q.R.R.T.Q.C.o.~ ~ ( 3.5.a k  . .a a | ..o.+.A.G.T.R.rXrXR.R.rXrXuXuXuXrXrXrXR.R.H.H.H.H.H.H.R.eXeXrXrXrXrXrXrXeXR.H.H.J.J.9XH.J.G.S.S.S.x.9Xz.z.Q.E.6./ X.(.Z.G.F.eXeXyXH.D.D.D.H.rXqX9XrXeXH.F.F.F.H.H.0XeXeXeXeXeXrXrXrXuXaXdXdXaXuXuX0XuXdXkXkXkXdXkXdXCXVXQ.C.Z.!.^.b.1./ l l c *.3.C.T.T.G.G.T.T.D.R.rXrXrXtXtXtXrXrXuXrXrXrXrXrXR.R.H.H.F.F.D.S.D.l.l.l.F.F.l.k.k.l.l.D.D.l.k.f.s.l.D.h.g.L.K.' > ' g.%X!.L.s.h.T.s.s.s.f.f.f.s.a.h.h.f.f.f.f.f.h.h.C.h.h.g.g.g.g.h.h.g.g.g.g.d.d.a.g.g.g.g.7.7.6.8.0.` 5 > 5 e e q q @ @ q H e.|.].|.|.&Xq.M t.y.q.q.G D D G Y G t.t.B = m F H I Y B B V 0 N C V C C C J R U U U U U U U U U U U U U U U U U U U ",
"U U U U U U U U U U U U U U U U U U U U U C C C V V N * N C C C T F P F m '.4XoX|.-X6X4X;X*X*X&Xt.e.Y G G G Y q.K S D z + + 9 9 v z z c c ` ` ` ` ` _ _ ' [ [ [ o.o.o.[ [ [ [ [ 3.3.3.3.3.3.3.o.:.O.O.O.O.O.O.O.4.4.4.4.O.[ { { { O.{ 4.I.0.) ` <.0.9.6.7.d.d.$.$.$.d.d.d.d.d.d.f.g.d.d.d.f.C.C.f.h.h.B.B.C.D.D.G.G.G.G.G.D.D.C.R.R.Q.Q.R.R.R.Q.~.C.o.~ ~ o.7.b.s k 1.X.a a | ( o.6.B.U.T.R.rXrXR.R.R.rXrXrXrXrXrXrXrXR.H.H.H.H.F.Y.R.eXrXrXrXrXpXrXrXrXeXR.R.H.J.J.J.J.G.D.D.S.z.eXeXz.R.T.6.d ~ +.Z.H.Y.eXyXyXF.D.S.D.H.rX0X9XrXeXH.H.F.H.H.0XeXeXeXeXrXrXrXrXrXuXiXaXuX0XH.J.0X0XaXdXkXkXkXkXrXdXdXsXsX~.W.Z.+.| c / ` ` *.3.+.f.G.T.Q.pXpXR.rXrXrXiXiXtXtXrX0XR.R.R.H.H.H.H.R.H.H.H.F.F.F.F.l.l.F.F.F.l.k.k.F.F.F.F.l.l.k.f.%.s.a.d.L.P.0.r _ 9.!.!.L.s.h.U.s.s.s.f.C.C.s.$.f.f.f.d.d.d.d.d.h.h.g.h.g.g.g.g.g.g.g.g.g.g.g.g.7.d.g.g.g.7.4.8.0.3.' 5 5 5 j e z q @ @ q H q.}.t.].[.|.e.].GXGX+X;X=X#X{.|.|.|.t.e.B % 0 B Z F Y N N N 0 N C V C C C J U U U U U U U U U U U U U U U U U U U U ",
"U U U U U U U U U U U U U U U U U U U U U C C C V V N * N C U C T I P F B }.4X&X|.-X4X-X#X+X|.}.t.e.e.P G G G Y q.S D g + + 9 9 v z z c c ` ` ` ` ` _ _ ' ' [ [ o.o.[ [ [ [ [ [ 3.3.3.3.3.3.3.o.:.O.O.O.O.O.O.O.4.4.4.4.O.[ { O.O.d.O.4.K.8.` ` <.5.8.4.4.a.a.$.O.$.d.s.s.d.d.d.f.g.d.d.d.s.f.C.f.f.f.h.B.C.C.C.D.D.D.G.D.C.C.h.T.R.R.R.R.R.Q.Q.MX^.A.+.4.V.I.K.k k 1.1.s a | / o.6.C.T.T.Y.eXeXH.R.R.R.rXR.R.R.rXrXR.H.H.H.H.H.H.R.eXeXrXrXrXrXrXeXeXR.R.R.R.H.J.J.J.J.G.G.D.S.z.eXeXz.R.T.o.d d X.Z.R.eXrXyXyXF.D.S.D.rXrX0X9XrXeXH.H.H.0XeXrXrXrXrXrXrXrXrXrXrX0X0X0XH.J.J.J.0X0XaXfXdXdXdXdXaXaXrXH.Q.~.Z.+./ s j / ` ` ` <.O.f.G.R.pXsXpXrX0XrXrXiXiXtXtXrX0XH.H.F.F.F.F.H.H.H.H.H.H.F.F.F.F.F.F.F.F.D.l.l.F.F.F.F.D.l.l.k.f.h.h.g.L.L.0.r ) 4.W.!.L.f.h.G.h.s.d.f.D.G.f.d.f.s.d.d.d.$.$.a.h.g.g.g.g.g.g.g.g.g.g.g.g.g.g.h.4.d.g.g.7.6.4.8.8.0.<.^ j c ` c z q # # q H i.[.[.].}.&Xe.}.LXKX{.;X<X*X#X;X-X-X`.t.m @ 0 A B Z Y N N B 0 N C V C C C J U U U U U U U U U U U U U U U U U U U U ",
"U U U U U U U U U U U U U U U U U U U U U C C C V V N * N C U C T F I F B  X4X&X&X;X*X|.{.|.+X|.t.e.e.q.G G K q.q.G D g + + 9 9 z v z c c c ` ` ` ` _ _ ' ' ' ' [ [ [ [ [ [ [ [ 3.3.3.3.3.3.3.3.:.O.O.O.O.O.O.O.O.4.4.4.{ { O.4.a.g.7.7.K.9.` j ` 3.0.3.4.4.a.O.{ $.d.f.f.f.f.s.f.d.d.d.a.d.f.h.s.s.f.f.h.B.B.B.C.C.C.C.B.h.f.s.D.U.T.R.R.R.Q.Q.~.!.T.C.P.P.K.0.a a  .1.d s ..| o.+.C.U.R.Y.eXeXH.H.R.R.R.H.H.F.H.H.H.H.H.H.H.H.R.R.rXrXrXrXrXrXF.F.F.F.F.F.H.H.J.J.J.J.G.S.D.S.z.eXeXz.Q.T.o., d +.G.Q.rXeXeX9XF.D.S.D.rXrXqX9XrXeXH.H.H.eXrXaXeXeXeXeX0X0X0X0XH.H.H.J.J.J.J.J.0X0XiXaXaXaXaXaXkXdXrXH.Q.~.Z.6.| / / ` ` ` ` 3.g.C.T.T.R.pXuXH.H.0X0XrXiXtXtXtX0XH.H.F.F.F.H.H.F.F.H.H.H.H.H.H.Y.Y.F.F.F.F.F.F.D.l.l.l.l.l.l.l.D.U.U.C.L.V.;.6 ^ 0.P.!.U.h.D.U.h.d.$.s.D.G.C.s.f.f.s.d.d.a.$.a.h.g.g.g.g.g.g.g.g.d.d.d.d.a.a.a.4.7.g.g.7.6.7.7.0.0.0.' ` ,.,.*.q q @ # q H q.}.|.[.|.;XG t.5X;Xt.{.{.M.].#X&X|.|.].B @ m F B B F 0 0 B 0 N C V C C C J U U U U U U U U U U U U U U U U U U U U ",
"U U U U U U U U U U U U U U U U U U U U U J C C V V N * N C U F T H F H M [.4XoX-X-X&X[.{.#X;X;Xe.e.e.q.P Y q.e.e.G G g + + w 9 h h z x c ` ` ` ` ` ` _ ` ' ' ' ;.[ ;.[ ;.[ [ [ ;.3.;.3.3.3.3.3.4.4.4.4.3.3.3.4.o.4.4.o.[ [ 4.4.4.h.d.7.K.8.) j ` <.0.3.3.4.a.O.{ O.d.h.h.h.f.f.f.d.d.a.a.d.s.h.s.s.f.f.h.C.C.C.h.h.h.h.h.s.d.$.C.D.G.T.T.T.R.Q.U.T.T.T.T.L.3.^ , i  .1.l ~ ..+.X.O.h.G.R.rXyXyXR.H.R.H.R.H.F.F.F.F.F.F.F.H.F.R.R.R.rXrXrXrXrXR.k.k.k.k.l.D.F.F.z.J.J.D.G.G.D.D.l.eXF.F.Q.Q.+.> ~ +.T.pXyXeXz.z.F.D.S.D.rXrXtX9XeXH.H.H.H.eXrXaX0XH.H.H.H.H.H.H.F.J.S.S.k.J.F.H.0XrXiXaXaXaXaXaXfXfXuXrXpXsXT.n.5..... .` ` ' 5.g.D.G.D.H.pXpXuXeX0XrXrXrXtXtXrXrXR.R.F.F.H.R.R.F.F.F.H.H.H.R.R.R.R.Y.D.D.D.F.Y.l.l.l.l.k.l.l.l.f.D.C.B.L.P.8.) Q 0.E.%XE.D.D.Y.h.d.$.s.D.G.D.f.C.C.f.s.s.d.d.d.g.g.g.g.g.g.g.g.g.g.d.7.4.4.4.O.4.4.a.g.7.7.7.9.3.0.3.*.' <.<.` 9 7 @ + z G e.|.].t.|.;XG q.-Xy.+X#X+XM.{.-X-X}.;X}.B % B F H B F 0 0 N 0 g C V C C C J U U U U U U U U U U U U U U U U U U U U ",
"U U U U U U U U U U U U U U U U U U R R R J C V N N N V * T C r.`.H F H 7 e.5X5X6X4X&X|.#X#X#X*Xt.Y e.e.G P t.e.q.G G q @ # 9 : e r j j ) ) ` ` ) ) ` _ ` ` ' ' ;.;.;.;.;.3.3.;.;.3.3.3.3.3.0.3.4.3.3.3.;.;.3.3.;.;.4.4.4.4.3.3.7.d.4.7.K.;.> u 3.0.0.4.4.4.4.d.4.a.d.h.h.h.h.d.C.h.d.d.d.d.d.d.h.h.h.h.C.C.C.C.h.h.d.a.a.d.h.C.C.C.U.T.R.R.R.Y.Q.R.T.U.C.g.O.( l l <.1.j / o.o.d.B.T.R.R.Y.eXyXY.H.H.H.Y.H.Y.F.Y.H.Y.H.Y.Y.Y.Y.rXR.R.T.Y.G.D.D.D.D.D.G.D.l.f.%.F.F.G.G.B.B.C.D.F.rXF.l.Q.VXZ.4 ~ V.T.U.eXeXx.z.l.D.G.D.G.H.9X9XeXR.eXR.eXR.rXR.rXrXeXR.eXH.F.S.F.S.H.rXH.S.S.H.F.F.H.H.rXuXuXuXrXuXaXaXpXQ.Z.A.+.| l s / | ..+.$.f.G.R.T.R.R.rXrXrXeXeXrXeXeX0XeXR.Y.H.Y.F.F.F.F.F.G.F.T.T.R.T.R.U.h.s.s.h.U.R.h.h.h.h.h.h.h.f.%.l.h.a.L.E.3.; 6 g.E.!.~.U.f.k.h.d.$.s.D.G.C.s.h.h.h.f.f.f.f.f.d.g.h.g.g.g.g.g.7.7.4.4.O.o.o.[ 7.4.4.4.4.4.4.3.0.3.3.<.<.` ^ j : 9 $ + 9 D q.[.].}.|.[.t.{.*X#X|.#X#X+X|.|.|.[.5X;XG 0 H F H I '.0 N * * C V C C C C C U U U U U U U U U U U U U U U U U U U U ",
"U U U U U U U U U U U U U U U U U U R R R J C V N N N N = Y B Y ].F P F 7 e.6X6X<X,X&X.X#X#X#X&Xy.K e.e.G P ).e.).q.G q O # f 3 t j ^ ) ) ) ` ` ) ) ` ` ` ` ` ` ;.;.;.;.;.3.3.;.;.;.3.3.3.3.3.3.3.3.3.;.;.;.3.3.;.3.0.7.7.0.3.3.7.7.4.g.P.4.6 u 0.7.7.7.4.4.4.4.4.a.j.h.h.h.h.h.h.g.j.j.g.h.h.h.h.h.h.h.h.h.h.h.h.g.j.a.a.d.h.h.C.C.C.U.R.R.Y.Y.R.R.Y.U.D.g.O.( l l <.<.j ^ o.o.d.C.U.R.R.Y.eXyXeXY.Y.Y.Y.Y.Y.F.Y.Y.Y.Y.Y.Y.Y.Y.R.R.T.Y.D.D.l.l.l.l.l.l.l.k.f.s.F.F.F.G.B.A.B.C.l.U.l.s.U.~.6.> s b.P.U.yXyXz.Y.l.D.G.G.F.F.eXF.eXR.R.R.R.R.R.R.uXrXR.R.R.H.F.F.S.k.S.F.D.f.k.F.F.F.H.H.rXuXuXuXrXuXiXpXuXQ.G.Z.+.| l l / ( X.+.$.k.F.R.R.R.eXrXrXrXeXeXrXrXeXeXrXeXY.Y.Y.F.F.F.R.Y.Y.T.T.T.T.T.D.D.h.h.h.C.U.U.h.h.h.h.h.h.h.h.s.k.l.j.L.E.3.u W g.E.E.Q.D.s.f.h.f.d.f.G.U.D.f.h.h.h.f.f.f.f.s.d.j.j.j.d.a.a.a.7.4.4.4.o.o.o.o.4.4.4.4.4.4.4.3.4.0.3.3.<.' ) j 2 2 + O 9 D y.|.}.|.|.m.y.M.#X#X;X-X=X#X|.#X#X|.4XoXF 0 F F H F `.* N * * C V C C C C C U U U U U U U U U U U U U U U U U U U U ",
"U U U U U U U U U U U U U U U U U U U U R J C V V N g N & F 0 F }.P Y P 7 e.4X-X-X-X&X#X=X=X#X&Xq.G q.q.F P ).t.].e.G 8 O # z k j ^ ^ ) ) ` ` =.) ) ) ) ` ` =.` ;.;.;.;.;.3.;.;.;.;.;.;.;.3.3.;.;.;.;.;.;.;.;.;.3.3.3.3.3.3.3.3.4.4.o.g.%X9.6 u 7.7.9.7.4.3.O.4.O.4.j.g.h.h.h.h.g.j.a.a.g.h.h.h.h.h.h.g.g.j.d.g.g.g.j.a.a.g.h.g.g.A.C.U.T.R.Y.Y.R.R.Y.U.U.g.4.o.l l ..<.s / o.o.d.C.U.R.Y.Y.eXeXeXY.Y.Y.Y.Y.Y.Y.H.F.F.F.F.F.Y.F.Y.Y.Y.D.D.l.l.k.l.h.f.f.f.f.f.f.z.F.F.D.A.A.B.C.k.D.k.%.D.^.o.> 4 5.P.U.yXyXeXeXF.G.G.G.Y.Y.eXeXeXH.H.H.H.H.H.H.H.F.S.S.S.S.S.k.k.f.S.S.S.&.k.D.F.F.F.H.R.rXuXuXrXrXuXuXuXR.G.Z.+.| l d / ( +.+.s.l.R.rXrXR.rXpXrXrXeXeXrXrXeXeXrXeXY.Y.Y.F.F.F.R.R.T.Y.U.U.G.G.h.h.l.l.h.h.h.d.h.h.h.h.h.h.h.h.s.k.f.d.U.E.4.u 6 g.E.T.R.D.%.f.h.s.d.f.C.G.C.f.h.f.f.f.f.f.f.s.d.g.d.j.a.a.4.4.4.4.4.o.o.o.o.o.4.4.4.4.4.4.3.3.4.0.0.3.3...` j h i + O 9 D y.|.|.}.[.y.q.m.#X=X:X,X=X#X.X&X&X|.-X}.H 0 F G H H T * N * * C V C C C C C U U U U U U U U U U U U U U U U U U U U ",
"U U U U U U U U U U U U U U U U U U U U R J C V V N g g & U 0 C `.F e.T q e.4X;X-X-X&X|.#X=X=X;Xq.G G Y H P ).t.].e.G q O < z k j ^ ) ) ) _ ` ` ) ) ) ) ` ` =.` ;.;.[ ;.;.;.;.;.;.;.;.;.;.;.;.;.=.' ' ' ' ;.;.;.3.3.3.3.3.3.3.3.4.4.4.V.%X9.6 ; 0.7.9.7.4.4.4.4.4.a.j.j.g.j.j.j.g.j.j.a.g.h.h.h.h.h.h.h.h.g.g.d.j.j.a.a.a.j.g.g.g.g.h.D.U.R.Y.Y.Y.Y.Y.U.U.h.d.o.j j ..<.s / o.o.d.h.U.Y.Y.F.Y.Y.eXY.Y.Y.Y.Y.Y.Y.F.F.F.F.F.F.F.F.F.G.D.D.l.h.f.f.f.f.s.s.s.f.h.k.z.F.D.C.A.A.B.C.l.F.l.f.U.Q.6.4 > 5.P.U.yXeXz.Y.D.G.G.T.Y.Y.eXeXH.H.H.H.H.F.F.J.D.S.f.&.&.f.k.k.S.S.S.S.S.S.D.F.D.D.D.J.H.rXrXrXrXrXrXrXR.H.G.Z.+.| l l / | +.+.s.D.R.rXrXrXrXpXrXrXeXeXrXrXeXeXrXeXY.Y.Y.F.F.F.Y.F.G.D.D.h.h.s.D.D.D.h.h.j.a.a.h.h.h.h.h.h.h.h.f.k.f.s.U.E.3.u 6 7.P.U.R.D.s.k.s.$.$.$.s.f.f.d.f.f.f.f.f.f.s.s.h.h.h.d.a.a.7.4.4.4.o.o.o.o.o.o.4.4.3.4.4.4.3.3.4.0.0.0.3.<.' / k i + + z D K ].].t.t.y.q.M.=X<X&X=X-X;X;X-X;X|.;X[.H 0 F G Z Z T * N * * V N C C C C C U U U U U U U U U U U U U U U U U U U U ",
"U U U U U U U U U U U U U U U U U U U U R J C V V N 0 N = T 0 F r.F e.r.A `.4X;X-X4X=X|.#X=X=X=XG H G P H P ).e._.q.G q O # z 9 j ^ ) ) ) _ ` ` ) ) _ ) ` ` ` ` ;.' ' =.;.;.;.;.;.;.;.;.;.[ [ ' ' ' ' ' ' =.;.;.3.3.3.;.;.3.3.3.4.4.4.V.%X8.u ; 3.0.8.9.7.7.7.a.d.j.j.j.a.a.4.{ h.g.j.j.j.j.j.a.h.h.h.g.j.j.a.j.a.a.a.a.a.j.j.d.d.d.g.C.U.U.Y.U.Y.U.U.U.U.C.d.3.j j ..<.s ^ o.o.d.h.D.Y.F.z.z.F.Y.Y.Y.Y.Y.Y.Y.F.F.F.F.F.F.F.F.D.F.D.D.l.h.f.s.f.f.s.s.$.s.f.h.l.z.z.D.C.A.g.h.C.l.z.z.l.R.!.6.d 4 9.!.E.yXY.z.F.D.G.G.G.U.Y.Y.F.F.F.F.F.F.F.J.J.H.F.S.S.S.D.F.F.D.D.S.S.S.F.J.F.S.S.S.F.H.R.R.R.0X0XH.H.H.G.G.Z.+.X./ / / X.o.+.h.D.rXrXrXR.rXrXrXrXrXrXrXrXeXeXrXeXY.Y.Y.F.G.G.Y.G.D.l.h.h.s.d.h.h.h.j.j.j.j.d.h.h.h.h.h.h.h.s.f.f.s.d.L.P.3.> > 4.P.L.T.D.f.D.s.d.$.$.d.s.f.s.f.f.f.s.f.d.d.d.h.g.j.a.4.4.4.4.O.o.o.o.o.o.o.o.o.3.o.3.4.3.3.[ 0.3.3.0.3.<.' ` a 2 $ : z A A e.e.q.e.y.y.[.<X7X{.*X<X6X6X6X-X&X;X}.H 0 F P Z Z T * V N * V N C C C C J U U U U U U U U U U U U U U U U U U U U ",
"U U U U U U U U U U U U U U U U U U U U R J C V C N 0 N * r.B F r.F T e.B `.6X-X<X6X,X#X#X<X=X=XG A G Y F P e.e.r.P G q @ # 9 < j ^ ^ ) ) ) ) ) ) _ _ ) ` ` ` ` ' ' ' ' ;.;.;.;.;.;.' ' ' ' ' _ ' ' ' ' ' ;.;.;.3.3.;.;.;.;.3.3.4.7.4.V.%X4.> ; =.3.8.9.7.7.7.d.d.j.a.a.4.{ { { h.h.j.j.j.a.a.a.j.a.a.a.a.a.4.a.a.a.a.a.j.j.j.a.d.d.g.h.D.U.U.D.D.D.D.U.U.C.g.6.s l 1.1.s s o.4.d.h.D.F.F.l.z.F.Y.F.F.F.F.F.F.F.F.D.F.D.D.D.D.D.D.D.D.l.h.f.s.s.f.s.s.s.s.f.h.k.l.x.l.C.g.g.h.C.h.l.l.l.U.T.6.4 s K.%XE.yXY.z.Y.D.D.G.G.G.F.z.z.S.S.D.D.F.F.F.H.D.S.S.S.S.S.S.S.S.S.k.&.k.F.F.S.S.S.S.S.H.H.R.R.0XH.H.F.F.G.G.P.+.X./ / / X.o.+.h.D.R.rXR.R.R.rXrXrXrXrXrXrXeXeXrXeXY.Y.Y.Y.F.F.T.F.G.D.B.h.s.d.a.a.a.$.a.h.D.U.h.h.h.h.h.h.h.s.h.f.$.d.L.P.[ 4 > 3.P.U.R.G.f.D.C.C.f.f.s.f.C.C.f.s.s.s.d.d.d.d.a.a.4.{ { { { { o.} o.[ [ o.[ o.o.o.o.o.3.o.3.[ 3.3.3.3.3.<.' ` 2 2 : 1 v z A t.e.K q.t.t.{.<XHX+X<X5XHX5X5X4X-X4XoXG q F P H F T * C V * V N C C C C J U U U U U U U U U U U U U U U U U U U U ",
"U U U U U U U U U U U U U U U U U U R R R J C V C N 0 N 0 r.B F ].F Y F 0 t.5X6X4X7X6X;X=X<X=X.XH A G q.F P e.P t.P G q O # 9 3 r r ^ ^ ^ ^ ) ) _ _ _ _ ` ` ` ` ' ' ' ' =.;.;.=.;.' ' ' ' ' _ _ ' ' ' ' ' ;.;.;.3.;.;.;.;.;.3.3.4.7.4.V.W.0.> ; 3.0.9.V.g.7.7.7.4.a.4.O.{ 4.4.a.g.j.j.j.j.j.a.a.a.a.4.4.4.a.a.a.a.a.a.a.j.a.a.a.d.d.g.h.C.D.l.l.l.l.D.D.G.C.g.6.s l 5.5.s s o.7.d.h.U.Y.F.z.z.z.F.F.F.F.F.F.F.D.l.l.l.l.l.l.l.l.F.D.D.l.h.f.s.s.f.s.s.f.f.h.h.f.x.l.l.h.g.g.C.C.l.z.l.l.U.L.o.4 5 b.%XE.R.Y.z.eXD.C.C.C.D.D.z.z.k.k.S.S.F.F.H.H.f.&.&.&.k.k.k.f.f.k.&.$.&.F.F.k.k.k.k.S.F.H.H.H.H.F.F.S.S.D.G.T.+.X./ / | X.o.+.s.D.R.rXR.F.H.R.rXrXrXrXrXrXeXeXrXeXY.Y.Y.F.F.F.F.D.D.k.h.s.s.$.a.a.a.a.j.h.C.U.h.h.h.h.h.g.s.s.k.s.$.d.L.P.3.6 6 6.P.T.E.G.s.k.D.D.C.f.s.f.C.G.f.f.s.s.s.d.d.d.a.4.{ { { { O.O.} } [ [ [ [ o.o.[ [ [ o.o.o.[ [ o.o.' 3.5.<.' / i i : 1 z z G .X[.t.t.t.y.m.,XHX<X5XHX6X<X<X4X4X5X;XY q F P H F r.N C C * V N C C C C J U U U U U U U U U U U U U U U U U U U U ",
"U U U U U U U U U U U U U U U U U U R R R J C V C V 0 N * T 0 B oXY Y B = e.5X7X,XHXHX<X<X<X=X[.H A G q.G P e.P _.q.G 9 O # z 2 t r Q Q ^ ^ ^ ^ _ _ _ _ ` ` ` ` [ ' ' ' =.;.;.;.=.' ' ' ' _ _ _ ' ' ' ' ;.;.3.3.3.;.;.=.=.;.3.3.o.4.4.V.W.0.6 > 3.8.9.V.g.7.4.4.{ { { { { a.j.j.a.a.a.j.d.g.g.d.a.a.a.a.a.a.j.j.4.a.a.a.j.a.a.a.d.d.g.h.h.l.l.h.l.l.l.D.U.C.g.6.s c 8.5.s 6 o.7.d.h.U.Y.F.z.z.F.F.D.l.l.l.D.l.l.l.l.l.l.l.l.l.l.D.D.D.l.l.f.f.s.f.f.f.f.l.l.h.f.j.l.h.h.g.g.C.C.Y.Y.z.l.U.C.( > > 5.P.L.U.l.l.rXh.C.C.C.D.D.l.l.k.f.k.S.D.F.H.R.f.k.k.S.S.D.S.k.k.S.&.$.&.F.H.S.k.k.k.S.F.H.H.H.H.F.F.S.S.D.G.T.+.X./ / | X.o.6.s.D.R.R.F.D.F.H.rXrXrXrXrXrXeXeXrXeXY.Y.Y.F.F.F.k.k.f.f.s.$.$.$.h.h.s.d.j.d.s.s.h.h.h.h.h.s.s.s.D.s.$.g.P.P.3.6 6 9.!.E.Q.D.$.s.C.C.h.s.d.d.f.D.f.f.s.s.d.d.d.d.a.a.a.4.4.4.7.a.} [ [ [ [ [ o.o.[ [ [ o.o.o.[ [ [ ' ' <.3.<.` / h i : 3 f z y.4X-X[.m.y.q.y.*X5XHXGXHX-X|.#X-X6XGX-Xe.m F P F I `.V U C * V N C C C C C U U U U U U U U U U U U U U U U U U U U ",
"U U U U U U U U U U U U U U U U U U R U R J C V N N g 0 = r.B B }.e.F F Y e.t.[.t.[.[.M.y.y.2.D K F G q.P A F e.].P A 9 # < z 9 t r r ^ Q ^ ^ ^ ^ ) ) ) ) ) ) ) ' ' ' _ _ _ ' ' ' ' ' ' ' ' ' ' _ _ _ ' ' [ ;.;.;.;.;.3.3.3.7.7.4.7.4.4.8.^ > > *.8.9.0.3.6.7.4.O.{ 4.:.4.4.a.a.a.a.a.a.j.j.j.j.4.{ { { { a.a.a.4.{ { { j.h.g.a.a.6.d.d.s.s.l.l.f.h.f.d.f.C.g.o.a c 8.<.6 / V.L.C.D.U.Y.eXeXeXY.F.F.F.F.F.F.l.l.F.l.l.l.l.k.k.f.l.l.l.l.l.f.s.$.l.l.l.l.l.l.l.l.x.j.j.g.g.V.C.h.U.v.v.U.E.P.4./ : ..P.E.U.k.x.D.h.f.f.B.C.D.z.l.l.S.S.S.S.S.S.D.F.D.F.D.S.D.S.S.S.&.%.f.H.R.F.k.S.S.S.D.F.H.R.H.F.H.F.F.J.H.G.A.+.| d d d X.+.+.D.D.F.F.F.F.F.F.R.Y.H.H.F.F.F.F.F.F.F.F.D.l.l.l.F.D.D.k.h.s.s.s.a.a.a.j.d.s.s.h.h.h.h.h.h.s.s.d.s.f.f.B.A.4.^ > ^ 6.P.T.C.C.D.D.f.f.s.s.d.d.d.%.$.$.$.$.d.s.d.a.{ { { { { { [ } O.[ [ [ [ o.o.o.[ [ [ [ [ [ [ [ ' ' ` _ ` ` ' ' a 3 : : w S t.|.}.|.&X{.w.M.7XPXGXGXGXHX5X6X,X-X-X-X).A F F F Y U * U * N N V E C C C J U U U U U U U U U U U U U U U U U U U U ",
"U U U U U U U U U U U U U U U U U U R R R J C V N V N 0 = r.N V [.r.Y Y Y e.e.t.|.[.t.q.y.{.{.{.y.G G Y P A F e.].P A q # < z 9 j Q ^ ^ ^ ^ ^ ^ ) ) ) ) ) ) ) ) ' ' _ _ _ _ ' ' ' ' ' ' ' ' ' ' ' _ _ ' ' ' ;.;.;.;.;.;.3.3.7.4.4.7.4.6.9._ > 6 ' 3.8.5.o.4.4.4.{ { 4.:.4.4.a.a.O.4.a.a.j.j.j.a.4.{ { { 4.a.a.a.4.{ { a.h.h.g.a.4.6.d.d.s.f.h.l.f.h.s.d.f.C.g.o.5 l 5.<.s ` K.P.L.U.U.Y.F.F.z.l.F.F.F.F.l.l.l.k.l.l.l.l.l.k.k.f.f.f.l.l.l.f.f.s.h.h.h.h.f.f.f.l.l.l.h.h.g.V.C.h.h.l.l.v.U.g.( 4 , ..K.C.j.%.s.F.h.C.f.B.D.G.F.l.l.k.k.k.S.S.S.S.S.D.D.F.F.D.S.S.S.&.%.f.F.H.D.k.k.k.S.D.F.H.H.H.J.J.S.S.S.G.G.Z.n.X.| d / +.n.A.G.F.F.R.R.H.H.F.eXR.Y.H.F.F.F.F.F.F.z.l.l.l.l.l.D.l.k.h.s.s.%.d.a.d.d.s.h.h.h.h.a.a.j.j.j.d.s.s.s.f.f.g.g.6./ 6 4 o.P.!.T.C.h.f.f.f.f.s.s.d.d.d.$.$.O.$.a.d.d.a.{ { { { O.{ { { O.[ [ [ [ o.o.o.O.[ [ o.o.o.[ [ ' ' _ _ ` ` ' ' h 1 $ : w S t.|.}.|.;X&X[.&XLXIXGXGXKXLXLXGX5X4X3X-Xt.B B F H P C & U * N N C V C C C C U U U U U U U U U U U U U U U U U U U U ",
"U U U U U U U U U U U U U U U U U U R R R J C V V V N 0 = r.B V r.r.T T e.e.t.t.<X;X{.[.#X,X<X,X[.e.G G G B F e. Xq.H q # < v h j ^ ^ ^ ) ) ) ) ) ) ) ) ) ) ) ) _ _ _ _ _ _ _ ' ' ' ' ' ' ' ' ' _ ' ' ' ' ;.;.;.' ;.;.;.3.3.3.3.3.7.4.4.9._ > 6 ` <.0.o.' o.o.o.{ { { { 4.a.a.a.{ { 4.4.a.a.a.a.4.:.:.:.a.a.a.a.4.{ { a.h.h.g.4.4.O.d.d.s.s.h.h.s.f.s.a.f.C.g.o.a l 1...s / V.L.L.U.U.Y.Y.F.z.z.F.F.F.F.F.D.l.l.l.l.l.l.l.k.k.k.f.f.f.l.l.h.f.f.f.f.f.f.f.f.f.f.j.j.j.j.g.g.g.h.a.s.j.l.v.7.^ > l n.K.g.j.$.l.pXD.B.B.B.G.G.F.z.k.f.&.&.k.S.S.k.k.k.S.F.F.F.F.S.k.&.%.&.D.F.D.k.k.k.k.S.F.H.H.H.S.S.k.k.S.G.T.W.n.X./ d / +.A.Z.U.F.R.R.R.R.R.R.eXeXeXH.H.F.F.F.z.l.l.l.l.k.k.k.k.k.f.f.s.s.%.d.s.h.h.h.h.h.h.h.a.a.a.a.j.s.h.h.f.s.d.d.7.6.` r ; ( P.!.T.B.s.%.f.f.f.f.f.f.s.s.$.$.O.$.$.$.$.$.O.4.4.4.4.4.O.O.O.} [ [ [ o.o.o.[ [ [ [ [ [ [ [ ' ' _ _ ` ` ` ' h 1 $ $ w S t.|.[.}.;X;X{.&XKXIXGXGXKXKXGXHX4X-X4X-Xe.0 q B H P 0 X U * N E C C C C C C U U U U U U U U U U U U U U U U U U U U ",
"U U U U U U U U U U U U U U U U U U U U R J C V V V N g = r.B B Y Y Y Y e.].|.|.;X;X#X#X#X=X#X{.&Xt.Y G F B F e.}.q.F q # < z h j ) ) ) ) ) ) ) ) ) ) ) ) ) ) ) _ _ _ _ _ _ _ _ ' ' ' ' ' ' ' ' ' ' ' [ ' ' ' ' ' ' ' ;.;.3.3.3.[ o.[ 3.8.) > > ' <.3.o.[ [ o.o.{ { { O.4.4.a.a.{ { { O.4.4.:.:.4.4.4.a.a.a.a.a.{ { 4.j.h.h.j.O.O.4.d.d.s.s.f.f.j.f.s.a.f.C.g.3.j l <. .6 6 o.7.g.h.D.G.F.F.F.F.Y.Y.Y.Y.Y.Y.Y.Y.l.l.l.l.k.l.k.k.k.f.h.h.f.f.f.s.s.s.s.s.s.s.s.s.p.p.p.4.4.7.7.a.p.p.j.j.v.g.( 4 1.n.b.6.j.f.l.R.C.B.B.B.D.G.D.l.l.f.%.&.S.S.S.%.&.f.S.D.F.F.D.S.S.&.%.&.S.F.D.k.k.f.k.S.D.F.H.H.J.J.S.S.F.Q.~.^.n.X./ l | +.Z.~.T.R.R.rXrXrXrXeXrXeXeXY.H.F.F.F.l.l.x.x.k.k.k.f.k.f.f.f.s.s.s.s.h.h.h.h.h.h.h.h.s.d.j.j.d.h.h.h.d.%.d.d.6.5./ 6 > ` P.P.h.d.d.s.f.f.f.f.f.f.f.f.$.O.O.O.$.$.$.$.4.a.a.a.a.4.4.4.O.} [ [ [ o.o.o.[ } [ [ [ [ [ ' ' ' _ _ ` ` ` ` h 2 : : 9 S t.}.].[.&X&XM.m.<XLXGXGXHX6X<X;X|.}.3X;XP = 0 B H Y * X U N N * V C C C C C U U U U U U U U U U U U U U U U U U U U ",
"U U U U U U U U U U U U U U U U U U U R R J C V V V N g = r.V B P T Y G e.|.-X-X{.&X;X#X{.{.M.t.-X].P G F A F e.|.q.H q # < z z x ) ) ) ) ) ) ) ) ) ) ) ) _ ) ) _ _ _ _ _ _ _ _ ' ' _ _ _ _ _ _ ' ' ' ' ' ' ' ' _ ' ' ' ;.;.;.;.( o.' o.0.) > 6 <.=.=.o.3.o.o.4.{ { { { 4.4.a.a.{ { { { :.:.{ { 4.4.a.a.j.a.a.4.{ { { a.h.h.a.{ O.O.a.d.s.s.f.f.s.f.j.a.h.C.h.6.j j  . .4 6 o.4.4.a.s.f.k.x.x.x.l.l.F.F.Y.Y.R.rXl.l.l.l.l.k.k.k.D.l.l.f.s.s.%.%.$.$.$.$.%.%.%.s.p.p.#.{ 4.7.7.a.j.j.s.j.h.g...s  .....} j.f.%.$.h.g.d.A.B.D.l.k.D.k.&.f.S.D.S.k.&.f.k.S.S.D.S.S.S.k.&.f.S.D.S.S.f.f.k.k.D.F.F.H.J.J.S.S.F.Q.~.^.A.X.| | | o.V.^.T.R.R.rXrXrXrXeXeXeXeXeXH.H.H.H.l.l.l.l.k.k.k.f.l.l.k.h.h.h.h.h.h.h.h.h.h.h.h.h.h.s.j.a.a.j.s.s.$.%.d.g.g.3.^ > j 5.K.g.O.O.f.B.f.f.f.f.s.f.f.f.$.$.O.O.$.$.$.{ a.a.a.a.4.4.4.4.O.} [ [ [ o.o.o.[ [ [ [ [ [ ' ' ' ' _ _ _ _ ' ' h 2 : : 9 S t.}.`.].;X-X].w.&XKXHX6X:X;X&X#X}.].;X|.H @ 0 H F T * X T N N * V V C C C J U U U U U U U U U U U U U U U U U U U U ",
"U U U U U U U U U U U U U U U U U U U U R C C V N V N N = r.B F r.r.r.F e.oX4X4X.X=X-X&X{.{.#X#X<X].G G G H F e.}.q.H 9 + < z z j ^ ^ ^ ) ) ) ) ) ) ) ) _ _ ` ` ' _ _ _ _ _ _ ' ' ' _ _ _ _ _ _ ' ' ' ' _ _ _ _ _ _ _ _ ' ' ;.[ ' o.' o.8._ 6 5 <.' ' o.3.[ o.4.{ { { { 4.4.a.a.{ { { { { { { { 4.4.a.a.j.a.a.4.4.{ { a.g.g.a.{ O.+.a.d.s.s.f.j.s.f.s.a.h.C.B.6.j h  .<.s ~ 6.V.g.h.h.l.k.s.%.%.s.s.k.k.l.F.F.F.l.l.l.l.l.l.l.l.D.D.l.s.s.$.$.$.$.$.$.$.$.$.$.a.p.p.p.a.7.7.j.j.v.j.s.a.j.7.' a l  .o.4.h.l.$.#.f.d.d.d.f.C.l.k.S.k.&.k.S.S.S.k.k.k.f.f.k.k.k.k.D.S.k.f.S.S.S.S.f.f.k.k.D.F.J.F.J.J.l.k.S.H.Q.T.n.X.d d s ~ +.C.U.F.R.R.R.eXR.R.R.R.eXeXY.H.R.R.z.l.l.l.l.k.k.k.D.D.l.k.h.h.s.f.s.h.h.s.s.d.d.d.j.a.$.{ { { $.$.$.$.d.g.g.3.^ > ` 5.9.4.o.O.f.h.d.d.d.d.s.s.s.s.$.$.O.O.$.$.$.{ $.a.a.a.4.4.4.4.O.} [ [ [ o.o.o.} [ [ [ [ [ [ ' ' ' _ _ ` _ ' ' k 2 : $ 9 S y.[.`.`.;X4X|.m.<XLX&X#X+X#X-X-X&X}.oX[.B @ 0 F F Y N & U N N * V V C C C J U U U U U U U U U U U U U U U U U U U U ",
"U U U U U U U U U U U U U U U U U U U R R J C V N N N g = `.C F r.`.r.F Y .X3X,X#X;X&X|.{.#X*X#X<X].G G P F P e. Xq.A 7 O < v h j Q Q ^ ^ ^ ^ ^ ) ) ) ) _ ` ` ` ' ' _ _ _ _ ' ' ' ' ' ' _ _ _ _ ' ' _ _ _ ^ ^ ^ ^ ^ ^ _ ' ' ' ' ' o.( ' 0.` 6 r <.` ` ' [ ' ' o.{ { { { 4.4.a.a.{ { { 4.4.a.O.O.{ 4.a.j.d.j.a.4.a.4.{ a.d.g.a.O.O.+.a.d.s.s.j.s.s.s.s.a.h.C.B.6.c h  .<.^ ^ 6.L.L.U.D.D.l.k.%.%.s.s.s.s.k.k.k.k.k.k.k.l.l.l.l.l.D.l.f.s.$.$.$.$.$.$.$.$.$.$.$.s.s.p.p.a.7.g.g.j.j.j.j.j.h.g.' s a 1.b.C.D.f.%.s.f.d.$.d.f.h.k.k.k.f.&.f.k.S.k.k.S.k.f.%.%.%.&.&.D.S.k.f.k.S.S.S.f.f.k.S.S.F.F.F.F.F.F.S.F.H.G.Z.X.d d d s d ( A.G.F.F.R.Y.F.H.F.H.H.H.R.eXeXeXeXF.F.z.l.l.l.l.l.D.D.l.h.s.s.s.s.a.j.j.a.a.a.a.a.$.{ { } } { $.$.$.$.$.d.6.5.^ 4 / ..3.o.+.d.d.$.$.$.$.d.d.d.d.s.$.$.$.$.$.$.O.{ $.a.a.a.4.4.4.O.O.o.[ [ } o.o.o.} [ [ [ [ [ [ ' ' ' _ _ ` ` ' ` l 2 $ $ 9 S y.[.].`.&X-X[.y.<XPX4X=X&X;X4X5X4X;X|.].B % m F H F C & U * V N C C C C C J U U U U U U U U U U U U U U U U U U U U ",
"U U U U U U U U U U U U U U U U U U U R R J C V N N N g = `.F F Y ).r.G Y oX3X-X*X;X*X*X=X:X*X{.-X].G G P G P e. XP B 7 O # z h t r r j j j j j ) ) ) ) _ _ _ ` ' ' _ _ _ _ ' ' ' ' ' ' _ _ _ _ _ _ _ ) ^ ^ ^ ^ ^ ^ ^ ) ) _ ` _ ] ' ] ( 3.^ 6 r *.) ^ _ ' ( ( [ { { { { O.4.4.4.{ { O.4.4.4.4.4.{ O.4.a.d.a.4.O.d.4.O.4.d.d.d.O.O.O.O.d.d.s.s.a.$.s.d.d.g.C.A.6./ h  .1.s s 5.V.V.C.D.D.l.x.s.s.k.k.k.k.f.s.s.s.l.l.l.l.l.l.l.l.l.f.j.a.$.$.s.s.s.a.s.a.a.a.a.s.s.p.p.:.7.a.j.a.a.s.j.l.U.P.5./ > ..K.L.h.#.$.k.f.d.d.d.f.h.h.f.f.&.&.&.%.%.f.f.F.S.&.%.$.$.%.%.D.S.k.&.f.k.S.S.f.f.k.S.D.F.F.F.R.R.H.H.H.Q.T.Z.( d d | | / 6.^.C.D.G.F.Y.F.F.F.F.H.H.R.eXrXrXrXF.F.F.F.D.l.l.l.D.D.h.s.s.$.$.$.a.a.a.4.$.O.O.O.O.{ { } { O.a.d.$.$.O.O.6.6.` s 6 ^ o.+.g.B.$.@.$.$.a.a.a.a.a.a.a.$.$.$.$.$.O.{ O.4.4.4.4.4.4.O.3.o.[ [ o.o.o.o.[ [ ( ( ' ' ' _ ` ` ` ` ` ` ' ` l 2 $ $ 9 S y.[.|.`.}.#Xe.S #XLXPXKX6X4X5XGXGX5X|.].A = B F Z Z C & F * V C U C C C C C U U U U U U U U U U U U U U U U U U U U ",
"U U U U U U U U U U U U U U U U U U U U R J C V V N V 0 0 r.F F e.P F F G t.&X5X[.|.#X+X+X*X$X#X4X].G q.].|.[.Y oXq.B q # 7 g 9 z h x x j j r r r r Q ^ ^ _ ' [ ;.=._ _ _ _ ] ) _ _ ) ) _ _ ' =.) ) ) x ) x ) j ) ) ) ) ` *.*.<.) Q r ) 3.=.r > *.*.' =.[ [ ' ] [ [ [ [ [ [ [ [ [ [ [ 4.4.4.4.4.+.O.O.} } } O.O.O.O.O.O.O.$.$.$.O.O.$.d.g.B.B.B.d.+.+.d.A.A.o.( , k  .l k  .1.5.6.6.g.h.z.F.z.x.l.z.z.v.v.l.x.s.p.l.z.z.l.z.j.#.j.j.a.a.a.a.a.a.#.#.$.a.j.j.a.a.j.j.j.a.a.a.a.a.j.v.v.h.E.!.6.4 ^ ..7.g.a.$.#.#.s.j.a.a.j.d.d.s.} h.D.$.#.S.F.k.%.h.%.} @.$.%.%.k.&.&.%.&.f.S.D.f.k.S.S.S.S.D.D.R.R.R.R.R.R.T.Z.+.~ d d X.+.5.n.^.Q.~.R.G.l.f.f.s.s.s.&.%.k.F.R.k.F.F.J.F.F.D.f.k.h.f.s.a.$.a.a.4.4.4.6.7.7.4.4.7.4.4.o.O.O.4.4.O.d.d.O.4.7.o.^ 6 ( 7.L.V.d.4.O.a.a.a.a.a.a.a.a.a.a.a.a.a.a.a.a.4.4.o.' ' ' o.3.4.3.3.o.[ o.3.5.' ' ( ( ` ` ` ` ` ` ` ` ` ` ` c l 3 + + 9 D t.].[.}.;X;X|.M.[.M.GX6X<X=X#X-X5X5Xt.].Y q q B Z Y C = U * V N V C C C C J R U U U U U U U U U U U U U U U U U U U ",
"U U U U U U U U U U U U U U U U U U U U R J C V V N V 0 N `.F F e.G H G q.t.&X5X#X&X#X{.@X#X*X=X4X[.i.i.y.].].e.|.Y B q # = q 9 z h h k j j r r ^ ^ ^ ) _ ' [ [ [ =._ _ _ _ ] ^ _ ) Q ) ] _ _ _ ^ x ) ` ) ` ) ) ) ) ) ` ` *.*.=.3.' ' 3.9.0.r ; *.*.' =.;.;.;.[ [ [ [ [ [ [ [ [ ( ' [ [ o.3.3.o.+.O.} } @.} O.O.O.O.O.O.O.$.$.$.} O.+.O.+.+.$.$.B.$.+.A.Z.A.+.+., a b k a l |  ...o.o.a.l.F.z.l.Y.Y.Y.U.v.l.h.j.h.l.v.l.v.Y.U.h.p.p.p.{ { p.a.a.a.j.j.j.j.j.j.a.O.O.O.$.$.a.a.j.a.j.a.4.A.P.9.( o.4.7.d.a.j.h.l.j.j.j.h.h.h.g.d.f.D.D.%.s.D.D.%.G.G.D.$.{ $.$.$.f.k.k.S.D.D.G.D.F.D.D.S.S.S.G.H.G.T.T.R.R.T.Z.Z.+.~ d / X.5.n.n.A.P.T.T.G.D.k.k.x.x.x.x.&.k.F.0X0XrXrXJ.k.k.k.k.s.s.s.a.$.$.a.a.4.4.4.7.7.7.7.7.7.7.4.4.o.O.4.4.g.L.L.g.g.g.[ 6 W ( 7.C.V.g.4.4.a.a.a.a.a.4.a.a.a.a.a.4.4.4.a.4.7.4.3.' ' ' o.3.3.3.[ ' ' ' [ o.[ ' ( ( ' ..' ' ' ' ' ' <.<.,.` k : + + 9 G t.[.e.`..X&X[..X4XHX<X+X{.{.t.[.&X.Xe.`.e.A H A B F F = Y 0 V N V V C C C J R U U U U U U U U U U U U U U U U U U U ",
"U U U U U U U U U U U U U U U U U U U U R J C V V N N g N `.F Y r.F A P e.t.|.5X&X&X&X#X@X$X*X*X6X Xq.G G e.t.t.|.K B 0 @ = 0 9 e e r j j r r r ^ _ ' ' [ ' } } _ _ _ _ =.>._ ^ ] ) Q ) ] _ _ _ ^ ) _ ` ` ` _ ) _ _ _ ) _ =.=.;.0.3.0.K.I.9.j ; ' ' ' =.=.;.=.' [ } } } } [ [ [ [ [ [ :.4.7.7.a.a.O.@.} @.} } O.O.O.O.O.O.O.$.$.$.$.$.d.d.d.d.g.B.g.d.B.C.Z.A.+., a k k k p a l / ~ ] { h.U.U.l.U.v.h.h.h.h.j.j.h.h.h.j.j.v.U.h.{ { { { { { 4.4.j.j.g.j.j.a.a.4.O.+.O.4.a.a.j.d.a.a.a.6.g.9.5...3.6.6.7.a.a.j.g.a.a.j.h.h.h.g.d.C.B.d.$.d.d.$.O.C.G.B.O.} } O.O.$.$.s.h.D.D.C.B.G.D.C.f.f.B.T.R.T.T.T.Q.^.T.Z.A.+.~ d / X.X.1.n.+.d.f.D.F.F.F.z.9X9XJ.z.z.z.F.9X9XtXtX9Xl.l.l.k.%.%.%.$.$.$.$.a.a.4.4.d.d.g.g.a.a.a.4.4.O.4.4.4.h.L.L.L.U.L.[ 6 W ( 6.g.g.7.4.O.4.4.4.{ { { { { a.a.4.O.{ { { 4.7.4.3.[ ' ' [ [ [ [ [ ' ' [ [ [ [ [ ' ' [ [ [ ' =.' =.*.=.<.*.` h : + + 9 G t.}.t.[.&X|.y.[.6XKX=X{.{.t.G G e.G H e.e.G Y P H F F * Y 0 N g V V C C C J R U U U U U U U U U U U U U U U U U U U ",
"U U U U U U U U U U U U U U U U U U U U R J C V V g N g 0 T B F `.F A P e.e.].-X+X&X*X=X*X$X#X#XHX+Xq.G G e.m.].|.G g 8 @ @ 0 w w y r j ) ) ) ) ] _ >.;.:.[ } } _ _ _ =.;.;._ ] ] ] ) ) ] _ _ _ _ _ =.;.;.' _ _ _ _ _ _ _ =.;.;.' =.0.b.I.9.) > *.*.' *.=.=.' ' ' } } } } [ } } :.{ { :.:.7.j.g.j.O.} } } } } } O.{ { { O.O.O.$.$.$.$.$.a.d.s.f.f.d.d.d.f.d.O.o.s a k  .k , , d / s ~ [ g.U.U.D.h.g.j.j.h.h.v.L.U.U.h.a.a.h.L.L.d.a.a.7.4.4.4.4.g.g.g.g.d.a.4.4.7.6.7.7.d.d.d.d.h.g.g.C.A.o./ ~ ..5.b.V.7.4.[ } { { O.4.d.g.g.7.A.g.6.A.A.d.6.g.A.A.g.6.+.o.+.O.O.O.$.d.g.B.B.B.B.B.B.B.C.T.Q.~.T.E.!.%X^.!.I.V.+./ s s | | | ..( } $.l.Y.eXeXeXeXqXeX9Xz.z.J.9Xx.9X9X9XrXrXH.k.%.%.%.%.$.$.a.a.j.j.j.g.h.h.j.a.a.a.a.a.a.a.j.j.4.4.g.L.E.L.o.6 ^ ' 3.9.g.7.4.O.4.4.a.4.4.4.{ O.j.a.a.4.O.O.4.4.7.4.3.[ ' ] ' ' o.[ [ [ [ [ 3.3.} [ ] ] } [ [ [ ;.' ' =.=.=.` ` 5 : + $ 9 G t.}.`.}.oX].q.y.*X4X:X#X#X{.y.y.t.Y q q.e.P e.e.P Y Y 0 Y 0 B 0 N N C C C J R U U U U U U U U U U U U U U U U U U U ",
"U U U U U U U U U U U U U U U U U U U U R J C V C N N 0 0 U 0 B `.F B P e.G q.[.*X&X&X*X#X+X$X=XLX&Xi.i.e.].].].|.G g 0 @ @ 8 < < 5 r ) ) >.=.;._ ' [ { :.{ } } ' =.>.=.;.;.=._ ] ] ] ] _ ' _ _ ;.;.;.;.;._ ] ] ;._ _ _ _ _ ;.;._ =.0.8.8.<.` j <.<.<.<.<.<.' _ ;.{ :.:.:.4.a.7.:.:.:.:.p.a.j.g.g.a.{ } } { { { a.a.a.a.a.j.g.g.s.$.$.$.a.a.s.f.C.C.C.C.h.d.O.o./ l b ,.b p p k  .| / ..6.C.C.h.L.V.g.g.C.L.P.T.E.!.E.V.d.g.L.P.V.V.V.g.g.d.7.7.V.V.g.g.g.g.g.g.V.A.g.g.g.g.d.a.L.g.g.9.5./ s s  ...5.5.3.o.4.4.} } } o.4.7.9.b.Z.V.I.I.V.6.b.I.A.A.A.A.6.6.6.6.6.6.6.6.g.A.C.P.C.I.P.T.T.T.T.E.P.P.E.!.!.I.V.b.5./ s l / l l / ] } { f.Y.yXyXyXeXeXqX9X8Xz.z.J.J.z.x.z.eXaXyXl.s.s.s.s.s.s.j.s.h.h.h.h.h.j.j.a.a.a.a.a.j.j.h.h.{ o.4.V.P.A.o.^ ' o.6.9.A.9.7.4.4.4.a.7.7.7.4.4.g.g.a.7.4.4.4.4.g.7.4.[ [ ' ' ' 3.3.4.4.4.4.4.4.{ [ } } { { ;.;.;.;.;.;.;.;.=.` 2 : + $ 9 D t.}.e.m.}.[.t.].#X#X#X|.&X=X#X&X-X&XF t.e.P T Y I T Y 0 T 0 N 0 N N C C C J U U U U U U U U U U U U U U U U U U U U ",
"U U U U U U U U U U U U U U U U U R U U R J C V F g N 0 * C = B r.H A P e.Y G e.6X=X#X+X{.{.=XHXLX&Xq.y.].[.[.].|.K g 8 @ @ = 7 < 5 r Q ) =.=.=.] _ } [ [ } } } ;._ ) _ =.=.=.=.) ) ) ) _ ` ` _ ;.;.;.>._ _ _ _ ;.>._ _ _ _ ;.=.=.3.3.<.` j c ` <.<.<.<.<.<.*.` ;.{ :.4.7.j.j.g.g.g.g.g.g.g.g.h.h.g.a.4.4.4.4.4.g.g.g.g.g.L.L.L.R.T.Y.U.R.R.Q.pX~.~.~.~.Q.T.C.V.` c c b k a i k  . . .| o.5.+.6.g.9.7.7.7.7.6.6.9.V.V.6.o.4.7.7.g.9.9.6.6.6.3.o.9.6.3.3.6.6.6.6.b.6.6.6.7.4.o.[ V.3.( / / s s | l l s s / ' 6.9.[ [ [ o.3.5.5.5.8.K.I.b.5. ...5.5.5.5.5.<.` /  .....` ( ..o.6.n.5.6.b.b.9.5.5.o.6.8.9.9.9.0.5...<./ c ` ` c l / ' } { d.Y.yXyXyXeXeXeX9XJ.z.z.J.aXH.%.#.%.H.R.F.f.f.s.s.s.s.s.h.h.h.h.h.h.h.j.j.a.a.a.j.j.j.j.h.g.7.7.g.9.o./ / 5.5.5.9.b.9.6.6.o.o.4.4.4.4.7.7.g.g.7.7.4.4.4.4.g.7.7.4.[ [ ' ' [ [ 3.3.4.4.4.4.4.4.{ { 4.4.4.3.7.3.;.;.3.3.=.*.2 : $ < 9 D t.}.e.].oX|.[.|..Xm.+X|.;X:X&X;X-X&Xt.}.).P Y F H I Y 0 T 0 N g N V C C C J U U U U U U U U U U U U U U U U U U U U ",
"U U U U U U U U U U U U U U U U U U R U R J C V F g N N * B = B Y A A q.t.t.e.e.6X-X*X*X#X#X:XHXGX&Xt._.[.[.[.}..XY B 0 @ @ = < < 3 y t x ) ) ) ) Q ) ] ] _ ] ] ` ) j j ) ` *.=.x j j ) ) ) ) ) =.` _ ) ) _ =.=.=.=._ _ _ _ ` =.*.<.` j 5 , 5 x c c c ` ` ` ` ` ^ ] _ ' ;.3.4.7.7.9.9.9.g.7.7.7.8.8.8.0.3.' ' ' 0.3.3.0.8.c.K.K.T.U.L.U.U.E.!.%XP.T.!.!.P.I.V.V.j l l a i a i p n b b l s s / | ( ( / / / ^ ~ ^ s ^ ( ^ ^ / ^ 6 ( ` ` ` ` ( ( ( ` / s ^ ..5.o... .` / ( ' ( ( ~ o./ ^ / / l l l b a , s  .5.5...^ ( ( ....../ / c 1.1.` a l l a a a s l c a a j s s s s s l / / l l / l l s j ^ ^ ^ / ` ` ` j j ` j j c ` l l  .5...[ 4.C.T.R.Y.l.F.F.J.F.S.D.D.R.H.h.#.{ d.D.G.h.h.h.g.d.d.d.d.g.h.h.h.h.h.h.h.h.h.g.j.a.a.a.4.V.6.6.3./ 4 6 / .. . ...o.o...' ( _ ' ' ..o.5.3.9.8.5.0.5.3.3.3.3.3.3.<.' ` ` ` ) ` ' ' <.<.<...[ [ [ [ [ [ ;.=.;.=.=.*.*.*.*.c 2 3 < < 9 S e. X_.|.&X}.m.].[.y.*X#X=X:X|.|.|.].`.|.`.Y Y F Z F Y 0 Y 0 N g V V C C C J U U U U U U U U U U U U U U U U U U U U ",
"U U U U U U U U U U U U U U U U U U U U R J C V C 0 g N 0 F * F F B H e.[.}.].t.:X=X:X6X<X=X:XHXGX&X].{.[.].[.|.oXq.B 0 @ @ = # < w 9 e e e e 5 j j r Q ^ ^ ) ) ) j e 5 e x ` ` j h j j j x j x ` ) ) x ) ` =.0.*.` ` ) ) ` ` ` j j r 5 > : , 5 , , 5 a j j j j 6 6 6 r ^ ` ' ' ` ` _ ' _ ` ^ j ` ` ' ` j j r r ` ` ) ` <.3.8.0.^ ~ ^ ~ ( ( o.o.^ ( ......| / / 5 h h : : p i : p a k a , , d s 6 6 6 s ~ s s 6 > 4 6 6 ~ / s 4 4 4 s s s s s s / s 4 6 / ....( s s 6 s ^ ^ 6 6 6 s / 5.n...d , 1.b | N.W.W.5.s 6 s /  . .l 4 > a c c 5 a c c , : : , j l a a l 5 a s d s l s s 4 d a a a l /  .5 5 5 5 h a 5 5 a 2 5 l c c c  .1... .o.b.I.U.U.h.l.D.D.D.S.D.D.O.Z.G.A.+.+.g.A.A.A.g.9.6.6.6.6.7.d.g.g.C.L.L.C.L.L.V.g.7.4.o.} A.5.o.` 6 ; > / / s s s / / ^ s s s ^ / ` `  ...8.5.5.<......... . .` ` c j j j a j c ` ` ` ` ` / / ^ ^ ` / ` ` ` ` ) c c x x h 9 3 < < q H e. XY ].XX`.q.t.{.M.#X|.;X=X|.|..X[.e.}.`.Y T Y F I Y 0 Y 0 N N V C C C C J U U U U U U U U U U U U U U U U U U U U ",
"U U U U U U U U U U U U U U U U U U R R R J C V N N N V & F = F F A G |.e.;X}.G -X<X=X=X:X:XHXPXIX;Xq.}.[.].].[.|.K g 7 @ @ = # # # $ O $ $ $ : : : > > 3 > > > : : : : 3 3 , : 2 2 2 2 2 2 2 2 ; : 3 e x x h e 2 2 2 5 5 5 h e 5 6 5 j c 5 5 h , : : 5 c ` j > , 5 h h h 5 , > c x h h a 2 > : 3 3 2 3 3 3 2 i 2 2 2 2 2 2 3 , , s s s > : , a , p a a p , , , , 3 5 v v i p p n a a a a a k l s s ~ ~ ~ s 6 6 6 s ~ / ( ( / / / s s (  ./ s / s 4 4 / .. ./ / / / ^ ^ ^ ^ ^ ~ ^ / ` .... . .b n  .N.N... . .../ / ^ ^ s s s s 2 2 a h c  .,.,.5 h h l x h h a a s l / /  . . .s l l l s l / ` c x j h 5 3 , 5 5 x c x h h c  .b b b d s 6 6 6 ~ ~ ~ W W W 6 6 4 d ~ ~ ~ ~ 4 4 s / s s ../ a s ..s > 6 ( ../ ~ ^ ^ ^ ^ ^ ^ ~ s ~ 6 6 / / s a s s 4 > > a / / / > , a j l j a 5 a /  .a , , , : 3 , : : , , , , 2 , , : , 3 , 2 : , , 2 , , : : + 3 2 2 9 f 1 $ $ + $ < q G t. X].].).q.q.].4XGX*Xy.#X#X|.;X[.#X].oX[.e.Y F H Y Y N Y = N V V V C C C J U U U U U U U U U U U U U U U U U U U U ",
"U U U U U U U U U U U U U U U U U U R R R J C V N N N V = F = F B B H `.e.6X-XG ;X6XHX6X<X=XHXPXIX*Xt.&X|.[.}.|.|.K q 7 @ @ = # # $ $ $ $ $ $ $ : : : : : : > : : : : 3 3 2 3 : 3 3 3 2 3 3 3 3 $ : 3 2 h h i 2 3 3 3 3 3 3 3 3 5 5 5 c c h h l l h h l ` ,.` j 2 i h k h i 2 3 k k h h h h 2 3 : 1 f k h f i 1 : 1 1 1 i i f i : , a a a k k  .p p p , : : p a 3 3 h c v f i i f k k b l l l l ..o.o.3.o.o...' ( ' o.o.o.o.o...../ ( 5.5.5. ./ / s 6 / .. . ...9.5.5.5.3.3.o.[ ' o.5.5.5...| l , a b | l s ~ / ( ( ( / / / l l j h h x c ` ` c c l x k h h h a a s s s s s a a a s s s a s s a > 5 x c c c c c 5 h k k h k k k k n n n a a d s d ~ ~ ~ ~ ~ ~ d 4 d d d d d d , 4 l d d l a , a | s s l  ./ / s s a s a d 4 4 4 s 4 s /  .l s l l | | ..1.5. ./ a a l l l a a 5 a l l a 2 a a , $ $ $ 1 p p p p p 1 1 $ : 1 , p : : 3 , 1 3 3 : $ 1 1 $ $ $ $ O + + $ < q F e.t.e.e.e.P H P ].&X{.q.#X#X#X;X|.;X].;X&X[.`.r.Y ).I N T = V N N N C C C J U U U U U U U U U U U U U U U U U U U U ",
"U U U U U U U U U U U U U U U U U U R U R J C V V N N V = F = F B H H e.F -X&Xq y.M.M.{.@XM.@XHXGXy.G &X&X].[.}.|.G g 7 O @ = % = $ $ $ $ # # $ # $ : : 3 : : : 3 3 3 1 i i 1 3 2 i f f f i 1 3 : 3 2 f f f 2 2 2 2 1 3 3 3 3 : 5 6 j c ` x h l c c c c c j j j 2 f h h h f 2 1 h h f h k k h f 1 p i f f i 1 : i i f f k k k v i a h a k k k k i p p 1 1 p p i 2 2 h v v f i f i k k b l l l / 9.g.g.g.g.g.7.7.7.7.7.7.7.4.4.4.s s ^ / ..o./ 4  ./ ^ ( o.5.5.6.I.K.V.V.g.g.7.7.[ o.5.5.5.1. .l p a |  ./ / / ' o.o.o... . . . ...' ` ` ' ' ` ` <.` ` / / ` ` ../ / / / / / ^ ~ ( ( ` / / / ~ 6 j  .<.` c  . .c h k k l c l k k p n n n k k d s s ~ ~ ~ ~ ~ ~ s d d / / | | d a , l l l b l k  .s s l  . .l s s s s s s a d 4 4 ^ s /  ... .l l / ..N.N.5.1. ./ l l l l h a i 2 2 a h a a l h 2 $ $ 1 p p p 1 $ p p p p p p p i : 3 , 1 1 1 p p $ $ $ $ O $ $ O + + $ < q A G P H P e.P G G Y y.t.-.+X=X#X;X&X-X|.3X2XoXoX`.e.).F N T * V N N N C C C J U U U U U U U U U U U U U U U U U U U U ",
"U U U U U U U U U U U U U U U U U U R R R J C V V N N V = F * F F F F e.A oX|.G G S q q.@X@Xu.t.t.q q {.&Xt.].].}.G q 7 O @ = # = # $ $ # # # 1 8 1 2 2 2 2 3 3 2 2 2 2 f f 2 2 i h h k k h 2 2 3 2 2 h k k h f v k k h h f i 2 j j j ` ` c j h h x c x 5 5 5 a 2 f h h h h i 2 2 2 2 f h h h h v a 1 : : 3 3 3 i i f i f i i i h i 2 i i i , : 1 p i k k f i p h h k k k h k k p i h a a a s ^ 9.g.d.d.7.7.4.4.7.7.7.4.4.4.7.7.^ ( ( ( o.6.o.6 o.' ' o.6.6.9.9.9.9.7.6.7.4.O.{ ] ' o.3.5.5... .a l ..1.5.o.3.6.4.3.3.3.o.o...o.9.6.0.3.0.3.3.o.<.o.3.3.0.8.9.V.6.6.g.A.A.V.A.A.V.C.C.V.C.V.g.3.b.M.b.c 5 l ` c c l v  . .k k k n n n b b b | | 5.+.o.o.X.( ( ~ X.X.+.+.+.+.../ a  . .l  . .l l a a s /  ./ / / 5.5.1..... ./ / ......5.5...l d a | .. .s s l / c l l h a a a a 5 5 2 2 a l j 2 f i p 1 1 1 $ $ p p p p p p p p 3 3 : : : : 1 1 O $ $ $ # 1 # # O + $ < q A G P M P )._.).t.t._.t.q.{.=X&X#X;X-X[.|.].e.`.r.Y r.B 0 T * V V N N C C C J U U U U U U U U U U U U U U U U U U U U ",
"U U U U U U U U U U U U U U U U U U U U R J C V V N N N & F * F F m H ].G |.-X-X{.{.{.*XHXHX*X+X:X{.G {.;Xt.|.}.}.G q 7 O @ 7 # = # $ $ # 8 8 8 v h z h h h h h h h h h k k h 2 3 2 h h h 5 3 : 2 2 h x c c c c ,.,.` c c c x x c ) c c c c h , 5 x ` c h 5 j ` j x x x x x x k e e e h x c x x l a 2 , 2 a a a , , , , 2 , , , a 2 3 a h k h 2 h h k v b b k f h k c v h k v v i i 5 , 4 6 ^ ( d.a.a.a.4.4.:.{ O.{ { { { 4.a.4.] o.o.' 3.V.V.o.( ' o.3.6.7.6.3.4.3.[ [ [ } } } ] ] ] ' ' ` ` ` a s / ..o.o.4.4.7.7.7.6.6.5.5.5.9.7.7.7.7.7.7.4.[ 3.7.g.g.V.K.C.B.C.T.T.Q.Q.~.~.T.Q.Q.Q.Q.Q.T.C.9.b.<.s a / <. .c l c  .b k k k n n b b b l / ` P.P.P.C.C.A.g.g.+.6.6.6.n.n.6.o...5.` s  .` 4 > / s s ` 5.5.5.5.I.K.V.b.b.6.5.5.5.5.5.5.5.1. .l , d  .| s s l / ` ` ` j j x ) c j j r j j c j 5 ` c h 5 2 5 a h 3 2 2 2 2 2 , , 3 , 3 : : $ : : : 1 9 8 f g f 1 O + + 7 B G P P H P e.).].].].[.t.y.{.-X&X|.;X&X}.].H 0 F Y F I 0 = T 0 V V V V C C C J R U U U U U U U U U U U U U U U U U U U ",
"U U U U U U U U U U U U U U U U U U U U R J C V V N N B % F * F F q A `.H [.;X-X[.6XGXGXGXHX<X<XPXLXt.{.&Xt.|.}.}.G q 7 O @ 7 # = # # # < w 9 9 v v x x x x ) x j h h j x x h 5 5 5 h j j h 5 5 5 5 r j ` *.*.*.*.*.` ` ` ) x j ) ` ^ j j c a > 5 l `  .` c ` <.` *.=.=.*.=.*.*.` ) ) ` *.*.*.) r s ^ ` ......( / / ' ..<.5.<.<.8.<.<.1.2.<. .l b.1.c h k l l k h c c k h k c b k k a 5 5 s _ o.g.h.j.a.a.a.a.a.{ { { { { p.a.a.~ ] ( ( [ 4.7.O.] [ o.o.O.4.[ ( 4.O.[ { { { { { } } ] ] ] ^ ^ / s s /  .o.o.4.4.a.7.7.7.6.6.6.6.4.4.4.4.a.a.a.4.4.4.a.g.g.g.g.j.D.D.G.G.T.G.G.D.D.G.G.G.T.T.T.C.6.5.../ / /  .| l a h  .b a a b k k k k d j / ( C.C.D.D.D.D.C.C.d.d.d.d.g.g.d.+.( 4.' ] 3.8._ ^ [ ] ( 3.g.V.V.V.V.V.g.g.9.7.4.o...o.5.5.5.5...| : l N.n.5... . .<.*.*.*.=.<.<.<.<.' ` ' ' ' ` ` *.` ` ) ` *.<.3.` ` ` ` ` ` ` ` ` ` c x x h h e h c c h f z 9 < + @ + 7 B P e.e.H P e.e.e.e.t.t.t.t.M.-X;X|.-X&X5X3Xr.B A A m B 0 = T * V N V C C C C J R U U U U U U U U U U U U U U U U U U U ",
"U U U U U U U U U U U U U U U U U U U U R J C V V N N N % F * F Y H A e.A &X&Xe.A -XGXHXHX6X<X<XPXPXe.t.;Xt.|.].}.G q 7 O @ 7 # < < + < < w y y x t r Q Q Q Q Q j j j j j j r 5 r r j j ) x x j 5 5 r Q ) _ _ ) _ ) ) ) ^ ^ Q r j j j h j ` h > 5 x ` ` ` ` ' <.=.=.=.=.;.;.;.;.;.=.=.=.;.;.=._ ] ] o.7.7.4.4.o.g.g.K.L.P.P.P.P.I.I.I.I.K.9.0.<.I.2.x 5 h x x h h c c h f v c c l l j j j ) [ 4.h.j.j.a.a.a.a.a.{ #.#.#.p.#.#.{ ] ] ] o.4.4.[ } ( O.4.o.[ o.o.} { { { { :.p.p.p.p.{ ] ] ] ] ( ` ~ / ( o.3.4.4.4.4.4.4.4.4.4.4.4.4.{ { #.a.a.a.a.a.a.j.j.j.j.j.a.D.S.D.D.D.k.f.f.h.S.D.k.k.S.S.C.K...^ / / l l  . .a a b  .k k b a k h a s ] ( } j.j.s.j.x.x.s.s.s.d.a.a.j.s.d.4.W O.O.[ g.L.g.g.} } 4.g.g.a.a.g.d.a.a.4.4.O.{ [ (  . ./  .....l , l N.b.b.N.1...3.3.3.3.3.3.3.3.7.3.3.7.3.' ;.3.' ' ' ;.7.7.9.9.0.7.7.8.9.7.7.0.0.0.0.0.0.0.=.=.*.*.c y w 9 e 9 < + @ = q G e.e.I I P e.e.e.e.y.t.t.y.;X-X|.6X&X5X5XoXe.G A B F m 0 T = N 0 N V C C C J R U U U U U U U U U U U U U U U U U U U ",
"U U U U U U U U U U U U U U U U U U U U R C C V V N g N % C * F Y P H q.q.GX5XG q +X5X6XGXGXHX6XLXGXH t.4X|.;Xt.}.G q 7 O @ 7 # < ; ; < 3 3 5 y e r r r r Q Q r r r r r j r 5 5 5 5 5 r r r j ^ r r r Q Q Q Q Q ) ) ^ Q Q Q Q r 6 r r 5 x ` x > 5 h ` ` ` ` ` ` _ _ _ _ _ =.>.=.;.;.;.;.;.;._ ] 4.4.4.4.{ { 4.4.7.a.g.g.g.a.7.4.4.7.c.K.c.9.8.0.<.) r r ) *.` x e c c h 2 k c c h j ^ ^ ) ] [ 4.j.j.p.#.#.#.#.#.#.#.#.#.#.{ } } { Q Q 4.g.{ ] ] 4.g.g.{ } O.4.O.} } [ { :.:.p.{ :.{ } ] ] ' 3.5.^ / / ..o.4.4.4.4.4.4.4.4.4.4.4.a.$.$.a.a.j.j.a.a.a.a.a.a.h.l.D.G.G.F.F.G.D.D.k.D.F.F.S.f.k.S.D.P.( 4 s / s  .b.1.k a b 1. .b  .a s s s ^ ] { a.l.z.l.x.l.x.s.s.s.s.s.s.s.h.j.a.W j.h.{ { 4.{ 4.} { s.l.a.} } { a.a.a.a.O.{ { } ( ' ` ^ ^ / / a , l ........5.5.3.3.;.3.;.;.;.;.4.3.7.7.;.' ;.7.' ' ;.4.7.7.4.;.;.3.7.7.7.4.4.;.;.3.0.0.0.0.<.*.` ) e ; ; y x z < + O # 0 H P e.I P e.r._._.m.m.t.y.G &X-X&X5X-XG ].`.Y P F P `.B 0 r.= 0 * g V C C C J R U U U U U U U U U U U U U U U U U U U ",
"U U U U U U U U U U U U U U U U U U U U R F C C V g g V & V = T P m H ).H 7XGXe.H oX&X6X6X=XHX;X6X+XH G e.q.t.e.t.G q # @ @ = = + + : : 3 w 2 5 e 5 5 5 5 r r r 5 r r r 5 5 6 6 5 r Q ^ ^ r 5 6 ] Q Q Q Q Q Q r ) ^ ^ ^ ^ ) ) ) r r 5 r j x h 2 x x x x ` ` =.=.=.' ;.' ;.' ;.;.;.' ;.;.;.' _ _ [ [ [ [ [ ;.;.4.7.7.7.7.7.7.7.7.j.a.4.4.7.j.9.9.^ ^ ^ r j ` ` c c c b k : :  .I.<.s 6 ^ [ ] [ a.j.s.s.a.j.j.j.j.a.a.a.p.p.#.#.#.} } } } } } { { j.j.j.j.a.a.p.:.{ { :.{ :.{ [ [ [ [ [ _ _ ` ' ' ..' ' _ ` ' 3.4.3.{ O.4.4.4.7.7.a.a.4.a.a.j.a.a.h.h.g.d.j.j.j.j.s.s.s.s.h.D.h.h.D.S.C.B.B.B.h.B.B.( 6 6 ~ o.b.b.,.b p p 1.1.k  .s s ^ ^ ] } 4.h.s.f.f.x.x.s.s.s.x.x.x.x.s.$.#.{ ! ! } h.L.h.d.d.! #.h.l.a.{ { $.a.a.:.:.{ { { :.[ 3.3.' / / ` ..5 / 5.9.9.0.3.3.;.;.;.;.;.;.;.;.[ [ [ [ [ [ [ [ ' [ [ [ ;.[ ;.3.4.4.4.4.3.3.;.[ [ o.3.' ' ' *.' <.) e 5 e e e e 9 < O O z G F q.H F e.t.t.].}.t.t.t.].;X4X5XGXLX4XHX|.A G e.q.).P U F B N N V C C C C J U U U U U U U U U U U U U U U U U U U U ",
"U U U U U U U U U U U U U U U U U U U U R F C C C g g V & C * T r.Z H `.H 3X4XP Y ;X-X5X4X&X6X;X6X&Xq.q.G q q.K m.G q # . @ 7 7 + : : : 3 3 5 5 e e e e r r r r r r r r r 5 6 6 6 6 r r Q Q r r ] ) Q Q Q Q Q r ) ^ ^ ^ ^ x x ) r Q Q 5 5 h x c k x x x ) _ =.=.' ' ' ;.;.;.;.;.;.;.;.;.;.;.' ' [ [ [ [ ;.;.;.;.7.7.7.7.7.7.7.7.j.a.a.a.a.a.g.g.] ^ r 6 j ' *.` h v c k > : / K.8.( ^ ( } } } a.j.a.a.a.s.j.j.j.a.a.a.a.p.p.p.p.#.{ { { { { #.p.s.s.s.a.a.p.p.:.:.:.:.:.;.;.;.;.[ ;.' _ ` ' ....` ` ` ` ' 3.3.4.[ ;.o.4.4.4.7.d.a.a.4.a.a.j.j.a.g.d.g.j.j.j.a.a.j.j.j.d.h.h.h.h.D.D.D.C.B.B.B.C.g.} W W o.6.K.b.1.N.b p a a k 1...~ ~ ] } O.d.D.f.f.f.k.k.k.k.x.s.x.x.x.s.s.#.#.} ! } d.h.O.( } s.l.D.l.s.#.{ #.p.p.:.{ { { :.:.:.:.:.[ _ ` ` <.j / ..3.0.4.4.4.:.:.:.:.;.;.;.;.;.;.;.;.;.;.;.;.[ [ [ [ [ 3.3.3.4.4.4.3.o.[ [ [ o.o.o.' ' ' ' ' ) r > > 5 e e h 9 1 O + z D F q.F G q.t.t.}.|.[.t.e.q.t.[.&X;X-X6XGXoXA G Y G e.F F F B N N N C C C C J U U U U U U U U U U U U U U U U U U U U ",
"U U U U U U U U U U U U U U U U U U U U R F C C C N g V & C * Y ).m m ).m }.}.H Y ;X4X5X-X{.=X*XGX4X}.}.G 7 q.y.].K q @ . @ 0 q : : : 3 , 2 5 5 e e e r r r j j r r Q Q Q Q r r 6 6 6 r r Q Q Q ] ] ) ) ) ) ^ Q ) ) ^ ^ ^ ^ x ) 6 Q Q 5 5 e c ,.k k x x ) ` ' ' ' ' ;.;.;.;.;.;.;.;.;.;.;.;.3.;.[ [ [ [ ;.;.;.;.4.4.7.7.7.7.7.7.a.a.a.a.a.d.g.g.] 6 > > r ' <.` h k v k , > j 8.K.3.( [ 4.[ O.j.a.p.p.p.a.a.a.a.a.a.a.a.a.a.a.a.a.p.p.#.#.p.a.a.a.s.s.a.a.p.p.p.:.:.:.:.:.;.;.;.;.;.' ) ) _ ..' r j ) ' 3.0.4.4.[ [ [ o.4.6.7.g.a.a.a.a.j.j.j.j.g.g.g.j.a.a.a.a.a.a.a.a.h.h.h.h.D.D.D.D.D.D.S.C.G.d.O.a.V.L.V.n.1.b.N.n : , c I.6.^ W [ 4.O.a.G.h.h.k.k.x.x.x.x.x.x.x.x.x.s.s.a.{ } @.} { ( } } D.F.D.k.a.#.#.a.a.#.p.{ :.:.:.4.:.:.;.[ _ ` `  . .` ' <.3.4.4.4.;.;.;.:.:.:.:.:.;.;.;.;.;.;.;.;.[ [ [ [ 3.3.3.3.3.3.3.[ [ [ [ [ o.o.o.' ' ' ' ' j 6 > > 6 e j x 9 1 O + z D G q.G H G q.q.t.t.e.e.e.e.t.oX,X-XoX6XGX&XF G e.q.`.F F C V N N N V C C C J U U U U U U U U U U U U U U U U U U U U ",
"U U U U U U U U U U U U U U U U U U U U R F C C C N g V & U g Y ).m 0 r.0 P P A A [.4X5X-X{.&X*XGX-X|.*Xe.q t.].].Y q @ @ @ q z < < 3 3 2 5 e e e e r r r j j ) Q Q ^ ^ ^ Q Q Q 6 6 r r Q Q ) ) _ ] ) ] ) ) ) ) ^ ) ^ ^ ^ ^ j ^ Q Q Q 5 5 h x c k k j j ) _ ' ' ' [ ;.;.;.3.3.3.3.;.=.=.;.3.0.7.[ [ ;.;.;.;.;.;.;.:.4.4.7.7.7.7.a.a.4.4.a.a.g.7.6 u > 6 ` 3.3.<.k k v v a , j <.I.8.o.4.a.7.a.h.p.p.#.#.p.a.p.p.a.a.a.a.a.s.s.s.j.j.s.s.a.j.j.j.a.a.a.a.a.p.p.p.p.:.:.:.:.:.;.;.;.3.' ) ` ' ' ` 5 j ) <.3.0.4.4.[ [ [ o.4.6.7.g.g.j.a.j.g.h.h.g.j.j.j.j.j.a.a.a.4.{ { a.s.h.h.h.D.D.D.D.D.D.D.D.U.C.h.B.C.7.' l  .b.N.n : ,  .%XV.( Q o.6.} O.C.h.l.k.l.x.l.x.z.x.x.x.x.l.s.s.j.f.#.@.~ } O.d.C.s.s.f.s.s.s.a.a.a.p.:.p.:.4.:.a.:.:.;.[ _ ` ` ` <.<.3.3.0.3.;.;.;.;.;.:.:.:.7.4.;.;.:.:.:.:.:.;.[ [ 3.3.3.3.3.3.[ [ [ [ [ [ [ [ o.o.o.' ' ' ' ' ^ 6 > > 5 r j c e 1 O + z D G q.F B H P q.t.t.t.}.;X-X3X5XHX6X&X-X7X|.A G e.e.}.F C B B g g N V C C C J U U U U U U U U U U U U U U U U U U U U ",
"U U U U U U U U U U U U U U U U U U U U R F C C V N g N & U N Y r.m * e.m P G P q e.-X5X4X-X&X:X6X].t.&Xq.7 t.t.[.Y q @ @ @ g A 1 3 3 2 e h h e e e r r r j ^ ) Q Q ) ) ) ) ^ Q ) ^ Q Q Q ) ) ) _ ] ] ] ) ) ) ) ^ ^ ^ ^ ^ ^ ^ ^ Q Q r r j x h > k h j j ) _ _ _ ' ' ' ;.;.3.3.3.3.3.;.;.;.3.7.7.;.;.;.;.;.;.;.;.;.;.;.4.4.4.7.7.a.a.a.a.a.a.g.7.' ] ^ =.8.8.3.<.b b v c h a l ..9.3.' [ 4.a.d.h.p.#.{ { #.p.p.p.a.a.s.s.s.j.j.j.l.h.j.j.s.s.j.j.p.a.a.a.a.p.p.{ a.a.:.:.:.:.;.;.;.3.' _ _ ' ' ` r x ` <.0.0.4.3.[ [ [ [ 4.4.7.g.g.j.j.j.h.h.h.g.j.j.j.j.a.a.a.a.O.{ { a.d.h.h.s.D.D.D.D.D.D.D.D.f.d.a.d.a.( 6 >  .N.1.a p , ` I.E.7.} d.g.4.a.U.h.h.k.k.x.x.x.x.x.x.x.x.l.l.l.h.l.s.{ } O.g.C.T.$.%.s.f.l.f.s.j.a.a.p.:.:.:.4.a.:.:.[ [ ' ' ` ` j ` <.0.0.;.;.;.[ [ [ ;.:.:.4.7.;.;.;.:.:.:.:.;.4.3.3.3.3.3.3.3.' ' [ [ [ [ [ [ [ [ [ ' ' ' ' ' ' j 5 5 t j j x h 9 O O A G G q.G A G t.}.&X-X;X3X5X7X5X4X4X-X&XoX4X Xm H G q.].B B V B 0 g N V C C C J U U U U U U U U U U U U U U U U U U U U ",
"U U U U U U U U U U U U U U U U U U U U R F C C V N g N = T V Y r.H 0 r.F e.e.].A G ;X6X5X5X;X4X-Xi.q.-Xq.7 m.t.].Y q # @ @ q g 9 3 2 2 e e h h e e e r r j j j Q Q ) ) ) ) ) ) _ _ ) ) ) ) ) ) ] ] ) ) ) ) ) ) ^ ^ ^ ^ ^ ^ ^ ^ ] Q 6 r ) ` 5 ; k h j j ) _ _ _ _ _ ' ' ;.;.3.3.3.;.;.;.3.3.3.3.;.;.;.;.;.[ [ [ [ [ ;.;.4.4.7.7.a.a.a.4.a.a.7.7.4.;.0.9.0.` j j 1.b v k h a l ..` ] ] ( O.4.4.4.p.#.{ #.#.p.a.p.a.a.a.s.j.j.j.j.l.h.j.s.a.a.s.j.p.p.a.a.p.a.p.p.a.a.:.:.:.:.;.;.[ ;.' ' ' ' ` j j j ' <.0.0.3.3.[ [ [ [ o.4.7.7.g.j.j.j.g.h.h.g.j.j.j.a.a.a.a.a.4.{ { a.j.h.h.s.C.C.C.C.C.C.C.C.d.a.s.s.j.} ^ s 1.1.b k l a j 9.%XP.g.C.L.L.U.R.f.f.f.k.k.k.x.x.x.x.x.x.l.l.z.l.l.D.D.C.D.U.C.a.s.s.k.l.l.l.j.a.j.a.a.p.4.{ :.:.:.:.[ [ ' ' ` ` : 5 ` 3.0.3.;.4.} } [ [ ;.:.4.7.:.:.:.:.:.:.:.:.4.3.3.3.[ [ [ [ ' ' [ ' [ [ [ [ [ [ ' ' ' ' ' ' <.` j j ) j e 5 z 9 + + A G G q.e.G P `.}.|.oX|.&X&X&X&X&X&X3X5X&X5XoXH G Y Y `.B V V N 0 g N V C C C J U U U U U U U U U U U U U U U U U U U U ",
"U U U U U U U U U U U U U U U U U U U U R F C C V V g g = T V U T I m e.I )._.|.e.G |.;X6XHX&X;X:Xi.t.5Xt.7 ].].].Y g # . % 8 8 9 3 2 2 e e e e e e e e r r r r Q Q ^ ) ) ) ) ) ) ) _ _ _ ) ) ^ ) ) Q ) ) ) ) ) ^ ^ ^ ^ ^ ^ ^ ) ] Q r r j x h > k h h j ) ) _ _ ^ ^ _ ' ' ;.;.3.3.;.;.3.3.3.;.;.;.;.;.[ [ [ ' ' ' [ [ ;.3.4.7.7.7.4.4.4.a.a.7.7.3.3.7.8._ > > 6 1.b h i 5 a j ../ ] ( [ 4.a.4.{ a.p.#.#.p.p.a.p.p.p.a.s.j.j.j.h.j.j.a.a.p.p.p.p.#.#.p.a.p.p.p.p.a.a.7.:.:.:.[ [ ' ' ;.3.<.<.` s j j ` *.3.0.4.4.[ [ [ [ o.O.4.4.d.j.a.a.g.g.g.d.a.a.a.a.a.a.a.a.a.a.a.a.j.h.h.s.h.f.h.h.h.h.h.h.h.h.l.D.h.a.4.5.1. .k b 1.l j 9.E.P.g.a.h.E.Q.U.s.s.s.s.s.s.s.s.x.x.x.x.l.z.z.D.l.U.Y.D.D.G.h.$.k.k.f.f.f.s.j.j.j.j.j.a.4.{ { :.:.;.[ [ ' ..` ` > a ` 3.7.0.4.4.] ' } [ [ :.:.7.:.:.4.:.4.4.4.4.3.3.3.[ [ [ [ [ ] ] ' ' ' ' [ ' [ ' ' ' ' ' ' ' *.` ) ` ) t 3 : z f + + A G F e._.G P _.].].t.e.`.e.e.}.&XoX-X5X|.6XoXG G q.q.].B V B N g g N V C C C J U U U U U U U U U U U U U U U U U U U U ",
"U U U U U U U U U U U U U U U U U U U U R F C C V V g g = m.C U I I 0 P F ).t.|.}.G ]. X-X6X{.|.:Xq.{.GXt.7 t.].].Y g # . @ 8 w 9 3 2 2 2 e e e 5 5 5 5 e r r r r Q Q ) ) ) ) ) ^ ) ) ) ) ) ^ ^ Q Q Q Q ) ) ) ) ) ^ ^ ^ ^ ^ ^ ) ^ ^ Q 5 r j x h h h h j ) ) _ _ ^ ^ ) _ ' ;.;.;.;.;.;.3.3.;.=.' ;.;.[ [ ' ' ' ' ' ' [ ;.3.4.7.7.7.4.4.4.a.d.7.7.[ 3.7.7.^ ; > j N.b 2 3 , 2 s ` ` ' o.4.g.g.a.{ a.p.#.#.p.a.a.a.p.p.a.s.j.j.j.h.j.s.a.#.#.{ { #.#.#.p.p.p.p.p.p.a.a.7.:.:.;.[ [ ' ' 3.3.3.<.^ 5 r j ^ ' 3.0.4.4.[ [ [ [ o.o.O.4.a.a.a.a.j.g.d.j.a.a.a.a.a.a.a.a.j.a.a.j.j.h.h.d.h.s.s.f.f.f.f.h.l.h.f.f.j.a.7.9. .l 2 k 1.j j b.g.d.} ] a.E.R.f.%.%.%.%.s.s.&.x.x.x.x.x.l.z.v.U.U.U.l.a.a.h.D.s.f.s.$.$.#.$.j.h.h.h.j.a.:.{ { { :.;.' [ <.<.` / c ` <.0.8.7.4.;.] ] ' } [ ;.:.:.:.:.4.4.4.4.4.4.3.3.[ [ [ [ ' ' ] ] ] ' ' ' ' ' o.' ' ' ' ' ' ' ` j j ) ) e > + z f + + A G F e.e.H G ].|.|.|.}.|.e.t.&X;X`.e.t.t.;X].A F G G t.B V B N g g V C C C C J U U U U U U U U U U U U U U U U U U U U ",
"U U U U U U U U U U U U U U U U U U U U R F C C V N N 0 N U T F F B 0 0 H e.`.].t.e.+X*Xt.{.;X{.;X_.q.-X*XH G e.[.G q = . @ 7 8 1 3 2 2 e h e h e e e e r r r r ^ ^ ^ ^ ) ) ) ) Q Q Q Q ^ ^ Q Q Q Q Q Q ^ ) ) ) ^ ^ ^ r r r j ^ ) Q r r j j k h , 5 h x ) ) ) ^ ^ ^ ] _ _ ' ' ' ;.;.;.;.;.;.;.;.' ' ' ' ' ' ' [ ' ' [ ;.;.3.;.;.4.O.4.4.7.7.7.7.[ 4.7.;.' ` ' ' h k h 3 : , a j 5.4.4.4.4.7.7.a.{ p.p.a.j.j.j.j.j.j.j.s.a.a.a.a.a.a.a.a.p.p.#.#.#.#.#.#.p.a.a.a.:.:.:.:.:.:.;.;.;.3.' 3.5.3.` 6 6 j ` ' 3.8.g.K.7.7.7.4.+.O.o.o.{ { 4.a.a.a.a.a.a.a.a.a.a.a.a.a.a.a.a.a.j.j.j.j.j.a.a.a.d.s.f.h.l.D.l.f.h.C.g.o.` l a a 5 s ^ _ 4.4.a.g.h.C.D.D.k.f.%.%.%.s.&.x.x.x.x.x.l.l.l.l.l.h.f.s.j.s.s.s.s.s.s.s.s.s.s.j.j.j.a.p.{ { { [ [ [ ;.;.0.3.` 5 c j ' 8.9.3.[ ;.' ' } } } ' [ [ :.4.4.4.4.4.4.4.[ [ [ [ [ [ [ [ ] ] ' [ [ [ [ ' ' ( _ ( ( _ _ ' ' ` ` ) x j j h z 1 O O A G G e.t.H ]. X`.}.].}.t.}.oX|.}.&X6XGX].;X|.q.G G q.`.B B B N N N V V C C C J R U U U U U U U U U U U U U U U U U U U ",
"U U U U U U U U U U U U U U U U U U U U R F C C V N N * g U T C F Z m m F e._._.t.Y [.*X{.#X-X[.&X{.e.{._.H t.[.[.G q 7 . @ 7 8 1 3 2 2 e e e e 5 5 e e r r r r ^ ^ ^ ^ ) ) ) ) Q Q Q ^ ^ ^ ^ Q Q Q Q Q ^ ) ) ) ^ ^ ^ r r r j ^ ) Q Q r j j e 2 , 5 h x ) ) ] ] _ _ _ _ _ _ ' ' ' ' ;.;.;.;.' ' ' ' ' ' ' ' ' ' ' ' [ ;.;.;.;.3.o.o.O.4.4.4.4.4.[ 4.4.;.' ;.;.` h k h 3 : 2 j / 5.3.o.o.O.4.4.:.{ p.p.a.j.j.j.j.j.j.s.a.a.a.a.a.a.a.a.a.p.p.#.#.p.#.#.p.p.p.p.:.:.:.:.:.:.:.;.;.[ ' ' 3.0.0.' r 5 j ` *.3.8.7.7.7.7.7.4.4.+.o.o.{ { 4.a.a.a.a.a.a.a.a.a.a.a.a.a.a.a.a.a.a.a.a.a.j.a.j.a.d.s.s.h.h.l.l.h.l.T.P.9. .l a , , a ^ ' 4.a.j.g.h.h.l.l.l.k.s.s.s.x.x.x.x.x.x.x.l.x.l.l.l.l.x.s.s.j.s.s.s.s.s.s.s.s.s.s.j.j.a.p.:.{ { { :.:.:.4.0.3.` 5 j j ' 9.9.0.;.4.[ ' } ' } [ [ [ :.:.4.4.4.4.:.;.[ [ [ [ [ [ [ [ ] ] ' [ [ [ [ ' ' ( _ ( ( _ _ ' ' ` ` ) x j j h e 1 O + A D F e.e.H `. X].}.].}.[.}.}.t.t.|.4XGX}.3X;Xe.G K e.`.B B B N N N N V C C C J R U U U U U U U U U U U U U U U U U U U ",
"U U U U U U U U U U U U U U U U U U U U R F C C V V N * g R U C F Z m m F e.t.t.t.G t.;X&X-X-Xt.4X6XoX}.y.H t.m.[.G q = . O 7 8 9 2 2 2 5 e e e 5 5 5 e r r r r ^ ^ ^ ^ ^ ) ) ) Q Q ^ ^ ^ ^ Q Q Q Q Q Q ) ) ) _ ^ ^ ^ Q r r j ^ ) ) ) ) ) j 5 3 2 5 j ) ) _ _ _ ' ' ' ' _ _ _ _ ' ' ' ' ' ' ' ' _ ' ' ' ' ' ' ' ' ' [ [ ;.;.;.[ [ [ [ o.o.3.4.4.4.4.3.[ ;.3.;.` i f h 2 , a c ` 3.3.o.o.O.O.{ { { #.a.a.j.j.s.s.a.a.a.a.a.a.a.a.a.a.p.p.p.p.p.#.p.p.#.#.#.#.{ { :.:.:.:.:.:.:.;.[ ' ' 3.0.0...j r c ' <.3.0.4.4.7.7.7.7.4.4.4.O.{ { a.a.a.a.a.a.a.a.a.a.a.a.a.a.a.a.a.a.a.a.a.a.a.a.a.j.d.s.s.h.h.l.l.h.D.T.P.K. .d a , , 5 / o.a.j.h.h.h.h.h.l.k.k.s.s.x.x.x.x.x.x.l.l.x.l.l.l.l.x.x.s.s.s.s.s.s.s.s.s.s.s.s.s.j.a.a.p.:.{ { { :.:.:.4.7.3.` 5 5 j ' 9.9.7.4.4.;.[ [ [ ' [ [ [ ;.;.:.:.:.:.;.;.[ [ [ [ [ [ [ [ ] ( ' ' [ [ ' ' ( ( ( ( / ( ` ` ' ` ` ) ) x j h w < O + g S F e.q.A ].|.].}.].}.].}.].e.t.}.-X-X].4X-Xt.G q.e.`.B B B N N N N V C C C J R U U U U U U U U U U U U U U U U U U U ",
"U U U U U U U U U U U U U U U U U U U U R F C C C V N * * F U V I F B Z P e.t.e.].G t.;X&X=X-Xt.6X6X&X&X].H e.e.[.G q = . @ 7 8 9 2 2 2 5 5 e e 5 5 5 r r r r r Q Q ^ ^ ^ ^ ) ) Q Q ^ ^ ^ ^ Q Q Q Q Q ) ) ) ) ) ^ ^ ^ ^ r r j ^ ] _ ` *.*.c h 3 2 e j ) ` ` ' _ ' ' _ _ _ _ _ _ _ _ _ ' ' _ _ _ _ _ ' ' ' ' ' ' ' ' ' [ [ [ [ [ [ [ [ [ [ [ 3.3.4.4.;.[ 3.7.;.) 2 i i i 2 5 s ` 3.0.4.4.4.4.4.4.{ #.a.a.j.s.a.a.a.p.p.p.p.a.a.a.p.p.p.p.p.p.p.p.a.p.p.#.#.{ { { :.:.:.:.:.:.:.;.;.3.' 3.0.0.' j r j ' <.3.0.4.4.7.7.7.7.4.4.4.4.O.4.a.a.a.a.a.a.4.a.a.a.a.a.a.a.a.a.a.a.a.a.a.a.a.a.a.a.j.s.f.h.l.l.l.h.h.C.L.K. .s a a a a ` 3.g.h.h.h.h.h.f.s.s.s.%.s.x.x.x.x.x.l.l.l.l.z.l.l.k.k.x.s.s.s.x.x.s.s.s.s.s.s.a.a.a.a.a.a.4.:.:.:.:.7.7.7.8.0.' j 5 j <.9.9.7.4.4.:.:.:.[ [ [ [ [ [ [ ;.:.:.;.[ [ [ [ [ [ [ [ [ [ ] ( ' ' ' ' ' ' ( ( ( ( / ( ` ` ' ` ` ` ) ) x x < < O + q S Y }.e.H  X|.].}.t.].t.[.[.`.[.&X|.].t.4X,Xe.G Y e.e.B B B N N N N V C C C J R U U U U U U U U U U U U U U U U U U U ",
"U U U U U U U U U U U U U U U U U U U U R F C C C V N * * F U V I F H Z P r.t.e.}.Y t.;X+X+X&X].|.t.G ].[.G t.[.[.G q = . @ 8 9 9 2 2 2 e 5 e e 5 5 5 e e r r r Q Q Q Q Q Q ^ ^ Q ^ ^ ^ ^ Q Q Q Q Q ^ ^ ) ) ) ) ^ ^ ^ ^ j r j ^ ] _ =.0.0.,.x 5 2 e j ` =.=.;.;.' ' ' ' _ _ ^ ^ _ _ _ _ _ _ _ _ _ _ _ ' ' ' ' ' ' ' [ [ [ [ ' ' ( ( ' [ [ [ [ [ 4.4.;.;.7.g.4.) 2 p i h a , 5 j 5.3.3.3.O.O.O.{ { #.p.a.s.a.a.p.p.p.#.#.#.#.p.p.#.#.#.#.p.p.p.p.p.p.#.#.{ { } } { :.:.:.:.:.4.3.4.3.3.3.3.3.` 5 5 j ` <.3.0.6.4.7.7.7.7.4.4.4.4.4.4.a.a.a.a.a.a.:.:.a.4.a.a.a.a.:.:.:.:.:.:.:.:.:.4.a.a.j.d.h.h.h.h.l.D.D.C.L.I...s a h j s ` 0.h.h.h.h.h.h.j.s.s.s.s.s.x.z.x.x.k.l.l.l.l.x.x.x.x.x.s.s.x.x.x.x.x.s.s.s.s.s.a.a.a.a.a.a.4.:.:.:.a.7.7.7.9.b.<.c a ` <.8.9.9.4.;.7.7.:.;.[ [ [ [ [ [ ;.:.:.;.[ [ [ [ [ [ [ [ [ [ ] ( ' ' ' ' ] ] ( ( ] ] ) / ` ` ` ` ` ` ` ) x x 9 1 O O q S t.;Xt.P |.oX].].t.].`.}.}.].}.&X|.t.t.6X4Xe.F e.e.e.B N B N N N N V C C C J U U U U U U U U U U U U U U U U U U U U ",
"U U U U U U U U U U U U U U U U U U U U R F C C V V N * g R U C I F Z H P r.t.t.}.e.[.-X{.[.#X}.{.q.q y.].G [.;X[.G q = . @ 8 9 9 2 2 2 e 2 5 5 e 5 5 e r r r r Q Q Q Q Q Q Q Q ^ ^ ^ ^ ^ ^ Q Q Q Q Q Q Q Q Q Q ^ ^ ^ ^ r j j ^ _ =.;.0.0.,.x 2 2 e x ` *.;.;.;.' ' ' ' _ _ ^ ^ _ _ _ _ _ _ _ _ ] _ _ ' ' ' ' ' ' ' ' [ [ ' ' ' ( ( ( ' [ [ [ [ 3.4.4.4.7.g.4.) , 1 i k a , , s ..[ [ [ } } } { { #.p.a.a.a.p.#.p.#.#.#.#.{ { { { #.#.#.#.p.p.p.p.p.#.{ { { } } { :.:.:.:.4.4.4.7.0.;.' <.<.^ 6 > h ` *.3.0.7.7.4.4.4.4.4.4.4.4.O.4.a.a.a.a.a.4.{ { { 4.a.a.a.a.:.:.:.:.:.:.:.:.{ { O.a.a.d.h.h.s.f.l.U.U.C.V.I...d a l l a ^ 0.h.h.h.h.h.j.s.s.x.k.x.l.z.z.z.x.x.s.s.x.l.l.l.x.x.x.x.s.x.x.x.x.s.s.s.s.a.$.a.#.a.a.a.a.4.7.7.7.a.a.j.g.9.b.<.c a ` <.0.8.9.7.4.g.j.7.:.;.[ [ ' [ [ :.:.:.:.[ [ [ [ [ [ ' ' ' [ ] ( ' ' ' ] ] ] ( ] ] ^ ) / ` ` ` ` ` ` ` ` ` c e 1 O O q G t.;X_.q.oX&X].[.t.[.|.|.[.t.].|.|.[.t.5X4Xq.H t.`.e.B N B N N B V V C C C J U U U U U U U U U U U U U U U U U U U U ",
"U U U U U U U U U U U U U U U U U U U U R F C C V N N * g U T C P I B B F r._._.`.Y }.4X{.M.+X+X{.[.q.t.t.q.}.|.[.G q = . @ 8 9 9 2 2 2 5 2 5 5 e 5 5 e e r r r r r Q Q Q Q Q Q ^ ^ ^ ^ ^ ^ ^ ^ Q Q Q Q Q r r r ^ ^ ^ Q r r j ^ =.;.;.0.<.c 2 : 2 h x *.=.0.0.7.' ' ' _ _ _ _ ^ _ _ _ ' ' _ _ _ ] ] ' ' ' ' ' ' ' ' ' ' ' ' ' ] ( ( [ [ [ [ [ [ [ 3.7.7.7.g.:._ , : i c l 2 5 ^ ' ' [ [ } } } { { #.p.a.a.p.#.{ p.p.#.{ { { } } { { { #.#.#.p.p.p.#.{ { { { } } { :.:.:.:.4.4.4.4.3.' ` ' ..^ 6 6 j ` *.3.0.7.4.4.4.4.4.O.O.o.O.{ { 4.a.a.4.4.4.{ { { 4.4.4.a.a.p.p.p.p.p.p.a.a.{ { { a.a.g.h.h.s.s.l.U.C.O.o.5...a , a a 4 j 3.h.h.h.h.h.s.s.s.x.k.x.l.z.z.x.s.s.s.s.s.x.x.x.x.x.x.x.x.x.x.x.x.s.s.s.%.$.#.#.#.a.a.a.a.a.a.a.a.a.j.7.7.8.0.` a 5 ` <.3.7.K.L.c.g.g.j.:.:.[ [ ' [ ;.:.4.4.:.;.[ [ [ ' ' ' ' [ [ ' ' ' ' ' ] ] ] ( ] ] ^ ) ) ` ` ` ` ` ` ` ` ` c e 1 O O g G e.}._.q.&X&X].}.[.&X|.}.[.`.].}.|.}.t.5X3XG A t.].e.B B B N N B N V C C C J U U U U U U U U U U U U U U U U U U U U ",
"U U U U U U U U U U U U U U U U U U U U R F C C V N N 0 N U T F Y F B B F e.].].e.G |.6X|.M.+X|.G [.].].t.e.[.t.[.F q = . . 8 8 9 9 9 9 e e y y e e e e e r r r r r r Q Q Q Q Q Q ^ ^ ^ ^ ^ ^ ^ Q Q r r r r r r ^ j j r r j j j =.=.=.=.*.h : + 2 h x *.<.0.0.7.' ' ' _ _ ) _ ) _ _ ' ` ' _ _ _ _ ] _ _ _ _ ' ' ' ' ' ' ' ' ' _ ' ( ' [ [ [ [ [ ' 3.g.9.7.7.3.` : : i v k a a ` <.3.3.[ [ { { { { { p.a.a.p.#.{ p.p.#.{ { } } } { { { #.p.p.p.p.:.{ { { { { { } { :.;.:.:.4.4.4.;.' _ _ ' <./ r > j ` *.<.0.4.4.;.[ ;.3.o.o.o.o.{ O.4.4.4.4.4.O.{ { { 4.4.4.a.a.:.:.:.:.:.:.:.{ { { { a.a.j.h.h.h.h.D.D.a.~ 6 6 <.a , a 5 > 5 ..g.h.h.h.h.s.s.s.x.s.s.x.x.x.x.$.s.s.s.s.s.x.x.x.s.s.s.s.x.x.x.x.s.s.s.a.a.#.#.{ a.a.a.a.a.7.7.a.j.j.7.7.0.<.j > , j ' =.7.L.P.L.c.g.j.4.;.[ ' ' ;.;.4.4.7.4.;.;.' ' ' ' ' ' [ [ ' ' ' ' _ ] ] ] ] ] ^ ^ ) ) ) ) ` ` ` ` ` ` ` c 9 1 O + z D G e.t.Y &X&X].|.}.-X].].}.|.|.}.}.].e.4X-XA q t.].e.B N N N N N N V C C C J U U U U U U U U U U U U U U U U U U U U ",
"U U U U U U U U U U U U U U U U U U R R R J C V V V N 0 = `.F F Y F A 0 7 G t.G e.q F &X4X[.t.|.e.r.].}.r.G e.}.}.K 0 @ . O = < 9 9 3 3 9 9 3 3 y y e e t t t t r r r r r r r r Q Q Q Q Q Q r r ) ) x x x x t t x x t t t x t t ) =.*.) x e 3 ; 3 e x ` *.*.*.` ) ) ) ) ) ) ) ) _ _ _ ` _ ` _ ` ` ` ) ` ` ` =.' ) ) _ _ _ ] ) ^ ' _ ' [ [ ;.:.:.4.4.4.3.' ) ` ` : 2 h k h h k  .c / / [ 4.g.g.j.{ } } } } } { { { { { { { { { { p.p.:.{ :.:.:.{ :.{ [ [ ' ;.:.:.:.:.;.;.;.;.;.;._ _ _ ` <.0.<.` 2 h c <.3.0.3.3.;.:.:.;.;.;.;.;.[ [ [ [ [ [ [ [ [ [ [ [ [ [ [ [ { :.:.:.:.{ } } 4.4.:.4.a.a.a.j.h.h.h.C.T.T.7./ s a j <. .l h  .6.a.O.} { s.s.#.#.$.eXyXx.$.x.s.l.k.k.s.s.s.%.s.s.s.s.s.s.s.s.s.s.j.j.j.j.a.a.a.7.7.7.7.7.7.7.7.a.j.3.' o.5.` > , 5 ^ ' 3.7.g.L.g.g.4.3.[ [ [ [ [ [ [ [ [ [ [ [ [ [ ;.[ ;.[ ' ' _ ' ' ' ' _ _ ^ ^ ^ ^ ^ ) ` ' =.' ` ` ` ` x 5 , 3 1 O O q S q.|.].e.].[.t.&X4X|.t.;X#Xt.|.-X|.m.t.|.|.e.F T t.r.Y & N * C * * R C C C C U U U U U U U U U U U U U U U U U U U U ",
"U U U U U U U U U U U U U U U U U U R R R J C V V V N g = r.B F F B q q G |.&Xe.G Y `.;X-XoX}.}.).).'.[.).Y r.}.}.Y 0 # O @ = 7 9 9 9 9 e e 9 3 y y e e t t t r r r r r r r r r Q Q Q Q r Q r r x x x x x t t t x x x x t t x x x *.*.c x h 2 ; 3 e x *.*.` ) ` ) ) ) ) ) ) ) ) ) ) ) ) ) ) ) ) ) ) ) ` ` ` ` ` ) ) ] _ _ ] ) ^ _ ` ' [ ;.:.:.:.4.:.3.;._ ^ j j > 2 h h p p a k a j ^ ' 4.a.a.a.{ { } } } } { { { { { { { { { { p.#.:.:.{ { :.:.:.:.>.>.>.;.>.:.;.;.;.;.;.;.;.;.' ' ` ' <.<.` j 5 h c ,.<.0.3.3.:.:.:.;.;.;.;.;.[ [ [ [ [ [ [ [ [ [ [ [ [ [ [ [ [ [ { { { { [ } 4.4.a.a.a.a.a.a.a.d.s.B.T.T.V.' ^ s j  . .l k <.6.A.B.d.j.h.l.s.s.#.x.z.s.s.z.s.k.k.s.s.%.#.#.#.s.s.s.s.s.s.s.s.j.j.j.j.j.a.a.a.7.7.7.4.7.7.4.7.:.7.;.' 3.8. .4 4 s ^ ' 3.7.g.L.g.7.4.[ [ [ [ [ [ [ [ [ [ [ [ [ ;.;.;.;.;.[ ' ' _ _ ' ' _ _ _ ^ ^ ^ ^ ^ ^ ` ' ' ` ` ` ` ` j 5 , 3 1 O O q A q.|.[.e.t.oX&X+X#X+XM.=X;X|.;X;X[.y.|.4X6X}.Y Y T Y J & C * C * N C C C C C U U U U U U U U U U U U U U U U U U U U ",
"U U U U U U U U U U U U U U U U U U U U R J C V N V V N % Y N F Y A A G [.5X6Xt.H [.-X;X&X-X&X].XX}.}.}.).T r.[.[.Y q = @ # = < 9 9 9 9 q z e y w y y e r r r r r r r r r r r r r r r r r r r r x x x x t t t t x x t x x x x x t ) *.c c x 9 : w e x c ) x x j ) ) ) ) ) ) ) ) ) ) ) ) ) ) ) ) ) ) ) ) ) ) ) ` ) ) ] ] ] ] ] ^ ' _ _ [ [ ;.:.:.:.4.4.3.' ^ s 5 2 i f 2 : : , h 5 s ^ ' 4.a.a.:.:.{ { { { { { { { { { { { { { { { { { { { { { { :.:.>.>.>.>.>.>.;.;.;.' ' ' ' ' 3.;.=.=.<.<.) r a h c ,.<.3.;.;.;.;.;.;.;.;.;.;.;.[ [ [ [ [ [ [ [ [ [ [ [ [ [ [ [ } { { 4.4.O.O.a.a.a.a.a.a.a.a.$.a.a.d.C.P.g.' / s j  . .k k <.o.g.B.B.C.D.z.x.x.#.#.$.#.x.D.j.k.k.s.s.%.#.#.#.s.s.s.s.s.s.s.s.j.j.j.j.a.a.a.a.7.7.4.4.:.7.4.4.:.7.;.' 3.8...5 a j / ' 3.g.g.L.7.7.3.[ [ ' [ [ [ [ [ [ ' [ [ [ ;.;.;.' ' ' ' ' _ _ _ ' _ _ _ ^ ^ ^ ^ ) ) ) ` ' ` ` ` ` ` j 5 2 3 1 O O q A q.|.].e.q.&X4X{.y.{.M.*X*X&X;X|.q.S }.4X6X}.G F I F V * T * V N V C C C C C U U U U U U U U U U U U U U U U U U U U ",
"U U U U U U U U U U U U U U U U U U U U R J C V N V C N % F 0 F e.q.q.e.}.5X6Xt.Y oX3X&X|.;X&X[.-XOX}.[.).e.r.).].K q = @ @ # # < < 9 9 q z e y w y y y e e y y r r r r r r r r r r r r r r r r t x x t t t t t x x t t x x t x r ) *.` c x e < 2 e x x x t r j ) ) ) ) ) ) ) ) ^ ^ ^ ^ ) ) ^ ^ ^ j j j ^ ) ) ) ) ) ] ] ] ] ] ^ ' ` ' [ [ ;.:.;.4.4.4.0.3.' ^ a a i i 3 $ $ 3 a 5 s / 3.7.g.a.:.p.:.{ { { { { { { { { { { { { { { { { { { { [ [ :.:.;.>.>.>.>.>.>._ _ _ _ _ ' ' 3.;.=.=.<.=.) 5 h x c ` <.=.;.[ ;.;.;.;.;.;.;.;.;.[ [ [ [ [ [ [ [ [ [ [ [ [ [ [ [ [ [ 4.4.4.4.4.a.a.j.j.a.a.a.a.a.a.a.a.d.g.4./ ( j s j a i k  .~ ~ o.d.U.R.U.l.l.#.#.#.#.s.l.j.f.k.k.f.s.s.s.s.s.s.s.s.s.%.%.a.j.j.j.j.a.a.:.:.7.7.4.4.:.:.4.4.:.7.4.[ 3.0...5 j / ` o.4.7.g.c.4.4.[ [ [ ' ' ' ' ' ' ' ' ' ' ' ' ' ' ' ' ' ' ' _ _ _ ' _ _ _ ] ) ) _ ) ) _ _ ` ` ` ` ` ` j j 5 1 1 O O q S Y }.`.t.q. X:X].G ].t.{.|.#X;XM.H B Y ].[.P q B F H N N `.* N N V V C C C C U U U U U U U U U U U U U U U U U U U U ",
"U U U U U U U U U U U U U U U U U U U U R J C V N V V V % F = F e.t.t.Y e.;X;Xe.].|.&X|.}.|.|.}.;XoX}.`.).).r.r.].G 0 = O O # O < < < 9 e e e y y y y y y y y y r r r r r r r r r r r r r r r t t t t t t t t t x x t t t t t t e ) ` c c x e 3 2 e j x j t t t ) ) ) ) ) ) ) ) ^ ^ ^ ^ ^ ^ ^ j r r j j j j ^ ) ) ) ] _ _ _ _ _ ;.' [ [ [ ;.;.[ ;.;.;.0.0.<.` j i i i : + $ , h , 5 / 3.7.j.a.:.a.a.a.{ { { { { { { { { { { { { { { { { { } [ [ ;.;.>.;.>.>.>.>._ _ ' ' _ _ ' ' ;.;.=.' <.<.` j h x c ` *.=.;.;.;.;.;.;.;.;.;.;.;.[ [ [ [ [ [ [ [ [ [ [ [ [ [ [ [ [ { 4.4.7.a.a.a.a.a.j.j.a.a.a.a.s.f.d.g.A.7.' ` / s a , , p j 4 6 ~ O.U.R.z.s.s.s.z.l.} { s.j.s.s.s.f.k.k.l.l.s.s.s.s.s.%.%.$.j.j.j.j.a.a.:.:.:.:.4.4.:.4.4.4.7.g.7.[ o.3.` 5 j / ' 3.4.7.g.g.3.3.[ [ [ ' ' ' ' ' ' ' ' ' ' ' ' ' ' ' _ _ _ _ _ _ _ ' ' ' _ _ _ _ _ _ _ ) ) ) ` ` ` ` ` ` j e 1 1 O O q z K }.].}.t.t.&X{.q.].{.{.{.#X&Xm.G G Y e.P 0 0 H P H N V '.* E N V V C C C C U U U U U U U U U U U U U U U U U U U U ",
"U U U U U U U U U U U U U U U U U U U U R J C V V N N V % F = F e.t.t.G G oX-Xt.oX}.].}.}.].[.|.}.}.).).`.'.`.`.}.Y q # O O O O + < < 9 9 9 y y y y e e e e y y r r r r r r r r r r r r r r r r t t t t t t t t t t t t t t t t t ) ) x x x h 2 2 e j x t t t j ) ^ ^ ^ ^ ^ ^ ^ ^ ^ ^ ^ ^ ^ ^ j r r j j j ^ ^ ) ) ) ] _ _ _ _ _ ;.' [ [ [ ;.[ [ [ ' ' ;.3.<./ a 2 i i 3 $ $ 3 a : 5 ^ ' 4.7.4.{ a.a.a.a.4.{ { { { { { { 4.4.{ { :.{ :.{ { [ [ [ ;.;.;.;.;.>.>.>._ ' ' _ _ [ ' ' =.' ' ' <.<.` j h k c ` *.=.;.;.' [ [ ;.;.;.;.;.;.[ [ [ [ [ [ [ [ [ [ [ [ [ [ [ [ [ { 4.7.7.a.a.a.a.j.j.j.j.a.$.a.s.C.C.L.P.K.6.` / s , : : , a 6 6 ~ d.U.D.f.a.s.l.Y.Y.#.{ s.s.$.%.%.s.f.k.k.k.k.k.s.s.s.%.%.$.j.j.j.j.a.p.:.:.:.:.:.:.:.:.4.4.7.g.g.[ o.5.` 5 s / ..0.7.7.7.4.[ [ [ [ [ [ [ [ ' ' ' ' ' ' [ [ _ _ _ _ _ _ _ _ _ _ ' ' ' ' ' ' _ ' ` ` _ _ ) ^ _ ` ` ` ` ` j h 1 1 O O 9 z G [.[.|.[.].{.[.t.{.+X+X{.+X&XM.q.t.}.[.Y q q Y Y F Z V `.* N N V V C C C C U U U U U U U U U U U U U U U U U U U U ",
"U U U U U U U U U U U U U U U U U U R R R J C V V N 0 N = F * F e.e.e.F e.-X4Xt.|.}. X[. X X[.}.`.).).r.).'.`.).oXr.B = O . @ O # < 9 9 e 9 y y e e e e r e y y r r r r r r r r r r r r r r r r t t t t t t t t t t t t t t t t x ) ) x e x h 2 9 e h x j j t x ) ^ ^ ^ ^ ^ ^ ^ ^ ^ ^ ^ ^ ^ ^ ^ r r r r j j ^ ) ) ) _ _ =.=.=.' ;.' [ [ [ [ [ [ :.[ ' ' 3.../ a , i f 2 : $ : , : 5 ^ ' 3.4.4.:.a.a.a.a.a.{ { { { { { { 4.4.4.{ p.:.:.:.{ { { [ ' ' >.;.;.;.;.;._ _ _ ' [ [ ;.;.=.;.=.' <.<.` j h h l ` ' =.;.;.' ' ' [ ;.;.;.;.;.[ [ [ [ [ [ [ [ [ [ [ [ [ [ [ [ [ 4.4.7.7.a.a.a.a.j.h.s.a.a.$.{ s.C.C.L.P.V.5.` / s , , , i j 4 W o.B.C.s.s.l.U.l.U.Y.f.s.D.s.s.s.s.s.f.f.s.s.k.k.k.s.%.%.#.#.j.j.j.j.p.:.:.:.:.:.:.;.:.:.:.4.:.g.g.3.o.3...a a / <.8.7.4.;.[ [ [ [ 3.[ [ [ [ [ [ [ [ [ [ [ [ _ _ _ _ _ _ ^ ^ _ ' ' ' ' ' ' ' ' ' ' ' ' _ ) ^ ) ` ` ` ` ` ^ j 2 1 $ O q z G [.}.t.].&X[.y.M.#X+X+X{.|.&X].q.m.}.}.r.B B Y T F U V T * V N V C C C C C U U U U U U U U U U U U U U U U U U U U ",
"U U U U U U U U U U U U U U U U U U R R R J C V C g 0 N = U * F t.e.G A t.5X4Xe.}.oX|.[.[.|.}.`.'.'.).r.).).r.Y ;Xt.B = O O @ + < w 9 z z q q e t t r r t r r r r r r r r r r r r r r r r r r r t t t t t t t t x x t t t t t t ) ) ) e e j h 9 9 e h x j x x ) ) ^ ^ ^ ^ ^ ^ ^ ) ) ) ) ) ) ) ) r r r j j ^ ) ) ) ) _ >.;.;.;.=.;.' [ [ [ [ [ [ j.4.[ ;.3.<.` a , i h i 3 $ $ : , 5 ^ ' 4.7.a.a.a.a.a.a.a.{ { { { { { { 4.4.{ { a.4.:.:.:.{ ;.[ ' _ ;.;.;.;.;.;._ _ ' ' ;.;.;.;.3.;.=.=.=.=.) r a h l ` ' =.;.;.' ' ' [ ;.;.;.;.;.[ [ [ [ [ [ [ [ [ [ [ [ [ [ [ [ O.4.4.7.7.a.a.a.a.g.h.h.j.a.#.{ d.C.B.C.A.4.( / / j 5 , a k l ; 6 +.C.h.$.s.R.yXl.l.D.D.R.R.s.l.l.l.l.k.k.s.s.k.k.k.s.%.%.#.#.j.a.a.p.p.:.:.:.:.:.;.;.:.:.:.:.[ a.7.3.3.5...j 5 / <.8.7.4.[ ] [ [ 3.3.3.[ [ [ [ [ [ [ [ [ [ [ _ _ _ _ ] ^ ^ ^ _ ' ' ' ;.;.;.' ' ' ' [ ' _ ^ ^ ) ) ` ` ' ` ^ j 2 1 $ $ q z G [.}.H t.-X].H t.&X+X+X{.+X&X[.e.m.q.t.e.B 0 F T Y T V T * C N V C C C C J U U U U U U U U U U U U U U U U U U U U ",
"U U U U U U U U U U U U U U U U U U R R R J C V V N 0 N & F 0 F m.q.G B `.7X-X].t.-X;X}.|.}.t.].r.).r.).`.).e.F e.F 0 @ O . O + + < 9 9 e e t t y y y y r r r y r r r r r Q Q Q ) ) ) ^ Q Q Q r r t e e t t t t t t t t t t t x t t r j x x e 2 9 e h x x x ) ) r r r ^ ^ ) ) ) ) ) ^ ^ ^ ^ ^ j j j j ) ) ) ) ) _ _ _ _ =.;.;.;.' ' ;.;.;.[ } ] 7.7.4.3.3.<.' c a : : 2 : 2 i : l ` ' 3.4.4.7.a.{ { { { { { { { a.a.a.a.a.a.a.a.a.:.:.[ } } } } ' _ _ =.;.;.;.;.;.[ [ [ ;.;.;.;.=.;.=.` =.<.) 5 a l c ` ` 3.;.' ' ' ' [ [ [ ' ' ' ' ' [ [ [ ' ' 3.3.3.3.3.3.3.3.[ [ { O.4.7.a.a.j.j.d.j.j.s.s.h.O.$.a.d.d.7.4.3.( ..` 5 : , 3 : 4 6 ( 6.h.C.D.l.U.z.s.j.j.d.s.s.f.k.k.k.k.k.k.k.l.l.k.s.s.s.%.s.p.p.j.j.j.a.:.:.:.:.:.4.4.7.7.7.7.7.4.3.6.0...a s / <.5.3.4.:.{ [ [ o.[ [ 3.3.3.3.3.3.3.o.o.[ ;._ _ _ _ _ _ _ _ _ _ ' ' ' ' ;.;.' [ ' ' ' ' ' ` _ ` =.3.<.*.` c 9 $ O $ 8 G e.e.`.e.t.|.+X:XHX{.{.+X=X{.|.{.G t.e.[.e.B F Y F H V U U C * N C C C C C C U U U U U U U U U U U U U U U U U U U U ",
"U U U U U U U U U U U U U U U U U U R R R J C V V N 0 N & F 0 F ].e.q.A t.4XoXt.}.oX].e.].}.].[.`.).r.r.r.r.T G e.F 0 @ O . O + # < 9 9 e e e e y y y y r r r y r r Q r r r Q Q ) ) Q Q r r r r r t t e t t t t t t t t t t t x t t t j x x e 3 9 e h x x x ) ) r r r Q ^ ^ ) ) ) ^ ^ ^ ^ ) ^ j j j j ) ) ) ) ) _ _ _ _ =.;.;.;.' ' ;.;.;.[ } } [ ;.[ ' ' ` ^ a 2 2 k k $ : a k c ` ..3.4.4.4.a.{ { { { { { { { 4.{ { { #.a.a.a.:.:.:.[ } [ [ ' _ ' _ _ ;.;.;.;.;.' ' ' [ [ ' ' =.;.=.` =.<.) 5 5 l c ` *.3.;.' ' >.>.[ [ [ ' ' ' ' ' [ [ [ [ ' [ [ 3.3.3.3.3.3.[ [ { O.4.7.a.a.j.j.d.g.j.s.s.s.$.a.d.g.g.g.7.5.` ` c 5 , , 2 > 4 ~ o.g.C.D.l.l.z.l.x.j.j.s.s.s.k.k.k.k.k.k.k.k.k.l.l.l.k.s.%.#.:.:.a.j.j.j.a.a.:.:.4.4.4.4.7.7.7.7.4.3.6.0...a a / <.3.3.4.4.:.[ [ [ [ [ [ 3.;.[ [ [ [ [ [ [ [ ' ' ' ' ' ' ' ' _ _ ' ' ' ;.;.;.' [ ' ' ' ' ' ' ^ ) _ ` ` ) ^ j 9 1 O O 7 S e.t.y.G t.;X*X-XHX-Xt.#X4X#X[.t.G [.e.].e.B F P F F V U U V * N C C C C C C U U U U U U U U U U U U U U U U U U U U ",
"U U U U U U U U U U U U U U U U U U U U R J C V V N 0 N & F 0 F `.Y e.G [.5X-X|.7X3X].q.`.}.].).}.'.r.e.e.T Y Y e.F 0 @ O O O # < 9 9 9 e e y y y y y e r r y y Q Q Q Q r r r r r r r r r r r r r t e e t t t t t t t t t t t x t t t j x j e 3 y e h x x x x ) r r r r ^ ^ ^ ^ Q Q r Q ^ ) ) ^ j j x ) ) ) ) ) _ _ _ ' ;.;.;.;.' ' ;.;.;.[ ' } } [ ' _ _ ` ^ a x : $ 3 : p i :  ...5.3.4.:.4.:.{ { { { { { { { { { { { { { { { :.:.:.{ [ [ [ [ _ ' _ _ =.=.=.=._ ' ' ' ' ' ' ' =.;.=.` =.<.) 6 , k c ` *.3.;._ ;.;.;.;.[ ' ' ' ' [ [ [ [ [ ' ' [ [ [ 3.o.3.3.3.[ [ { 4.4.7.a.a.g.g.h.h.j.j.j.j.s.s.h.B.h.A.g.9.` / s , 2 a a , ~ ( 6.B.U.U.l.l.z.l.x.s.s.s.s.s.l.l.l.l.l.l.l.l.k.k.l.l.k.s.#.} { :.p.j.j.j.j.a.:.:.4.4.4.4.4.4.7.7.4.3.6.0...a 5 / <.0.4.4.4.4.[ [ [ [ [ [ [ [ [ [ [ [ [ [ [ [ ;.;.;.;.;.;.' ' _ _ ' ' ' ;.;.;.[ [ [ [ ' ' ' ' Q ^ ) ) ) ^ j e 9 1 # $ # z e.].t.G e.-X*X[.&X;XM.{.=X{.].t.G [.e.`.Y m A F H I Z U U V * V C C C C C C U U U U U U U U U U U U U U U U U U U U ",
"U U U U U U U U U U U U U U U U U U R U R J C V V N 0 N & F 0 F t.G e.K [.6X;X&XLX5X|.].}.|.}.`.}.'.).r.e.Y Y T e.F 0 @ O O @ # 9 9 9 e e 9 y y y y y e r r y y Q Q Q Q r r r r r r r r r r r r r t t t t t e e t t t t t t t x t t t j x j e 3 y e h x x x j j r r r r ^ ^ ^ Q r r r r ^ ) ) ) j x x ) ) ) ) ) _ _ _ ' =.;.;.;.;.' ;.;.;.;.[ [ [ ;.;.' ' ' ` j h : 3 i 2 i i + ,.<.3.0.4.4.:.:.{ { { { { { { { a.a.a.a.a.a.a.a.:.4.:.{ [ [ [ [ _ _ _ _ =.=.=.>._ _ _ _ ' ' ' ' =.;.=.` =.<.) 6 , h `  .<.3.;._ ;.;.;.;.;.[ ' ' [ [ [ [ [ [ ' ' [ [ [ [ 3.3.3.3.[ [ { 4.4.7.a.a.g.g.h.h.s.s.s.s.h.h.C.C.C.V.V.V.../ a , a l k a ( +.g.L.U.U.l.l.x.l.x.s.f.f.f.f.D.l.l.l.l.l.z.l.k.k.k.k.s.%.#.#.:.:.p.p.a.a.a.7.7.7.4.4.4.4.4.4.7.7.4.3.6.0...a 5 / <.0.4.7.7.4.[ [ [ [ [ [ [ [ [ [ [ [ [ [ [ [ 3.3.;.;.;.;.;.' _ ' ' ' ;.;.;.;.;.;.;.;.[ ;.;.;.] _ _ ` ` ) ) j 2 1 1 7 8 g e.[.].G G -X:Xt.t.#X+X{.{.t.}.{.G t.t.].Y B B B B I C U U V * V C C C C C C U U U U U U U U U U U U U U U U U U U U ",
"U U U U U U U U U U U U U U U U U U U U R J C V V N 0 N & F 0 F `.Y q.H e.|.m.t.4XoX|.oX|.|.|.[.`.).).`.r.Y P e.T F 0 # O O @ # 9 9 9 9 9 9 y y y y y e e e r y Q Q r r r Q r r r r r r r r 5 r r t t t t t t t t t t t t t t x x r t x x j e w y e h j j t r j Q Q r Q Q r r r r r r r ^ ) ) ^ ) ) ) ) ) ) ) ) _ _ _ =.;.;.;.;.;.' ;.;.;.;.;.:.;.;.;.;.3.<.' c : v M.M.i $ i c <.<.0.0.4.:.:.{ { { { { { { { { 4.4.4.4.4.4.4.4.{ { :.:.[ [ [ [ [ ' =.=.=.=.=.=._ _ _ _ ' ' ' ' =.;.=.` =.<.) 5 , x ` ` =.3.;.] ;.;.;.;.;.;.=.' [ [ [ [ [ [ [ ' [ [ [ [ [ 3.4.4.[ [ { 4.4.7.a.a.h.h.h.h.h.h.h.h.D.D.C.C.L.L.L.K.o./ 5 a h l k a +.g.B.T.U.U.l.l.x.l.x.s.f.h.h.h.D.F.F.F.D.D.z.z.l.l.s.%.$.#.#.$.p.p.p.p.:.:.:.:.7.7.4.4.4.4.4.4.7.7.4.3.6.8...a 4 / <.6.7.7.7.4.[ [ [ [ [ [ [ [ ' ' ' ' ' ' [ ' ;.;.;.;.;.' ' ' ' ' ' =.;.;.;.;.;.;.;.;.;.;.;.;.' ` ' ' ' ` _ ` 1 1 8 g g z q.[.}.F A -XHX{.{.4X#X{.#X{.#X}.G t.].].Y A B 0 0 I C U U V N V C Z C C C J U U U U U U U U U U U U U U U U U U U U ",
"U U U U U U U U U U U U U U U U U U U U R J C V V N 0 N & F 0 F t.q.q.A q.&X[.].&Xt.}.&X].t.].r.`.).`.'.r.F F e.Y F 0 # O O # # 9 9 9 9 9 9 y y y y y e e r r y r Q r r Q Q r Q r r r r r r 5 r r t t t t t t t t t t t t t t x x t t x x j y 3 y e h j t t t t Q ^ ^ ^ ^ Q r r r r r r Q ^ ^ r ) ) ) ) ) ) ) _ _ _ _ =.;.;.;.;.;.' ;.;.;.;.:.:.[ ;.;.;.3.<.' c : h N.N.i $ i k <.<.5.3.4.{ :.{ { { { { { { { { { { { { { { { { { { :.:.;.[ ;.;.;.;.=.=.=.=.=.` >.' [ ' ' [ ' ' =.;.=.` =.<.) 5 5 l ` ` *.3.;.] ' ;.;.;.;.;.;.;.[ [ [ [ [ [ [ [ ' ' ' [ [ 3.4.4.} [ { 4.4.7.a.a.j.j.h.h.h.h.h.h.D.D.G.C.L.L.L.I.5./ s a l h k l 6.A.C.U.U.D.z.x.x.x.x.s.s.l.h.h.l.l.l.l.l.l.l.l.F.l.s.$.#.$.%.s.j.j.a.p.:.:.:.:.7.7.7.4.4.:.4.4.7.7.4.3.6.0...a 5 / 5.8.7.7.7.:.3.3.[ [ [ [ [ [ [ [ [ [ [ [ [ [ ;.;.;.;.' ' ' ' ' ' ' ;.;.;.;.;.;.;.;.;.;.;.;.;.' ' ' ' =.` ` ` 2 1 8 g z z q.}.|.G q ;XHX{.t.-X#X*X5X<X;X].G [.[.[.e.F F 0 0 Y C U U V N V C V C C C C U U U U U U U U U U U U U U U U U U U U ",
"U U U U U U U U U U U U U U U U U U R R R J C V V N 0 N & F 0 F e.q.e.A e.4X-X-X6X].|.-X].t. X).XX'.`.'.e.Z H e.Y F 0 # O @ # 7 9 9 9 9 w w y y y y y e r r r y r r r r Q Q Q Q r r r r r r r r r t t t t t t t t t t t t t t x x x t x x h 2 3 e e h h t t r r ) ^ ^ ^ ^ ^ ^ Q ^ r r r r Q r r ) ) ) ) ) ) ` _ ) ) _ =.;.;.;.;.;.;.[ ;.;.:.:.:.[ ;.;.;.3.<.' c 2 : 3 i 1 i a : ,.<.3.3.;.{ { { { { { { { { { { { { { { { { { { { { 3.4.3.3.;.;.3.;.;.=.=.=.=.=.;.;.;.;.;.;.;.;.;.;.=.` =.<.) 5 h c ` ` ` =.' ] ' ' ;.;.;.;.3.3.' ' [ [ [ [ [ [ ' ' ' [ [ 3.4.4.[ [ { 4.4.7.a.a.j.j.d.h.h.h.h.l.U.U.G.C.L.L.P.P.5. .c l h a h l V.B.C.C.h.h.l.x.x.x.s.s.x.k.l.l.l.l.l.l.l.l.l.l.l.k.f.s.s.s.s.f.j.j.j.p.p.p.:.7.7.7.7.4.:.:.:.:.4.7.4.3.6.0...a 5 / 5.9.7.7.4.[ 4.3.3.[ [ [ [ [ [ [ [ [ [ [ [ [ ' ' ' =.;.;.;.;.' ' ' ;.;.;.3.;.;.;.;.;.;.;.;.;.;.;.;.;.=.' ' *.f # # 8 g z q.}.[.Y m |.6Xt.-.;X*X=XHX5X4X[.H t.].].e.Y Y B m e.C U U V N V C N C C C C U U U U U U U U U U U U U U U U U U U U ",
"U U U U U U U U U U U U U U U U U U U R R J C V V N 0 N & F 0 F `.e.e.B q.3X-X&XGX|.&X6X&X&X6X-X;X}.'.`.Y m B e.Y F 0 = @ @ # 7 9 9 9 w w w y y y y y e r r r y r r r r Q Q Q Q r r r r r r r r r t t t t t t t t t t t t x x x c x t x x h 9 3 e e h h e e t t ) ) ^ ^ ^ j j j ^ j r r r r r r ) ) ) ) ) ` ` ` _ ) _ =.=.;.;.;.;.;.[ [ ;.;.4.4.;.3.3.3.0.3.<.` , : 2 2 $ 3 c `  ...o.;.[ [ { { { { { } } } { { #.4.p.:.4.4.4.4.{ ;.3.3.3.3.;.;.7.3.3.;.;.=.=.=.;.;.;.=.;.;.;.;.=.;.*.' =.<.) 5 x ` *.` ` *.' ] _ ' ' ;.;.3.3.3.' ' [ [ [ [ [ [ ' ' ' [ ;.3.4.4.[ [ { 4.4.7.a.a.a.a.j.h.h.h.U.U.U.U.D.D.C.L.P.P.5.../ l a , a / C.C.C.h.h.f.l.z.x.x.s.s.s.k.l.l.l.l.l.l.l.l.l.l.k.k.k.k.k.f.f.f.j.j.j.a.a.a.j.j.a.7.7.4.:.:.4.4.4.4.4.o.6.5.' 6 6 / 5.9.7.7.:.[ 4.3.3.o.[ [ [ [ [ [ [ [ [ [ [ [ ' ' ;.[ ;.3.3.3.' ' ' [ ;.;.3.;.;.;.;.;.;.;.;.;.3.3.;.3.3.3.;.<.z # O # 7 9 K |.y.G A |.6Xt.y.6X4X*X<X6XHX;XA H _.`.e.e.e.B B ).J U U N N V C N C C C C U U U U U U U U U U U U U U U U U U U U ",
"U U U U U U U U U U U U U U U U U U U U R J C V V 0 0 V = F = Y e.r.e.H F }.3X;X&X4X5X5X5X5X4X&X).).r.P H B B F e.F 0 # . O = w w w w 3 w w y y y 5 5 y y y y y y y y e r r r r t t r r t t t t t t t t t t t t x c c v v z z z c x t t z e e 9 z z z e t e t e x ) ) ) ) ) ) ) j j j j j j j j ) ) ^ ) ) ) ) ) ) ) ) _ =.=.=.=.` ` =.=.;.3.3.0.3.3.3.3.0.0.<.<.2 k b k 2 2 h ` ` ' ' [ [ } } } { [ { } { } { } { { { { { { { O.[ [ [ [ ;.3.7.7.3.3.;.' ' ' [ ;.0.0.<.) 6 > j 0.<.<.0.<.` 0.<.6 x c ` ` ` ` ` _ ' ' ' ' ;.;.;.3.' ' ' ' ' ' ' ' ' ' =.' ;.;.;.;.[ } } [ O.4.a.d.d.a.a.g.h.L.U.U.G.G.D.D.D.U.C.V.5. .l l l s ^ o.D.D.l.l.l.k.f.%.s.s.s.s.k.k.k.k.x.x.x.l.x.x.l.l.l.l.D.D.D.l.f.s.s.s.d.j.j.a.a.a.O.a.d.g.d.O.O.7.d.[ o.7.6.3.( 6 ^ o.7.g.a.{ } [ [ ;.:.4.7.4.4.;.:.;.:.;.;.;.;.;.[ [ ;.3.;.[ ;.[ ' ' ' ' [ [ ;.[ 4.;.[ [ [ 3.3.3.3.3.3.3.3.<.' *.z f 1 # 8 S y.].t.e.D y.HX{.<XGX;X*X;X:X6X:Xt.w q.H A G y.@ F `.U * U * V N C N C C C C U U U U U U U U U U U U U U U U U U U U ",
"U U U U U U U U U U U U U U U U U U U U R J C V V g 0 V = F 0 Y oX}.`.F P ;X5X4X&X-X2X;X+X}.].e.r.).e.Y F F F P e.F q # . O = w w y 5 5 y y y y y 5 5 y y y y y e y e r r r t t t t t t t t t t t t t t t r t e x x z e z z c D v z t q t t e 9 z z z t z z z e x x x x x x x ) j j j j j j j j ) ) ^ ) ) ) ) ) ) ) ) ` =.=.=.=.` ` =.=.<.3.3.0.0.3.3.3.0.0.3.<.2 k v h , , j ` ' ' [ [ } } } } } } } } } } } } { { { { { { { { ;.;.=.=.=.=.;.3.8.[ ] ] [ 3.[ ^ <.<.*.` j > ; ; <.*.<.*.` 8.8.5 j x ` ` ` ` ` ` ' ' ' ' ' ;.;.;.' ' ' ' ' ' ' ' ' ' =.=.;.;.;.;.[ } } { 4.4.d.g.d.d.d.g.g.L.L.L.T.G.D.D.D.G.U.V.n.| a l l s ] { D.l.k.k.l.l.f.s.s.s.s.s.k.k.k.k.x.x.x.x.x.x.l.l.l.l.h.h.l.l.D.h.s.s.s.d.a.$.$.O.d.d.g.h.g.d.h.L.g.4.6.6.3.o.' ^ ] o.7.g.a.{ } } [ ;.:.4.7.7.4.:.;.;.;.;.[ [ [ [ [ [ [ [ [ [ [ [ ' ' ' [ [ [ [ [ o.[ [ [ o.o.3.3.3.3.3.3.<.<.' ` v g 7 < 8 A e.].q.q 7 K <X#X5X6X#X*X=X=X4X4X+Xi.-.y.H q y.7 P `.Y * U * V N C V C C C C U U U U U U U U U U U U U U U U U U U U ",
"U U U U U U U U U U U U U U U U U U U U R J C V V N 0 N = U N T [.r.F 0 H oX5X4X[.|.|.].e.i.i.G r.).r.e.Y P F P T F q # . O 7 8 w y y y y y y y y y 5 y y y y y e e r r t t t t t t t t t t t t t t t t t t t e x z e 9 9 e z v z z z t z z e 9 z z z z z z z z x x x x j j x x j j j j j j j j ) ) ^ ) ) ) ) ) ) ) ) ` =.=.=.=.*.=.=.=.3.3.3.0.0.3.3.3.0.0.3.*.2 f k f , > j ' ..[ [ [ [ [ { { } } } } } } } } } } [ [ { { { O.;.;.;.;.=.' ` _ 3.' _ ' ;.[ _ ^ ` ) ) <.0.*.r > j j ` *.<.8.<.> j x ` ` ` ` ` ` ` ` ` ` ' =.=.=.' ' ' ' ' ' ' ' =.' ;.;.;.;.;.;.[ [ O.O.4.d.g.g.g.g.g.g.g.C.L.L.T.T.G.G.Y.U.U.I.n.d , k l s ^ 4.l.k.k.k.l.l.k.s.s.s.k.s.k.k.k.k.x.x.k.k.l.l.l.l.l.f.s.s.s.h.D.G.s.h.d.d.a.a.$.O.h.d.d.O.o.} O.7.7.9.g.6.o.3.o.~ ( o.7.g.a.O.} } [ ;.:.4.7.7.4.:.[ [ [ [ [ [ [ [ [ [ [ [ [ o.[ [ ' ' [ [ [ [ [ o.o.[ [ [ o.4.4.4.3.3.3.3.<.<.' ` D g 1 < 8 z q.m.K 8 z q.{.M.HX#X#X;X=X#X=X4X&Xy.i.;Xt.7 t.m P ).U * U * N N C V C C C C U U U U U U U U U U U U U U U U U U U U ",
"U U U U U U U U U U U U U U U U U U U U R J C V C N g N = Y V r.`.r.F B e.3XGX7X3X4X2X&X].y.t.[.).).).e.Y F H B Y S 0 # . O 7 9 w y y y y y y y y y y y y y y y r r r t t t t t t t t t t t t t t t t r t t e e x z e 9 w w w 3 e z v D v z e 9 q q q z z z z x x j j j j j j j j j j j j j j j ) ) ^ ) ) ) ) ) _ ) ) ` =.=.=.=.=.=.=.3.3.3.3.0.3.3.3.3.0.0.3.*.2 i f i > > h <.<.3.[ [ { { { { } } } } } } } } } } [ [ [ [ { [ [ ;.;.;.;.' _ ) ) 3.8.0._ ^ _ =.` j r ` 0.u.8.0.r r ` 0.0.8.` ; j j ) ` ` ` ` ` ` ` ` ` ` ' ` ' ' ' ' ' ' ' ' ' =.;.;.;.;.;.;.;.[ { O.4.4.d.g.g.g.g.g.g.h.C.L.C.T.T.G.U.Y.U.T.I.b.a , a l s ] a.f.f.k.k.l.l.l.k.k.k.k.k.k.k.k.k.k.k.k.k.l.l.l.l.k.f.s.s.f.h.C.C.h.g.d.d.a.4.O.O.C.d.4.o.( ~ W ~ o.6.A.b.9.b.3.6 ( o.7.g.7.O.} { :.:.:.:.:.4.:.:.[ [ [ [ [ [ [ [ [ [ [ [ [ [ [ [ [ [ [ [ [ [ 3.3.O.[ [ [ o.4.4.4.0.3.3.3.3.<.' ` D f # < 8 z q.[.t.q.#X#X,.z HX=X<X6X<X*X:X4X+XH q.GX-Xm _.H I e.U * U * N N C V C C C C U U U U U U U U U U U U U U U U U U U U ",
"U U U U U U U U U U U U U U U U U U R R R J C V V N N N = T B T t.e.P Y ).-X6X-XGXHX5X4X{.y.y.].).).r.T Y F B B Y A 0 = . O 7 9 w 5 5 y y y 5 5 y y y y y y y y r r r t t t t t t t t t t t t t t t t e e e e e e e h e e 9 w 3 9 e v *.D v e w e e q z z z z x j j j j j j j j j j j j j j j j ^ ^ ^ ) ) ) ) ) ) ) ) ` =.=.=.=.=.;.3.3.3.3.3.3.0.3.3.3.0.0.3.<.3 1 i f 3 : a <.<.o.[ [ { { { { [ } } } } } } } } } [ [ [ [ { [ ' =.;.3.3.;.=.' =.=.3.=.` ` ` *.*.) j x ` ` *.<.*.) *.<.` ` ) > j j ` ` ` ' ' ' ` ` _ _ _ _ _ ` ' ' ' ' ' ' ' ' ' ' ;.;.;.;.;.;.[ { O.4.4.d.g.g.L.C.h.h.L.L.L.C.T.U.U.U.Y.U.T.I.n.a , a j r ] g.h.k.k.l.F.F.l.l.k.k.k.k.k.k.k.k.k.k.k.x.l.l.l.l.f.f.h.h.h.h.s.a.g.g.g.d.a.4.4.4.g.d.d.g.7.o.( ( ( ' 5.b.I.I.5.4 / o.6.g.7.4.O.{ 4.4.:.:.:.4.:.:.[ [ [ [ [ [ [ [ [ [ [ [ [ [ [ o.[ [ [ [ 3.3.4.4.4.4.o.3.4.4.4.4.0.3.3.3.3.<.<.,.v # $ # 9 z e.|.[.M.5X4X-.v KXGXHXGX5X4XHXHX{.w i.LX7XG ].A F T J & U * N N C V C C C C U U U U U U U U U U U U U U U U U U U U ",
"U U U U U U U U U U U U U U U U U U R R R J C V V V N N = T B Y e.Y P P e.[.|._.4X-X-X-X{.q.i.t.r.e.Y P P P F H Y A 0 = . O 8 9 w 5 y y y y y 5 y y 5 y y y y y e e r r t t t t t t t t t t t t e e e e e e e e w 9 z v v x h e w 9 z D v z 9 w e e e z z z z x j j j j j j j j j j j j j j j j ^ ^ ^ ) ) ) ) ) ) ) _ ` =.=.=.=.3.3.3.3.3.3.3.3.0.3.3.3.0.0.3.*.3 : 2 f 3 : 5 <.<.;.;.[ [ [ { { [ [ } } } } } } } } } [ [ [ [ [ ' ' =.;.;.3.3.3.9.` 6 5 ` 0.*.j j j ` *.` ` ` *.0.x r 5 > 3 r 3 x j ` ` ` ' ' ' ` ` ` _ _ _ _ _ ' ' ' ' ' ' ' ' ' ' ;.;.;.;.;.;.[ [ { O.4.a.g.g.L.C.C.C.L.L.P.L.U.G.U.U.U.U.L.I.N.d , a a 6 ' L.l.k.k.l.F.F.F.l.k.k.k.k.k.k.k.k.k.k.k.l.l.l.l.D.l.h.h.D.h.f.$.O.d.d.g.7.7.7.4.4.[ [ o.g.L.V.g.g.( / ` 5.b.V...> / o.6.b.7.4.O.4.7.4.:.;.:.:.:.:.;.;.;.;.;.;.;.;.[ [ [ [ [ [ 3.o.[ [ 3.3.3.4.4.4.7.7.4.4.4.4.4.4.0.0.3.3.5.<.=.,.v $ O # 9 z y..X|.y.-X4X{.M.PXPX4X6X5X6XHXHX{.q i.HX4Xi.].m F T F & U * N N C V C C C C U U U U U U U U U U U U U U U U U U U U ",
"U U U U U U U U U U U U U U U U U U R R R J C V N V V N = r.V F `.r.r.r.t.oX-X-X&X}.oX3X-X].t. X).e.Y P P P F F Y A 0 # O O 8 9 w 5 y y y y 5 5 y y y y y y y y e e e e e e t t e e e e e e e e e e e e y e e e w 9 e z z z z z w w 9 9 w w w 9 e e e t z z v x j j j j j j j j j j j j j j j j ^ ^ ^ ) ) ) ) ) _ _ _ ` =.=.=.=.3.3.3.3.3.3.3.3.0.3.3.3.0.0.3.<.: $ 3 f 2 : 5 <.*.' [ [ [ [ [ [ [ [ [ [ [ [ [ [ [ [ [ [ [ [ [ [ ' ' ' ' ' =.=.=.0.j > > 5 ) ` x 5 r ) *.<.<.<.0.*.5 > > > > 5 > j j ` ` ` ' ' *.' ` ` _ _ ) _ _ ' ' ' ' ' ' ' ' ' ' ;.;.;.;.;.;.[ } } { 4.4.d.g.L.h.h.h.L.P.P.L.L.C.L.U.U.U.L.K.5.b a a 5 6 ' P.l.l.k.l.F.F.l.k.l.k.k.k.k.k.k.k.k.k.l.l.l.l.D.D.l.h.h.h.f.f.d.a.7.7.7.7.7.7.7.7.' ( ' 3.g.9.g.9.( ~ / ( ` ( ^ 4 / ..6.9.7.4.4.4.7.7.;.;.;.;.:.:.:.:.:.:.:.:.:.;.[ [ [ [ [ [ 3.3.[ 3.3.3.4.4.4.4.g.g.7.4.4.4.4.4.4.0.0.3.3.3.<.,.z $ O # 9 z q..X[.q.&X4X#XM.LXLX=X<X5XHXHXHX&Xq. X:XoXq.].m P Y F & U * N N C V C C C C U U U U U U U U U U U U U U U U U U U U ",
"U U U U U U U U U U U U U U U U U U R R R J C V N V V N = T N B F B B B P XX5XGX-X|.&X6X4X].e.t.}.).T P P I F B Y B 0 # . O 8 q w y y y y y 5 y y y 5 y y y y y e e e e e e e e t t t t t t t t e e e 9 9 9 9 9 9 9 9 9 9 9 9 9 w w < ; ; ; w 9 e e e t z z v v j j j j j j j j j j j j j j j j ^ ^ ^ ) ) ) ) ) ` _ _ ` =.=.;.=.3.3.3.3.3.3.3.3.0.3.3.3.0.0.3.<.: + 3 h 2 : , *.*.' ' [ [ [ [ [ [ [ [ [ [ [ [ [ [ [ [ [ [ [ [ [ [ ' ` _ _ ` =.*.r j e ; + ; h 0.) j j x ` ` *.<.) 6 r ` ` ` j ; j j ` ` ` ' *.*.' ' ` _ _ ) _ _ ' ' ' ' ' ' ' ' ' ' ;.;.;.;.;.;.[ } } [ O.4.a.d.h.h.g.h.L.L.P.P.L.C.C.C.U.L.L.K.1. .k a , 5 ' U.l.l.k.l.D.D.l.k.l.l.k.k.k.k.k.k.k.k.l.l.l.l.D.D.D.C.s.d.s.s.f.f.4.4.6.6.8.6.8.7.9.3.[ o.0.3.3.o...^ ^ ~ 4 4 6 s / ..6.9.7.4.4.4.a.7.;.;.;.:.:.:.4.7.4.4.4.4.:.:.;.[ [ [ [ [ ;.3.3.3.3.4.4.4.4.7.V.g.7.7.7.7.4.4.4.0.0.3.3.3.<.<.c # O # 9 g q.|.].t.,X5X@Xz 6XKX-X7XGXGXGXHX4X*X4X;X_.e.].m P I C & C * N N C V C C C C U U U U U U U U U U U U U U U U U U U U ",
"U U U U U U U U U U U U U U U U U R U U J C C C C V 0 0 V U F B F B B 0 7 G  X}.;X;X-X|.;X*Xy.t.[.'.).).T F B B A A 0 @ O # 8 9 w y 5 5 5 y y y w w 5 y 5 y y y y y y y y y y y e e e e e e e e < < + + < 9 z z < 9 9 z q e 9 9 w w < < ; < 9 e e e e t z z z x j j j j r r r j j j j j j ) x ) r r Q ^ ) ) ) ) ^ ) ) ) ` =.=.=.3.3.3.3.0.0.0.0.3.3.3.=.3.0.3.) 3 f 1 < 2 3 5 *.` ` ' [ [ ;.;.;.' ' ' ' ' ' [ [ [ [ [ [ [ [ [ [ _ ' _ ' ` ' ` ` ) 3 ; ; ; + ; y ; > e j ` <.<.` j ) <.<.*.<.` ; 5 j ` ` ^ ` ` ` =.*.` ` _ _ ) _ _ _ _ _ _ ' ' ' ;.;.;.;.;.;.;.[ [ { O.4.4.4.4.a.g.g.g.g.C.C.L.L.C.V.h.L.U.L.g.6. .,.b k h > ^ L.l.k.k.k.k.k.k.l.k.k.k.k.k.k.k.l.f.f.s.f.f.h.h.h.f.f.f.f.f.f.d.d.W._ > > 6 _ 8.9.) ^ ) 5.8.6.0.3.../ / ~ 6 4 s s s ` V.P.V.4.4.g.:.:.4.4.:.;.[ [ ;.;.;.;.:.;.;.;.[ [ o.3.3.3.3.3.[ 3.3.4.4.8.7.7.7.7.7.g.g.7.7.7.9.6.3.3.3.3.<.<.v z # O q S q.[.|.m.[.<X,XD < -.y.#X=X#Xt.A H ].+X5X|.i._.G 7 r.C * U * C V N V C C C C U U U U U U U U U U U U U U U U U U U U ",
"U U U U U U U U U U U U U U U U U R U U J C C C C V g 0 V U F B T Y e.P B e.oXoX;X&X-X|.*X*Xe.t.r.T P I F H H F Y G B @ O @ 7 9 w y 5 5 y y y y w 5 5 y y y y y y y y y y y e e e e e e e e e e < $ + + < w 9 9 + < 9 z z q 9 w w 9 9 9 9 w 9 9 e e e z z z z x x j j j j j j j j j j j j x x ) r Q ^ ) ) ) ) ) ) ) ) _ ` =.=.=.3.3.3.3.3.0.0.0.3.3.3.=.3.0.=.x 3 f < : 3 > 5 *.` ` =.;.;.[ [ [ [ [ [ ' ' ' ' ( [ [ [ [ [ [ [ [ ' ' ' ' ' ' *.*.x 3 + + + O + < ; > 5 r ` <.<.` j ) <.<.` <.` > 5 j ` ` ^ ` ` ` ' ' ` _ _ ) _ _ _ _ _ _ _ ' ' ' ;.;.;.;.;.;.;.[ [ O.O.4.4.4.4.a.d.d.g.g.g.g.C.C.A.A.h.L.U.L.g.5.l b k i a > r g.h.k.k.k.k.k.l.l.k.k.k.k.k.k.k.k.f.f.f.s.f.h.h.f.f.f.f.f.f.d.d.d.K.^ > > 4 ^ <.<.' ` ' 8.K.8.=.` / / ....( ( / 4 s ` b.I.g.4.4.g.4.4.7.7.7.:.;.[ ;.;.;.;.:.;.;.;.[ o.3.3.3.3.3.3.[ 3.3.4.4.4.6.7.7.7.7.g.9.7.7.7.9.6.3.3.3.3.<.,.v g # O 9 S q.[.|.}.#X<X#XD D <X&X{.t.t.t.q.-.G q.;X].P _.q.m r.C * U * C V N V C C C C U U U U U U U U U U U U U U U U U U U U ",
"U U U U U U U U U U U U U U U U R R U U J C C C V V g 0 V F F B r.t.[.`.e.`.&X&X;X&X;X|.;X;Xe.t.r.Y H m m B Y t.t.e.F = . O = 8 w y y y y y y y w 5 5 y 5 y y y y y y y y y e e y y y y y y y e # O O O O + # # O # 9 z z z 9 w y e z v v t 9 w e e e t z z z x x j j j j j j j j j j j j j j ) j ^ ^ ^ ) ) ) ) ) ) ) ` ` =.=.=.<.<.3.3.3.3.0.0.3.0.3.=.3.3.` j 3 f < + : ; 3 *.) _ _ ' ' [ ;.[ [ [ [ [ ' ' ' ' [ [ ' ' ' ' [ ' ' ' ' ' ' ' *.*.x < O + ; @ @ + > 5 5 r j ` ` ) ) ) *.*.) <.` > 5 j ` ) ^ ` ` ` ` ` _ ) ) ) ) ) _ _ _ _ _ ' ' ' ' ;.;.;.;.;.;.;.o.O.O.4.4.4.4.4.7.a.d.d.g.g.g.g.g.g.g.L.L.L.g.8.l k i p h 5 j g.s.k.k.k.k.l.l.l.k.k.k.k.k.k.k.k.f.f.f.f.f.h.h.f.s.f.f.f.f.g.d.g.5.5 > > > 6 r r j r ) 8.K.9.=.^ / ( 5.b.b.b...4 6 ' 9.V.7.o.O.a.7.7.7.7.7.4.:.:.:.:.;.:.;.;.:.;.;.3.3.3.3.3.3.4.[ 3.3.3.4.4.4.4.7.7.7.7.7.7.7.6.8.6.0.3.3.5.<.,.f g # O 8 S q.[.m.{.&X<X#Xy.<XIXLX<X#X=X*X-X=Xt.H *XXXe._.q.m F C * U * C N N V C C C C U U U U U U U U U U U U U U U U U U U U ",
"U U U U U U U U U U U U U U U U R R U U J C C C V V g 0 N F F V `.r.`.[.`.oX-X|.;XoX;X}.;X;Xe.t.oX'.P B m H r.}.].`.K 7 O O = 9 w y y y y y y y w 5 5 y 5 y y y y y y y e e e e y y y y y y y 9 O O . . . O O O O + < 9 9 9 9 9 t z v D D z y w e e e z z z z x x x j j j j j j j j j j j j j j j ^ ^ ) ) ) _ _ ) _ ` ` ` =.=.=.=.<.<.3.3.3.3.3.3.0.3.=.<.3.` e < f < + + ; 3 *.) _ _ _ ' ' ' ' [ ' ' [ ' ' [ [ ' ' ' ' ' ' [ ' ' ' ' ' ' ' *.*.v w + < 7 w 7 < x x j j j j j j ) ) *.` j *.*.> 5 j ^ ^ ^ ) ` ` ` ` ) ) ^ ^ ^ ^ _ _ _ _ _ ' ' ' ' ' ' ;.;.;.;.;.4.O.O.4.4.4.4.4.4.4.4.a.d.g.g.g.g.g.g.L.L.L.g.0.k k p p k j ` K.s.s.f.k.k.l.l.l.k.k.k.k.k.f.k.f.k.f.f.f.s.h.f.s.d.d.d.g.f.g.d.g.` > ; ; ; + ; > > ; > ` 8.0.<.` o.o.6.b.K.I.5.4 6 ' 9.g.4.o.O.7.j.j.7.7.7.7.7.:.:.:.:.:.;.;.;.;.4.3.3.4.3.4.4.4.3.3.3.3.4.4.4.4.4.7.7.7.7.7.6.4.8.0.0.0.3.3.<.*.9 f $ O 8 S q.[.y.].#X=X#X{.HXIXLX<X<X6X&X-X5X+XH ;X-X].].e.m B C * U * C N N C C C C C U U U U U U U U U U U U U U U U U U U U ",
"U U U U U U U U U U U U U U U U R R U U J J C C V V N 0 B F F B `.e.e.`.|.2X-X[.&X|.&X}.;X;Xy.t.6X;X`.I B H r.}.`.`.e.0 O O 7 q w 5 y y y y 5 5 5 5 5 y y y y y y 9 e e e e e q e e e e y y y 9 O O . . . O O O + + + # < < 9 9 v x z z z z y w e e q z z z x x x j j j j j j j j j j j j j j j j ^ ^ ) ) ) ) ` ` ` ` ` =.=.=.=.=.=.=.3.3.3.3.3.3.3.3.=.3.<.) 5 < f < O O + 3 *.) ) _ _ _ _ } } _ _ ` ' ' ;.;.;.' ' ` ` ' ' ' ' [ ' ' ` ` ` ` *.e < + + w q q q *.` ) j j r r j x j ` ) j *.*.> , h ^ ^ ^ ) ) ) ) ^ ^ ^ ^ ^ ^ ^ _ _ _ _ _ ' ' ' ' ' [ ;.;.;.3.;.4.4.O.O.4.4.4.4.4.4.4.4.a.d.d.g.9.g.g.h.v.K.9.8.l k 1 : f h ) L.s.f.k.k.k.k.k.k.k.k.k.k.k.k.k.f.f.f.s.f.h.h.f.s.f.g.g.g.g.g.g.g...3 ; ; + O + > 5 > > j *.*.` ) 9.7.6.5.9.K.5.6 6 o.g.g.O.[ O.4.j.7.7.7.7.4.4.:.:.:.;.;.;.;.:.;.4.3.3.3.4.4.4.4.4.4.4.4.4.4.4.4.4.4.7.7.7.7.4.4.6.0.0.0.3.5.<.` 3 8 O O 8 S q.[.].[.{.&X#X{.=XLXGX;X<XHX*X:XHX&XH +X;X|. X).P I Z * U * C N V C C C C J U U U U U U U U U U U U U U U U U U U U ",
"U U U U U U U U U U U U U U U U R R U U J J C C V V N g N C F B [.T Y ).XX3X3X].&X|.&X}.-X-Xt.].7X3X}.Y H Z Y `.t.`.e.B # # 8 q w 5 y y y y 5 y y 5 y y y y y y y 9 9 e e e e q 9 9 9 9 9 9 9 9 O O O O O # # 1 < < < + + < w 9 v z e e q q 9 w e e q z z z x x j j j j r r j j j j r j j j j j ^ ^ ) ) ) ) ` ` ` ` =.=.=.=.=.=.=.=.=.=.3.3.3.3.;.3.3.=.<.=.^ 5 + 9 w O O O > ) ) ) ] _ _ _ } _ _ _ _ ' ' =.;.;.` ` ` ` ` ' ` _ ' ' _ _ ` ` ` ` ; + @ + # 8 q z c j j ) x j j ` j j ` ) j *.*.> , h ^ ^ j ^ ` ` ^ ^ ^ ^ Q ^ ^ ^ ^ ^ ^ ] _ _ ' ' ' ' ' ;.;.;.3.3.4.4.4.4.4.4.4.4.O.4.4.4.7.d.d.d.g.g.g.h.c.g.8.<.h i $ O : : t c.h.k.k.k.k.k.s.s.s.s.f.k.k.k.k.k.f.f.s.f.h.f.f.s.f.g.g.d.d.g.g.A.<., ; 3 : ; > j 8.,.` ` ) r r j V.9.6.o.3.V.5.6 6 o.V.d.O.O.4.4.7.7.4.;.;.;.:.:.:.:.;.;.;.;.:.;.4.4.4.4.4.4.4.4.4.4.4.4.4.4.4.4.4.4.4.7.7.4.4.4.4.0.0.0.5.3.' ` 1 8 O O 8 S q.[.[.{.{.#X=X+X=XGXGX=X*X6X4XHXHX*Xy. XoX|._.q.P P V * U * V N N C C C C C U U U U U U U U U U U U U U U U U U U U ",
"U U U U U U U U U U U U U U U U R R R U J C C C V V V g N C F C `.T Y r.].;X;X`.|.}.oX}.-X2X_. X2XOX[.e.F F e.`.r.].`.G 8 = 8 9 w y y y y y y y y w y y y y y y y 9 9 9 e e e e 9 9 9 9 9 y y 9 O O O $ $ # 8 g 9 9 w < < < w 9 x e 9 y z z 9 < e e q z z z x x j j r e 5 e r r r r r j j j j j ^ ) ) ) ) ) ` ` =.=.=.=.=.=.=.=.' =.=.=.=.<.<.3.=.3.3.=.3.3.) 5 + 9 9 + O O ; ) ) ) ) ] Q _ Q Q ' ` ` ` ' ` ' ` ` ` ` ` ` ` ` _ ' ' _ ) ) ) ) c + ; # + # 7 g A x j j ` ) j j ` j j ` ) j *.` > , h j j j j ) ) j j r Q Q Q Q ^ ^ ^ ^ ^ _ _ _ ' ' ' ' ;.;.;.3.3.4.4.4.4.O.O.O.4.O.4.4.4.4.d.d.g.g.g.g.c.c.g.0.<.h f $ O + + e c.h.k.k.k.k.s.s.%.%.%.s.k.k.l.l.l.f.s.s.f.h.h.f.s.C.f.d.d.d.d.g.A.` : ; e h 2 x ,.M.u.8.0.` t j ` 5.6.7.3.3.V.3.6 W 4.V.d.[ O.a.4.:.:.;.[ [ [ [ [ :.;.;.;.:.:.:.;.4.4.4.4.4.4.4.4.7.7.7.7.7.7.7.4.4.4.4.4.4.4.4.4.0.3.0.0.5.3.' ` < 7 O O 9 S q.[.t.[.{.#X*X#X,XLX-X|.{.#X*X*X&X&X].t._._.q.m B I V * T * V * N C C C C C U U U U U U U U U U U U U U U U U U U U ",
"U U U U U U U U U U U U U U U U R R R U J C C C N V V N N C F C r.Y T e.e.}.oXt.|.}.|.}.-X4X].|.|.}._.e.Y Y t.}.t.[.[.Y q 7 8 9 w w y w y w y w y w y y y y y y 9 9 y 9 y e y e y 9 y 9 y y y 9 . . O O # 1 9 z z z z 9 9 w w 9 z y y e x z y < e e e z z z x x t r e 5 5 5 5 e r r r r j j j j ^ ) ) ) ) _ ` ` =.=.=.=.=.=.=.=.' ' =.=.=.=.<.<.' =.<.*.<.<.) 5 + 9 9 + O O < c x x ) ) ) _ _ _ =.=.' ` _ ) ) ) _ _ _ _ _ _ _ _ ` _ ) ^ ) x x v ; w 9 < # 7 g S c j j ` ) r r ) r r ` ` j *.` > , h x x j x ` ` r r r r r r ^ ^ ^ ^ ^ ) ) _ _ ` ` ` ' =.;.3.3.3.4.4.4.4.O.O.O.O.4.4.4.4.7.7.g.g.V.V.K.K.K.g.3.,.v v 1 O O O e I.h.k.l.f.s.s.s.$.$.$.s.f.l.l.l.D.s.s.s.f.h.C.f.f.C.B.d.$.$.d.g.A.j + + h c j ` 8.0.8.9.8.=.) *.8.] 3.g.9.9.K.3.4 ^ 4.L.7.[ 4.a.4.:.;.[ ' ' ' ' [ ;.;.;.;.;.;.;.;.4.4.4.4.7.4.7.7.g.g.g.d.7.7.7.7.+.4.4.4.4.4.4.3.0.3.3.5.0.3...` < 7 O O 9 S q.}.t.}.|.{.m.y.*XLX#X,X:X=X&X{.+X5Xy.H H q.H q H r.V * T * V * N C C C C C U U U U U U U U U U U U U U U U U U U U ",
"U U U U U U U U U U U U U U U U U U U U J J U C C C N * * N C U r.e.Y Y y.m.}.|.].&X-XoX{.+X;X2XoX_.q.q.q.i.i.e.y.M.[.].q.q < < < < < < < w w w w w w y y < < y w w y y y y y w y y e y w w < < + + ; ; < w 9 9 z e e y y y 9 9 y t e w t D t ; y y y e e t t e 5 > > > 5 5 5 5 e e e e j j j j ) ^ j ^ ` *.<.3.9.8.<.) ) ` ' ) ;.;.=.=.` ` *.<.<.<.<.<.<. .h 2 < + @ O O + + + 9 9 z D D *.D c ` *.` j j j x ) ) ) j j j ) ` ` ` ` ) ) =.*.x 3 ; e D e w e z x x c j c j j j j ` x h j j j 5 3 > 5 e x x x x x y e e e e e t t r r r j j j ) ` ) ) ) ` ` *.*.=.5.6.3.' ' 3.4.3.o.5.3.6.7.8.6.6.I.I.I.K.0.` j a h h f 1 + : z <.:.#.{ #.p.s.a.#.h.h.s.s.f.h.h.h.h.f.s.s.d.s.f.f.C.f.%.%.d.d.$.o.> h h , r j _ 9.7.7.7.7.7.;.' ' ] :.7.3.3.K.8.6 6 ' 9.8.3.3.4.;.[ ' _ ] _ _ ;.;.;.;.;.;.3.3.7.4.{ } } } O.$.a.d.a.d.h.f.s.a.a.a.d.4.O.O.4.4.4.3.5.5.<.5.1.<. .c 9 # O @ 8 B e.|.t.e.]. Xq.e.-XGX;X|.+X-X:X=X*X*X Xi.P e.i.M F '.C g T = N * N C C C C J U U U U U U U U U U U U U U U U U U U U ",
"U U U U U U U U U U U U U U U U U U U U J U U C C C N * * V C U T e.e.e.e.t.[.|.t.}.&X+X{.+X-X4X[.t.q.y.y.q.q.q.t.M.{.{.t.G q 7 w w w w w w w w t q w y y w w t y y y t t y y y w w w w w < ; ; + ; ; ; 3 3 w 9 w 3 3 < < 3 3 < w y e y t c y + w w e x x t y 3 > : ; ; 3 5 5 5 5 5 e e e h j j r r r j ` <.0.0.0.0.<.` ` *.=.) _ ` =.` =.' <.<.*.,.<.<.,.k 3 : w < < + + < < < 7 9 z z S S z z c ` ` x j x x x x x j x j x x x *.c v v D c w + < e x e y x D x c c c c c c c c ` x j j c c e 3 ; w e x v v c v e h t z x z x x x x x x x ` ` ` ` ` ` *.*.,.<.<.<.5.0.<.<.5.0.3.<.5.5.5.0.5.5.5.b.b.b.8.<.c h e h h f 1 O O 9 c ;.p.a.j.j.a.a.a.h.h.d.d.d.d.d.s.s.d.d.d.d.d.f.f.d.d.$.d.f.d.$.( > l c j ^ ) ' g.7.a.a.7.:.;.' _ ' 7.7.4.0.I.8.5 6 ` 8.8.0.3.;.' ' _ ^ ^ ^ ) _ ` ' ` ' ' ;.;.;.3.O.O.O.O.$.a.d.s.f.C.G.C.f.$.$.O.O.O.O.O.+.4.3.3.9.8.8.8.1. .l h w # O @ 0 B e.|.Y q. XXXe.e.;X7X-X#X|.&X*X&X&X*X;X_.e.r.e.H P `.F N r.* N 0 N V C C C J U U U U U U U U U U U U U U U U U U U U ",
"U U U U U U U U U U U U U U U U U U U U J J U C C C V N N V C U Y Y e.T Y e.]..Xt.]. X+X|.+X=X5X+X{.].{.].y.G H t.M.{.{.{.y.G q w w w 9 w q y y A y q y y q q z t t t t t q q q z q e e q 9 ; + w w w 9 9 y q z v v x x t t t q 9 z D D *.D w O ; < t D *.D t e : : ; : 3 5 e e x x x x ` c *.*.) ) ) *.<.8.9.9.8.8.8.8.8.8.8.0.=.3.0.8.8.8.9.M.$X@XM.8.c 2 : $ 9 7 < < < < < < 7 9 q z z q q 9 e e e 5 e h e e e h h h e h e e z z t q t y < O ; w 9 e t v D z x k x x x x x x x k j x x x e 2 + < w y q q z z e e e e q q q q h h j k x x x c c c c c ` c *.` 0.8.b.8.9.b.9.0.b.b.b.b.b.b.K.K.<.<.<. .c h 5 2 f h g 1 O O # 9 _ :.j.v.c.h.g.g.c.h.g.g.g.g.g.g.C.A.g.g.A.A.C.P.A.A.A.C.C.g.o.~ ,  .1. .<.' [ g.g.g.g.g.g.7.;.;.7.g.g.7.0.K.8.r > ^ 0.b.9.9.4.[ 3.=._ ) ) _ ` ` ` ` =.=.;.3.3.4.o.O.O.$.d.d.d.d.T.T.T.T.U.B.h.g.4.4.7.7.g.g.8.6.K.K.b.b.<.x 2 : w = O @ 0 A e.}.Y e.&X;X).e.OX6X-X&X{.+X&X+X&X&X5X+Xr.e.e.G P r.I V m.0 N g N V C C C J U U U U U U U U U U U U U U U U U U U U ",
"U U U U U U U U U U U U U U U U U U U U J J U C C C V N N V C U F Y w.T G Y `.|.].t.].oX&X|.*X4X;X&X&X*X&X[.q.H y.y.t.{.|.{.t.i.9 w 7 w w w w w q 9 w w q q q q q q 9 9 9 9 9 9 z z 9 z z 9 < O 9 9 9 9 q e q z D D D D H D D D 9 q z z x z < O O < 9 v D D D z < < < w 9 e z z v v v D D *.*.*.*.*.*.*.*.,.=.=.0.2.0.2.0.2.0.0.I.@X$X$X$X$X$X$X$X@Xu.c 3 : < 1 < < < # # < < < < 7 9 9 9 9 7 < < < < < 3 3 w < 9 9 9 9 9 9 w < w 9 9 9 q 9 < O < < 7 9 z z z 9 e e e e e e e e h h e h x h e 9 O + < 7 7 7 9 9 7 7 w w w w w w 9 3 2 9 9 9 e 9 9 9 e 9 e e e e 5 5 5 5 e e r 5 j j r e r j j x c c x h 5 2 2 9 f v v f # $ $ 9 r _ 7.L.c.c.c.c.c.K.c.g.g.g.g.V.V.V.V.V.V.K.I.P.P.P.P.W.P.6./ 6 , ,.1.5.8.0.3.c.L.L.L.c.c.c.g.9.g.g.c.8.0.b.0.a > j 3.9.b.9.7.8.9.0.<.' =.<.<.<.<.<.3.0.0.8.9.9.4.7.d.g.g.g.g.g.g.g.C.C.V.V.g.g.7.7.g.V.V.V.9.9.K.M.b.2.c 5 > : 1 7 @ @ 0 S e.[.q.t.;X;Xr.P XX4X-X;X#X+X&X&X+X+X5X&Xr.i.i.P P T P F '.0 N N V V C C C J U U U U U U U U U U U U U U U U U U U U ",
"U U U U U U U U U U U U U U U U U U U J C C R C C C V N N V C U V K e.Y G Y t.}.}.`.].&X;X|.oX-X&X#X&X*X*X+Xt.i.-.-.q.t.{.+X{.t.A z q 9 7 < + # < < < < 7 7 7 + w 7 < < < < 7 7 < < < 7 w 7 + O 7 7 7 7 7 7 8 9 q 9 q 9 9 9 9 9 9 w w w w w < O + + < 9 9 q q 9 < < w w w 9 q z w 9 9 9 9 9 q q x z t t t e y y t y y t t t t c w y e e e y y y D z 9 < < 1 9 z 9 7 7 7 7 7 7 7 7 9 9 q q 9 7 7 < < < < w 9 9 < 9 9 9 9 9 9 w < < w q q z z q 9 z q q z S A z q z h q z q z q z z z z z z z z q < 7 8 9 7 7 7 8 7 7 7 7 7 7 7 7 w w w 9 w w w w w 9 w 9 w 9 9 9 w 3 3 3 3 3 3 3 3 3 3 3 3 < 3 5 k k h f 2 3 2 8 f v S g f # = f 3 r =.0.3.=.=.=.0.3.3.3.3.3.3.5.` `  . .....<.5.5.5.5.b.5. .4 : ,  .1.1.b.9.7.c.g.c.c.c.c.c.c.c.7.7.8.0.5.9.1.a > 5 j ` ' <.3.0.9.3.` ` ` <.*.` <.<.<.<.<.0.8.0.6.6.9.g.g.9.7.8.V.K.P.P.K.K.P.P.V.V.K.P.I.I.I.K.b.8.<.` e 3 3 3 < 7 # @ 0 S e.`.P Y  X XP G XX4X;X;X&X&X*X*X&X{.5X*X).P P e.e.T I F `.0 N N V N C C C J R U U U U U U U U U U U U U U U U U U U ",
"U U U U U U U U U U U U U U U U U U U J C C J C C C C V N V C C C F Y Y G K e.`.|.].].&X*X+X|.;X;X&X&X+X+X{.t.D -.G i.y.].{.{.[.t.r.q.G A q 8 7 7 7 7 = 7 q 7 # 8 7 7 < 7 7 8 9 # 7 8 9 q q 9 0 q q q q g q g g q g q q g g g q D z q q q q q q q q q 9 9 9 9 9 9 q q q q q q q q 9 q q q q q q y q q t t z t t A t t D D q t D D *.-.*.D D D H 9 q z S D D S S D S H H H H S A S S S H H S S S S A q q A G G S S S S S D A A A g A S S F F G D K S S G G F F G D D D D D D D D D D D D D D D D H F G F H A A A H A A A A A A A A S S S A A A A z z A A A S H D 2.*.*.-.-.D *.*.-.i.-.-.-.q.2.2.c v v f f 9 8 8 f v S g g = = f ; y t t e 3 > ; 5 5 6 6 6 5 r r > > , 5 5 5 , > 5 5 5 j c j > ; 2 c c ` 8.8.3.4.;.;.;.;.3.3.3.3.;.' =.<.<.<. .2 > : : > 4 6 s / <.c 5 5 j x j 5 x x j j j c c ` / ` ` ` ` ` ) ) 0.8.9.0.0.3.3.0.o.o.[ 3.3.3.<.<.,.` x e 3 3 3 3 < 8 # @ 8 S e.m.G H e.t.P q.&X5X&X&X&X&X*X-X*X{.6X-X Xe.q._.'.r.F F '.0 0 N V N C C C J R U U U U U U U U U U U U U U U U U U U ",
"U U U U U U U U U U U U U U U U U U U J C C C C C C C V N N V C F F F F F Y e.r. Xt.t.|.;X&XoX&X-X=X&X+X#X&X{.y.y.y.q.q.y.t.].[.|.}.[.m.t.w.q.Y Y K S g S K K S K F S S F K Y w.w.w.r.w.K S S K F F G G G G Y Y T e.e.e.e.e.e.e.t.q.q.q.y.y.y.t.y.e.q.q.q.q.K G q.e.e.q.G G G G q.q.q.q.q.q.q.q.G i.q.q.t.t.t.t.y.q.t.{.].q.-.i.i.q.q.i.-.G i.q.K q.y.y.y.q.K q.t.t.t.t.t.t.t.e.e.e.e.y.y.t.t.t.t.y.q.G e.t.t.t.e.e.e.e.e.y.y.t.t.m.m.w.Y K Y Y w.K K Y Y K Y t.y.y.y.y.y.y.e.e.e.y.y.y.y.y.t.t.e.e.t.e.e.e.e.e.r.e.e.r.e.w.e.e.e.y.y.t.y.e.e.q.q.q.e.e.e.t.t.t.q.q.y.t.t.i.D G i.i.q.q.q.q.q.q.K D S v v g f f 8 g g g & $ $ # + ; < < < + + O + + + + ; ; > > ; : > , 2 , : ; : ; : > 5 a , > a l 5 5 <.3._ ] ] ] ^ ] ^ ^ ^ ^ ^ r j ^ / ` l : a , : > > > > 5 ` a > > 5 h 5 > , , , , , , , , 5 6 6 > > > > 6 > > > > ; ; > > > > ; ; > > > > 5 , 3 3 3 3 < < # 8 # @ 8 F e.t.Y B F q.P e.;X6X|.#X+X|.&X-X=X&X4X2X&Xe.e.]. X).F F '.= 0 N V N C C C J R U U U U U U U U U U U U U U U U U U U ",
"U U U U U U U U U U U U U U U U U U U J C C C C U C C V N N V V F F F F K Y e.e.`.e.t.}.;X;X&X;X+X+X+X+X:XHXHX6XM.t.y.q.q.q.t.].].[.[.[.[.}.|..X.X}.t.Y y.[.|.[.`.`.m.m.`.[.}..X&X;X;X}.w.S F Y K Y Y Y Y Y w.r.r.r.e.e.r.r.r.r.].t.t.].[.[.[.{.M.].[.{.{.{.[.[.|.oX&X|.[._.].[. X X[.[.[.].].].t.t.].{.{.{.{.}.t.t. X*X&Xt.i.i.q.q.q.q.i.i.q.e.G K K G A F e.m.[.[.[.[. X[.[.].].].].[.[.[.[.}.|.[.t.y._. X}.].[.[.].].].[. X}.&X;X.X`.T Y Y T w.Y Y T Y K w.].t.t.t.t.t.t.t.t.].].[.[.[.[. X}._.`.`.`.`.`.`.[.[.[.].`.`.`.`.`.].[.[.[.].].].].t.t.].].[.[.}.}._.].|.*X*X].y.q.-.G i.q.q.q.i.G w.K K S S v g f = 8 8 = X . . O # @ @ @ < < < + O O O O + ; : > 3 5 x ` ` x 5 3 , > > 3 e x j h l j > > ` <.^ 6 ^ ] Q 5 6 6 6 6 6 > 6 r j l a $  .l a a 5 > > > ` h > > 5 h 5 , > > > > : : : : 5 5 3 > > > 3 , > 3 , , , 5 e j > > > ; > > > > ; ; : < w < ; + # 8 = @ 8 F e.t.e.B A P P e.oX;X}.|.{.[.{.;X-X*X2X4X&Xe.P ).'.e.B F '.= 0 N V N C C C J R U U U U U U U U U U U U U U U U U U U ",
"U U U U U U U U U U U U U U U U U U U U U U U U C C C C C V N N C F Y Y L L Y T r.`.t.G t.-X-X].{.+X[.].&X=X=X4X:X#X].M.{.{.t.q.t.r.m.[.[.m.m.[.oX}.r.K w.[.|.].`.m.m.m.r.r.`.'.'.OXoXY g g F F F F F F U Y Y Y F F F F F F F F e.q.G H A G e.m.y.].m.t.].m.y.].t.|.].].oXt.F _.t.}.].t._.e.q._.e.t.oX|._.].|.].y._.].t.i.G q.t.q.q.t.q.H G P q A A H B q B Y m.e.e.e.t.t.t.].[._.t.t.e.t.].].M.}.].e.Y _.oXoX]. X`.].`.q._.|.}.`.OXoXT C F U F Y U U U Y Y Y Y P G P G P G G G H e.q.G P G P ].`.r.`.}.`.].XX}.e.|.].e.`.r.G r.].]. X].e.e.].]._.t.]. X].oXoXe.t._._.t.q.i.q.e.r.t.t.e.i.e.i.q z S z g K [.K $ $ $ g V g $ $ = v z 8 7 # < 9 z e e h h h x c ` ` ` ` ` *.*.*.*.j x x x x x x c c c c c ^ ) ) ] ' ' _ _ _ ' ....' ' ' ` `  .j , : 2 l  .<.` ` / x  .8.M.b.8.c 5 ` ` `  .` ` ,.,.<.<.<.*.c x e e 5 5 5 5 e j x ` ) ) ) ` ` ` ` ` c x x x x t ; O # # . . q F K t.H F G G P q.].&X|.|.{.{.oX*X*X&X2X&X X).).].).I H B r.* V V V N C C C J U U U U U U U U U U U U U U U U U U U U ",
"U U U U U U U U U U U U U U U U U U U U U U U U C C C C C V N N V F Y Y U L Y Y T `.t.Y e.|.&X}.q.y.y.].:X6X4X6X{.t.i.A A i.[.&X|.].m.].].m.[..X[.m.q.S K t.m.y.m.r.m.`.m.`.}.'.Y '.'.L g V L Y U U U Y Y T T T T Y F C B B C F g z A D G q.q.q.y.y.t.t.m.m.t.t.`.t.q.t.t.A m t.q.e.Y G e.q.G G e.t.]._.P q.t.P q.q.q.P H A A A A B H H q A G B H H F F A H Y t.y.e.e.t.t.t.t.t.q.t.t.t.t.{.|.}.[.`.q.G e.].`.e.).e._.].t.].oX].r.'.`.Y B F Y Y Y U U U Y Y Y T e.P G A A A H H q H A H e.e.P e.[.m.].}.`.`.`.r.[.`.e.r.r.A A t.t.q.q.q.P Y q.G e.t.|.[.G G t.e.P i.i.G H A A A G H H A M G P A B S B B Y `.m.L # # g V L g g V g 8 7 # O + < 9 z z z z x v c *.) ` ` ` *.*.=.*.) ) ) ) ) ) ` ` ` ` ` ` ` _ _ _ ' ' _ _ ' ......0.0...`  .<. .l : 2 c <.5.3.3.<.<.<.8.M.b.8.` j 0.2.2.<.<.<.<.<.2.0.2.,.*.` x x 5 2 5 5 e x ` ` ` ) ) ` ` ` ` ` x x x c D x w < # # . . 0 F K t.F F G P P e.).|.4X4X:X*X;X-X:X=X&X X_.).i.e.e.I H B r.0 V N V V C C C J U U U U U U U U U U U U U U U U U U U U ",
"U U U U U U U U U U U U U U U U U U U U U U U U C C C C C V V N N V L Y Y L K Y K r.`.w.Y e.`.}.G q.q.M.:X4X*X&X*X&X{.q.q q q.{.|.[.[.[.|.|..XoXm.t.y.w.m.|.|.|.}.'.[.[.[.}..X[.r.}.}.r.F K T Y T T T T e.r.r.r.r.r.Y F H F F K g z G t.{.{.M.y.{.M.[.{.].[.|.M.-X}.;X5X&XF q S 0 8 7 g G q.G H t.e.t.t.q.t.].e.|. X[.[.[.].t.e.P F P G B F e.K G G G q.q.G Y e.[.[.|.|.|.|.|.}.].|.#X|.|.&X;X&X].m.t.y.`.|.|.[.}.].}..X}..XoX`.`.}.}.e.F Y r.e.Y Y Y Y T T e.e.e.e.G A A A F G H F A K |.&X`.t.}.].[.}.|.oX}.].-X[.;X7X;XA q G q 7 q A F G G A e.t.}.[.Y e.].`.|.XXoXXX X_.).).e.P G H M P r.q.Y F F F Y m.m.`.g # $ 8 V L V g 8 = # O O O # 1 D D D c c c ` *.) _ _ _ ` =.=.=.=.=.=.` ` ` _ ` ` ` ' ..' ' ' ' ' ' _ _ ' <.<.<.3.0.0.3.3.8.,.l , h  .8.8.0.0.0.r r r r j j j r 9.9.8.8.0.0.3.0.8.8.8.2.<.<.*.` j j j j j c ` *.` ` ` ` *.*.*.` c c x *.*.D t w # # . . 0 F G t.G F G P e.e.e.).-X<X:X*X&X&X=X:Xt.i._. XP P ).P H V r.0 V N V V C C C J U U U U U U U U U U U U U U U U U U U U ",
"U U U U U U U U U U U U U U U U U U U U U U U U U C C C C C V N N V F Y Y Y K L Y T t.m.e.F Y t.y.t.y.t.#X#X].].GXGXGX5X&Xt.-.D t.y.y.].{.|.[.M.t.t.t.t.[.|.|.|.;XOX;XOX&X3X4X,X;X-X;X`.T Y T Y e.r.e.r.e.r.r.r.e.r.e.T T T T e.K K q.M.#X*X{.m.#X.X=X<X&X=X6X<X4X&X5XHX|.q.Y S |.[.|.&X;X-X-X.X[.].}.|.}.|.&X[.&X&XoX&X&X|.}.].oX].].m.K w.`.m.e.e.e.t.t.q.G q.m.|.&X#X|.|.&X;X;X4X6X-X&X&X&X|.].m.m.t.].{.|.|.-X&X;X-X;X<X6X;X-X3X;X`.e.e.e.T T T T T r.r.e.r.e.e.e.q.q.q.q.q.q.q.G y.&X-X}.].[.|..X&X4X4X4X6X<X{.<XGX&XK G K {.[.|.&X;X;X;X|.&XM.].|.|.;X;X`.oX&X&X&XoXXX|. XXX X).r.i.e._._.`.K F Y m.r.m.[.K g O $ g v g $ # # # $ # # 9 h D D *.` ` ` ` ` _ ' _ ' =.=.=.' ;.;.=.' ' ' _ _ ` ` ..<.3.[ [ ' ' ' ' ' ' <.<.<.' 3.8.8.9.5.c > a ` <.8.0.0.3.0.` _ ) ` 3.0.8.8.8.7.8.0.0.3.3.3.0.8.8.8.8.0.0.3.0.<.<.' ` ` ` ` ` ` ` ` *.*.*.` ) ) *.*.*.*.t y # # . . 0 F P t.Y G P e.t.e.T P G q.t.y.q.y.t. Xi.M r.XXq.e.'.e.H V `.0 V N V V C C C J U U U U U U U U U U U U U U U U U U U U ",
"U U U U U U U U U U U U U U U U U U U U U U U U U U C C C C V V g N V R Y Y Y L T Y w.m.r.K A S e.t.y.y.{.|.|.;XGXKXLXLXLXGX;XM.y.q.i.q.t.M.y.i.y.q.q.q.q.i.G G T r.t.r.e.].&XOX;X&X}.r.Y Y Y T t.r.e.r.e.r.e.e.Y w.t.m.t.e.Y G w.D D K y.M.y.q.m.M.#X=X#X*X<X4X,X=X,X{.G [.5X4XHX4XHXHX,X,X4X;X|.[.|.;X&X#X&X[.t.M.[.[.].M.].].;X}.}.[.Y w.`.m.t.e.t.m.t.G G q.G M.{.m.2.w.M.{.t.|.#X[.M.{.[.y.y.y.y.y.q.q.q.y.q.K y.w.K m.#X#X;X;X|.`.e.T Y G e.w.e.w.e.r.e.e.q.e.t.t.t.y.q.G K q.G G t.t.e.y.M.#X+X+X:X=X&X<X<X*X:X=Xy.{.5XHX6X6X7X7X4X,X-X;X-X[.[.#X;X-X;Xm.].]. X X X X X].oX X X].e.e.t.t.`.K S w.`.m.w.m.`.L $ O f v f O $ $ # $ w 9 z D c c ` ` ` ` ) ) ' ' ' ' [ [ [ [ ;.[ ' ' _ _ _ _ ` ` ' 3.;.[ [ ' ' ' ' ' =.<.<.<.3.4.7.0.3.<.j > 5 c <.8.3.3.3.3.9.7.7.c.K.L.L.K.;.3.7.7.3.3.3.0.0.0.0.0.8.0.0.0.8.0.0.<.<.' ' ' ' ' ` ' *.*.*.` ) ) *.) ) x r y 7 = . . 0 F G t.Y P Y e.t.e.P F q.m.{.{.{.+X&X*X+Xe.r.).P e. X}.F C '.0 N g N V C C C J U U U U U U U U U U U U U U U U U U U U ",
"U U U U U U U U U U U U U U U U U U U U U U U U U U U C C C C V g g N C U Y Y Y w.Y e.r.m.e.F A e.[.[.M.{.|.&X6X5X6X4XHXKXLXGX6X6X-X+X{.*X:X*X{.t.t.t.M.t.y.y.t.G ).}.e.m B P Y t.e.q.G G P q.e.t.t.t.r.e.e.e.y.Y e.t.t.t.e.G S y.q.D D D q.w.w.w.[.M.m.{.y.z S D m.M.z < q.&X.XM.q.{.#Xt.[.=X.Xy.G y.{.[.{.&X|.t.].[.[.].M.[.[..X`.[.[.w.w.].[.y.q.y.m.y.S G t.y.{.|.M.y.M.[.[.q G q.q.y..X.XM.y.y.m.M.m.y.m.{.q.w.M.q.w 9 K q.t.e.e.Y q.Y Y G t.e.t.e.t.e.e.e.K q.y.y.y.q.G S q.t.q.G q.K K t.u.+XM.M.#XM.v D *.M.M.D w 2.#X+Xw.y.[.{.].[.#X&Xy.q.M.|.[.[.&X;X}. X X X|.|.|. X X]. X X_.t.t.].e.F S r.[.[.m.m.[.K # O 1 f f $ O $ # 1 9 f c *.h j j ) ) ) ) ) ' ' ' ' [ [ [ [ [ ' ' ' ' ' ' _ _ _ ' [ [ [ [ } [ [ ' ' ;.<.<.<.7.j.3.' _ ' ` s > r ` <.3.3.7.9.7.7.7.7.7.7.:.' :.:.:.7.4.4.7.7.4.0.7.4.8.4.0.0.;.[ ' ' ;...3.<.' ' ' ' *.=.` ` ) ) *.) x t r e q 8 O O q F G e.P Y e.t.t.q.P F -X4X5X5X5X5XHXHXHX-Xr.H H q.'.;XF C `.N N 0 N V C C C J U U U R U U U U U U U U U U U U U U U U ",
"U U U U U U U U U U U U U U U U U U U U U U U U U U U C C C C V N g g V R T T Y T T T Y w.r.w.K i.{.&X#X&X|.|.:X:X-X*X*X:X6X5XHXLXLXGXGXLXPXGX5X=X*X:X<X:X*X=X:X;XGXLX5Xt.P e.t.t.e.e.e.t.t.e.e.t.t.t.e.y.y.e.e.q.K G G q.q.y.y.{.{.{.{.M.{.#X*X#X5X=X&XGX=X< < <XLXLXHX4X6X6X6Xt.D m..XM.#XHX,Xy.D q.t.y.t.*X:X{.{.M.M.[.{.[.[.[.m.[..Xm.m.[.[.y.w.t.M.y.D y.;X[.#X#X#X=X6X,X{.m.#X#X#X<XGXGX4X#X#X=X,X=X#X*X<X-XHXKXHXy.S w.M.y.e.q.e.t.t.e.q.t.t.t.t.t.y.q.q.q.K G D G q.w.y.{.#X|.[.{.{.{.=X*X<X$X=XGX<XD e :XKXLXHX:X<X<X<X2.2.y.M.{.&X<X4X2.K y.M.y.y.=X6X}.].t.t._._._.t. X]. X+X].t.].}.e.e.y.m.].].m.m.m.K 8 O $ f f $ $ $ 1 1 2 f k c 3 5 j j ^ ) ) ) ' ( ' [ [ [ [ [ ' ' ' ' ' [ [ ' ' ' ' [ [ [ [ [ [ [ [ [ 3.3.<.<.' [ [ ' ' 3.' j > 6 ` 3.3.3.7.c.c.c.c.c.c.g.7.:.:.7.7.7.:.:.:.4.3.3.4.4.4.4.3.3.' ' [ [ [ o.3.3.' ' ` ` ` ` ) ) ) ) *.) ) t Q x z g O O g G Y e.P Y e.).e.P P P ;X;X*X&X;X:X2X:XHXHX_.m i.e.e.oXF F '.N N 0 N C C C C J U U U U U U U U U U U U U U U U U U U U ",
"U U U U U U U U U U U U U U U U U U U U U U U U U U U C C C C C N g g V R T T Y Y r.e.F Y t.`.`.w t.+X;X-X&X|.-X*X:X2X-XoX#X:XHXGXLXLXPXIXIXPXHXGXGXHXHX4X&X+X*X].7XPXGX_.G q.t.oX|.|.oXoX[.t.q.t.t.t.e.e.e.q.q.q.G H A G t.|.;X&X,X<X6X<X<X5XHXHXPXKXLXIXIX#XM.KXPXPXKXHX6X,XGX5X{.#X=X{.=XHX#X;X{.[.[.q.e.#X-X;X|.M.t.[.{.[.t.[.m.[..X`.w.].].t.y.].{.M.q.|.HXt.M.M.@X6XKX5X{.LXPXPXLXPXIXPXLXHXHXHXHX,X{.|.=X[.<XLXGXt.z K y.|.}.}.}.}.[.t.e.t.t.t.y.e.q.q.G q.G z z D y.{.;X-X4X<X<X6X6X6XGXKXPXGXLXIXPX=XM.GXPXPXGXHXHXHXGX6X=X#X#X#X=X:X=X,X{.M.M.y.t.#X;X;X&X X[. X X X].|.]. X+X].t.].}.t.].}.[.m.m.m.m.m.w.v $ $ 8 f 1 1 1 9 9 2 9 h h > 3 5 j ) ) ) _ ' ' ' ' [ [ [ [ ' ' [ [ [ [ [ [ 3.3.;.;.;.;.;.;.[ [ [ [ 3.3.<.3.u W ' ;.7.8.` 4 6 j ' 3.3.3.4.g.a.7.7.7.g.j.g.a.:.7.:.:.:.[ ;.[ 4.3.4.4.4.4.3.o.o.o.o.o.o.o.o.3.' ' ` ` ` ` ) ) ) ) ) ) Q Q ) *.D z # O z G Y e.G Y t.).e.P P q.-X;X&X#X*X2X6X4X*XHX].H  X`.F [.F F }.B N 0 N C C C C J R U U U U U U U U U U U U U U U U U U U ",
"U U U U U U U U U U U U U U U U U U U U U U U U U U U C C C C C V N N N N C U Y ).T I F Y e.).t.t.y.y.{.5XGXGXGXHX2X;X*X&X+X-X5X4X5XHXHXHXHXGXGX5XHX-X&X2X4X&X{.{.q.].{.i.H t.t.;X+X{.[.{.;X2X6X].#X-X-X*X;X*X-X*X-X-XG G -X-X+X{.#X*X=X=X#X#X#XHXHXGXKXPXPX@XM.-X=X-X4X:X#X#X<X6X*X+X#X{.y.y.M.}.|.|.}.[.[.].`.&X}.].t.t.}.|.`.[.G m.4X`.A ].y.r.m.`.M.t.].|.;Xt.*X&X*X4X=X:XLXPX6X-XGXLXGXGXHXHX6X-X&X;X=X#XM.|.y.}.&Xq.D t.].&X X]. X+X&X-X4X XoX*X*X&X*X;X-X&X-X-XG G *X-X*X+X+X&X*X=X*X&X#X6X5XGXLXIXPX+XM.<X:X<X6X:X+X$X6X5X,X#X{.{.{.t.y.{.#X*X+X{.{.].t.}.oX[.r.]. X].|.].q.].-X{.t.{.y.{.|.[.[.&X}.t.m.[.q.q # # 8 q q < : + : < 9 z v 2.*.v x x r x ) ) ) _ _ ' ' ' [ ' [ [ [ ;.3.3.3.3.3.;.;.;.;.[ [ [ [ [ [ ' _ ] ^ ;.;.;.;.;.3.' ) h x ` *.<.3.7.g.7.7.7.7.7.4.4.4.4.4.4.4.4.4.4.4.4.4.4.4.4.4.4.3.3.3.3.3.o.[ [ ' ` ` ` ) ) ) ) ) ) ^ ^ ^ Q Q Q t v f + O A Y Y e.e.e.e.e.e.e.q.q.4X=X&X#X#X;X6X6X4X-Xt.Y `.r.Y [.F F '.V V * N R C C C J U U U U U U U U U U U U U U U U U U U U ",
"U U U U U U U U U U U U U U U U U U U U U U U U U U U C C C C C V V N N N C J U e.e.e.Y P P e.e.t.y.y._.oX4XHXGXGX5X5X5X4X-X;X-X5XHXGXGXGXGXLXLX5X5X-X&X:X4X*X&X&X}.-X-Xq.G {.}.+X+X+X&X*X-X4X6X].{.;X*X;X;X-X-X&X-X:Xq.q.:X-X{.+X#X=X:X=X*X*X*X:X=X*X#X6X<Xu.#X<X4X5XHX4X&X+X#X#X#X#X|.+X#X*X;X-XoX].].|.&XoX}.].`.}.|.}.}.}.`.}.r.&XGX&XG ].Y G q.y.e.Y K e.t.{.*X+X+X:X*X*XHXHX*X+X:XHXGXGXGXHX6X-X;X-X,X;X.X&X[.-X-Xq.H ].|.+X X{.oX*X;X:X6X{.oX&X&X*X-X-X:X&X-X:Xq.q.:X-X+X&X&X*X=X-X-X*X*X;X*X*X#X5X<Xt.#X<X6XHXHX<X#X+X*X*X*X*X=X-X=X*X*X-X&X{.M.{.*X&X}.`.}.}.}.XX[.t.].].t.&X5X+XG -.z -X*X].].;X&X].].[.e.q = = 8 0 q w w w 9 e z e 9 D z x x x t t x ) ) ) _ ` ' =.=.=.=.=.=.=.=.3.;.3.;.;.;.;.[ [ [ [ [ [ [ ' _ _ ' ;.;.;.;.;.3.' ) 5 h ` ,.<.3.7.j.7.4.4.4.4.4.4.3.4.4.4.4.4.4.4.4.4.4.4.4.4.3.4.4.3.3.3.3.o.[ [ ' _ ` ` ) ) ) ) ) ^ ^ ^ ^ ^ Q Q j x 9 + O z K Y w.e.e.e.e.e.e.q.q.-X&X&X&X#X*X-X*X-X;Xe.F e.T Y }.F V `.0 V 0 N F C C C J U U U U U U U U U U U U U U U U U U U U ",
"U U U U U U U U U U U U U U U U U U U U U U U U U U U U C C C C V V N N N V C F I T r.r.P F G P P q.y.t.t.}.-X5XGX5X6X6X4X-X;X;X5XHXGXGXLXLXLXGX6XHX4X;X-X-X&X&X{.+X6X;XH G |.&X{.+X*X-X-X-X-X:X[. X|.&X;X;X-X:X&X4X5X].t.6X-X+X+X#X=X=X=X*X*X*XM.#X=X#X:X@Xy.:XHXGXGXHX<X-X;X#X<XHX6X&X#X<X<X;X}.}.[.}.oX&X&XoX].`.}.oX}.`.].].t.t.&XGX&XK ].t.q.t.].[.[.[.}.|.=X:X&X{.&X+X{.:X&X{.+X-X5XGXGXGX5X6X4X-X-X-X;X&X}.[.,X;XS q ].;X+X+X&X=X;X*X-X6X{.{.|.&X*X;X-X:X=X<X6Xt.u.6X-X+X&X&X*X=X-X=X*X*X{.#X-X&X<X#Xy.<X6XHXGXHX<X=X=X=X:X4X4X:X*X&X*X-X|.{.t.t.{.*X=X&X`.`.}.oXXX`._.|.t.t.&XHX#XD D q.GX4X].t.;X;X[.].}.e.g = = 8 0 0 9 9 9 z D z 9 < 9 9 y z x t t t ) ) ) _ ` ` ' =.=.=.=.=.=.=.=.;.;.;.;.;.[ [ [ [ [ [ ' ' ' ' ' [ ;.;.:.;.;.;.` j , h c ,.<.3.7.7.7.4.4.4.4.4.3.3.3.3.3.3.4.4.3.3.3.4.3.3.3.3.3.3.3.3.3.3.[ [ [ ' _ ` _ ) ) ) ) ) ^ ^ ^ ^ ^ ^ ^ j z 9 O O g G G T e.e.e.e.e.e.e.q.&X#X#X=X;X=X-X&X-X;Xe.A T T T XXF B T * V N V C C C C J U U U U U U U U U U U U U U U U U U U U ",
"U U U U U U U U U U U U U U U U U U U U U U U U U U U U C C C C V V N N N N Z C Z I e.r.Y F F H m G e.t.t.t.[..X6X-X&XoXoX&X-X3X6X5XHXGXLXLXGX5X4XHX5X-X:X*X{.|.t. X:X{.q G ;X*X+X&X*X*X&X&X*X-X|.}.{.&X&X;X-X:X&X:X5X].t.:X*X+X+X#X#X#X#X#X#X#XM.*X5X6X6X#Xy.6XGXGXHX-X*X<X6X<X6X6X,X+X{.|.{.[.t.|.-X-X&X|.|.|.|.`.].}.t.r.].&X[.[.&X5X+Xe.|.}.}.|.*X-X-X-X4X4X=X:X*X{.].t.{.*X*X*X:X4XHXLXGX4X4X6X6X4X;X&X|.{.].].;X|.g A |.-X+X+X*X*X&X{.&X<X+X{.{.{.oX&X*X=X*X:X6XM.t.=X&X+X+X+X+X&X&X*X&X&X{.=XHX6XHX;Xt.6XHXGXHX=X#X:X6X6XHX5X-X|.].].{.&Xy.{.=X*X+X+X+X|.}.).`.}.`.r.}.;X}.]..X5X*X-.y.*XPXGX Xt.&X;X].t.}.y.g = # 7 0 8 w w 9 z v z 3 + < < < y t t t t ) ^ ) ) _ ` ' ' ' ' =.=.=.=.=.;.;.;.;.[ [ [ [ [ [ ' ' ' ' ' [ ;.;.:.:.;.;.;.` j > a c ,.<.3.4.4.7.4.4.4.4.3.3.3.3.3.3.3.3.3.3.[ 3.3.3.3.3.3.3.3.[ [ [ [ [ [ ' ' _ _ _ ) ) ) ) ) ^ ) ^ ^ ^ ^ Q j h 9 O O q G F Y T e.e.e.e.e.y.y.&X|.#X#X*X:X4X:X6X-Xt.A Y T r.oXT V T = V V V V C C C J U U U U U U U U U U U U U U U U U U U U ",
"U U U U U U U U U U U U U U U U U U U U U U U U U U U U U C C C C V N N N N B V V Z F Y e.Y F A B A G Y e.e.r.m.;X;XoX}.}.|.oX;X&X-X5XGXKXGX5X-X;X5X5X<X<X;X}.|.[.|.-X].q y.-X&X&X&X#X}.{.|.-X6X;X|.|.&X&X&X&X-X&X-X-Xe.q.&X.X|.+X#X#X#X+X#X#X&X+X*X<X;X=X[.-.<XGXGX6X;X;X6X5X4X6X-X&X;X&X|.|.;XoX;X3X3X;X&X|.].}.`.].}.t.e.}.;X-X:X-X5X=X].*X&X=X;X*X&X+X{.+X+X+X;X;X}.q.q.{.-X5X4X-X-X5XLXGX*X;X4X5X6X-XoX}.[.|.}.;X|.H e.-X-X+X+X+X#X{.{.*X6X*X+X{.+X&X+X#X=X#X:X6Xt.-. X{.&X&XoXoXoX&X&X&X&X&X;X-X;X,X|.q.-XGXGX5X;X&X4X6X4XHX6X&X}.}.&X;X;X}.-X4X4X-X&X|.[.XX).`.}.t.r.|.oX;X;X&X6X<XM.{.4XIXLX;X_.&X&X].t.}.y.g = # = 7 7 < < < w 9 9 < + < < ; < y e t ) ^ ^ ) ) ) _ ` ` ` ` =.=.=.=.=.;.;.;.[ [ [ [ [ [ ' ' ' ' ' [ ;.3.:.4.4.;.;.;.` j : i c ,.<.;.;.3.7.4.4.4.4.4.3.;.[ [ [ o.3.3.[ [ 3.3.3.3.3.3.[ [ [ [ [ [ [ [ ' ' _ ) ) ) ) ) ) ) ^ ) ^ ^ ^ Q j j h 9 O O q F F K Y T e.e.y.t.t.y.,X#X{.{.|.;X4X<X6X4Xt.B F Y T }.`.F r.* V V V V C C C J R U U U U U U U U U U U U U U U U U U U ",
"U U U U U U U U U U U U U U U U U U U U U U U U U U U U U U U C C C V V N N N B V B B F Y Y P F Y F B N F Y w.r.}.OX,X;XOX.X}.`.}.&X4X5XGXGX5X4X|.4X4X-X,X;X|.#X#X&X-XM.z t.-X[.#X|.|.[.[.#X4XHX-X&X#X;X;X#X&X,X<X4X4Xt.e.;X&X&X&X*X&X#X#X#X*X-X{.#X:X:X<XM.q {.HXHX6X4X6X5X<X&X;X[.[..X|.M.].&X&X].e.e.|.3X-XoX}.}.oXoX}.}.}.].].*X*X6X4X*X<X4X*X&X+X{.{.{.{.{.{.+X-X{.G q.&X6XGX6X|.{.-XGXGX2X.X-X5X6X-X&XoXoX;X.X;X[.H e.;X|.+X{.{.+X+X#X:XHX:X#X#X-X=X#X*X:X:X6X5X].q.+X&X:X*X&X&X&X*X*X=X-X&X&X-X-X6X[.g ].GXHX5X6X6X6X-X&X&X}.].].}.}.].t.|.[.t.t.|.-X-X|.oX).oX;X].}.&Xt.].&X&X4X6X#X&XHXIXPX-X].|.|.].[.|.t.B = @ # = # < ; + < w 9 < < w < ; < y e x *.^ ^ ^ ) ) _ ` ` ' ` ' =.' =.=.=.[ [ [ [ [ [ [ ' ' ' ' ' [ [ ;.;.;.:.:.;.3.3.' c , a c  .*.=.;.;.4.4.4.4.4.3.3.[ [ [ [ [ 3.3.[ [ 3.3.[ [ [ [ [ [ [ [ [ [ [ ' ' _ ) ) ) ) ) ) ) ) ) ) ^ ^ ^ Q ^ j x 9 O O q F F K Y Y e.e.t.t.t.y.<X#X{.M.{.#X;X*X-X3Xt.B F I U `.`.F r.0 V N N N C C C J R U U U U U U U U U U U U U U U U U U U ",
"U U U U U U U U U U U U U U U U U U U U U U U U U U U U U U U U C C C V V V N N V V V V H F Y Y Y L V N N V F F T '.oXOXOXOXoX[.&X-X4X4X4X6X6X6X&X4X,X&X;X&X|..X|.&X-X].z t.;X].}.|.}.}.{..X-X4X-X&X&X,X,X&X;X6X5X6X6X].].<X-X;X;X*X*X&X#X&X;X:X+X*X4X6X5X[.q ].4X&X|.&X-X;X].e.Y G G G G G G G t.G q B Y |.&X&X}.oX&X|.|.-X-X].y.&X+X-X:X*X6XHX*X&X&X&X*X*X*X*X+X|.-X|.G t.4X5XGX-X[.].&X6X5X4X&X-X4X-XoX|.oX&XoXoX;X].A e.&X].+X{.{.{.#X#X=X<X=X#X=X<X<X=X=X4X5X5X5X{.].:X-X:X;X*X&X&X&X*X=X-X;X;X4X6XHX.Xq t.4X&X|.&X-XoX].t.Y Y Y Y e.Y G A `.e.A q q.}.&XoXoX`.OX;X}.2X6X`.e.-X;X;X:X#X<XGXPXGX&Xt.].[.].|.|.t.g # # # # # < < < w 9 9 w < w < < y t t t ) ^ ^ ^ ) ) _ _ ` ` ` ' ' ' ' =.=.[ [ [ [ [ ' [ [ [ [ [ [ [ [ [ [ ;.;.3.;.3.3.*.c 2 h c ` ` ` ;.;.4.4.4.4.3.3.;.[ [ [ [ [ 3.o.[ [ [ [ [ [ [ [ [ [ [ [ [ [ [ ' ' _ ) ) ) ) ) ) ) ) ^ ^ ^ ^ ^ Q Q j x e + O q S F K Y Y Y e.y.t.t.y.&X{.{.{.#X&X*X+X;X-X`.B G Y U r.r.F r.0 V g N V C C C J R U U U U U U U U U U U U U U U U U U U ",
"U U U U U U U U U U U U U U U U U U U U U U U U U U U U U U U U C C C C Z V V V V C C V N V P r.F L L F V g 0 0 g F T m.|.,X3X;X3X6X4X-X&X;X,X4X<X5X,X|.|.[.].|.}.&X4X}.S M.,X.X[.{.|.|.|.[.[.[.-X&X&X4X4X;X-X5X6X4X4X].M.-X&X#X&X&X&X+X+X#X*X-X6X:X=X+X|.q.A -X].S q S e.G A q K t.].t.t.|.|.`.e.).t.G B F e.}.].|.}.`.|.7XGX3X;XHX-X*X&X{.4XGX*X*X*X=X*X&X+X{.&X|.;X|.G ].5X5X4XoX[.|.&X-X-X;X;X3X3XoX`.`.}.oX|.oX3X|.F `.3XoX#X{.M.{.@X{.{.{.*X#X*X4X<X*X=X6X5X:X-Xt.].2X*X+X*X&X+X|.+X&X*X;X5X,X&X|.&Xr.B oXm.A 0 A Y F A B q.w.e.r.e.t.].}.].].t.F q A e.`.oX`.oXoX].7XLX;X|.GX5X&X+X{.<XLXGX4X].G q.y.t.|..Xt.B # # @ # # w w 9 9 9 9 w < w w y x x x t t ^ ^ ^ ^ ) _ ` ` ` ` ` ' ' ' ' =.[ [ [ [ [ ' ' [ ' [ ;.;.[ [ [ [ ;.;.;.3.3.3.<.c i h c c ` ` ' ;.4.4.4.4.3.3.[ [ [ [ [ [ 3.o.[ [ [ [ [ [ [ [ [ [ [ [ [ [ [ ' ] _ ) ) ) ) ) ) ) ^ ^ ^ ^ ^ ^ Q Q j v h + O g G F Y Y Y Y e.y.t.t.y.M.M.{.=X,X<X:X#X;X-X].F T r.T `.Y B r.0 N 0 N V C C C J R U U U U U U U U U U U U U U U U U U U ",
"U U U U U U U U U U U U U U U U U U U U U U U U U U U U U U U U R R R C C V V V N N N N V C Z V r.T Y L R C V V * E g g V U '.oX4X4X4X,X-X-X-X4XHXHX4X&X&X4X4X;X&X}.t.e.t.}.&X-X}.|.|.}.}.|.;X,XoX&X-X,X4X4X3X-X6X7X3Xm.e.}.;X&X-X-X-X6XHX5X&Xt._.t.q.i.H G ].-Xq.q.e.e.G q H t.].}.[.t.e.t.`.t.].`.Y G m.`.r.t.K e.r.w.t.}..X}.&X&X&X&X4XHX5X&X_.HX4X X:X-Xt.t.|.`.e.G G Y t.`.;X;X-X2X2X2X-X-X7X7X6XOXoX3X5X6X2XOX[.r.t.[.oX-X|..X|.|.{.{.#X-X;X=X-X,X<X<X<X,X4XGX6X].q.|.-X;X2X2X2X4X6X2X&X].].`.r.L S L ].;Xr.T e.r.e.F G r.}.`.`.`.`.`.).r.`.}.r.F `.}.`.r.e.P r.`.`.}.|.t.oX&X;X-X<X6X6X4XHX:Xt.q.t.q.G t.e.D 0 = # = = # ; < < < < < < 9 q q t x t t x x ) ) ) ) ) ) _ _ _ ` ` ' =.=.=.;.[ [ [ [ [ [ [ [ ' ' ' ' ' ' ' ' 3.3.;.;.' ` ` c a h k c c ` ` [ ;.3.3.;.;.o.3.3.3.3.3.3.[ [ [ o.[ [ [ [ [ [ [ [ [ [ [ [ [ ' ' _ ) ) ) ) ) ) ) ) ) ) ^ ^ ^ r r r x h O . z G F Y Y T e.e.q.q.y.t.=X,X,X=X:X6X-X{.-X;Xt.B F Y r.'.F F Y 0 * F N N C C C J U U U U U U U U U U U U U U U U U U U U ",
"U U U U U U U U U U U U U U U U U U U U U U U U U U U U U U U U J J J C C C V V V N N V V V V V V C L U T U C V R C V g * g V L oX;X-X-X4X4X6X5X-X-X&X[.}.-X-X&X}.].t.e.t.].|..X|.oXoX|.|.|.;X-X4X6X6X6X4X3X2X-XHX5XoXG G ].-X4X5X6X-X*X&X[.i.q i.y.].+X+X{.&X4X6X5X7X5X;Xe.Y e.t.}.|.].t.t.e.Y r.m.w.`.3X7X3X;X3X5X6X-X&X;X.X`.4X4X:X-X6XGX5X&X|.5XoXy.&X-X X|.|.`.e.Y P Y r.).}.XX&X-X4X5X7X7X3X6X2XoXoX-X3X;X|.}.`.).).`.|.oX;X=X;X=X;X*X,X4X4X4X4X4X4X4X4X4X6X5X;Xe.q.|.2X2X7X5X4X4X-X&X].e.r.'.oX;X;X;X3X6XGX7X7X7X3X[.r.r.XX}.}.}.}.}.}.}.).}.`.`.3XGX7X3X7X5X7X7X2X;X;X].&X&X;X-X:X<X:X=XGX6X].q.t.q.G e.t.G q = # = = # < < < < < < 3 9 q q t x t t x x ) ) ) ) ) ) _ _ _ ` ` ` ' =.=.;.[ [ [ [ [ [ [ [ ' ' ' ' ' ' ' ' ;.;.;.;.' ` ` c h k v c ` ` =.;.;.3.3.3.o.o.3.[ 3.3.3.3.[ [ [ o.[ [ [ [ [ [ [ [ [ [ [ [ [ ' ( _ ) ) ) ) ) ) ) ) ) ) ^ ^ ^ r r r h e O O g G S Y Y e.e.e.q.q.y.t.-X,X=X#X&X=X&X{.;X&Xe.A P T r.`.F C Y 0 * C N V C C C J U U U U U U U U U U U U U U U U U U U U ",
"U U U U U U U U U U U U U U U U U U U U U U U U U U U U U U U U J J J C C C C V V V N N N N N N g g V L T T Y Y L R V g * = 0 g q A P q.e.r.r.e.Y e.Y F F e.r.Y F A m q B A F F q.e.r.r.r.t.`.`.XX}.`.t.r.r.r.t.).e.e.e.r.`.|.&X&X|.[.t.t.q.G G t.[.-X4X-XoX|.oX&X;X3X3X}.Y F P G e.e.e.e.e.e.Y Y T G t.4X5XoX`.3X5X5X3X-X-XoX[.;X&XoX}.&X2X;X]. X&Xr.G |.&X].|.].`.r.e.Y Y e.e.Z H F P T r.).`.F Y P F H I F Z m m m m B B Z H K K Y Y Y K Y w.t.r.e.w.w.w.w.w.`.e.F m B q.).).).t.r.e.e.P F B A Y `.}.}.`.r.T XX}.XXOX'.Y V V U U J J I U I I Z U C F }.OX}.r.oXXXoXOX}.oX;XoX&X;X-X-X:X:X;X#XGX6X{.y.t.e.G t.t.q.g 7 # = = # < w w w < w 9 e q q t x t t x t ^ ^ ^ ) ) ) ) ) _ _ ` ` ` ' =.=.' ' ' ' ' ' ' ' ' ' ' ' ' ' ' ' ;.;.;.=.` ` c l h k k l c ` ' ;.;.3.3.3.3.o.3.[ o.[ 3.3.;.;.o.o.[ [ [ [ [ [ [ [ [ [ [ [ [ ' ' _ ) ) ) ) ) ) ) ) ) ) ^ ^ ^ r r r h e O O g S A Y F G Y e.q.q.t.[.;X=X&X{.{.+X+X{.|.|.e.S Y e.T `.B C T N * V g C C C C J U U U U U U U U U U U U U U U U U U U U ",
"U U U U U U U U U U U U U U U U U U U U U U U U U U U U U U U U J J J C C C C C C V V V N N m 0 V N N N C Y r.`.Y U Y L F V N g % = 0 m m B B A B F H q m A Z m 0 7 7 7 0 0 0 7 0 m B H F G P Y P F B m m A I P m m P `.}.).e.e.P G G G G q.t._.t.].[.].e.G G P P Y Y P B 0 B P A A B q q B H F B B 0 B `.].F q q B F F F F F B 0 0 0 7 0 H B 0 0 B 0 m r.q.M B 0 0 0 0 = % % % X X X . . o X - . X - o o o o .   . . . o o . .       . .     . o . .       . . @ . . - = = % % . . . X - % % % = = = = = & @ o o   . % % o X % % X X X % % % % % = o   = * X   - . @ % % F |.&X&X;X-X-X:X:X=X*X6X-X].q.t.].t.[.[.e.B 7 = = = 7 w w 9 9 9 9 9 z q q t x t t x t ^ ^ ^ ^ ^ ^ ) ) _ _ _ _ ` ` ` ` _ ' ' ' ' ' ' ' ' ' ' ' ' ' ' ' =.=.=.' ` ` c l i f h h h j ) ' ;.3.3.o.3.3.3.3.[ [ 3.3.3.3.3.3.;.;.[ o.o.[ [ [ [ [ [ [ [ [ ' _ ) ) ) ) ) ) ) ) ) ) ^ ^ ^ r r r e 9 O O g A A e.F H F Y q.q.t.|.#X#X#X{.{.{.{.{.}.}.e.F Y T Y r.B B Y V * V 0 C C C C J U U U U U U U U U U U U U U U U U U U U ",
"U U U U U U U U U U U U U U U U U U U U U U U U U U U U U U U U R J J J C C C J C C V V V N N 0 V N g g N F Y w.r.r.`.`.m.T F B m Z F H F P T e.Y e.e.Y P Y T P I F I I P P F H Z Z I P T T T P e.Y P P T e.'.}.'.Y I e.e.P Y ).P q.i.G H A H H t._.t.q.P P e.t.r.r.T F B m H Y F B 0 0 7 = 0 0 0 0 # # S Y F F 0 0 8 = = = = = 0 * = % = 0 0 = % % = H T H = 0 = = * * = % - X - - X - @ % = * = = % % % % % % % % - - - o o o     o X % X o o             o o       o % o   o o . . .         % X o o X % % % X o o o o o X % X o o o X X X X X & o   % & % & - . . . . 0 ].&X|.&X;X;X=X:X-X;X-X*Xt.q.].[.].|.}.e.B 7 # = 7 7 w 9 9 9 9 9 e z q q t x t t t t r ^ ^ ^ ^ ^ ^ ^ ) ) ) _ ) _ _ _ ] ] ] ] ' ' ' ' ' ' ' ' ' ' ' ' =.=.' ` ` ` c k k k k k x ^ ` ;.;.;.[ o.[ [ [ [ [ [ o.3.3.3.3.3.3.3.3.3.[ [ [ ;.3.3.o.[ [ [ ' ' _ ) ) ) ) ) ) ) ) ) ^ ^ ^ r r r e 9 O O q A F `.e.Y Y r.e.q.t.|.{.#X#X#X+X|.{.{.|.|.e.S Y Y F Y F C Y V 0 N * C C C C J U U U U U U U U U U U U U U U U U U U U ",
"U U U U U U U U U U U U U U U U U U U U U U U U U U U U U U U U R R R J J J R R C C C V V V N g 0 0 0 B B B B q F Y w.m.`.`.r.Y I I I I F I P T P Y T T T T e.e.T T T T e.e.T P P P P T e.e.T P T T T T e.).).).'.T I P P P e.]._._.t.i.A w 7 = P e.e.q.P q.q.q.G P G F B B m 0 0 0 m H F H B B N B 8 = B F L w.T Y F F A B B F J J I C Z Z Z Z B 0 N Y T C Z Z B B B B B m 0 0 = = = = * * 0 0 0 * = = = = * * = = & % % % - - - X - & * = & & X X - X - % & & % % X X o o X & & % % X o .     o o o o X X % % & % X X X o o o o o o o o o o o o & o o & & & m = % = = @ A |.3X[.|.#X#X#X*X*X*X-X*X].q._.[.].[.}.e.B = # # 7 8 w 9 9 9 9 9 e z q q t x t t x t r r r r ^ ^ ^ ^ ) ) ) ) ) ) ) ) ^ ] ] ] _ ' ' ' ' ' ' ' ' ' ' ' ' ` ' ` ` ` x h ,.,.D b c ` 3.0.;.3.[ [ o.[ [ [ [ [ 3.3.3.3.3.3.3.3.3.3.3.3.3.3.3.3.3.o.[ [ ' ' _ ` ) ) ) ) ) ) ) ) ^ ^ ^ r r r h 9 O O q A G .X}.`.].}.].e.y.{.{.{.#X*X&X#X|.{.&X.Xe.B F P F U T F Y B 0 N * C C C C J U U U U U U U U U U U U U U U U U U U U ",
"U U U U U U U U U U U U U U U U U U U U U U U U U U U U U U U U U R R R R R R R R C C C V V V N 0 0 q B B B 0 0 q q g S Y w.e.r.P Y T Y I I I P F I I I F F I T I I I I I P I I I I I Y T ).).T I P T e.).T Y I Y T e.).).e.e.)._.t.y.q.P H A m 0 m A q 0 0 7 @ 0 0 0 m B H m 0 0 0 m F Y Y P Y F F g 0 F K F K S B B V B B B Z m N Z N m E E m m % E I C N N m = = = * = = = & = = = = = & % % = % % & & % % = % % % % % - - X - o o - = = & & - - - & & & & & & = & X o X & & % X X X X X X X   o o o o             o                           o     o o   o . . = = @ F ;X5X|..X.X|.{.+X#X#X*X*X].q.t.[.`.`.}.y.g @ @ # 7 8 < w w w w 9 9 z q q t x t t x x r r r r r r Q r ) ) ) ) ^ ^ ^ ^ Q Q Q ] ] ] ' ' ] ] ] ] _ ' ' _ ' ` ` ` ` / x h ,.K b k j j ` ;.;.3.3.3.o.3.3.;.3.3.3.3.;.3.;.;.4.3.3.3.3.3.4.4.3.3.3.o.[ [ ' ' _ _ ) ) ) ) ) ^ ) ) ^ ^ Q r r r z 9 O O q A Y ;XoX}.}.&X}.e.y.{.#X#X#X#X&X+X|.+X;X|.Y 0 F F F T `.F F B 0 V * C C C C J U U U U U U U U U U U U U U U U U U U U ",
"U U U U U U U U U U U U U U U U U U U U U U U U U U U U U U U U U R R R R R U U R J C C C C V V V B 0 0 m B B B B 0 = = 0 B B B I Y T ).).e.e.e.T T T T I F I Y Y I I I I Y Y Y F F I Y ).}.}.}.r.).}.oXOX}.}.`.}.oXXX'.r.T T T ).y.e.e.t.t.e.q.H P q.G G P Y F F F F F Y r.r.I Y B m B Z B B F B V 0 g T m.Y Y Y L Y T T L F F C C U T U J I T * X E U U C N = m m m m m m m m * m m N Z Z B B * = * m m * = * % = = * * = = & & - - = E N m m * * E E E * = & o = * & & & & X = & & & & & - X   o X o     o % X o o X X X o o o o               o     - o       . % @ . B &X6X;X;X&X|.{.{.+X#X&X&Xt.G t.[.].`.}.w.q @ @ # 7 q < w w w w w 9 9 q q t z t t x x r r r r r r j j ^ ^ ^ ^ ^ ^ ^ ^ Q Q Q ] ] ] ] ' ] ] ] ] ] ] ' _ ' ' ` ` ` j x h b v h 2 , 6 5 ^ ;.3.3.3.3.3.3.3.3.3.3.3.;.;.;.;.4.3.3.3.4.4.4.4.3.3.3.3.[ [ ' ' _ ` _ ) ) ) ^ ^ ) ) ) j r r r t x 9 O O q A w.3X}.`.[.&X|.e.t.|.=X#X.X#X#X|.{.|.;X|.G 0 A P Y r.}.F F 0 g V * C C C C J U U U U U U U U U U U U U U U U U U U U ",
"U U U U U U U U U U U U U U U U U U U U U U U U U U U U U U U U U U U U U U U U U U C C C C C C Z V N N N g m g C C C V V g * = = * 0 m N C T '.'.'.'.`.'.'.}.}.T T r.`.'.'.'.}.).T U F C C F U I r.`.`.Y C F I F C Z Z Z Z F F F F F G P G F A F F F F F F H F F F J U U U U U C C Z V V N N m N g N N V V C V N N N N N N N N N N N N V V V V = * * * N V V C N N N m * * * * * * & & & * N Z C C Z Z V V V V N N N N N N N N & & & & & & & & * * * = & & - & - - - X - X X X - X X X o o o o o o o o o o o o X X X X X X X X o         o           o o     o     & = O q }.;X&X&X|.M.[.#X#X|.m.LX`.Y }.`.oXt.[.Y 0 @ @ # # # w w w w 9 9 9 9 e 9 y y e e e e j j j j j j j j ) ) ) ) ) ) ) ^ ) ) _ ) _ ) _ ) _ _ _ _ _ _ ' ' ' ' ' ` ) j l c h c <.` j ) ;.' W Q Q Q ] ' ' ' ' [ ;.;.3.4.4.4.4.4.3.3.3.4.4.4.;.;.;.[ [ [ ' ' ' ' ' ' ` ` ) ) ) x x x t t t e q 9 O O q H q.|.].|.|.;X}.G t.M.{.{.*X<X,X&X|..X-X[.B 0 P r.P P }.V Y 0 V N V V C C C J R U U U U U U U U U U U U U U U U U U U ",
"U U U U U U U U U U U U U U U U U U U U U U U U U U U U U U U U U U U U U U U U U U C C C C C C C V V V N N N N * * E N V C C C = * N N g N V C T U U R R R U U F R U U Y T T T R F C C C C C C Y F B N N V F U F F C B B C F F F F H B B m 0 = 0 0 0 0 0 0 0 0 * * * * E N N N C C C C C C C C C C V N * & & X * * * * * * * * * * N N N V V V * * * E N N N V N N N * * * * * X X o o o X & & * * * * * * * * * * * * * * * * & & & & & & & & * * * & & & & & & & & & & & & & & & & & X X X X o o o o o o o o o o o o o o o o o                                   & & . 0 ].}.{.+X+X{.{.#X{.m.LXPX}.Y }.m.}.e.[.Y 0 @ O # # # w w w w 9 9 9 9 e 9 y y e e r e j j j j j j j j ) ) ) ) ) ) x ) ) ) ) ) ) ) ) ) ) ) _ _ _ _ _ _ _ ' ` ` ) j c c 2 x ,.` ^ ' 0.;.] _ _ ' ' ' ' ' ' [ ;.;.3.4.4.4.4.4.4.4.4.4.4.4.;.;.;.[ [ [ ' ' [ ' ' ' ` _ ) ) ) x x x t t t t q w @ @ q H q.|.].&X&X-X}.G y.q.t.M.{.#X;X&X;X-X&X].B 0 P r.P Y }.V Y 0 V N V V C C C J R U U U U U U U U U U U U U U U U U U U ",
"U U U U U U U U U U U U U U U U U U U U U U U U U U U U U U U U U U U U U U U U U U C C C C C C C C C V V N N N * * N N V V V V C U T T U R C F V V N * * * * * N N N N V V V V N V C U U R C C }.r.U U r.`.}.}.r.r.r.r.r.r.r.r.`.`.`.).r.e.Y F H H H H H A A B N V V V V C C C C C C C C C C C U U C C V V N E V V V V N N N N * * * * N N N N C C C V V V V V E E * * * * * * N N E * N N V V & & & & & & & & & & & & & & & & * * * * * * * * * * * * * = = * = = = & & & & & = & & & & & & & X X X X X X X X o o o o o o o o o o o o o o o o o o o o o           - % . 7 y.t.:X:X<X:X:X,X;X#XGXGXG S [.m.}.t.[.w.g # O # # # w w w w 9 9 9 9 e e y y e t t e j j j j j x j x ) ) x x x x x ) ) _ ) ) ) ) _ _ ) ) _ _ _ _ _ _ ' ' ` ` ) j c c a x ,.*.` =.7.3.;.;.;.[ [ [ ' ' [ [ ;.;.3.3.3.3.3.4.3.3.3.3.3.3.;.;.;.[ [ [ ' ' ' ' ' ' ` _ ) ) ) x x x t t t t q q @ @ q H q.|.[.&X;X-Xt.A q.D H D D G q.q.t.].[.t.B 0 P e.P Y }.B Y 0 V g V V C C C J R U U U U U U U U U U U U U U U U U U U ",
"U U U U U U U U U U U U U U U U U U U U U U U U U U U U U U U U U U U U U U U U U U U C C C C C C C C C V V V V C C V N N * * * * N V C V N N N N N 0 * * = = = * * * * * * * * & * E N N N g * = % @ = 0 N 0 = = = = = = = = = = = = = = = % % q 0 0 0 0 0 0 0 * * * * * * * * * * E E N N N N = = = * * * * * * * * * * * * * * * * * * * * * N N E * * * * * * * * * * * * * * * * * * * * * * * * * * * * * * * * * * * * * * * * * * * * * * * * * * * * * * * * * * * * * * * * * * * * * * * * * * * * = = = = = = = = = & & & & & & & & & & & & - o o o     X % . = e.t.].t.y.q.2.y.M.M.t.r.= G oX}.}.].}.w.g # O # # # w w w w 9 9 9 9 e e y y t t t r j j j j j x x x ) x x x x x x ) ) ) ) ) ) _ _ _ ) ) ) ) ) _ _ _ _ ' ` ` ) j c c l c ,.<.` =.3.;.4.4.3.;.;.[ [ ' [ [ ;.3.3.3.3.3.4.4.3.3.3.3.3.3.;.;.;.[ [ [ ' ' ' ' _ _ ` ` ) ) ) x x x t t t t q q @ @ q H q.|.[.}.|.&XG M t.e.-.-.D D S S G q.t.e.B 0 F Y I Y }.N Y 0 B g V V C C C J R U U U U U U U U U U U U U U U U U U U ",
"U U U U U U U U U U U U U U U U U U U U U U U U U U U U U U U U U U U U U U U U U U J J U U U U C C C C C V V V N N N N N N N N = * * * * * * g N N g g g g g g g g * * * * g g * * * * * * * * * 0 N V C C N g N N N N N N B N 0 0 0 N B V B N * * * * * * * * = * * * * * * * * * * * * * E E * * * * * * = & * * * * * * * * * * * * * E N N * * * * * * * * * * * * * * * * * * * * * * * * N N N N N N E E N N N N N N N N N N E E * E N N * * * E N N N N N N N N N N N N N N N E E E * * N N N N N N N N N N N N N N N N N E * E N N E * N E * * = X o o     X % . 7 t.t.q.H q 9 9 z z S K F A }.,X.X}.}..Xw.g # O # # # w w w w 9 9 9 9 q e e e r t t r j j j j j x j j x x x x x x x ) ) _ ) ) ) ) _ _ ) ) ) ) ) _ _ _ _ _ ` ` ) c c c c l ` <.*.=.3.3.3.3.3.;.;.;.;.[ [ ;.;.3.3.3.3.;.3.3.3.3.;.;.;.;.;.;.;.[ [ [ [ ' ' _ _ _ _ _ ) ) x x x x t t t q q q @ @ q H q.}.[.].[.|.G q.5X4X+X#X#X{.[.{.|.}.t.e.m 0 F Y F Y [.N Y 0 B 0 V V C C C J U U U U U U U U U U U U U U U U U U U U ",
"U U U U U U U U U U U U U U U U U U U U U U U U U U U U U U U U U U U U U U U U U U U U U U U U J C C C C C C C V V V V V V V V C C V V N N V C N N N N N N N N N N N N N N N N C V N N N N V V 0 0 N 0 * * 0 N 0 0 0 0 0 0 0 0 0 g 0 * 0 g 0 0 V V V V V V V V V V V V C C V V E E N N N N V V C C C C C C V V C C C C C C C C N N N N N N N N V V V V V V C C N N N N N N N N C C C C C C C C V V V V V N N N V V N V V V V V V V N N N N V V N N N N V V V V V V V V V V V V V V N N N N N V N N N N N N N N N N N N N N N N V N N N N N N N N N N E = X o       X % . 0 ].}.+X{.{.{.{.M.w.q.w.K e.}.oX[.].}..Xr.g # O # # # w w w w 9 9 9 9 z e e e t t t r j j j j j x j j x ) x x ) x x ) ) _ ) ) ) ) _ _ ) ) _ ) _ _ _ _ ] _ _ ` ) c c ` k a c <.<.3.7.7.3.3.3.;.;.;.;.;.;.;.;.3.3.3.;.;.;.;.;.3.;.;.;.;.;.;.;.[ [ [ [ ' _ _ _ _ _ _ ) ) x x x x t t t q z q @ @ q H q.}.].t.[.&Xq.}.LXLX+X;X-X;X;X-X-X-X].e.m 0 F Y F P `.0 U * N 0 V V C C C J U U U U U U U U U U U U U U U U U U U U ",
"U U U U U U U U U U U U U U U U U U U U U U U U U U U U U U U U U U U U U U U U U U U U U U U U U U C C C C C C J C C C V V V V N N N g * * 0 g N V V V V V V V V V V V V V V V N N N N N N N V V V V N g g V C C C C C C C C C C V V V V V V N N N N N N N N N N N N N N E E E V V V V C C C C * * * E N V V N E * N N E N E E V V V V V V V V N N N N N V V V N N V V V V V V N N N N V V V V V V V V V V V N V V V V V V V V V V V V V V V V V V V V V V V V V V V V V V V V V V V V V V V V N N N N N N N N N N N N V V V V V V N N V V V N N E N E = X o       X % . q [.&X*X+X#X:X=X#X[.[.r.F r.`.`.].].[.oXt.g # O # # < w w w w 9 9 9 9 q q e e t t t t j j j j j j j j ) ) ) ) ) ) x ) ) _ _ ) ) ) ) _ ) ) _ _ _ _ ` ` ] _ _ ` ^ c c  .k 5 j <.<.3.7.7.4.4.4.4.3.3.;.;.;.;.;.3.3.;.;.;.;.;.3.3.;.;.;.;.;.;.;.[ [ [ ' ' ] ) ) _ _ _ ) ) x x x x t t t q z q @ @ q A i.}.[.t.|.-Xq.[.LX6Xt.{.|.{.{.#X;XoX|.t.m 7 F T I I `.0 U * N g V V C C C J U U U U U U U U U U U U U U U U U U U U ",
"U U U U U U U U U U U U U U U U U U U U U U U U U U U U U U U U U U U U U U U U U U U U U U U U U U J C C C C C C C C C C C C C N V V V C C C C V C C C C V V N V V V V V V V V N N V V V C C C V V V C V V V V V V V V V V V V V V V V V V C V V V V V V V C C C C C C C V V C V V V V V V C C C C C C C C V V C C C C C C C C C C C C C V C C C C C C C V V V V V V C C C C C C V V V V C C C C V V V V V V V V V V V V V C C C C V V V V C C C C V V V V V V C V V V V V V V V V V V V V V V V V V V V V V V C C C C C C C C C V V V V C V V N N N N * X o       - % . q |.-X#X{.{.*X=X#X#X=X}.T `.}.[.|.].m.oXm.z # O # # < w w w w 9 9 9 9 z q e e t t t t j j j j j j j j ) ) ) ) ) ) x ) ) _ _ _ ) ) ) _ _ _ _ _ _ ` ` ` ] _ _ ` ` c c  .c a x <.<.=.3.3.9.9.7.4.4.3.;.;.;.;.;.3.3.;.;.;.;.;.3.3.;.;.;.;.;.;.;.[ [ [ ' ' ] ) ) _ _ _ ) ) ) ) x x t t t t z q @ @ q A i.{.[.t.|.-XG q.-Xq.].+X#X{.[..X&X|.;X].m 7 F e.P I `.0 F * N 0 V V C C C J U U U U U U U U U U U U U U U U U U U U ",
"U U U U U U U U U U U U U U U U U U U U U U U U U U U U U U U U U U U U U U U U U U U U U U U U U U U U U U U U C C C C C C J C C C C C C C C C C C C C C C C C C C C C C C C C C C C C C C C C C C C C C C C C C C C C C C C C C C C C C C C C C C C C C C C C C C C C C C C C C C C C C C C C C C C C C C C C C C C C C C C C C C C C C C C C C C C C C C C C C C C C C C C C C C C C C C C C C C C C C C C C C C C C C C C C C C C C C C C C C C C C C C C C C C C C C C C C C C C C C C C C C C C C C C C C C C C C C C C C C C C C C C V V V N N N = o   o o   o . . G ;X&X+X{.#X#X{.{.#X[.oXr.Y [.oX.X}.|.=X`.B # O # = # 9 9 9 9 9 9 9 9 z z t t e e e e r r j j j x x ) x ) ) x ) ) ` ` ) _ _ _ _ _ _ _ _ _ ) _ ` ` ` ` ' _ _ ) ) j x h 2 2 h *.3.;.;.3.;.;.;.;.;.;.;.;.[ ;.3.4.4.3.;.[ ;.;.;.;.;.;.;.3.' ' ' ' ' ' ' ' [ ' _ _ ` ` ) j ) ) x t t t x x A M # @ w H q.[.t.[.|.[.t.[.&X&X|.#X&X+X{.}.|..X5X&XP B Y T P r.oXB 0 0 g V * C C C C J U U U U U U U U U U U U U U U U U U U U ",
"U U U U U U U U U U U U U U U U U U U U U U U U U U U U U U U U U U U U U U U U U U U U U U U U U U U U U U U U U U U U U U U U C C C C C C C C C C C C C C C C C C C C C C C C C C C C C C C C C C C C C C C C C C C C C C C C C C C C C C C C C C C C C C C C C C C C C C C C C C C C C C C C C C C C C C C C C C C C C C C C C C C C C C C C C C C C C C C C C C C C C C C C C C C C C C C C C C C C C C C C C C C C C C C C C C C C C C C C C C C C C C C C C C C C C C C C C C C C C C C C C C C C C C C C C C C C C C C C C C C C C C C V V N N N = o o o o   o o . G &X&X{.{.+X#X{.#X#X{.oXr.Y t.[.`.r.m.[.w.z # O # 7 1 9 9 9 9 9 9 9 9 z z t t e e e e t j j j j x x ) x ) x x ) ) ` ` ) ) ) ) ) ) ) ) _ _ _ _ ` ` ` ` ' _ _ ) ) j x h 2 , h *.3.;.;.3.3.;.;.;.;.;.;.;.[ ;.3.3.3.3.;.[ ;.;.;.;.;.;.;.;.' ' [ ' ' ' ' ' [ ' _ _ ` ` ) j ) ) x t t t x x q q @ @ w H e.{.}.|.|.].e.].&X&X#X#X#X{.{.{.}.}.6X|.G B T T P T }.B 0 0 0 V * C C C C J U U U U U U U U U U U U U U U U U U U U ",
"U U U U U U U U U U U U U U U U U U U U U U U U U U U U U U U U U U U U U U U U U U U U U U U U U U U U U U U U U U U U U U U U F F F F F F F F C C F F F F F F F F C C C C F F F C C C C C F F C C C C C C C C C C C C C C C C C C C C C C C C C C C C C C C C C C C C C C C C C C C C C C C C C C C C C C C C C C C C C C C C C C C C C C C C C C C C C C C C C C C C C C C C C C C C C C C C C C C C C C C C C C C C C C C C C C C C C C C C C C C C C C C C C C C C C C C C C C C C C C C C C C C C C C C C C C C C C C C C C C C C C C C C V N N N * X o o o   o o . G &X&X+X].{.#X{.#X=X[..Xr.F Y w.Y G G q.K z = O # 7 8 9 9 9 9 9 e e 9 q q t t e e r r j j j j j x x ` j j x x x ) ` ` ) ) ) ) ) ) _ _ _ _ _ _ ` ' ` ` ' ' _ ` ) j x k , , h ` 3.3.;.3.3.3.;.;.;.;.;.;.;.;.;.3.3.;.;.;.;.;.;.;.[ [ [ ;.[ [ [ [ ' ' ' ' [ ' _ _ ` ` ) j ) x x t t t x x q q @ O w H e.}.|.|.}.t.q.t.&X;X:X-X;X#X&X&X.X}.-X}.F B e.T F Y }.B N 0 0 V g C C C C J U U U U U U U U U U U U U U U U U U U U ",
"U U U U U U U U U U U U U U U U U U U U U U U U U U U U U U U U U U U U U U U U U U U U U U U U U U U U U U U U U U U U U U U U R R R R R R R R C C F F F F F F F F C C C C F F F C C C C C F F J J J J C C C C R R C C C C J J J J J J J J J J J J J J J J J J C C C C C C C C C C C C C C C C C C C C C C C C C C C C C C C C C C C C C C C C C C C C C C C C C C C C C C C C C C C C C C C C C C C C C C C C C C C C C C C C C C C C C C C C C C C C C C C C C C C C C C C C C C C C C C C C C C C C C C C C C C C C C C C C R J U U U C C C V N N N * o o o     o o . G &X|.*X{.{.+X{.*X=X{..Xr.F G K F S S S S B 8 # # 7 8 9 9 9 9 9 e e 9 q q t t t t t t j j j j x x x ` j j j x x ) ` ` _ _ _ _ _ _ _ _ _ _ _ _ ' ' ' ` ' ' _ ` ` j x k , > h ` 3.3.;.3.3.3.;.;.;.;.;.;.;.;.;.;.;.;.;.;.;.;.;.[ [ [ [ [ [ [ [ [ [ [ [ ' [ _ _ _ ` ` ) j ) x x t t t x x q q # @ q H G t.].].].t.e.M.;X4X-X=X=X-X,X-X;X}.;X].F B e.T F P `.B B 0 0 V g C C C C J U U U U U U U U U U U U U U U U U U U U ",
"U U U U U U U U U U U U U U U U U U U U U U U U U U U U U U U U U U U U U U U U U U U U U U U U U U U U U U U U U U U U U U U U R R R R R R R R R R R R R R R R R R R R R R R R R R R R R R R R R R R R R R R R R R R R R R R R R R R R R R R R R R R R R R R R U U U U U U U U U U U U U U U U U U U U U U U U U U U U U U U U U U U U U U U U U U U U U U U U U U U U U U U U U U U U U U U U U U U U U U U U U U U U U U U U U U U U U U U U U U U U U U U U U U U U U U U U U U U U U U U U U U U U U U U U U U U U U U U U U U U U U C C C V N N N * X o o     o o . G &X&X*X{.{.|.{.=X,X#X}.r.K G K K F F S F S 0 # # # 8 y y 9 9 9 z z e e e t z t t t t x x x ) ) ) ) ) j j x x ) ) ` ` ` _ _ ` ` ` ` ` _ _ _ _ _ ' ' _ _ ' ` ` ` c x x > > 5 ` 3.3.;.3.;.;.;.;.;.;.;.[ ;.;.;.[ [ ;.;.;.;.;.[ [ [ [ [ [ [ [ [ [ [ [ [ ' [ _ ) ) _ _ ) j ) x x t t t x A q q 7 # q A H q.q.q.t.t.t.[.3X7X+X*X-X<X6X4X;X|.;X[.F A e.T F P `.V B 0 0 V g V C C C J R U U U U U U U U U U U U U U U U U U U ",
"U U U U U U U U U U U U U U U U U U U U U U U U U U U U U U U U U U U U U U U U U U U U U U U U U U U U U U U U U U U U U U U U U U U R L L U U U U U U U U U U U U U U U U U U U U U U U U U U U R U U U U U R U R R R U U U U R R U U U U R R R R U U U U R R U U U U U U U U U U U U U U U U U U U U U U U U U U U U U U U U U U U U U U U U U U U U U U U U U U U U U U U U U U U U U U U U U U U U U U U U U U U U U U U U U U U U U U U U U U U U U U U U U U U U U U U U U U U U U U U U U U U U U U U U U U U U U U U U U U U U U C C C V N N N * X o o o   o o . G ;X&X+X{.+X#X@X=X<X=X`.e.Y K Y Y Y Y K K S 8 # # # 8 y y 9 9 e z z z e e t z t t t x ) ) ) ) ) ) ) ) x j ) ) x ) ` ` _ _ _ _ _ _ _ _ _ _ _ _ _ ' ' _ _ ' ' ` ` c l x : : 5 ` 3.3.3.7.;.;.;.;.[ [ [ [ ;.;.[ [ [ [ ;.;.;.;.[ [ ' ' ' ' [ [ [ [ [ [ [ ' ' _ ) ^ ) ) ) j ) x x t t t x A q A 7 + q A H q.q.G e.t.t.}.4XGX*X:X6X5X5X5X4X-X4X|.G A T T F Y `.C F 0 * V g V C C C J R U U U U U U U U U U U U U U U U U U U ",
"U U U U U U U U U U U U U U U U U U U U U U U U U U U U U U U U U U U U U U U U U U U U U U U U U U U U U U U U U U U U U U U U U U U R L L L U U U U U U U U U U U U U U U U U U U U U U U U U U U U U U U U U U U U U U U U U U U U U U U U U U U U U U U U U U U U U U U U U U U U U U U U U U U U U U U U U U U U U U U U U U U U U U U U U U U U U U U U U U U U U U U U U U U U U U U U U U U U U U U U U U U U U U U U U U U U U U U U U U U U U U U U U U U U U U U U U U U U U U U U U U U U U U U U U U U U U U U U U U U U U U C C C V V N N * X o o X   o . . G -X*X+X{.=X,X#X=X=X#Xr.e.Y G K Y Y K K K B = # # 7 8 e y 9 e z z z z e q t z t x x x ) ` ` ` ) ) ) ) ) ) ) ) x ) ` ` _ _ _ _ _ _ _ _ _ _ _ _ ` ' ' _ ' ' ` ` ` c l l : : 5 ` 3.3.3.4.;.;.[ [ [ [ [ [ ;.;.[ ' ' [ ;.;.;.;.[ [ ' ' ' ' [ [ [ [ ;.;.;.[ ' ) ^ ^ ^ ^ ) r ) x x t t t x A A A # @ 7 A G ].].y.t.t.t.].,XGX4X6XHXHX6X4X4X4X7X;XY A Y Y F T `.F U N * V g N C C C J R U U U U U U U U U U U U U U U U U U U ",
"U U U U U U U U U U U U U U U U U U U U U U U U U U U U U U U U U U U U U U U U U U U U U U U U U U U U U U U U U U U U U U U U R R R R R R R R U U U U U U U U U U U U U U U U U U U U U U U U U U U U U U U U U U U U U U U U U U U U U U U U U U U U U U U U U U U U U U U U U U U U U U U U U U U U U U U U U U U U U U U U U U U U U U U U U U U U U U U U U U U U U U U U U U U U U U U U U U U U U U U U U U U U U U U U U U U U U U U U U U U U U U U U U U U U U U U U U U U U U U U U U U U U U U U U U U U U U U U U C C U U C C C C V V V N * X o o - o o   . G -X-X&X*X6XHX=X#X#XM.e.Y Y G G Y K F Y F g # O # 8 f e y 9 e q z z q e q z z x x x x ` ` ) ` ) ) ) ) ) ) ) ) ) ) ) ` ` ` ` ` ` ` ` ` _ _ _ _ ` ' ` _ ' ' ` ` ` ` l l : : 5 ` 3.3.3.3.;.[ [ [ ' ' ' ' ;.;.[ ' ' [ ;.;.;.;.[ ' ' ' ' _ [ [ [ [ ;.;.;.[ _ ) ^ Q ^ ) j r ) x x t t t x x H A @ O 7 H t.#X&X[.t.t.e.t.-XHX<X6X6X<X&X#X;X-XGX-Xe.A Y Y I r.`.F Y N * V g N C C C J R U U U U U U U U U U U U U U U U U U U ",
"U U U U U U U U U U U U U U U U U U U U U U U U U U U U U U U U U U U U U U U U U U U U U U U U U U U U U U U U U U U U U U U U U U U U U U U U U U U U U U U U U U U U U U U U U U U U U U U U U U U U U U U U U U U U U U U U U U U U U U U U U U U U U U U U U U U U U U U U U U U U U U U U U U U U U U U U U U U U U U U U U U U U U U U U U U U U U U U U U U U U U U U U U U U U U U U U U U U U U U U U U U U U U U U U U U U U U U U U U U U U U U U U U U U U U U U U U U U U U U U U U U U U U U U U U U U U U U U U U U U U U C C C C N N V E & X X &       - r.3X3X;X2X4X&X{.[.{.|.m.r.r.e.Y K K K K K B 7 # # 8 8 9 9 9 9 e 9 e e e y e q x x x x ) ) ) ) ) ) ) ) j x ) ) ) ) ) ) ` ` ` ` ` ` ` ` =.` _ =.=.=.;.=.;._ =.*.x *.*.5 2 h c *.<.<.<.<.3.` _ ` =.=.=.=.;.;.;.;.;.3.;.;.[ ` _ ^ ^ _ ' ' ;.=.=.=.3.3.;.' _ ) ) ) ) ^ ^ r ^ j j r r r r t q z # O 8 S y..Xt.[.#Xm.S m.5XKXGXGXHX4X4X4X-X;X6X-Xt.B F T Y r.F 0 T 0 N g V C C C J J U R R R U U U U U U U U U U U U U U U U ",
"U U U U U U U U U U U U U U U U U U U U U U U U U U U U U U U U U U U U U U U U U U U U U U U U U U U U U U U U U U U U U U U U U U U U U U U U U U U U U U U U U U U U U U U U U U U U U U U U U U U U U U U U U U U U U U U U U U U U U U U U U U U U U U U U U U U U U U U U U U U U U U U U U U U U U U U U U U U U U U U U U U U U U U U U U U U U U U U U U U U U U U U U U U U U U U U U U U U U U U U U U U U U U U U U U U U U U U U U U U U U U U U U U U U U U U U U U U U U U U U U U U U U U U U U U U U U U U U U U U U U U C C C C N N V E & X X &       X r.3X3X&X;X*X|.{.+X;X-Xt.r.w.Y Y K Y Y K K B 7 # # 8 8 9 9 9 9 e e e e e e e q x v v x ) ) ) ) ) ) ) ) ) ) ) ) ) ) ) ) ` ` ` ` ` ` ` ` =.` _ =.=.=.;.=.;.` =.*.x *.*.5 3 h c  .,.<.*.` <.' ' <.3.=._ ) ;.;.;.;.;.3.;.;.' ` _ ) ) _ ` =.=.=.=.=.;.3.;.' ` ) ) ) ) ^ ^ r r r r r r r r t q z # O 9 S w..XM.|.;X.Xy.&XLXPXGXGXGXGXGXGX5X4X6X-Xr.m B G P T F * Y 0 N 0 V C C C J J U R R R U U U U U U U U U U U U U U U U ",
"U U U U U U U U U U U U U U U U U U U U U U U U U U U U U U U U U U U U U U U U U U U U U U U U U U U U U U U U U U U U U U U U U U U U U U U U U U U U U U U U U U U U U U U U U U U U U U U U U U U U U U U U U U U U U U U U U U U U U U U U U U U U U U U U U U U U U U U U U U U U U U U U U U U U U U U U U U U U U U U U U U U U U U U U U U U U U U U U U U U U U U U U U U U U U U U U U U U U U U U U U U U U U U U U U U U U U U U U U U U U U U U U U U U U U U U U U U U U U U U U U U U U U U U U U U U U U U U U U U U U U J C C C N N V E & X X = o     o T 3X4X-X-X&X}.{.&X-X-Xe.r.e.Y Y Y Y Y K K A 7 # # 8 w 9 y 9 e e q q q q q q t x v v x ` ` ) ) ) ) ) ) ) ) ) ) ) ) ) ` ` ` ` ` ` ` ` ` =.` ` =.=.=.=.=.;.` ;.=.) *.*.5 : 2 k b ,.` ) j ^ ) ` 3.3.=._ ) ;.=.;.;.;.;.;.;.' ` _ _ _ _ ` =.` ` ` ' ;.3.;.=.` _ ) ) ) ) Q Q r r r r r r r r q g # + 9 S w..X[.{.=X*X[.=XLXIXGXGXGXKXGXHX6X4X6X-Xe.0 B F F Y B = Y 0 V g V V C C J J U U R R U U U U U U U U U U U U U U U U ",
"U U U U U U U U U U U U U U U U U U U U U U U U U U U U U U U U U U U U U U U U U U U U U U U U U U U U U U U U U U U U U U U U U U U U U U U U U U U U U U U U U U U U U U U U U U U U U U U U U U U U U U U U U U U U U U U U U U U U U U U U U U U U U U U U U U U U U U U U U U U U U U U U U U U U U U U U U U U U U U U U U U U U U U U U U U U U U U U U U U U U U U U U U U U U U U U U U U U U U U U U U U U U U U U U U U U U U U U U U U U U U U U U U U U U U U U U U U U U U U U U U U U U U U U U U U U U U U U U U U U U U J C C C N N V E & X X = o     o Y 3X6X4X4X-X|.|.&X&X|.w.w.T Y Y e.e.w.K K S 7 # # 8 w 9 9 e e e q t t z t t z z v v x ` ` ) ) ) ) ) ` ) ) ) ) ) ` ` ` ` ` ` ` ` ` ` ` =.` ` =.=.=.=.=.;.` ;.=.x *.*.5 3 i c ,.*.c r 5 6 5 j ' <.=.=.=.=.=.;.;.;.;.;.;.' ' _ _ _ ` ' ' _ _ _ ' ;.3.;.=._ _ ) ) ) ^ Q Q r r r r r r r e q g < + 9 S q.|.M.M.#X*Xm.[.HXPXKXGXHXHX4X&XoX&X3X;XY = 0 F P e.m & U 0 V 0 V V C C J J U U R R U U U U U U U U U U U U U U U U ",
"U U U U U U U U U U U U U U U U U U U U U U U U U U U U U U U U U U U U U U U U U U U U U U U U U U U U U U U U U U U U U U U U U U U U U U U U U U U U U U U U U U U U U U U U U U U U U U U U U U U U U U U U U U U U U U U U U U U U U U U U U U U U U U U U U U U U U U U U U U U U U U U U U U U U U U U U U U U U U U U U U U U U U U U U U U U U U U U U U U U U U U U U U U U U U U U U U U U U U U U U U U U U U U U U U U U U U U U U U U U U U U U U U U U U U U U U U U U U U U U U U U U U U U U U U U U U U U U U U U U U U C C C C N N N E & X X = o o   o Y 3X6X4X4X-X&X&X*X&X}.y.w.w.e.e.w.r.e.Y K S 8 # # 8 w 9 9 e e t z z z z z z z x v v x ) ) ) ) ` ) ) ` ) ) ) ) ) ) ` ` ` ` ` ` ` ` ` ` ` ` ` =.=.=.=.=.;.` ;.=.x ` *.5 2 k c ,.` j 5 > 6 6 5 j ^ ) ' 3.=.' ' ' ;.;.;.;.' ' ' ' ' ' ' ' _ _ _ ` =.;.;.=._ ) ) ) ) x t r r t t t t r r e q g < # 9 S q.{.m.y.#X,Xm.w.,XLXGX5X4X<X;X|.[.}.;X|.G 7 B P Y ).m & U 0 V g N V C C C J U U R R U U U U U U U U U U U U U U U U ",
"U U U U U U U U U U U U U U U U U U U U U U U U U U U U U U U U U U U U U U U U U U U U U U U U U U U U U U U U U U U U U U U U U U U U U U U U U U U U U U U U U U U U U U U U U U U U U U U U U U U U U U U U U U U U U U U U U U U U U U U U U U U U U U U U U U U U U U U U U U U U U U U U U U U U U U U U U U U U U U U U U U U U U U U U U U U U U U U U U U U U U U U U U U U U U U U U U U U U U U U U U U U U U U U U U U U U U U U U U U U U U U U U U U U U U U U U U U U U U U U U U U U U U U U U U U U U U U U U U U U U U C C C C N N N * & X X = o o   o Y 3X6X&X;X;X&X*X:X<X;Xw.w.e.e.e.w.r.e.w.Y S 8 # = 8 w 9 y e t t z x x z z z z x x v x ) ) ) ) ` ` ` ` ) ) ) ) ) ) ) ` ` ` ` ` ` ` ` ` ` ` ` =.=.=.=.=.;.` ;.=.x ` *.5 h k c ,.` j 5 > j r 5 5 6 5 ^ =.' ' ' ' ;.;.;.;.' ' ' ' ' ' ' ' _ _ _ ` =.=.' ` ) ) ) ) x x r r r r r r r t t t 9 z < # 9 S q.[.M.y.&X6X{.w.,XLX;X#X#X=X-X;X|.[.|.}.F 0 B Y e.).B = Y 0 V g N V C C C J U U R R U U U U U U U U U U U U U U U U ",
"U U U U U U U U U U U U U U U U U U U U U U U U U U U U U U U U U U U U U U U U U U U U U U U U U U U U U U U U U U U U U U U U U U U U U U U U U U U U U U U U U U U U U U U U U U U U U U U U U U U U U U U U U U U U U U U U U U U U U U U U U U U U U U U U U U U U U U U U U U U U U U U U U U U U U U U U U U U U U U U U U U U U U U U U U U U U U U U U U U U U U U U U U U U U U U U U U U U U U U U U U U U U U U U U U U U U U U U U U U U U U U U U U U U U U U U U U U U U U U U U U U U U U U U U U U U U U U U U U U U U U C C C C N N N * & X X & o o o o Y 3X3X;X-X-X&X&X-X4X4Xe.e.Y Y Y q.e.w.w.w.S 8 # = 7 7 9 e e q z x v v v x z z x x v x x ) ) ) ) ) ) ) x x x ) ) ) ` ` ` ` ` ` ` ` ` ` ` ` ` =.=.=.=.=.;.` =.*.x ` *.5 2 h c c ` x e 6 j r 5 6 6 6 r ` ' ` ` ' ' =.;.[ ` ' =.=.' ' ' ` ` _ _ ` ' =.` _ ) ) ) x t t t r x x x x t t t t 9 z < + 9 S q.[.[.y..X4X[.q.=XPX-X*X#X*X4X6X-X.X}.].F 0 A Y Y r.F = Y 0 N g V C C C C J R U R R U U U U U U U U U U U U U U U U ",
"U U U U U U U U U U U U U U U U U U U U U U U U U U U U U U U U U U U U U U U U U U U U U U U U U U U U U U U U U U U U U U U U U U U U U U U U U U U U U U U U U U U U U U U U U U U U U U U U U U U U U U U U U U U U U U U U U U U U U U U U U U U U U U U U U U U U U U U U U U U U U U U U U U U U U U U U U U U U U U U U U U U U U U U U U U U U U U U U U U U U U U U U U U U U U U U U U U U U U U U U U U U U U U U U U U U U U U U U U U U U U U U U U U U U U U U U U U U U U U U U U U U U U U U U U U U U U U U U U U U U U C C C C N N N * & X X & o o o o I 2X3X6X5X4X;X+X&X-X-Xe.e.Y Y Y Y Y e.w.w.S 8 # = 7 7 9 e e q z x v v v v x v x v v x x ) ) ) ) ) ) ) j x x x ) ) ` c ` ` ` ` ` ` ` ` ` ` ` =.=.=.=.=.=.` =.*.x ` *.5 3 2 k c ` x j e 6 5 5 5 6 6 j ' ' ` ` ` ' =.;.' ` ' =.=.=.' ' ` ` _ _ ` ' ' ` ) ) ) x x t t r r ) ) x x x t t t 9 z < # 9 S q.[.[.q.[.-Xy.z #XPXLXGX<X=X6XGXHX4X[.].F 0 A Y I Y F 0 T 0 N g V C C C C J R R R R U U U U U U U U U U U U U U U U ",
"U U U U U U U U U U U U U U U U U U U U U U U U U U U U U U U U U U U U U U U U U U U U U U U U U U U U U U U U U U U U U U U U U U U U U U U U U U U U U U U U U U U U U U U U U U U U U U U U U U U U U U U U U U U U U U U U U U U U U U U U U U U U U U U U U U U U U U U U U U U U U U U U U U U U U U U U U U U U U U U U U U U U U U U U U U U U U U U U U U U U U U U U U U U U U U U U U U U U U U U U U U U U U U U U U U U U U U U U U U U U U U U U U U U U U U U U U U U U U U U U U U U U U U U U U U U U U U U U U U U U U U C C V V N N E * - o = - o   X T 3X5X2X-X-X&X&X*X-X-Xe.G F G Y Y K F Y K B 8 # # 7 8 e e q z z v v D v v v v D D D *.c ` ` ` *.*.` ` x x x x x c ` ` c c c c c ` ` ` ` ` *.*.*.*.=.` =.=.` ) ` *.c 5 3 3 2 k ` ` j 3 5 5 5 > > ^ <.3.' ' ' ' =.=.=.=.` _ _ ` =.;.=.' =.' ' ` _ ) ^ ) ) ) ) c x x x x t x x x x x t t z z w < 8 S w.M.m.m.&X-XM.y.[.#XLXHX6X<X-X6X7X6Xe.t.e.G B H F F F = U 0 V N V V C C J J R U R U U U U U U U U U U U U U U U U U ",
"U U U U U U U U U U U U U U U U U U U U U U U U U U U U U U U U U U U U U U U U U U U U U U U U U U U U U U U U U U U U U U U U U U U U U U U U U U U U U U U U U U U U U U U U U U U U U U U U U U U U U U U U U U U U U U U U U U U U U U U U U U U U U U U U U U U U U U U U U U U U U U U U U U U U U U U U U U U U U U U U U U U U U U U U U U U U U U U U U U U U U U U U U U U U U U U U U U U U U U U U U U U U U U U U U U U U U U U U U U U U U U U U U U U U U U U U U U U U U U U U U U U U U U U U U U U U U U U U U U U U U U C C V V V N E * - o = X o   X T 6X7XGXGXGXHX5X5X4X-XF G Y e.Y G F G Y K B 8 # # 7 9 e e q z z z v v z z z v v D D c c ` ` ` *.*.*.` ` ` x x x c ` c c c c c c c ` ` ` ` *.*.*.=.` ` =.=._ ) ` *.c h 2 3 2 k ` c 5 > 5 j j 5 5 ` *.*.j ^ ) ' =.=.=.' ' ` _ ' =.;.=.' ' ' ` _ ) ^ ^ ) x x x x x x x x c ) ) ) *.) x x D z w < w S w.M.M.m.#X;X[.M.,X7X6X#X+X{.[.#X-X;XY e.e.G F F I I F * Y * V N V V C C J J R U R U U U U U U U U U U U U U U U U U ",
"U U U U U U U U U U U U U U U U U U U U U U U U U U U U U U U U U U U U U U U U U U U U U U U U U U U U U U U U U U U U U U U U U U U U U U U U U U U U U U U U U U U U U U U U U U U U U U U U U U U U U U U U U U U U U U U U U U U U U U U U U U U U U U U U U U U U U U U U U U U U U U U U U U U U U U U U U U U U U U U U U U U U U U U U U U U U U U U U U U U U U U U U U U U U U U U U U U U U U U U U U U U U U U U U U U U U U U U U U U U U U U U U U U U U U U U U U U U U U U U U U U U U U U U U U U U U U U U U U U U U U U C C C V V N N * - o = X o   o I -X4X4X4X4X:X-X&X[.y.B K r.m.Y S S K w.K S 8 # # 7 9 e e e z z z x v z z z z x v v v c c ` ` ` ` *.*.` ` c c x x x c c l x c c c c x ` ` *.*.*.*.` ` =.` ) ) ` *.c k h e h x ` c e > 5 j x h j c ` j 6 5 ^ ' <.<.=.` =.' ' ' ' =.' ` _ _ _ _ ) ) ^ ) j x x ) ) ) x x x x x x x x x x D g 7 # 7 S w.].].M..X.Xm.[.6XKX*X{.M.t.q.q.t.e.G e.r.Y F G P P T 0 Y * N N V V C C C J R U R U U U U U U U U U U U U U U U U U ",
"U U U U U U U U U U U U U U U U U U U U U U U U U U U U U U U U U U U U U U U U U U U U U U U U U U U U U U U U U U U U U U U U U U U U U U U U U U U U U U U U U U U U U U U U U U U U U U U U U U U U U U U U U U U U U U U U U U U U U U U U U U U U U U U U U U U U U U U U U U U U U U U U U U U U U U U U U U U U U U U U U U U U U U U U U U U U U U U U U U U U U U U U U U U U U U U U U U U U U U U U U U U U U U U U U U U U U U U U U U U U U U U U U U U U U U U U U U U U U U U U U U U U U U U U U U U U U U U U U U U U U U C C C V V N N * & o * - o     B `.[.t.t.t.y.t.t.q.G F Y r.r.K A S K w.K S 8 # # 7 f e e e q t z z z z z z z x v v x c c c ` ` ` ` ` ` c c x x x x c l k x x c c x x ` ` ` *.*.` ` ` =.` ) ) ` *.c k k h k c ,.<.` j 5 5 5 5 j x j j 6 r ^ ' <.<.=.=.;.;.' ' ' ' ` ) _ _ _ _ _ _ _ _ r t x ) ) ) x x j j j x t t t t D g 7 # 7 S y.].M.[..X{.w.M.<XHX-X+X{.[.q.q.e.G G e.r.e.Y Y Y Y r.N Y * N 0 V V C C C J R U R U U U U U U U U U U U U U U U U U ",
"U U U U U U U U U U U U U U U U U U U U U U U U U U U U U U U U U U U U U U U U U U U U U U U U U U U U U U U U U U U U U U U U U U U U U U U U U U U U U U U U U U U U U U U U U U U U U U U U U U U U U U U U U U U U U U U U U U U U U U U U U U U U U U U U U U U U U U U U U U U U U U U U U U U U U U U U U U U U U U U U U U U U U U U U U U U U U U U U U U U U U U U U U U U U U U U U U U U U U U U U U U U U U U U U U U U U U U U U U U U U U U U U U U U U U U U U U U U U U U U U U U U U U U U U U U U U U U U U U U U U U U C C C V V V N * & o = - X o o B r.e.|.}.].t.{.#X&X#Xe.w.Y Y K F F F r.Y S 8 # # 7 f q e e q t t t t z z z z v D v v x x c c c c c c c c x x x x x x k k k k x c x x c c ` ` ` ` ` ` ` _ ) ) ` ` c k h h h c <.2.<.` h 2 , 5 h x j j ) ` ` ' ' =.<.=.3.;.' ' ' ` _ ) ` ` ` ` _ _ ` ` 5 e e t j j j j x x x x x x x x z q < # 7 S w.[.t.M.#X{.w.m.;X,X&X{.|.+X[.{..X[.G e.t.e.Y Y Y Y r.B T * N N V V C C C J R U R U U U U U U U U U U U U U U U U U ",
"U U U U U U U U U U U U U U U U U U U U U U U U U U U U U U U U U U U U U U U U U U U U U U U U U U U U U U U U U U U U U U U U U U U U U U U U U U U U U U U U U U U U U U U U U U U U U U U U U U U U U U U U U U U U U U U U U U U U U U U U U U U U U U U U U U U U U U U U U U U U U U U U U U U U U U U U U U U U U U U U U U U U U U U U U U U U U U U U U U U U U U U U U U U U U U U U U U U U U U U U U U U U U U U U U U U U U U U U U U U U U U U U U U U U U U U U U U U U U U U U U U U U U U U U U U U U U U U U U U U U U U C C C C V V N * & o & X X X % I }.[.6X2X;X+X&X:X6X6X|.t.G F F G F F r.Y S 7 # # 7 9 q e e e e e e e z z z z v v v v h h k x c c x x k k k k x x x x k h h k x x x x x c ` ` ` ` ` ` _ _ ) ) ` ` x 5 2 3 , k *.0.0.<.c 5 5 h c c j / ` ` ` ` ' =.<.<.;.' ` ` ` ` _ ^ ` ` _ _ _ _ _ ) j x j x x x x x ` ` ` ` ) ` ` c 9 w # # w S y.M.q.m.#X.Xt.[.*X#X#X{.#X;X&X;X-X.Xe.t.`.e.Y Y Y P r.B T 0 V N V V C C C J R U R U U U U U U U U U U U U U U U U U ",
"U U U U U U U U U U U U U U U U U U U U U U U U U U U U U U U U U U U U U U U U U U U U U U U U U U U U U U U U U U U U U U U U U U U U U U U U U U U U U U U U U U U U U U U U U U U U U U U U U U U U U U U U U U U U U U U U U U U U U U U U U U U U U U U U U U U U U U U U U U U U U U U U U U U U U U U U U U U U U U U U U U U U U U U U U U U U U U U U U U U U U U U U U U U U U U U U U U U U U U U U U U U U U U U U U U U U U U U U U U U U U U U U U U U U U U U U U U U U U U U U U U U U U U U U U U U U U U U U U U U U U U C C C C C V N * & X - o o o % T ;X;X-X-X*X&X+X&X&X&X&X`.Y F F F S S m.Y S 7 @ # 7 9 9 e e e e e e e t t t t x x v z e e h h h h h h h h h h h x x x h h h h k k x k x x ` ` ` ` ` ` ) _ _ ` *.*.k 3 h 2 2 h *.<.<.<.c h 5 c ` c j a j j ) ` *.<.<.<.' ' _ _ ` ` _ ^ _ _ ) ) ^ ^ ^ ^ x x j e e h x x j h h e e e h h < # # # 9 D y.].K t..X{.t.[..XM.#X+X=X:X#X|..X[.t.].].e.Y P P F e.B T 0 V N V V C C J J R U R U U U U U U U U U U U U U U U U U ",
"U U U U U U U U U U U U U U U U U U U U U U U U U U U U U U U U U U U U U U U U U U U U U U U U U U U U U U U U U U U U U U U U U U U U U U U U U U U U U U U U U U U U U U U U U U U U U U U U U U U U U U U U U U U U U U U U U U U U U U U U U U U U U U U U U U U U U U U U U U U U U U U U U U U U U U U U U U U U U U U U U U U U U U U U U U U U U U U U U U U U U U U U U U U U U U U U U U U U U U U U U U U U U U U U U U U U U U U U U U U U U U U U U U U U U U U U U U U U U U U U U U U U U U U U U U U U U U U U U U U U U U C C C C C V N * & X & o     X T -X2X&X;X*X&X#X|.{.M.oX].r.Y F S S S m.Y B = O O = 9 9 e 9 9 9 e e e e y y e t z z z 2 5 5 h h h h h 2 5 5 h h x x c h h h h k k k k x x ` ` ` ` ` ` ) _ ` =.*.` h : c k h x *.0.<.,.c 5 5 c  .x , > > 5 j ` <.<.<.*.' _ _ _ _ ` _ ^ _ ) ^ ^ Q r r r 5 3 : ; ; ; > 3 > : : ; ; ; : : + + # # 9 D y.M.K m..X[.y.M.[.q.{.{.=X:X|.{.|.].].}.[.e.P F F F T N T N F V V V C C J J R U R U U U U U U U U U U U U U U U U U "
};
